Assets/Shaders/EldamarStudio/100 Sci-Fi LUTs Pack/LUTs/cube/Abby LUT.cube
DOMAIN_MIN 0 0 0
DOMAIN_MAX 1 1 1
LUT_3D_SIZE 32
0.184313998 0.125489995 0.137254998
0.181277603 0.122454390 0.134218603
0.182542771 0.123719223 0.135483772
0.183048829 0.124225155 0.135989830
0.180771545 0.121948451 0.133712545
0.183807939 0.124984063 0.136748940
0.189374000 0.130549997 0.142315000
0.193801284 0.133332998 0.145098001
0.196837097 0.134092093 0.145857096
0.199873492 0.137128487 0.148893490
0.200000003 0.143074006 0.146110132
0.204048008 0.145098001 0.147122264
0.210119992 0.147375003 0.151297003
0.216445029 0.152941003 0.157115966
0.225553408 0.152941003 0.160151586
0.232257992 0.157747999 0.165591002
0.239848197 0.166856378 0.171663374
0.248956561 0.177103415 0.177735984
0.258064955 0.180139035 0.183807999
0.264389992 0.180391997 0.187096640
0.274257004 0.189879730 0.192029998
0.285389125 0.203036129 0.197090134
0.294876963 0.211891487 0.200379506
0.313093007 0.214927092 0.209487915
0.331308991 0.224794567 0.216318995
0.348133653 0.234155983 0.222390980
0.364832133 0.241239995 0.228969067
0.389120877 0.253383994 0.238077447
0.418722600 0.265527993 0.249841973
0.454396099 0.281214386 0.265527934
0.493864566 0.298545361 0.285515189
0.533333004 0.313724995 0.309803993
0.175205603 0.125489995 0.134218603
0.187349603 0.125489995 0.131182984
0.184313774 0.122454390 0.128146604
0.184313998 0.123719230 0.131941766
0.183807850 0.124984160 0.136748850
0.186843559 0.128020450 0.139784560
0.187349617 0.128526390 0.140290618
0.197343305 0.131941661 0.142061606
0.202150404 0.134092093 0.141302705
0.193801492 0.137128487 0.139785096
0.199747011 0.143074006 0.145730615
0.206072256 0.147122264 0.149145991
0.212017745 0.149272755 0.153194264
0.215939030 0.153194040 0.157115966
0.219481409 0.155977398 0.160151586
0.230992988 0.158380598 0.165591002
0.238329992 0.165338188 0.170145184
0.245920181 0.175332174 0.175332174
0.255028605 0.183175430 0.183807999
0.266919643 0.188994393 0.187096640
0.271600336 0.191397652 0.190132737
0.281341136 0.201011866 0.197090372
0.294750452 0.212017998 0.206198514
0.310056597 0.217963487 0.209487915
0.325995862 0.225553676 0.220872998
0.346236318 0.238330290 0.228462979
0.367362469 0.249841675 0.234534994
0.389120877 0.259455979 0.241113067
0.416065782 0.268943816 0.250221431
0.449588954 0.284250319 0.265527934
0.486907184 0.304237783 0.285515189
0.524225414 0.325869769 0.309803993
0.176849991 0.123339772 0.133332998
0.176090986 0.125489995 0.132447600
0.186084777 0.127640769 0.129411995
0.183048829 0.124604836 0.126375616
0.182922229 0.125110537 0.132700771
0.187729061 0.124604940 0.142820835
0.188235000 0.131562218 0.136875004
0.189879715 0.133206934 0.138519719
0.200758994 0.137001768 0.140543774
0.196963996 0.141429484 0.141682476
0.200126767 0.145224780 0.145224780
0.206198782 0.147248775 0.149272516
0.214042008 0.151297003 0.155218005
0.218089730 0.155344740 0.159013227
0.221125633 0.158380643 0.160151586
0.229221985 0.165717974 0.167741776
0.239848197 0.168753967 0.172295958
0.246552765 0.175964758 0.174699768
0.254142970 0.183554962 0.179253966
0.263883770 0.187729239 0.184946418
0.274130017 0.195698962 0.191777036
0.280708492 0.201264903 0.195319355
0.294623971 0.212270990 0.204047993
0.307779849 0.222390994 0.213156134
0.325110257 0.228589505 0.216572002
0.343073636 0.237697884 0.227324665
0.365591377 0.250853777 0.234661713
0.385199428 0.261606425 0.242377996
0.416065782 0.272865057 0.261859596
0.452245325 0.281973422 0.265654773
0.486780584 0.301707566 0.281593740
0.519418240 0.327261239 0.303352207
0.180391997 0.126628995 0.132068157
0.175585166 0.125869781 0.132068157
0.177735597 0.128905609 0.132447615
0.184313998 0.131941989 0.134471983
0.181277618 0.129664615 0.131056160
0.184693009 0.128399774 0.140037939
0.188235000 0.131688669 0.140037671
0.189879715 0.137507707 0.137507707
0.192915902 0.140544087 0.140544087
0.198481828 0.146110162 0.146110162
0.201644704 0.149272710 0.149272710
0.205440000 0.151549995 0.152308911
0.213789001 0.153826997 0.155344531
0.220113993 0.159898996 0.161290005
0.224161744 0.163946748 0.163314000
0.230739802 0.167994797 0.167994797
0.238583028 0.175332025 0.175332025
0.248956382 0.179633409 0.179633409
0.256926000 0.186338007 0.181531012
0.264516205 0.190891802 0.184566990
0.272359252 0.196457729 0.191271424
0.281467140 0.203542128 0.199367166
0.293485314 0.212270990 0.202782989
0.306768000 0.224415004 0.212650001
0.324731141 0.233270168 0.219228119
0.341808796 0.239468664 0.223782659
0.362049222 0.249082997 0.231372997
0.379506886 0.261226982 0.238203704
0.413535774 0.273370981 0.261859626
0.447185338 0.286274195 0.274509996
0.488804579 0.298924595 0.281593949
0.517647028 0.325489998 0.300568998
0.180391997 0.138393551 0.130550444
0.178115383 0.132700995 0.130550444
0.178621218 0.133080319 0.132321224
0.182036623 0.135736719 0.137887165
0.184693456 0.138393551 0.145098001
0.181657061 0.141429156 0.139026001
0.185831547 0.142314553 0.140543774
0.189879715 0.143579721 0.143200263
0.192915902 0.146616101 0.146236554
0.195951521 0.149652496 0.149272949
0.198987871 0.152688131 0.152308673
0.202783272 0.156103715 0.155344725
0.208475992 0.160278559 0.158760369
0.220113993 0.165591523 0.161543012
0.226185992 0.171283990 0.167361990
0.232637540 0.173687547 0.171789810
0.238329992 0.176343992 0.175205529
0.245540559 0.182669029 0.181530565
0.260720968 0.191777438 0.190638959
0.267931551 0.198482007 0.192536458
0.274003565 0.204553992 0.195572451
0.281467140 0.209614128 0.201644540
0.290701985 0.212903500 0.207590029
0.305629373 0.224794552 0.213409007
0.324604720 0.234661743 0.220239997
0.343453646 0.243137538 0.226691797
0.360531509 0.250221550 0.233270451
0.375711888 0.262365520 0.233270451
0.410626203 0.274130076 0.254902214
0.444781840 0.287665725 0.270588428
0.477798998 0.304617137 0.281593949
0.517267466 0.325869560 0.305882007
0.180391997 0.147501931 0.139658064
0.183428392 0.144465536 0.139658064
0.181151226 0.145224780 0.139658064
0.182921991 0.146995872 0.143959165
0.187729061 0.147501931 0.151170000
0.187729061 0.147501931 0.145098001
0.189753324 0.150537550 0.146616325
0.191650942 0.151422933 0.148007870
0.192915902 0.152688101 0.149272844
0.195951521 0.155724496 0.152308553
0.198987871 0.158760130 0.155344933
0.206072256 0.163819999 0.158380687
0.213029996 0.169386342 0.162555054
0.220113993 0.174699888 0.167614996
0.226185992 0.171663508 0.167614996
0.234661803 0.179759800 0.175837800
0.240227744 0.184313729 0.177862197
0.245034575 0.188487992 0.178241923
0.254648983 0.194813043 0.184566975
0.264263362 0.203921422 0.193674654
0.270967931 0.210625991 0.195572063
0.279063910 0.215686128 0.198608324
0.290701985 0.218975499 0.204554424
0.302846014 0.228083909 0.207590044
0.317773342 0.237697646 0.217962995
0.335357398 0.248197392 0.227703661
0.355091989 0.259329915 0.236812055
0.384819508 0.271473914 0.248450056
0.410625845 0.280961752 0.256419867
0.441745430 0.292346835 0.270335019
0.474762619 0.307653517 0.284123659
0.514231026 0.328905940 0.305882007
0.180391997 0.156609684 0.146236643
0.180898070 0.156103611 0.146236643
0.183934450 0.157368779 0.148386866
0.182922319 0.159140006 0.148766324
0.186084777 0.159519449 0.153320551
0.188235000 0.161669672 0.153700322
0.190765321 0.164199993 0.155218005
0.192157000 0.165591314 0.156609684
0.192915902 0.166350409 0.157368779
0.195951521 0.169386804 0.160404846
0.204047874 0.169892758 0.160910875
0.211132258 0.172928378 0.165970996
0.219101995 0.178494319 0.170651317
0.224921033 0.184313715 0.176470354
0.228716314 0.185831904 0.178747639
0.234788314 0.187602520 0.181150839
0.243769795 0.196457878 0.186970189
0.250094563 0.200885326 0.187223420
0.259202957 0.203162342 0.191397682
0.268311352 0.214547351 0.195192978
0.277419746 0.219860733 0.202403322
0.285136193 0.226312444 0.206704453
0.296014994 0.232511312 0.214168474
0.312966645 0.239215910 0.217204094
0.327387333 0.248324275 0.227071568
0.346742302 0.258823633 0.239215627
0.367742062 0.271474063 0.249462396
0.392030299 0.285642296 0.259582639
0.422264397 0.292599827 0.269069821
0.451359540 0.307020932 0.281720161
0.488804340 0.323339581 0.295508891
0.536495924 0.344592005 0.313472331
0.183680996 0.165717706 0.153953284
0.180391997 0.167362422 0.152309000
0.180898055 0.167868480 0.154459223
0.185199276 0.168374538 0.156230003
0.186337829 0.168374538 0.156609550
0.189373776 0.171410471 0.159645945
0.192409605 0.176091015 0.161037400
0.192157000 0.175837994 0.160784006
0.194434091 0.176597089 0.162302002
0.199240938 0.179633483 0.166223779
0.208095878 0.179759994 0.167995006
0.215559542 0.183428437 0.172042996
0.221252277 0.185325697 0.175837994
0.226818338 0.190638751 0.180645034
0.234029412 0.196458116 0.183681414
0.237824276 0.199493900 0.186717197
0.245414481 0.202529892 0.191270992
0.254522264 0.211385131 0.194433868
0.263630658 0.214421004 0.197469756
0.271094352 0.222264424 0.202150360
0.278558046 0.230360433 0.207084000
0.290702283 0.234408692 0.212144136
0.301960498 0.242884502 0.219987497
0.318659097 0.250474691 0.226059511
0.334598392 0.258823574 0.234281853
0.352561355 0.267931938 0.243643269
0.377103060 0.280329078 0.255281448
0.400632411 0.295509428 0.265528440
0.429854631 0.306008995 0.276280850
0.463504314 0.317520648 0.287286162
0.497406572 0.335736692 0.303352177
0.549019992 0.356229991 0.319291711
0.188994095 0.175585002 0.162302002
0.183680996 0.178621396 0.160025284
0.181909993 0.179506987 0.161290318
0.183681086 0.178241834 0.162302002
0.188614547 0.175964549 0.162681550
0.190891847 0.179000944 0.165717945
0.194686681 0.183807909 0.164706007
0.195192620 0.186464384 0.166097477
0.193674996 0.184946179 0.164579093
0.202783391 0.187982574 0.170651093
0.211132124 0.188109085 0.173813954
0.218215987 0.192157090 0.178874090
0.223528996 0.195952103 0.182669088
0.224035054 0.196458101 0.183175087
0.235167831 0.205060408 0.186717406
0.241619200 0.209361196 0.188994288
0.247691199 0.212397188 0.192789182
0.256799579 0.216698572 0.199493602
0.265907973 0.225806236 0.202782974
0.272991925 0.231372625 0.207084015
0.280582070 0.237444893 0.213915095
0.287666082 0.244275987 0.218216121
0.305755585 0.250348002 0.221378982
0.320935994 0.258823782 0.229854807
0.337634355 0.267931819 0.239721701
0.355597734 0.277798653 0.248197079
0.377356082 0.287413001 0.254775167
0.404427409 0.302340329 0.266666889
0.433649510 0.314104974 0.278052092
0.469070256 0.330297261 0.291714072
0.505756080 0.344845086 0.304870188
0.548260927 0.363061100 0.323087007
0.192030489 0.187729016 0.168374002
0.188994095 0.190765411 0.168374002
0.187981993 0.191651002 0.170398280
0.189247161 0.190385848 0.170904309
0.191650942 0.188108563 0.168753535
0.188614547 0.191144958 0.171789944
0.193421513 0.194180697 0.167236000
0.196078002 0.197343245 0.169639722
0.196710616 0.200126588 0.176723868
0.199746996 0.203162983 0.179759488
0.205945507 0.203289494 0.182922348
0.212143987 0.207337499 0.187982485
0.218216002 0.211132497 0.191777483
0.224035054 0.211638510 0.192283481
0.230107829 0.217710465 0.198355481
0.238836199 0.221505195 0.199494004
0.247691199 0.224541202 0.201138675
0.256799579 0.228842586 0.205566376
0.265907973 0.237950981 0.214673996
0.275015652 0.241492629 0.215179995
0.285894990 0.246552512 0.221125722
0.295762479 0.253636628 0.227071479
0.302719980 0.262491971 0.227450982
0.317900389 0.268564016 0.233522996
0.337634772 0.277039826 0.244275510
0.358634144 0.287539482 0.254901648
0.380392492 0.299556971 0.263883561
0.404680461 0.311701000 0.272991925
0.431751788 0.321315348 0.282226831
0.468057841 0.339405388 0.296774417
0.508538663 0.359772444 0.313852072
0.545224547 0.372169495 0.329159021
0.186338007 0.199873745 0.174446732
0.189120606 0.202909395 0.180265740
0.186084777 0.201644778 0.175964743
0.186590716 0.202150717 0.176723704
0.190385684 0.203162417 0.177735418
0.197469935 0.206198812 0.180771813
0.196963876 0.206704870 0.181277871
0.200632587 0.209361032 0.180898160
0.202656642 0.212397099 0.185958222
0.205692500 0.215433478 0.188994393
0.208728880 0.212650120 0.189120859
0.214800864 0.216698110 0.190133005
0.219734222 0.221631765 0.193295360
0.224035054 0.223656029 0.195319161
0.230107829 0.227071866 0.198734999
0.236179993 0.233143866 0.200000003
0.243263870 0.238203734 0.203035995
0.251612991 0.242631286 0.208096117
0.262998104 0.247185081 0.214927033
0.272106498 0.253510833 0.215685993
0.285009593 0.258570731 0.221378729
0.296141982 0.264642745 0.229474992
0.302593499 0.271726847 0.233649492
0.317773908 0.277798861 0.242504880
0.335230976 0.286148131 0.250854135
0.354459107 0.293864876 0.258191049
0.374699414 0.303478926 0.265781134
0.398987979 0.318026721 0.282100290
0.425932795 0.332826853 0.288551837
0.460341543 0.345983148 0.299177945
0.501707792 0.365085304 0.316002578
0.542188168 0.381277859 0.335231006
0.184313998 0.214041740 0.182542726
0.191397607 0.211005613 0.186590999
0.188108519 0.217836767 0.188108996
0.186337739 0.216065988 0.182036996
0.188994005 0.217583701 0.183175266
0.196457669 0.217330679 0.187855929
0.202024266 0.221885249 0.192409992
0.202024266 0.221885249 0.192409992
0.205440000 0.224541411 0.193548158
0.209740788 0.227577478 0.194054231
0.212776601 0.228842631 0.196204990
0.215812996 0.229854241 0.198229253
0.223023638 0.233649254 0.199367613
0.227830470 0.235800028 0.202403292
0.232131571 0.238836408 0.205439672
0.240227997 0.242251724 0.210120246
0.247818172 0.248324111 0.213156238
0.255028665 0.253131241 0.217330679
0.265781015 0.254775554 0.219227999
0.273118079 0.260594726 0.223782510
0.282226473 0.266667008 0.227577507
0.297153860 0.272738993 0.234535113
0.306514978 0.278937519 0.239594996
0.319797635 0.286907256 0.246805638
0.341303229 0.295256019 0.259962022
0.359519213 0.307147384 0.269070387
0.379759401 0.316635072 0.273877263
0.407084137 0.331815422 0.286021620
0.438077033 0.344971389 0.295635998
0.465401411 0.361922652 0.303478748
0.504743934 0.380012453 0.318026304
0.547248304 0.400505990 0.339278728
0.186590999 0.232637286 0.195066288
0.192283258 0.228842273 0.194687039
0.194054008 0.231246039 0.196711004
0.190512002 0.236559272 0.196457997
0.191271096 0.236559272 0.191144988
0.197343290 0.234281972 0.195699006
0.202277005 0.237697631 0.200632647
0.206199005 0.241619632 0.204553992
0.207717001 0.243137628 0.206071988
0.213788986 0.246552795 0.204174146
0.216951132 0.247311860 0.205818862
0.219987258 0.250348032 0.208855256
0.224161997 0.252245277 0.211891651
0.233270392 0.252498239 0.214927256
0.238077223 0.255534410 0.217963412
0.244781807 0.259709120 0.221125990
0.253890216 0.263124377 0.227197990
0.262998402 0.268564582 0.231372580
0.272106051 0.269070625 0.228336334
0.280708283 0.274636626 0.234788060
0.292093396 0.280708641 0.238583341
0.300189644 0.286780626 0.244655609
0.315243483 0.292979151 0.247944281
0.330423653 0.302087545 0.254016280
0.349399209 0.311195344 0.263503909
0.373181611 0.321947932 0.278178304
0.392915696 0.337128341 0.288298607
0.422643840 0.352308691 0.296267986
0.455661058 0.365970612 0.307273805
0.487792432 0.380518407 0.318659037
0.521315396 0.400506198 0.330423474
0.564326286 0.424794286 0.351422936
0.192662999 0.256673038 0.212523967
0.191651002 0.255914003 0.206705004
0.195066258 0.258317739 0.207590282
0.196078002 0.260595024 0.208855003
0.196331039 0.260595024 0.208855003
0.202403814 0.260595024 0.208855003
0.205945686 0.262618691 0.210626289
0.209740683 0.265654713 0.214421347
0.213283002 0.268691033 0.217710048
0.219354987 0.274763018 0.223782048
0.222517118 0.272612184 0.224288031
0.225553259 0.273624271 0.226312295
0.230233997 0.276028007 0.229095638
0.236053035 0.276281029 0.232131958
0.245161414 0.279316634 0.235167578
0.252119035 0.285009593 0.236053035
0.259203166 0.289310813 0.238583028
0.268311441 0.292852581 0.243769616
0.277419090 0.295888960 0.240734011
0.289563715 0.300949007 0.248070702
0.305249959 0.307021022 0.251739025
0.319924027 0.313345999 0.254016250
0.326501995 0.319418043 0.259962469
0.347627908 0.328399926 0.265907973
0.367109597 0.337760776 0.272232980
0.388108969 0.348513365 0.282479644
0.413409114 0.360911071 0.297406942
0.440733463 0.376091450 0.312586576
0.472612411 0.391271204 0.327513814
0.506515026 0.406957239 0.342188179
0.544592142 0.424288213 0.359519154
0.593168974 0.448577017 0.377735972
0.198734999 0.277925402 0.221631572
0.186590999 0.268817008 0.218595952
0.198482007 0.272358984 0.223529756
0.202150255 0.277798891 0.225047499
0.196078002 0.281847388 0.220998988
0.196331039 0.281847388 0.220998988
0.199873492 0.279317081 0.215938985
0.207842991 0.280835122 0.221631989
0.215812668 0.282353312 0.228842825
0.219354987 0.280835003 0.229854822
0.222517118 0.283997864 0.233016953
0.225553259 0.285768569 0.235420674
0.232005000 0.289942980 0.237318411
0.242125034 0.294496983 0.238203958
0.245161414 0.297533393 0.241239578
0.254269809 0.305376023 0.244275808
0.259709209 0.309297562 0.245161414
0.265275151 0.311827540 0.248323977
0.274383485 0.320176959 0.255914360
0.289057791 0.317647338 0.255661398
0.303605229 0.322201401 0.259456068
0.318405837 0.329285294 0.263883531
0.329538405 0.337633997 0.272106469
0.347754419 0.343706787 0.275142074
0.371157557 0.354965419 0.283364862
0.394180954 0.367868483 0.294623643
0.419987172 0.381910384 0.309297979
0.452878237 0.394307405 0.321694940
0.477545768 0.409487784 0.334218383
0.512586653 0.428209990 0.345224172
0.554332316 0.447311789 0.362681568
0.605312943 0.466792971 0.392915547
0.195193008 0.291966975 0.223528996
0.197469994 0.290069401 0.222896576
0.193927988 0.291713804 0.234914750
0.205566004 0.293990940 0.238456994
0.202529803 0.297027439 0.233523056
0.198481813 0.303099185 0.235546798
0.201012135 0.300569475 0.235293791
0.208981797 0.299177796 0.230866507
0.218089804 0.300695986 0.236179993
0.219481483 0.299304307 0.236179993
0.227324724 0.302087069 0.241492927
0.226312339 0.301075459 0.240480542
0.233143643 0.304490805 0.245034844
0.245540813 0.310309827 0.248323992
0.246426418 0.313346207 0.244908392
0.254269809 0.316381991 0.250347823
0.263377786 0.320935786 0.253384203
0.270082116 0.322833359 0.255534798
0.280961782 0.331941754 0.262871951
0.290828556 0.337128341 0.263630986
0.306008935 0.339784980 0.269323230
0.322200805 0.345856994 0.273371130
0.337254703 0.353573292 0.279822975
0.353193998 0.361922801 0.289689869
0.373687267 0.370272279 0.295002788
0.397849500 0.382289767 0.305376321
0.422137797 0.396458060 0.319038779
0.449841708 0.410499781 0.331182778
0.484882951 0.427703798 0.336115986
0.514484107 0.446426153 0.357115597
0.558886349 0.465907574 0.376217574
0.615053773 0.482605785 0.408095807
0.193674803 0.307147384 0.229601383
0.199747190 0.308665186 0.235673368
0.200000003 0.309930176 0.234914362
0.201265171 0.313472182 0.249335974
0.207463652 0.311448544 0.245667547
0.207083985 0.318279475 0.248703435
0.204048127 0.320303291 0.246172994
0.207463995 0.320430189 0.247564718
0.218848899 0.320430189 0.246047094
0.221125796 0.320430189 0.246806189
0.228336871 0.321821511 0.251106977
0.235420734 0.323845267 0.254143119
0.235799983 0.321947992 0.251106739
0.249082863 0.326754987 0.258191019
0.251613200 0.328526199 0.255914181
0.257305801 0.333080590 0.259456187
0.266413778 0.336116195 0.264010012
0.275521576 0.336748779 0.267046392
0.286780775 0.344086140 0.272232980
0.297659636 0.350411206 0.272738993
0.312080920 0.358001381 0.279949427
0.327261329 0.364073396 0.287033319
0.344971359 0.370145380 0.290069669
0.361543089 0.377862066 0.298038989
0.381277472 0.388488263 0.308665365
0.401138157 0.398987949 0.314737380
0.426185936 0.411132097 0.326628983
0.452498168 0.425300598 0.338772982
0.485894591 0.446173161 0.345983535
0.522074342 0.461606532 0.360151589
0.559898376 0.481973350 0.389247566
0.618089795 0.497786194 0.420240194
0.197343156 0.326628983 0.241745993
0.204048187 0.329032153 0.254522562
0.202403814 0.329917550 0.252877802
0.201897591 0.331815124 0.248197153
0.204554424 0.331815124 0.256926000
0.212903067 0.334598482 0.260215342
0.211890996 0.337001801 0.257558495
0.209487721 0.338772655 0.255154669
0.214674488 0.341682553 0.257558525
0.223782092 0.341682553 0.260594904
0.229981154 0.342314988 0.263630688
0.237444729 0.343706280 0.266666651
0.246046573 0.346236140 0.268058330
0.252118587 0.346742153 0.265781045
0.258191228 0.347501129 0.269196987
0.264263391 0.351043582 0.274003983
0.272485971 0.356230348 0.277925372
0.280961156 0.358633578 0.280961156
0.290069580 0.361669958 0.283997566
0.302592993 0.366856545 0.284250587
0.317267478 0.374193728 0.291207969
0.335104585 0.382289976 0.300316125
0.350537896 0.388488472 0.303605497
0.369259983 0.395066559 0.307653248
0.390385866 0.405060142 0.318152994
0.412144125 0.418469101 0.329411954
0.431372136 0.430613130 0.335990041
0.461479843 0.442757875 0.348007530
0.494496942 0.464263082 0.357495368
0.529031932 0.483364940 0.373687714
0.568374157 0.497280508 0.397217125
0.616950989 0.515496552 0.430613577
0.203415945 0.350917071 0.253890067
0.212523535 0.350917071 0.269070417
0.208475813 0.351170033 0.271094233
0.204933822 0.354965180 0.266286999
0.207590058 0.362176001 0.262998015
0.207590058 0.362176001 0.269070029
0.213409007 0.362429023 0.272359371
0.213535726 0.361037314 0.271347255
0.214801013 0.360025138 0.269576043
0.226818487 0.362935036 0.269702554
0.233016983 0.365844160 0.272738934
0.239089057 0.366603076 0.275774717
0.246552661 0.367994666 0.277672052
0.255155027 0.371031016 0.277925104
0.261227012 0.377103001 0.283997864
0.267299056 0.377861977 0.287413210
0.276407450 0.381404042 0.289184034
0.287033945 0.385958016 0.290069580
0.293105990 0.385958046 0.293105960
0.307779670 0.388994426 0.293358982
0.320809484 0.394181013 0.299051255
0.335484028 0.400506049 0.306388140
0.353573561 0.406704545 0.309677511
0.374825954 0.415812939 0.318785906
0.398102582 0.424668312 0.331941664
0.423529625 0.438203931 0.346868724
0.449588954 0.454901963 0.360278100
0.473876923 0.467045993 0.369386464
0.506641507 0.484503716 0.378747821
0.540038109 0.504997194 0.394940168
0.577229619 0.524605036 0.417963564
0.623023093 0.542821050 0.445794016
0.206704646 0.403035760 0.288298756
0.207463607 0.403035760 0.289563775
0.214420989 0.403035760 0.296141624
0.212270647 0.403035760 0.295635372
0.214168012 0.406071961 0.293358386
0.218975008 0.403668731 0.294623375
0.221505329 0.403668731 0.295635372
0.225680068 0.405313015 0.298418730
0.227957264 0.405312747 0.299177647
0.238077015 0.406324863 0.301201373
0.244402006 0.409361243 0.295761913
0.250474513 0.410373122 0.298798293
0.257685065 0.411511749 0.301834077
0.267046094 0.414042085 0.303731382
0.278178722 0.412523717 0.307273865
0.286653906 0.418595731 0.308539033
0.297659576 0.419354737 0.312713385
0.310436606 0.422896743 0.315243363
0.318659395 0.427197725 0.316128999
0.333080739 0.429981112 0.321947992
0.344465315 0.433016986 0.329538465
0.356736153 0.438203663 0.337507963
0.373307854 0.444402575 0.340796888
0.394560277 0.453510284 0.349905282
0.420366645 0.462618679 0.359013677
0.445161343 0.473118365 0.370398372
0.470588386 0.488045454 0.381277382
0.494876355 0.502466738 0.388108432
0.529790998 0.519923747 0.405186653
0.566856623 0.539911211 0.421758533
0.604933918 0.560278237 0.444781929
0.648577094 0.578494728 0.472106367
0.209740743 0.433016717 0.309551001
0.213535741 0.433016717 0.307653248
0.217836738 0.433016717 0.309803993
0.220113561 0.434281886 0.311574757
0.221378535 0.435673475 0.312713295
0.232004732 0.437191635 0.317267478
0.227957055 0.434787989 0.309677005
0.234282017 0.438077420 0.317899704
0.238583252 0.441366136 0.320430100
0.246552497 0.442504466 0.321188986
0.252751470 0.441619337 0.319291472
0.260720789 0.444528729 0.321189016
0.267931908 0.443390369 0.323086739
0.277292758 0.445414722 0.325363427
0.289437056 0.448956311 0.328399420
0.301075190 0.447438478 0.330929726
0.313219160 0.451992273 0.330929726
0.327134550 0.453004301 0.336242706
0.336242974 0.457811475 0.338772744
0.349019617 0.462998062 0.342441469
0.362302721 0.467931718 0.350410700
0.372422457 0.469955474 0.357495368
0.387096703 0.474256963 0.358886749
0.410119891 0.481593847 0.366223902
0.434029013 0.492599249 0.379127264
