Assets/Shaders/EldamarStudio/100 Sci-Fi LUTs Pack/LUTs/cube/Abby LUT.cube
LUT_3D_SIZE 8
DOMAIN_MIN 0.000000 0.000000 0.000000
DOMAIN_MAX 0.903226 0.903226 0.903226
0.184313998 0.125489995 0.137254998
0.180771545 0.121948451 0.133712545
0.196837097 0.134092093 0.145857096
0.210119992 0.147375003 0.151297003
0.239848197 0.166856378 0.171663374
0.274257004 0.189879730 0.192029998
0.331308991 0.224794567 0.216318995
0.418722600 0.265527993 0.249841973
0.180391997 0.138393551 0.130550444
0.184693456 0.138393551 0.145098001
0.192915902 0.146616101 0.146236554
0.208475992 0.160278559 0.158760369
0.238329992 0.176343992 0.175205529
0.274003565 0.204553992 0.195572451
0.324604720 0.234661743 0.220239997
0.410626203 0.274130076 0.254902214
0.188994095 0.175585002 0.162302002
0.188614547 0.175964549 0.162681550
0.193674996 0.184946179 0.164579093
0.223528996 0.195952103 0.182669088
0.247691199 0.212397188 0.192789182
0.280582070 0.237444893 0.213915095
0.337634355 0.267931819 0.239721701
0.433649510 0.314104974 0.278052092
0.186590999 0.232637286 0.195066288
0.191271096 0.236559272 0.191144988
0.207717001 0.243137628 0.206071988
0.224161997 0.252245277 0.211891651
0.253890216 0.263124377 0.227197990
0.292093396 0.280708641 0.238583341
0.349399209 0.311195344 0.263503909
0.455661058 0.365970612 0.307273805
0.193674803 0.307147384 0.229601383
0.207463652 0.311448544 0.245667547
0.218848899 0.320430189 0.246047094
0.235799983 0.321947992 0.251106739
0.266413778 0.336116195 0.264010012
0.312080920 0.358001381 0.279949427
0.381277472 0.388488263 0.308665365
0.485894591 0.446173161 0.345983535
0.209740743 0.433016717 0.309551001
0.221378535 0.435673475 0.312713295
0.238583252 0.441366136 0.320430100
0.267931908 0.443390369 0.323086739
0.313219160 0.451992273 0.330929726
0.362302721 0.467931718 0.350410700
0.434029013 0.492599249 0.379127264
0.549146056 0.548766434 0.427197635
0.262365282 0.556103528 0.390132993
0.277419508 0.566603303 0.402909517
0.303605199 0.573940575 0.406325281
0.333712906 0.579759896 0.414421201
0.379380167 0.584060609 0.425806552
0.435167730 0.597469807 0.436432719
0.507020533 0.612270594 0.460974276
0.598734915 0.650980353 0.514357984
0.446552396 0.732574403 0.573181450
0.461100578 0.751170218 0.569892585
0.482352674 0.750157714 0.580265343
0.509803593 0.750663936 0.585831702
0.547627807 0.762808383 0.596837223
0.600252569 0.767235696 0.614927292
0.653383553 0.778873801 0.632257879
0.723592401 0.795319438 0.655660510
0.183554992 0.125869542 0.138014004
0.177229986 0.129032448 0.130170986
0.196837097 0.141176000 0.142314553
0.216824636 0.154079646 0.158001363
0.234788448 0.172042832 0.174826190
0.270334989 0.199746996 0.198987991
0.317646831 0.228463024 0.222264245
0.403162628 0.269829422 0.261100829
0.181150988 0.134851098 0.142314538
0.191777453 0.138772994 0.139152557
0.193674996 0.147754550 0.154459000
0.210499540 0.164199546 0.163820088
0.234408990 0.181024998 0.180265993
0.269955546 0.204933539 0.201517999
0.324984252 0.240227550 0.229474992
0.414800614 0.285894990 0.265275449
0.188614547 0.175964549 0.170145094
0.191777453 0.179886445 0.166224003
0.197596103 0.184187099 0.171283633
0.214041889 0.196711004 0.180645451
0.237065360 0.215939552 0.199873179
0.273497880 0.235926792 0.217457533
0.327008039 0.265907645 0.241366088
0.422770619 0.310056746 0.278431535
0.192536458 0.230234176 0.199367538
0.191271096 0.235041082 0.201391280
0.204933554 0.238077179 0.204427287
0.220240280 0.245540634 0.213535637
0.250347763 0.264769286 0.228716075
0.285515517 0.284756422 0.244022638
0.346615911 0.319164932 0.272738993
0.454648614 0.367109120 0.315243632
0.195192903 0.305629194 0.240860537
0.205439806 0.307906389 0.242884085
0.215559900 0.309044838 0.251992553
0.233143538 0.321568519 0.256672829
0.263250977 0.331435978 0.265275419
0.302719712 0.348133743 0.278937191
0.376090914 0.384440482 0.309424371
0.481973618 0.444907993 0.365085006
0.210373253 0.415939480 0.306261986
0.220240086 0.422138155 0.314484566
0.238583535 0.427451074 0.313598722
0.265528083 0.433396727 0.321189106
0.304617375 0.444402218 0.334977746
0.353826642 0.456925809 0.346489757
0.426945031 0.485515296 0.375079185
0.537887454 0.543579757 0.427577347
0.255914271 0.542567611 0.387982100
0.264895827 0.552434862 0.389500111
0.286021709 0.558127642 0.398861736
0.322327584 0.564452827 0.407084167
0.372801900 0.572295666 0.420366555
0.430613458 0.593042254 0.440607280
0.507273972 0.620366991 0.467552125
0.607969642 0.658190787 0.522327662
0.433775961 0.730423868 0.572169065
0.458443880 0.744718313 0.567741990
0.474762589 0.742567718 0.577103019
0.500063121 0.745856822 0.581783473
0.538899362 0.752561331 0.593421936
0.591903746 0.761922657 0.612017632
0.645288050 0.774066985 0.630487204
0.719797552 0.790132582 0.667552412
0.180391997 0.137254998 0.162302002
0.181151092 0.138013899 0.163061097
0.197596192 0.138772994 0.159898996
0.214421451 0.154838547 0.176343992
0.236812189 0.177988797 0.191271186
0.265401661 0.204933643 0.211765006
0.315622985 0.237444803 0.238203898
0.406198502 0.274130076 0.274889171
0.170904085 0.146236554 0.147375092
0.182289541 0.141050085 0.157495096
0.193295449 0.150917456 0.166983008
0.210499555 0.167742014 0.182289541
0.235293999 0.191650540 0.197975740
0.269196510 0.211511791 0.219481185
0.321568727 0.242884189 0.249968186
0.409993380 0.289057374 0.286907285
0.181909993 0.174066991 0.179506987
0.188235104 0.186590999 0.181404546
0.204680905 0.192030102 0.195192993
0.216824636 0.204174638 0.199493736
0.236685902 0.220240176 0.213283002
0.272359252 0.240986824 0.230360463
0.323466182 0.273498088 0.260088384
0.421378762 0.315116942 0.302466810
0.196078002 0.229854628 0.212270990
0.194054455 0.236179739 0.221378729
0.210499644 0.244781643 0.216571629
0.223023638 0.255028635 0.226438999
0.249335915 0.265148759 0.242125288
0.283997744 0.283870846 0.258190840
0.346110195 0.323971927 0.287918925
0.448450595 0.371157348 0.330676973
0.198355094 0.305629194 0.258697093
0.201011851 0.308665395 0.259835660
0.214041904 0.314231277 0.261733085
0.229980722 0.320430189 0.267552435
0.261859804 0.331436068 0.279696375
0.305376291 0.351676196 0.294876665
0.377356052 0.388235271 0.324984372
0.485388935 0.447311878 0.373308152
0.209361002 0.418216377 0.322833478
0.217963085 0.420619965 0.322960168
0.232763991 0.424414992 0.324730724
0.263630658 0.429601640 0.330550194
0.303858370 0.441366106 0.344592094
0.344592005 0.457052618 0.357368916
0.424288362 0.483871102 0.385705113
0.539278805 0.543326676 0.445034742
0.256673068 0.546362579 0.398355365
0.263757288 0.548134267 0.406451464
0.291208178 0.557368517 0.411005378
0.320809573 0.564073205 0.416445255
0.373054922 0.577735603 0.432005256
0.434155554 0.592536569 0.456546307
0.510056674 0.620872617 0.485262364
0.616824865 0.659961939 0.539405346
0.424414575 0.729917586 0.564705789
0.441113114 0.732068479 0.562049270
0.470082581 0.736748576 0.578494608
0.495255888 0.743580043 0.580265284
0.534218669 0.749145806 0.593801379
0.583934307 0.756736338 0.613535643
0.646932125 0.770398557 0.638456881
0.716002584 0.790765464 0.673877358
0.175332353 0.138393357 0.183807641
0.184313998 0.143959358 0.190512002
0.194054455 0.145477548 0.195572644
0.210119992 0.159140006 0.195572644
0.231625631 0.180645347 0.215180352
0.265781105 0.208475903 0.231878370
0.321188986 0.239848003 0.264516354
0.407210648 0.279823005 0.303225756
0.177609354 0.157242462 0.184186995
0.191777453 0.154459000 0.196078002
0.196457639 0.160278559 0.191650644
0.211638093 0.170904189 0.203795090
0.232511356 0.193548292 0.219987452
0.262871623 0.218975440 0.235041082
0.320682913 0.249588624 0.267805099
0.413915306 0.290195912 0.311321706
0.190259457 0.187349990 0.205819458
0.186590895 0.188488543 0.200126544
0.200379550 0.196331546 0.210373536
0.214800894 0.209234998 0.228083178
0.243769884 0.224161997 0.239848092
0.269196659 0.247185335 0.254269749
0.329032272 0.280075729 0.286021352
0.419101775 0.320809633 0.322960109
0.194939643 0.238203987 0.234281987
0.196457550 0.239722088 0.230234191
0.208602101 0.251865745 0.245667547
0.225300640 0.264010280 0.258949637
0.249588639 0.275774986 0.269450068
0.286400735 0.296900988 0.282479644
0.350410908 0.325110555 0.312839627
0.455154985 0.372042984 0.355218023
0.198861361 0.311068982 0.275015980
0.207843095 0.316128850 0.288045555
0.217963085 0.325996101 0.289184093
0.239468634 0.329411834 0.291081518
0.267678618 0.340038180 0.308665276
0.314104974 0.360278368 0.324351370
0.378368109 0.394687206 0.352055758
0.490069240 0.449209154 0.403415799
0.219607994 0.421125740 0.345097989
0.223782539 0.424288630 0.347122192
0.241872355 0.429222077 0.354965210
0.266034335 0.436685711 0.359645873
0.303984880 0.448830158 0.366603374
0.353573620 0.461732894 0.383428097
0.429980993 0.490954965 0.410752803
0.542947471 0.545603752 0.462492436
0.261226922 0.553447247 0.423908919
0.269702643 0.558760107 0.429854453
0.288804442 0.561416805 0.432258278
0.325236917 0.567994893 0.444655269
0.374826163 0.578873992 0.457938164
0.439215809 0.598861396 0.478178561
0.511574805 0.619607866 0.504237890
0.611258745 0.663630903 0.555218160
0.427324235 0.724730730 0.585072935
0.443390310 0.736495912 0.585578680
0.456925720 0.742061794 0.592915952
0.489689797 0.743200362 0.599367261
0.530044198 0.750157773 0.607969701
0.584819436 0.758380771 0.625932634
0.649335682 0.770904243 0.646805942
0.721568704 0.790385962 0.685894907
0.172548994 0.141176000 0.226565376
0.180391997 0.143579811 0.225679994
0.197596192 0.150537997 0.232004985
0.214042008 0.163819999 0.231625631
0.231119186 0.184946179 0.244402364
0.265907526 0.211258546 0.259456187
0.322074264 0.240607098 0.291334450
0.412523627 0.279569983 0.338393182
0.179633200 0.157115549 0.221378744
0.179127350 0.163440734 0.230107650
0.197596192 0.173687547 0.231245995
0.209740549 0.186211362 0.242251784
0.235293999 0.196711183 0.250095010
0.266793430 0.220113993 0.261985928
0.321062565 0.253004581 0.301075250
0.414674312 0.294496983 0.343453377
0.190638810 0.196710989 0.246047080
0.193674907 0.205440000 0.239342541
0.195192993 0.206957802 0.246046886
0.217204094 0.216318995 0.251106828
0.235926792 0.231246084 0.263377964
0.269955665 0.250347733 0.281973392
0.326628268 0.281341076 0.314990371
0.427956790 0.320683002 0.358127832
0.186211348 0.242884189 0.265275329
0.192916006 0.253131092 0.266034514
0.206198901 0.257305533 0.272232711
0.228083283 0.271473825 0.282352746
0.253510654 0.279949635 0.296394646
0.295762450 0.301581383 0.318026274
0.352435082 0.333333522 0.341049820
0.459456116 0.375838161 0.390006155
0.194560200 0.313219368 0.295382977
0.211890996 0.319291532 0.314358175
0.216445088 0.327514112 0.317267269
0.241113454 0.345603973 0.333080173
0.277293175 0.358760178 0.349398971
0.319164932 0.376849979 0.362428904
0.389753282 0.401770890 0.383807749
0.499177784 0.449335635 0.436179370
0.214041799 0.428968728 0.376976281
0.220366910 0.430486917 0.383934170
0.237571001 0.439089030 0.386717439
0.271600455 0.449968517 0.397596538
0.312207431 0.458317459 0.408222258
0.359519273 0.474256933 0.416318744
0.439215750 0.500442743 0.447185159
0.548260152 0.551170230 0.494750261
0.258317381 0.555091798 0.454143167
0.268184721 0.561163902 0.462491900
0.289057583 0.568627417 0.469323069
0.323213160 0.574319959 0.471726924
0.377103448 0.590385616 0.489436954
0.439595252 0.601264775 0.505249858
0.518658817 0.623908639 0.535230696
0.620114088 0.668184996 0.581783354
0.414547592 0.728399396 0.603162408
0.427703768 0.736116529 0.599241018
0.452751487 0.739531815 0.608981431
0.485641778 0.745350957 0.618089736
0.529158711 0.749904752 0.625932932
0.586843789 0.761543214 0.646679223
0.651359856 0.774699271 0.665907800
0.723466158 0.793168604 0.696394742
0.168626994 0.147122264 0.276407242
0.175332263 0.149779007 0.277039766
0.194939643 0.163440645 0.284756631
0.209993988 0.176723734 0.281846970
0.234281987 0.197090641 0.287792742
0.272359252 0.215433002 0.301580995
0.319291532 0.243642986 0.326249033
0.414800614 0.287033707 0.384313643
0.179253444 0.170145094 0.278304994
0.181278005 0.171663284 0.279190719
0.192536443 0.179886356 0.276534200
0.211258635 0.192030191 0.284756720
0.238583431 0.207210541 0.293738067
0.272359252 0.226439178 0.308285743
0.323339552 0.255408198 0.340164632
0.426185757 0.298418909 0.393421799
0.184440002 0.207969636 0.285515726
0.190259457 0.205186278 0.285895169
0.195192993 0.219481096 0.291334480
0.215180352 0.222896725 0.297659785
0.242124990 0.239342451 0.307400554
0.274130464 0.255787730 0.319544375
0.330929726 0.284756750 0.350917161
0.430866748 0.327387452 0.407463729
0.185452357 0.258444071 0.312080741
0.190512002 0.263630718 0.309297860
0.205692545 0.266287386 0.314357907
0.225047380 0.280455381 0.328273296
0.250727296 0.291461170 0.338899523
0.293358624 0.307526618 0.353320479
0.358001113 0.337128520 0.382668912
0.471726894 0.380265594 0.440986544
0.191397995 0.325236946 0.347248554
0.199114293 0.326881737 0.345983386
0.213662356 0.332827300 0.359139830
0.238709733 0.344338715 0.366603374
0.274636626 0.362682194 0.383807659
0.318405747 0.379506707 0.399241209
0.397217005 0.409614474 0.431752145
0.505629122 0.455661178 0.476913184
0.203922004 0.424920708 0.403541982
0.210879192 0.422896951 0.409614265
0.236811996 0.436559230 0.419861078
0.262112647 0.450347960 0.436306357
0.314105183 0.465148449 0.450221479
0.369892687 0.487412721 0.469829470
0.453130543 0.512081146 0.496141732
0.557621658 0.553194165 0.534724474
0.249209523 0.560657561 0.493358254
0.263757199 0.558507085 0.497153580
0.285262644 0.564452708 0.504490733
0.323592633 0.578873932 0.516634941
0.381910264 0.597469747 0.534977734
0.447944313 0.615433574 0.553320706
0.528652787 0.638077259 0.580392003
0.637065232 0.681720436 0.624794543
0.409108311 0.725110471 0.621252477
0.426438928 0.731815338 0.630740106
0.440733641 0.734471679 0.634408414
0.475015819 0.741555750 0.640354335
0.514104843 0.748892784 0.648576736
0.579886258 0.763061345 0.668058276
0.653763115 0.780518711 0.692852259
0.726881623 0.802150369 0.720556438
0.156230003 0.171537280 0.365591258
0.166476712 0.171283826 0.359772116
0.186716989 0.180265695 0.364832550
0.212396994 0.193927646 0.365591258
0.246046901 0.213915184 0.373434275
0.298039436 0.231878564 0.386338025
0.339784980 0.258444309 0.399873555
0.420619786 0.290069520 0.437444627
0.161922738 0.186843544 0.360784560
0.172675520 0.193295553 0.364326119
0.187855750 0.199873388 0.367868453
0.212903365 0.210373357 0.373687625
0.251865834 0.224541441 0.382036358
0.296774149 0.246426344 0.396078467
0.351043820 0.272991538 0.414421290
0.437191606 0.305882394 0.455534071
0.168753907 0.228083193 0.375964582
0.177356198 0.227324098 0.369513094
0.193168908 0.234914467 0.374826133
0.219101638 0.244781822 0.381277651
0.253131002 0.256293267 0.391397566
0.300569266 0.274130195 0.405059904
0.357621521 0.299051195 0.428083479
0.443643421 0.329664469 0.462871701
0.170778066 0.281973302 0.392030567
0.179759994 0.280834615 0.393168926
0.195698753 0.283997536 0.395319283
0.219607994 0.294750273 0.401391625
0.260214925 0.309930444 0.415812761
0.313093156 0.326122642 0.435547203
0.380771607 0.353194296 0.454775572
0.476407260 0.390006274 0.496774018
0.164073005 0.356230259 0.425047457
0.174572930 0.355597675 0.431752026
0.198482007 0.356989354 0.436053395
0.227703735 0.361796379 0.440354109
0.275648445 0.377609104 0.452371716
0.337001920 0.399367183 0.473118186
0.416318417 0.421252400 0.496268213
0.517646730 0.463124633 0.536242545
0.190639004 0.453636706 0.482353270
0.198102459 0.454901993 0.483997554
0.223023549 0.457684815 0.490448892
0.251865923 0.461859524 0.489437014
0.310436428 0.481087983 0.508032560
0.381910175 0.495382726 0.534724534
0.468817443 0.523845732 0.556989253
0.575205564 0.567109108 0.600000024
0.245667562 0.578241527 0.559266090
0.258444011 0.575078845 0.551549792
0.283238441 0.581657469 0.558001518
0.328146905 0.591018260 0.575331867
0.385578454 0.607590437 0.587096870
0.469070017 0.633017302 0.617710233
0.563187540 0.667805552 0.650474250
0.657811344 0.694117725 0.678178072
0.415812552 0.732700586 0.672359526
0.428083748 0.731689036 0.671347141
0.434534878 0.734724820 0.671220779
0.472106040 0.740670323 0.680202305
0.525110304 0.755218148 0.694497228
0.588614643 0.774193466 0.714231253
0.660214841 0.790386021 0.731688797
0.747122169 0.812017798 0.757368445
0.117394038 0.193547994 0.516887784
0.126755029 0.194307089 0.516381621
0.164199919 0.203415737 0.523718953
0.217457637 0.213155985 0.520809352
0.276786804 0.232005194 0.529032230
0.348892957 0.256166965 0.545477509
0.427324057 0.283111840 0.563440442
0.509297729 0.324477792 0.579886377
0.111827731 0.213029698 0.520809293
0.132194743 0.211764529 0.514863968
0.160151720 0.219860822 0.523718953
0.214800805 0.233775914 0.532574356
0.277166367 0.252118886 0.541049838
0.348513424 0.274762869 0.553700149
0.431878567 0.304111242 0.568753719
0.521441936 0.337381333 0.591650426
0.104617298 0.251486182 0.532953739
0.123086758 0.249841794 0.524984419
0.161796108 0.256925970 0.530297577
0.217457637 0.269070446 0.532953739
0.277166367 0.284629822 0.544085801
0.352055550 0.309424102 0.558760405
0.430107415 0.333965927 0.576217294
0.525363564 0.366729796 0.598102391
0.082732588 0.307906270 0.540796936
0.113219485 0.311068892 0.545730472
0.153067410 0.313598722 0.545477092
0.214800820 0.328526109 0.555091619
0.285135895 0.342061937 0.563187838
0.360278398 0.360910565 0.574699461
0.452498376 0.390638649 0.598229051
0.545856595 0.423402816 0.619228244
0.072232768 0.391524196 0.572422206
0.100190058 0.394560188 0.572169244
0.141682565 0.390132815 0.572043061
0.204806820 0.396078438 0.578241706
0.287792355 0.409740776 0.584439993
0.373940229 0.433523059 0.605313182
0.470082313 0.460215151 0.622517467
0.572802186 0.493738145 0.643263578
0.135736927 0.501581430 0.614547372
0.156230375 0.503225684 0.612903118
0.188614905 0.506008744 0.622011364
0.244275808 0.503225744 0.622517407
0.307653397 0.507147551 0.629095733
0.401897430 0.524984241 0.642631531
0.506388307 0.554079711 0.661353767
0.610879064 0.583301544 0.678557813
0.283744365 0.637444317 0.677545786
0.298545271 0.632131815 0.673371136
0.312966436 0.637318254 0.672105849
0.355471194 0.641872525 0.680961430
0.415053517 0.647691309 0.692219913
0.489310682 0.660721123 0.706008613
0.572169244 0.678051770 0.718912244
0.679190218 0.710183263 0.746236384
0.434914529 0.753573418 0.733839571
0.446173370 0.752181947 0.735736847
0.462618381 0.755597711 0.735863507
0.489184022 0.760151565 0.742947340
0.537760794 0.770651400 0.756609380
0.606325328 0.782922208 0.767994583
0.683617532 0.806071997 0.790765643
0.773434460 0.834661543 0.829601586
