Assets/Shaders/EldamarStudio/100 Sci-Fi LUTs Pack/LUTs/cube/Abby LUT.cube
LUT_3D_SIZE 5
DOMAIN_MIN 0.000000 0.000000 0.000000
DOMAIN_MAX 0.903226 0.903226 0.903226
0.184313998 0.125489995 0.137254998
0.193801284 0.133332998 0.145098001
0.225553408 0.152941003 0.160151586
0.285389125 0.203036129 0.197090134
0.418722600 0.265527993 0.249841973
0.183680996 0.165717706 0.153953284
0.192157000 0.175837994 0.160784006
0.234029412 0.196458116 0.183681414
0.290702283 0.234408692 0.212144136
0.429854631 0.306008995 0.276280850
0.198734999 0.277925402 0.221631572
0.207842991 0.280835122 0.221631989
0.245161414 0.297533393 0.241239578
0.318405837 0.329285294 0.263883531
0.477545768 0.409487784 0.334218383
0.214800864 0.453257233 0.323718995
0.239342406 0.464389443 0.324983835
0.299556971 0.478810817 0.346615821
0.388615012 0.500316262 0.376723260
0.565844595 0.574573100 0.449715257
0.446552396 0.732574403 0.573181450
0.477292418 0.753446937 0.580012321
0.528779447 0.757368743 0.593422055
0.611131966 0.770524621 0.619987428
0.723592401 0.795319438 0.655660510
0.180391997 0.134977713 0.153953284
0.193801284 0.134977713 0.154585719
0.222263992 0.163441002 0.175205827
0.275269002 0.213789001 0.217077568
0.411511600 0.274636149 0.271094263
0.182669282 0.165717706 0.167362422
0.197090700 0.176849693 0.178494409
0.226818398 0.201391399 0.197090715
0.282479256 0.239974573 0.232131585
0.421378762 0.307020843 0.293611646
0.201012120 0.268058419 0.227450997
0.208475590 0.277546108 0.237317994
0.244528994 0.295888692 0.253004402
0.313219428 0.326628715 0.279823005
0.467805207 0.403921515 0.345730662
0.220999002 0.448324114 0.330170572
0.240101397 0.456546664 0.340417117
0.297912687 0.468944013 0.358127683
0.377482235 0.491208255 0.379380256
0.554206014 0.570398331 0.459203243
0.427197844 0.730423689 0.563693702
0.461227268 0.744338632 0.580265760
0.517393827 0.747881055 0.589120924
0.602656662 0.762302518 0.620619714
0.716508567 0.790765464 0.667805314
0.172548994 0.137887418 0.202024415
0.190512300 0.146742716 0.208222717
0.222263992 0.167994574 0.217077985
0.275901407 0.213789001 0.254395992
0.405692756 0.275900990 0.316634804
0.183301717 0.181404278 0.215433285
0.192156583 0.188614696 0.219354689
0.226185992 0.209867001 0.236685410
0.281467736 0.243896246 0.269070297
0.419354767 0.311954558 0.332826972
0.195445582 0.271347404 0.264136821
0.205566302 0.284756660 0.277545691
0.249082565 0.309297532 0.304743797
0.316255122 0.335104287 0.324984401
0.470462024 0.404933363 0.390512228
0.212776721 0.447691530 0.363314122
0.234028995 0.460088551 0.380265713
0.294623673 0.470588118 0.396331221
0.384693235 0.497153789 0.421884835
0.559772372 0.575964928 0.492979348
0.418975413 0.724730968 0.588867605
0.445667565 0.739152551 0.594939947
0.505882204 0.744338751 0.605060160
0.596837401 0.763061404 0.637571335
0.726375341 0.794180751 0.690954506
0.168626994 0.149145991 0.287539124
0.187602997 0.163440585 0.300190002
0.227198124 0.186337993 0.307400405
0.283491135 0.226565123 0.320809126
0.411005765 0.286780685 0.395192802
0.179127410 0.200379699 0.301454574
0.194433719 0.209867418 0.307021141
0.231119692 0.227197856 0.316255540
0.291334867 0.256293416 0.335230708
0.427324176 0.318532556 0.410499781
0.187223136 0.292599708 0.342694402
0.201897576 0.304743558 0.349525273
0.246805698 0.318406403 0.368500680
0.319164813 0.348260701 0.390512407
0.476027906 0.410499543 0.460847527
0.205945998 0.455281228 0.428842396
0.231752127 0.467932135 0.444402128
0.295003384 0.486274093 0.466666698
0.409361392 0.528905392 0.509298086
0.581657052 0.583554626 0.564579070
0.413915396 0.724098742 0.633396447
0.439974576 0.735483885 0.646299601
0.494496852 0.747628033 0.657178879
0.600126624 0.766350269 0.683997452
0.729917526 0.802909493 0.728905559
0.117394038 0.193547994 0.516887784
0.152814761 0.198861659 0.520682871
0.241998821 0.224288404 0.525616825
0.365591079 0.261985958 0.546489596
0.509297729 0.324477792 0.579886377
0.111448199 0.239341974 0.526881397
0.153700069 0.243010670 0.522707105
0.243263572 0.267172515 0.538266897
0.365211785 0.301834285 0.556988955
0.520050287 0.356862515 0.593548417
0.067805022 0.348007619 0.546995580
0.131941676 0.344718635 0.547754586
0.246552557 0.364326209 0.567994595
0.389373630 0.398102492 0.596837401
0.554332733 0.452119201 0.630866587
0.167868420 0.536495924 0.631751895
0.205060139 0.537634194 0.631625772
0.297786236 0.538772762 0.642251730
0.441113055 0.558380902 0.658570766
0.626059711 0.613662064 0.692726016
0.434914529 0.753573418 0.733839571
0.456799090 0.752308547 0.734851301
0.509297550 0.767362177 0.751043558
0.622770548 0.788235605 0.774825871
0.773434460 0.834661543 0.829601586
