Assets/Shaders/EldamarStudio/100 Sci-Fi LUTs Pack/LUTs/cube/Agamemnon LUT.cube
DOMAIN_MIN 0 0 0
DOMAIN_MAX 1 1 1
LUT_3D_SIZE 32
0.000000000 0.000000000 0.000000000
0.003036387 0.003036387 0.003036387
0.046932548 0.001771226 0.003922000
0.105123319 0.001265161 0.002656839
0.157874644 0.003922000 0.000000000
0.197343796 0.003922000 0.000000000
0.244402647 0.001391678 0.000000000
0.284756690 0.001644708 0.001644708
0.318153083 0.003162904 0.003162904
0.351549506 0.000126516 0.000126516
0.393674731 0.000000000 0.000000000
0.428083509 0.000000000 0.000000000
0.460721284 0.000000000 0.003415642
0.496901035 0.000000000 0.012776999
0.530297399 0.000000000 0.024920985
0.561290562 0.000000000 0.029854804
0.596205175 0.004554189 0.040480994
0.635041118 0.013662409 0.058696974
0.671473920 0.022770047 0.076913007
0.688425362 0.034661718 0.078431003
0.718785703 0.050600987 0.087918736
0.750158131 0.064769000 0.101075128
0.765971005 0.071347006 0.110436492
0.796331823 0.089563809 0.125616908
0.819861233 0.103225991 0.136242703
0.841113627 0.115369976 0.145350665
0.862872005 0.128526121 0.155471072
0.887160003 0.146742880 0.170651436
0.911448598 0.159645975 0.180518821
0.933966160 0.171789959 0.189626753
0.955218613 0.182162985 0.199620217
0.976471007 0.188235000 0.211765006
0.000000000 0.018215999 0.000000000
0.024288775 0.015180387 0.000000000
0.059582934 0.026818773 0.000885613
0.105376542 0.031625610 0.000885613
0.148007646 0.033902548 0.000000000
0.203415796 0.031246386 0.000000000
0.235293984 0.033776060 0.000000000
0.275901347 0.038330089 0.000000000
0.314358205 0.041113291 0.000885614
0.354585886 0.033522904 0.000126520
0.390892118 0.045035124 0.008728869
0.433143884 0.045541160 0.009108387
0.468691021 0.044402517 0.009108387
0.503226042 0.043010771 0.013030032
0.539405763 0.048576772 0.027957374
0.570398331 0.050980575 0.040101375
0.600758970 0.053130966 0.046552997
0.633143544 0.059202954 0.058064561
0.662365556 0.068311200 0.073877402
0.696015000 0.071853518 0.086527392
0.720303357 0.079443768 0.097027123
0.750157833 0.091081768 0.110183507
0.771410525 0.101454757 0.119165376
0.787223458 0.113851808 0.125616908
0.817584157 0.127513990 0.143073991
0.841113627 0.136875346 0.155850366
0.862872005 0.145730764 0.167109132
0.887160003 0.158886880 0.179759830
0.911448598 0.166476980 0.186970383
0.930423737 0.181403935 0.195699200
0.952687979 0.195192590 0.203921765
0.982542992 0.203415394 0.211765006
0.017204547 0.053636547 0.021505548
0.037191771 0.052751161 0.021505548
0.072232775 0.051865771 0.008601999
0.114484705 0.063251324 0.003542000
0.147881314 0.069070317 0.000000000
0.191398010 0.078431472 0.000000000
0.243516758 0.076154217 0.004300999
0.275521487 0.080834538 0.001012003
0.315496534 0.087159768 0.001517999
0.359393001 0.082226068 0.004301003
0.396078736 0.084882736 0.008728870
0.430487245 0.090955250 0.015812997
0.470335513 0.089943126 0.019481642
0.504997075 0.087159768 0.023529774
0.541429818 0.089436769 0.036812402
0.575205743 0.095256343 0.047438767
0.602529764 0.096774548 0.058064576
0.633522928 0.098545320 0.066034146
0.666919827 0.103099518 0.079696752
0.693358421 0.108792126 0.089943014
0.721062481 0.113725767 0.102086991
0.746109903 0.120809898 0.116002478
0.769259989 0.131436020 0.126375988
0.790512145 0.137507766 0.136496007
0.812776744 0.149651751 0.149525762
0.840354502 0.159013107 0.162175760
0.863378048 0.165591702 0.173307836
0.889310777 0.176090986 0.187096879
0.909297824 0.187223539 0.193927988
0.942441285 0.195066288 0.201771200
0.959771991 0.208601758 0.210879371
0.984314024 0.216444999 0.218216226
0.047818162 0.092346482 0.051865999
0.062239319 0.091081321 0.049335998
0.087919094 0.092346482 0.045287933
0.123592325 0.096141323 0.020746322
0.157368928 0.101454996 0.008602225
0.191650942 0.114357993 0.005059999
0.236432791 0.123719156 0.008855159
0.280834705 0.126881316 0.010879163
0.315749288 0.133712411 0.006325161
0.360278487 0.135230482 0.011385163
0.398355573 0.132700473 0.017078031
0.436559260 0.132194415 0.023402994
0.469955653 0.135230795 0.029474996
0.506261945 0.132447451 0.038456872
0.542694688 0.131435320 0.049588986
0.576723576 0.133712605 0.060594637
0.608096123 0.136748999 0.067172959
0.632384300 0.138014153 0.076913148
0.668690979 0.139279321 0.089057781
0.698039174 0.143580168 0.097153656
0.721062481 0.147122145 0.109424151
0.745350957 0.153194144 0.121568158
0.766982853 0.161922991 0.133965835
0.791271210 0.166097254 0.148387164
0.815559745 0.172169313 0.157748118
0.838583291 0.184060335 0.170018986
0.863884032 0.189627051 0.176597059
0.891967237 0.197216853 0.190259427
0.910056949 0.208981648 0.199999988
0.936875224 0.216825068 0.206578046
0.971916080 0.225932688 0.219228432
0.985578835 0.232384160 0.229854152
0.086527549 0.126882091 0.081087545
0.096394934 0.124225251 0.077672094
0.113346316 0.124731317 0.076913320
0.136116549 0.130297482 0.068564385
0.166476652 0.138266638 0.033650000
0.202909425 0.138266638 0.021505224
0.242251948 0.151170194 0.022011416
0.280076087 0.164452836 0.022264546
0.316508293 0.174699172 0.022264548
0.355977476 0.183807567 0.022264551
0.395445853 0.179506555 0.031372868
0.435420483 0.175837830 0.039721832
0.474509656 0.175078735 0.047691092
0.508412123 0.177356094 0.054016128
0.544971406 0.174193218 0.063124500
0.578620791 0.173940092 0.073877089
0.610878944 0.174319640 0.082226187
0.640733600 0.174446136 0.086780541
0.665022433 0.180518925 0.098924562
0.696900845 0.183807731 0.106641099
0.723845720 0.184566543 0.117646828
0.746110082 0.186211079 0.131435543
0.770145118 0.192409590 0.143579558
0.793927848 0.198734641 0.161290362
0.818216562 0.202529833 0.168500811
0.841493070 0.208981514 0.175078750
0.863504589 0.219987139 0.184187070
0.893864512 0.223023534 0.193295449
0.912080824 0.233270064 0.203541964
0.935357332 0.240860209 0.212143987
0.964326501 0.244908467 0.221505120
0.988614559 0.254016072 0.242757544
0.119923927 0.169386864 0.102339931
0.135104328 0.169386864 0.117520317
0.149272710 0.166730016 0.114104867
0.164199933 0.169766083 0.110815771
0.181657016 0.177735806 0.097406387
0.212017789 0.177735806 0.051865995
0.253510565 0.177735806 0.052372187
0.292220414 0.185705215 0.048830159
0.327893972 0.197090119 0.043516934
0.362049490 0.214168340 0.043516941
0.401517868 0.217456982 0.055154927
0.434914500 0.216950923 0.060721248
0.468437642 0.217583507 0.065907866
0.502340138 0.219860867 0.072232902
0.541809261 0.213788867 0.081341274
0.573560894 0.215433002 0.088045858
0.605945528 0.217963055 0.096647672
0.638203859 0.219228223 0.104743570
0.668058097 0.216950923 0.114104956
0.695129454 0.220240355 0.129032299
0.725363493 0.219481125 0.138899595
0.752182245 0.218975067 0.149019748
0.776217878 0.222770363 0.158759952
0.794433892 0.231878772 0.170904741
0.818216562 0.235926509 0.179506928
0.842504919 0.240353912 0.189247519
0.866287172 0.247438058 0.202403814
0.890828907 0.253384322 0.211511433
0.915875912 0.259076864 0.212649986
0.938646376 0.267931610 0.218215972
0.964832544 0.274256587 0.226059213
0.991650939 0.278304875 0.239721939
0.145730644 0.211891636 0.138772964
0.160911024 0.204301313 0.141303033
0.178241640 0.206451535 0.156483412
0.192536324 0.207969636 0.154332787
0.205818862 0.215054095 0.149019420
0.229727864 0.217204317 0.120683022
0.257558316 0.209613994 0.090322629
0.296774089 0.204680711 0.078557909
0.331688881 0.209993735 0.068817183
0.363314509 0.226439297 0.072359636
0.394940168 0.240227431 0.076407313
0.428336293 0.251359582 0.082479574
0.462112606 0.253889650 0.084377319
0.498292327 0.255028367 0.087666318
0.533206940 0.251233637 0.094497412
0.575079262 0.252371848 0.103605188
0.605945706 0.253889650 0.111321867
0.635800540 0.254648894 0.121062301
0.660468400 0.251612991 0.132067978
0.690575361 0.254142672 0.139152691
0.714104712 0.257179052 0.154332563
0.742567956 0.257431805 0.165717930
0.769513249 0.260214835 0.175838128
0.785326004 0.259709239 0.175964490
0.812649965 0.264263034 0.188108668
0.838836372 0.270081997 0.198861331
0.862745225 0.276786715 0.211511672
0.880961239 0.280835211 0.214547530
0.905249953 0.281847298 0.223276317
0.934851110 0.286148071 0.226818293
0.959645867 0.294623286 0.232004926
0.982037008 0.302592993 0.239216000
0.184819683 0.257685393 0.178241700
0.193422079 0.248576999 0.181530684
0.207463697 0.251360029 0.188994467
0.225680023 0.248070493 0.200379685
0.238203555 0.252245545 0.196963847
0.254395634 0.257811457 0.178241462
0.275774717 0.258949757 0.151929066
0.303099126 0.248197109 0.124604695
0.337254822 0.237571299 0.101075016
0.366729975 0.243896484 0.099177957
0.397090763 0.257431835 0.105629534
0.425806671 0.272611946 0.103731953
0.456166953 0.286653697 0.107906692
0.493612021 0.289436728 0.109677657
0.527008414 0.291967124 0.117140979
0.562681854 0.290449321 0.123972304
0.603668511 0.290448934 0.134598121
0.633143723 0.290955007 0.142567828
0.655408323 0.289943367 0.151675716
0.686654031 0.289184064 0.159898698
0.711321712 0.290575445 0.163440943
0.734598100 0.292599708 0.176596820
0.764073312 0.294876397 0.187729478
0.783807874 0.293358624 0.187729090
0.807083964 0.294876814 0.194433689
0.833269656 0.297912419 0.205186367
0.859076679 0.306514770 0.219354704
0.876533568 0.311828136 0.223908693
0.898038864 0.310562968 0.226944819
0.927640855 0.312334150 0.235926673
0.956609726 0.314484388 0.241998687
0.974826276 0.323592395 0.245793998
0.232637197 0.303985089 0.219228297
0.238709584 0.297912896 0.223782286
0.245920286 0.298671871 0.231245950
0.259835333 0.301960945 0.241366267
0.276154578 0.291334271 0.245540738
0.284503281 0.299304128 0.231119350
0.299683630 0.305123270 0.206577867
0.322833717 0.305882275 0.180012584
0.347881198 0.291461229 0.154965103
0.375205606 0.276280820 0.133712709
0.404680729 0.280455202 0.133965865
0.434535265 0.292346358 0.132195100
0.462998271 0.306388080 0.131435990
0.493106008 0.319038153 0.137001991
0.525490403 0.329664588 0.144591674
0.557368755 0.332953900 0.151296705
0.590765178 0.329158992 0.157369092
0.627703547 0.328020185 0.169513077
0.652118921 0.331183076 0.172928244
0.684756517 0.330170929 0.180771455
0.712080836 0.327514112 0.185705096
0.733839214 0.327514112 0.187982127
0.761037052 0.327387631 0.196711004
0.785325766 0.326755196 0.199114189
0.810373008 0.328273386 0.206704378
0.834028780 0.332068503 0.215812773
0.854775131 0.335610181 0.224921033
0.875774443 0.344465524 0.236811981
0.899303854 0.341429263 0.240607083
0.925363600 0.343453288 0.245920286
0.954333007 0.347122103 0.251865983
0.972549021 0.347122103 0.257937998
0.269069999 0.343453497 0.264769495
0.284250379 0.346489906 0.264769495
0.290322751 0.344718695 0.269323498
0.298798323 0.343453497 0.279317141
0.312586576 0.342947483 0.291081935
0.315622956 0.342947483 0.281973541
0.326501966 0.345857322 0.259961843
0.347121716 0.350664467 0.235547006
0.372169226 0.349146366 0.212650299
0.390385985 0.327894032 0.194433510
0.417710364 0.312713623 0.173181117
0.449209243 0.312840015 0.161290288
0.481214285 0.321568489 0.159139872
0.511322021 0.334218532 0.167362005
0.538646400 0.352435291 0.167362005
0.566223800 0.365464956 0.172549099
0.593801141 0.367868483 0.175585493
0.621631563 0.364452988 0.178621471
0.648956060 0.370525002 0.190765515
0.681720674 0.373687863 0.196963981
0.711322248 0.370778024 0.203162491
0.736369610 0.366982520 0.208981499
0.758001447 0.366856039 0.214927003
0.782289505 0.363820434 0.214927003
0.808854818 0.363187999 0.221884787
0.834661305 0.366097510 0.230993167
0.857811511 0.372042984 0.240101427
0.876027465 0.378114969 0.249209017
0.904996634 0.371030688 0.258443803
0.931435883 0.372801721 0.267172694
0.954333007 0.380771458 0.272738874
0.972549021 0.386590481 0.270081997
0.302592874 0.385831743 0.298671871
0.317773253 0.388868123 0.304490864
0.324351639 0.389753729 0.310942650
0.334978044 0.387476444 0.313978583
0.352688164 0.385831743 0.319291532
0.360784531 0.385831743 0.330423802
0.366350591 0.388362050 0.311195433
0.377735615 0.393042743 0.295508921
0.396457762 0.396078736 0.278304636
0.414673954 0.385579109 0.257937610
0.429980874 0.370145738 0.222264603
0.459329516 0.350917339 0.201012224
0.488424838 0.347881109 0.190639108
0.514737189 0.354711920 0.192409739
0.539405406 0.367615700 0.197722733
0.564326584 0.381024837 0.200126544
0.594181061 0.394687057 0.204174668
0.623023391 0.400885731 0.206830978
0.645793915 0.406957716 0.214421004
0.673118234 0.410246372 0.218216360
0.704364598 0.411385000 0.222264603
0.731688976 0.406324863 0.226312608
0.754838645 0.400759101 0.230613366
0.776344001 0.403288782 0.238962740
0.802909255 0.400253147 0.241239443
0.830233634 0.399620742 0.249082655
0.855534196 0.402150661 0.257179081
0.876154006 0.405818880 0.261480272
0.907653451 0.409234703 0.273244739
0.932954013 0.406451613 0.282606065
0.953447402 0.408602118 0.289943248
0.969639122 0.408601880 0.290954858
0.348133743 0.430360764 0.336116225
0.355218142 0.429348618 0.338140249
0.353700012 0.432258487 0.344338775
0.364326417 0.432258487 0.352182329
0.385578811 0.429601669 0.353700221
0.401265174 0.426312238 0.368880153
0.407843232 0.432890564 0.369892418
0.412270933 0.432637960 0.348640025
0.422517389 0.436812431 0.334218562
0.436938256 0.434535235 0.311701000
0.456293106 0.429854631 0.286021203
0.475521505 0.412650466 0.251612991
0.500189662 0.389121085 0.226945236
0.521821320 0.383048743 0.216445461
0.546110094 0.388109058 0.220746249
0.578494847 0.396205246 0.226438791
0.601265430 0.408349246 0.227956980
0.629475236 0.423023582 0.229854241
0.649335980 0.433270276 0.233143255
0.672106385 0.440607399 0.238456339
0.697533011 0.439848006 0.239594981
0.724604607 0.438709378 0.243516982
0.748133719 0.432258010 0.247817978
0.775078893 0.437191844 0.256925911
0.802909493 0.435673535 0.265528232
0.826059222 0.435420930 0.267172515
0.851992130 0.436559439 0.274889261
0.877798676 0.439595073 0.282479405
0.905629218 0.440607071 0.287413239
0.931941926 0.440101475 0.296015233
0.953194320 0.441619486 0.303099394
0.970651269 0.441998750 0.306134999
0.387223274 0.469070643 0.369892269
0.390259385 0.464895874 0.368753642
0.392662853 0.467299402 0.374193281
0.390512437 0.471347630 0.380265325
0.410246730 0.470588624 0.387097001
0.428462923 0.464516044 0.401517719
0.441619277 0.468816966 0.412270606
0.444908351 0.473624349 0.402150571
0.449462533 0.471347630 0.380898178
0.458570153 0.474003792 0.356988937
0.478178144 0.474130273 0.336748421
0.496014893 0.467678636 0.314231306
0.516128659 0.447185636 0.281973273
0.531309068 0.419861257 0.251613200
0.552941144 0.411891639 0.244908214
0.582289934 0.414421618 0.244655281
0.609993935 0.422390997 0.247691289
0.633143842 0.433902562 0.249588698
0.653383970 0.448071003 0.251106650
0.674383342 0.459962368 0.256672651
0.695256054 0.467172891 0.258949637
0.719544232 0.465148628 0.258949637
0.741049588 0.462618262 0.264642864
0.769386172 0.468690813 0.271726757
0.797469914 0.469070375 0.280834943
0.826818585 0.466540307 0.289184004
0.846046627 0.468058646 0.288678080
0.875142217 0.469196856 0.297659636
0.902846158 0.471853286 0.302972823
0.926628530 0.472359240 0.307779998
0.946109951 0.471094608 0.314737618
0.966856360 0.476913631 0.318279296
0.407717019 0.497913033 0.395193040
0.410246700 0.492347032 0.393168658
0.419734091 0.493865043 0.397469819
0.428589344 0.500190079 0.406325102
0.435800552 0.504997015 0.412397057
0.444908172 0.498925030 0.424541056
0.460847646 0.499936789 0.440986663
0.469702989 0.503225744 0.440101355
0.472232997 0.504997075 0.418595999
0.481340617 0.504997075 0.397343606
0.497912735 0.505250037 0.379000366
0.512334049 0.503478765 0.362555325
0.526502073 0.493991047 0.342188776
0.544718087 0.469703019 0.312081009
0.559898436 0.442378640 0.281720281
0.581024647 0.434408993 0.266160846
0.602530062 0.437444866 0.260847986
0.622517109 0.446299583 0.261733443
0.652877927 0.455408007 0.270841092
0.674636364 0.469829381 0.276913047
0.694243968 0.483112007 0.279949069
0.714484215 0.491461009 0.280202031
0.738393486 0.491966993 0.280328542
0.762302041 0.498292029 0.283364952
0.787096560 0.500063062 0.291208267
0.812650263 0.499177694 0.299557328
0.842505038 0.496142000 0.307147115
0.866793036 0.490069985 0.304111481
0.893484831 0.493865013 0.308539003
0.917267203 0.498418838 0.314610988
0.937760592 0.501201630 0.321062595
0.952941000 0.504238009 0.330170989
0.453257382 0.543453395 0.431625783
0.450221777 0.543453395 0.440733403
0.459203213 0.537887394 0.436558783
0.465022057 0.540670514 0.443769693
0.466540068 0.547628224 0.457558662
0.484377295 0.544465363 0.460973799
0.493484914 0.540923655 0.470588118
0.502846003 0.544086218 0.479949385
0.509171128 0.546489775 0.472738802
0.520809710 0.541429818 0.448956728
0.524098337 0.544338942 0.430613458
0.538393259 0.544718385 0.412397236
0.552941024 0.541808784 0.392536521
0.569006801 0.530423701 0.366729736
0.587222815 0.506134927 0.339405388
0.597596169 0.478810549 0.306641430
0.615939140 0.466287166 0.290449202
0.636558950 0.464136809 0.284503579
0.658949971 0.470588416 0.282985866
0.678178728 0.482479423 0.286527455
0.698924661 0.495255977 0.293991148
0.720556259 0.504364133 0.299177706
0.744465530 0.507147372 0.301580906
0.759645939 0.519291401 0.304617286
0.788108945 0.523339629 0.314484388
0.808855355 0.525743127 0.320429981
0.827830732 0.527007997 0.322833478
0.857685447 0.526501954 0.325363845
0.881973445 0.523086786 0.324984401
0.905123234 0.527261317 0.329791397
0.928146601 0.530929804 0.334977806
0.952941000 0.531562388 0.339278579
0.493990779 0.584187388 0.470461756
0.490955174 0.581783593 0.472359180
0.490069777 0.581783593 0.479316592
0.501201808 0.577482402 0.480581731
0.505376101 0.580897987 0.493485242
0.517520607 0.579885840 0.496520847
0.530550241 0.581657112 0.502213895
0.542947292 0.581910491 0.516255558
0.549778342 0.584946513 0.520809591
0.555344701 0.580518782 0.503099561
0.553952873 0.580771685 0.484629840
0.559013307 0.579759300 0.464389324
0.574193597 0.577102840 0.444655150
0.590132833 0.571283817 0.421631575
0.601897597 0.562049389 0.396457970
0.615306556 0.540164411 0.364326596
0.625932753 0.512839973 0.332448006
0.646426141 0.496521443 0.317141026
0.672991753 0.488424987 0.310562938
0.691460907 0.495256037 0.313093245
0.707779884 0.507400453 0.316128850
0.728019893 0.518532455 0.323212981
0.750790477 0.524351537 0.327387303
0.770524919 0.529664814 0.325869679
0.785705328 0.546362758 0.331182778
0.811258852 0.552814603 0.337507784
0.828463078 0.557874620 0.338013858
0.855028868 0.559772372 0.341050237
0.882479787 0.559519410 0.348639995
0.906767726 0.558254540 0.346869230
0.928652585 0.560404956 0.351043791
0.952941000 0.558886766 0.355597615
0.525869370 0.619102001 0.505376339
0.524351537 0.616065979 0.514484346
0.529538155 0.615180373 0.511195183
0.529538155 0.613915205 0.517267525
0.539911151 0.611637950 0.525363803
0.547880888 0.612776577 0.528399467
0.562555373 0.615306497 0.535483837
0.574825883 0.616824746 0.543580413
0.587729156 0.619102001 0.558001280
0.589247167 0.616824746 0.549652159
0.586337745 0.616698205 0.533206582
0.587855518 0.613156140 0.517520308
0.591650963 0.611258388 0.496267945
0.607590079 0.606198430 0.474509537
0.620493650 0.603162766 0.448956370
0.638077199 0.591777563 0.420493573
0.641113162 0.572043002 0.394686997
0.652624726 0.543453634 0.363693833
0.676787019 0.520809472 0.347501397
0.700569212 0.511195183 0.337381333
0.721441686 0.519544482 0.338899463
0.736622095 0.532701135 0.342947185
0.756609499 0.542694390 0.348513186
0.775078893 0.547122121 0.344085902
0.797849238 0.556989372 0.349399179
0.813029647 0.571030736 0.356862843
0.835041046 0.579632938 0.359266371
0.860341668 0.583681226 0.365338624
0.879696786 0.591650963 0.366097540
0.905249894 0.593169153 0.369639426
0.931309164 0.593169153 0.370145559
0.954459190 0.590765357 0.376849979
0.550790548 0.648197114 0.536369503
0.553953111 0.646426320 0.552055538
0.559392512 0.643643558 0.551549375
0.565844119 0.645540953 0.548766315
0.568500638 0.642504573 0.556357026
0.575837672 0.645034909 0.560657799
0.588235199 0.647438228 0.566856444
0.602530122 0.649462104 0.575332224
0.613156140 0.649462104 0.583554983
0.619228125 0.649462104 0.586590648
0.619101822 0.648197114 0.575331807
0.619481266 0.646679103 0.561543107
0.622011125 0.642251551 0.545350909
0.623023152 0.641998589 0.524604559
0.640480757 0.638962924 0.498798281
0.657811582 0.631752312 0.473371297
0.671979547 0.619987309 0.450600863
0.669070125 0.601138115 0.429221720
0.678178549 0.567741692 0.395825237
0.700189769 0.544212341 0.370398313
0.724351585 0.535610259 0.357368559
0.748766303 0.544845104 0.358760148
0.763946593 0.559898973 0.364832133
0.779126883 0.566982985 0.360784113
0.800885260 0.573434651 0.365464836
0.824541211 0.584440470 0.372675627
0.840733647 0.593042135 0.381277978
0.867805004 0.599114120 0.393168956
0.883112073 0.611258388 0.390006572
0.901707888 0.622517169 0.389373958
0.925237179 0.625933111 0.390765518
0.955597997 0.625933111 0.399873137
0.578114986 0.672485948 0.569765925
0.593295395 0.675521553 0.575837970
0.594307184 0.669449747 0.574319959
0.592536151 0.669955969 0.573054969
0.592789471 0.678937376 0.580645144
0.614041865 0.675900936 0.598861873
0.616318882 0.675900996 0.600632906
0.622770667 0.677798688 0.604680955
0.631372929 0.679822981 0.611006021
0.637444913 0.679822981 0.616951466
0.646426082 0.674004018 0.617078006
0.648450077 0.676533997 0.605692744
0.649841666 0.678178370 0.587349713
0.653383970 0.675395012 0.564073026
0.665527940 0.672359347 0.548893452
0.666160822 0.666919947 0.530297339
0.676027954 0.659076750 0.511322021
0.690322518 0.646679401 0.489943385
0.699430883 0.625426888 0.456546903
0.708538592 0.597596586 0.420367181
0.724857509 0.574573278 0.392789513
0.747628212 0.564959049 0.379633129
0.776091397 0.572042942 0.383048952
0.791271031 0.584187031 0.389120966
0.806451261 0.586717010 0.394180954
0.826818287 0.595825374 0.397722960
0.849842072 0.611258924 0.399493992
0.871094406 0.617330909 0.405565977
0.890195906 0.623402894 0.404174864
0.909677207 0.637317955 0.407969743
0.930297256 0.650727212 0.414547622
0.949526012 0.656293988 0.418089926
0.591524005 0.691208005 0.580898345
0.606704414 0.688678384 0.589752972
0.611132026 0.689563751 0.591524005
0.609993339 0.688678324 0.594307303
0.609993577 0.696268380 0.603036225
0.621631920 0.695635736 0.609234512
0.632764280 0.692599356 0.612270653
0.638456643 0.693991065 0.618849039
0.648323834 0.697786391 0.627957284
0.658444345 0.701834381 0.636052966
0.670208871 0.698798060 0.641872048
0.673244774 0.700821996 0.631752253
0.672106147 0.703478694 0.617710471
0.672106028 0.700189769 0.600758672
0.679190695 0.694623768 0.585578442
0.688930929 0.693991363 0.565591216
0.695003033 0.690196157 0.548513591
0.709424138 0.682352841 0.529664993
0.720683336 0.665401399 0.500568986
0.729790986 0.649715781 0.475522012
0.737001777 0.618595898 0.440987021
0.750664175 0.595825255 0.417077959
0.771916330 0.589500010 0.409108371
0.795066476 0.596331716 0.404554367
0.812523365 0.606198430 0.406072378
0.830992639 0.607716382 0.408349365
0.852877796 0.616065741 0.409361362
0.871853411 0.624414980 0.415433347
0.893105805 0.638456821 0.416192353
0.909677565 0.644908309 0.413282812
0.929791331 0.654648960 0.419228226
0.951802671 0.658824027 0.427957356
0.624541163 0.720809460 0.607084453
0.634028852 0.715876102 0.619987071
0.634661436 0.718785703 0.618848443
0.638456583 0.716255724 0.618848443
0.641492665 0.719038725 0.627324581
0.650600612 0.719038725 0.630360544
0.652119040 0.722201109 0.632763743
0.661227465 0.720809460 0.634408474
0.671094239 0.723592758 0.651866138
0.683238685 0.728526413 0.671220660
0.689689994 0.727767348 0.666034222
0.699430764 0.725110471 0.661732972
0.700569391 0.731182456 0.651107073
0.699557185 0.730423748 0.640733480
0.703984797 0.725996435 0.623908818
0.704870701 0.720936000 0.605818689
0.715496480 0.719418168 0.584566295
0.727640450 0.717014432 0.570524991
0.739784896 0.708159208 0.552055240
0.747248352 0.692979097 0.519923687
0.760151446 0.674003959 0.499430716
0.764199972 0.641618907 0.466034323
0.774825692 0.621757984 0.445034981
0.792030096 0.611891091 0.426565707
0.817457438 0.616445422 0.425047725
