Assets/Shaders/EldamarStudio/100 Sci-Fi LUTs Pack/LUTs/cube/Agamemnon LUT.cube
LUT_3D_SIZE 5
DOMAIN_MIN 0.000000 0.000000 0.000000
DOMAIN_MAX 0.903226 0.903226 0.903226
0.000000000 0.000000000 0.000000000
0.284756690 0.001644708 0.001644708
0.530297399 0.000000000 0.024920985
0.750158131 0.064769000 0.101075128
0.911448598 0.159645975 0.180518821
0.184819683 0.257685393 0.178241700
0.303099126 0.248197109 0.124604695
0.527008414 0.291967124 0.117140979
0.734598100 0.292599708 0.176596820
0.898038864 0.310562968 0.226944819
0.453257382 0.543453395 0.431625783
0.502846003 0.544086218 0.479949385
0.587222815 0.506134927 0.339405388
0.720556259 0.504364133 0.299177706
0.881973445 0.523086786 0.324984401
0.665022254 0.755218267 0.642505109
0.688551843 0.754206121 0.665780842
0.732953846 0.759772360 0.664010167
0.788488269 0.698292196 0.525743246
0.903604984 0.659076810 0.446805716
0.822517753 0.913978636 0.812017620
0.841745675 0.913978636 0.827703953
0.882605970 0.913978636 0.855154932
0.892346799 0.910056949 0.791397631
0.961036921 0.860341787 0.661859632
0.006831295 0.286400974 0.380898118
0.268437684 0.001644708 0.346869111
0.528020084 0.004933705 0.332194805
0.731309116 0.116508409 0.343959391
0.895635843 0.186463967 0.350790530
0.000000000 0.393674791 0.334471703
0.207969397 0.305376410 0.354079694
0.523086786 0.270082384 0.352434993
0.718279600 0.276660413 0.349146426
0.889183760 0.315875977 0.375585288
0.322833478 0.524098635 0.415939391
0.443643123 0.527387679 0.464263409
0.549904764 0.505502820 0.430613518
0.704111397 0.522454381 0.424288392
0.871853054 0.532953560 0.435167521
0.633396387 0.746995151 0.646046996
0.672486126 0.749019384 0.674510121
0.738266826 0.764326394 0.712713718
0.774193287 0.702214003 0.578620851
0.888677955 0.680329084 0.519670963
0.825173795 0.914231718 0.826691926
0.841492653 0.912713766 0.826944888
0.887160182 0.925363541 0.867552400
0.900442660 0.915243626 0.825680137
0.953952730 0.868563950 0.690575778
0.000632584 0.496900797 0.670208335
0.000000000 0.373308390 0.655787408
0.470082402 0.060974389 0.604174793
0.719797254 0.124351829 0.572169781
0.886653781 0.202024251 0.556989014
0.001644708 0.610373080 0.654775560
0.000632584 0.519165397 0.650221527
0.457811832 0.289942682 0.601138234
0.705376446 0.291334540 0.575331986
0.878684342 0.318405807 0.559266090
0.000000000 0.690448761 0.598861873
0.000000000 0.678684771 0.600506127
0.451233834 0.542694807 0.607969880
0.683238387 0.491334528 0.580265522
0.856546760 0.503478825 0.575964570
0.350663900 0.672485709 0.585199356
0.434914887 0.675774872 0.596331418
0.615939021 0.703225732 0.647311866
0.716887712 0.684629858 0.645034552
0.857558548 0.713598728 0.629348457
0.765211582 0.902846336 0.812903166
0.791903913 0.910183609 0.820999384
0.867678404 0.921821773 0.855787337
0.917900205 0.931308925 0.887792349
0.945477724 0.880708396 0.774319768
0.003922000 0.644402146 0.848324120
0.000000000 0.590765595 0.844022870
0.006577994 0.361290604 0.828968942
0.624668121 0.193295121 0.771790147
0.865401626 0.210879132 0.760152102
0.001264999 0.713598669 0.847565114
0.005819002 0.665275097 0.842378139
0.001644708 0.490702152 0.830613673
0.621125877 0.327260971 0.774699211
0.861859739 0.319417685 0.762049496
0.000000000 0.873750567 0.846300125
0.004301125 0.823402882 0.845287859
0.230233923 0.700949013 0.821505189
0.615306973 0.519797385 0.778368115
0.850348055 0.481847227 0.751929224
0.010120248 0.874762952 0.785579145
0.180139229 0.872106373 0.783301830
0.421631932 0.861986160 0.794054151
0.636559129 0.729664981 0.780771196
0.850221515 0.654775143 0.734851420
0.346615732 0.847185493 0.745224237
0.399493694 0.850980282 0.747754455
0.596584141 0.865528286 0.768753827
0.845793545 0.904743433 0.858064413
0.910942554 0.885388970 0.833523035
0.002530012 0.747880995 0.968626976
0.001644708 0.715496242 0.976976693
0.000000000 0.616571367 0.975964367
0.002909872 0.356483191 0.968500614
0.776976585 0.266667008 0.927260756
0.003922000 0.793927670 0.975711644
0.000000000 0.768753767 0.973054945
0.000632584 0.671094537 0.971410334
0.001012128 0.448829621 0.966729939
0.783048511 0.352434993 0.934598029
0.001265006 0.910056770 0.965464532
0.003288997 0.879570127 0.970145643
0.003289416 0.806704700 0.964199543
0.307400286 0.644275665 0.965338469
0.788614810 0.509930134 0.930297256
0.038456738 0.998355269 0.936748981
0.065781102 0.997976005 0.949652076
0.412143916 0.974066973 0.962175846
0.558633804 0.859708965 0.962428629
0.801264763 0.679949403 0.923971951
0.428336382 0.994813144 0.902087152
0.469449580 0.993295252 0.918912053
0.596077979 0.989120603 0.922454178
0.758886874 0.980265617 0.946615815
0.868564546 0.910183787 0.945477724
