Assets/Shaders/EldamarStudio/100 Sci-Fi LUTs Pack/LUTs/cube/Agamemnon LUT.cube
LUT_3D_SIZE 8
DOMAIN_MIN 0.000000 0.000000 0.000000
DOMAIN_MAX 0.903226 0.903226 0.903226
0.000000000 0.000000000 0.000000000
0.157874644 0.003922000 0.000000000
0.318153083 0.003162904 0.003162904
0.460721284 0.000000000 0.003415642
0.596205175 0.004554189 0.040480994
0.718785703 0.050600987 0.087918736
0.819861233 0.103225991 0.136242703
0.911448598 0.159645975 0.180518821
0.086527549 0.126882091 0.081087545
0.166476652 0.138266638 0.033650000
0.316508293 0.174699172 0.022264548
0.474509656 0.175078735 0.047691092
0.610878944 0.174319640 0.082226187
0.723845720 0.184566543 0.117646828
0.818216562 0.202529833 0.168500811
0.912080824 0.233270064 0.203541964
0.232637197 0.303985089 0.219228297
0.276154578 0.291334271 0.245540738
0.347881198 0.291461229 0.154965103
0.462998271 0.306388080 0.131435990
0.590765178 0.329158992 0.157369092
0.712080836 0.327514112 0.185705096
0.810373008 0.328273386 0.206704378
0.899303854 0.341429263 0.240607083
0.387223274 0.469070643 0.369892269
0.410246730 0.470588624 0.387097001
0.449462533 0.471347630 0.380898178
0.516128659 0.447185636 0.281973273
0.609993935 0.422390997 0.247691289
0.695256054 0.467172891 0.258949637
0.797469914 0.469070375 0.280834943
0.902846158 0.471853286 0.302972823
0.525869370 0.619102001 0.505376339
0.539911151 0.611637950 0.525363803
0.587729156 0.619102001 0.558001280
0.591650963 0.611258388 0.496267945
0.641113162 0.572043002 0.394686997
0.721441686 0.519544482 0.338899463
0.797849238 0.556989372 0.349399179
0.879696786 0.591650963 0.366097540
0.624541163 0.720809460 0.607084453
0.641492665 0.719038725 0.627324581
0.671094239 0.723592758 0.651866138
0.700569391 0.731182456 0.651107073
0.715496480 0.719418168 0.584566295
0.760151446 0.674003959 0.499430716
0.817457438 0.616445422 0.425047725
0.898798048 0.646426558 0.432890743
0.745351255 0.839468241 0.740797281
0.750410795 0.831878722 0.733965755
0.772802234 0.834661424 0.753067315
0.812523663 0.841745555 0.782289565
0.810246468 0.840227365 0.738899589
0.835294008 0.827198029 0.678684592
0.867552280 0.789120853 0.593042254
0.918405831 0.709803939 0.503731906
0.822517753 0.913978636 0.812017620
0.835546970 0.906134963 0.808222711
0.842504680 0.909930468 0.828968823
0.869323194 0.912460446 0.850727618
0.884250700 0.916508675 0.848323822
0.886274815 0.911321819 0.805312932
0.916761458 0.908665001 0.740670323
0.961036921 0.860341787 0.661859632
0.007084001 0.185325637 0.222517177
0.150411099 0.000000000 0.217457548
0.329538554 0.000379548 0.199367642
0.473750651 0.002783356 0.217837095
0.600253165 0.003036094 0.224161893
0.715116918 0.047185462 0.235547543
0.815433264 0.127008021 0.251106620
0.904490709 0.180518821 0.276280820
0.000379548 0.253131092 0.212776646
0.121821545 0.189627096 0.218596086
0.326755196 0.154712543 0.220619634
0.475775093 0.148766279 0.219355002
0.605060160 0.162555441 0.232637286
0.723845541 0.187602535 0.249082893
0.819354773 0.219607547 0.273877531
0.914231479 0.252878070 0.289816350
0.135863543 0.314610749 0.236938640
0.233396292 0.311069101 0.263630658
0.325869262 0.307147175 0.262871653
0.459582716 0.325616658 0.257811189
0.594813228 0.325616568 0.264389634
0.707780182 0.327893734 0.277798831
0.802150548 0.336116374 0.293485373
0.897280216 0.349019647 0.311321914
0.343200266 0.468311638 0.373814166
0.396963716 0.471094280 0.395445615
0.463251173 0.481214195 0.425047636
0.511069059 0.447944552 0.348386735
0.601265192 0.447564989 0.316255450
0.696015239 0.471473724 0.328652740
0.797469974 0.474256903 0.343706459
0.898291945 0.475901484 0.360278338
0.498544902 0.618089736 0.512966633
0.525363803 0.610499382 0.523718953
0.579886138 0.614673913 0.561037123
0.596331298 0.623909116 0.543074191
0.643896401 0.572928369 0.433649719
0.707780123 0.535230994 0.387097001
0.791524231 0.574446380 0.401517838
0.885515332 0.597975910 0.415686637
0.626818478 0.723972380 0.620493293
0.639848173 0.720050454 0.636685729
0.668437541 0.725490272 0.652751505
0.704364419 0.732700467 0.674256682
0.712966263 0.722833693 0.612396836
0.741429210 0.679443300 0.520050287
0.809993505 0.620746434 0.457178742
0.889436960 0.655913949 0.464642584
0.746868968 0.839088798 0.737887681
0.750284731 0.840986550 0.739405572
0.775964558 0.840860367 0.758127809
0.809234560 0.847058833 0.782922268
0.820620060 0.842884243 0.760025203
0.835800052 0.832384348 0.698671579
0.864263237 0.788488269 0.613662004
0.917520523 0.717393994 0.528905690
0.832511246 0.909550786 0.812397063
0.841365755 0.912334204 0.826059341
0.853889823 0.908159196 0.833396494
0.868816912 0.913725615 0.846932411
0.885895193 0.918406069 0.859203160
0.892852724 0.917520523 0.820493102
0.919038713 0.907779694 0.759013176
0.949652076 0.867931485 0.671220541
0.000759096 0.322074294 0.433270186
0.007084097 0.210753009 0.423150092
0.306388080 0.003922000 0.388615191
0.464262843 0.000379548 0.376091182
0.595572174 0.027957089 0.373814195
0.704743862 0.102340080 0.372296184
0.802656472 0.162808090 0.386591136
0.891840637 0.195825085 0.384187192
0.000000001 0.400758713 0.425806642
0.000379548 0.320809633 0.413662285
0.275016099 0.172422171 0.407842815
0.471094191 0.162935004 0.393042654
0.593169034 0.180265889 0.383175194
0.707400620 0.201265082 0.389500380
0.803036034 0.229475081 0.391777366
0.898924351 0.257431924 0.399873435
0.000759096 0.449842185 0.379253209
0.000000000 0.445920199 0.391018182
0.247438177 0.347122103 0.398861200
0.454522252 0.304364532 0.385579020
0.581530273 0.308791906 0.388868004
0.690449059 0.310310096 0.388361841
0.792410135 0.328273386 0.397343397
0.890448928 0.348260432 0.411005914
0.124730818 0.446299642 0.386084646
0.210626274 0.445920199 0.393927753
0.362935007 0.452245265 0.405565828
0.468311638 0.438962966 0.416192085
0.580518544 0.455281258 0.417330742
0.683111966 0.458064407 0.416445374
0.788361847 0.462112725 0.432637393
0.890322387 0.470588446 0.439468831
0.389247149 0.593295276 0.485009283
0.420493394 0.586211383 0.484124064
0.515496254 0.597217083 0.521695375
0.588867784 0.609234691 0.582922339
0.610499501 0.566603363 0.491208166
0.680961490 0.558254123 0.468311340
0.771790147 0.586970329 0.473244905
0.872612000 0.595952034 0.481088072
0.579000354 0.707526982 0.613409638
0.596584678 0.704870582 0.611764431
0.644402146 0.715875804 0.641366124
0.699304104 0.730676711 0.680076003
0.709550917 0.720429957 0.656040370
0.731941581 0.670335174 0.567741752
0.792156756 0.641492724 0.517141044
0.873497665 0.673244953 0.523212790
0.728905559 0.832131386 0.728146255
0.732321203 0.832131386 0.734598100
0.760151446 0.837697446 0.752941310
0.800505817 0.844781816 0.778494596
0.832384408 0.848830104 0.795446098
0.829474866 0.835167646 0.726754904
0.855787277 0.787729204 0.645793915
0.908665657 0.727766812 0.575458467
0.821125805 0.916761816 0.817836702
0.828463078 0.914358079 0.829475045
0.843010902 0.913472652 0.833269954
0.871853054 0.921821654 0.855913997
0.901075125 0.924604833 0.876786888
0.896900773 0.920556784 0.846173286
0.921441734 0.912334204 0.789626777
0.952435136 0.871600032 0.701454937
0.003922000 0.445540637 0.594054282
0.001897547 0.390259176 0.590765357
0.000379548 0.203795001 0.583048284
0.419228256 0.017457642 0.539658666
0.588994622 0.026312184 0.520809710
0.694244087 0.101580985 0.509424269
0.787349641 0.163187638 0.503225982
0.889057577 0.204047829 0.500569463
0.001517999 0.505123615 0.605060279
0.001517999 0.456546664 0.586463988
0.003162904 0.314990252 0.592156708
0.414927632 0.172928378 0.554458916
0.588235617 0.175078735 0.529032290
0.697153568 0.198102370 0.520430148
0.792662859 0.236179829 0.508918643
0.889816701 0.259076446 0.505882502
0.009108357 0.619481504 0.590892017
0.003162904 0.575205266 0.590133071
0.000000019 0.470968008 0.580012262
0.388994634 0.317267179 0.545856953
0.571284115 0.308539003 0.522580504
0.681088090 0.316508293 0.518026531
0.781404257 0.337001920 0.509424269
0.875775039 0.346742451 0.504996896
0.000000000 0.628715992 0.541935623
0.005566002 0.618848681 0.547122061
0.006325115 0.607842863 0.558633626
0.383934319 0.490322620 0.552055597
0.569006979 0.436052829 0.525616646
0.671347439 0.437697649 0.518026412
0.773307920 0.447817922 0.523971975
0.875142515 0.455281258 0.528020442
0.198355526 0.576723456 0.516887665
0.253763288 0.573687375 0.513346076
0.347754270 0.565844178 0.526375651
0.453004628 0.553953171 0.528652847
0.572548687 0.543833196 0.536749184
0.659076452 0.559519172 0.541176617
0.761037171 0.566603363 0.550537705
0.863124788 0.581277609 0.556483448
0.413409173 0.667678475 0.565211713
0.444781423 0.665401518 0.573940635
0.504491091 0.671853125 0.585578859
0.611132443 0.683997333 0.632384479
0.698545039 0.717773318 0.686147928
0.700948775 0.664136708 0.603035867
0.768247962 0.654016435 0.582163095
0.859961927 0.687665939 0.587855875
0.636306167 0.809866905 0.699557304
0.646932423 0.810625970 0.698671579
0.694623649 0.813662112 0.720556676
0.757242143 0.825047314 0.758886635
0.820872903 0.846552908 0.810373187
0.828715801 0.835673690 0.777356088
0.841239631 0.786337912 0.686653912
0.891967177 0.744212627 0.627830267
0.794433832 0.911575139 0.816698313
0.805945575 0.914231598 0.817963362
0.830486953 0.920050502 0.828083813
0.864136577 0.919038594 0.857685030
0.895256042 0.928778946 0.884882927
0.911448419 0.927007794 0.882858932
0.916887939 0.917520523 0.829095364
0.944718599 0.874762952 0.744465470
0.002403808 0.542441368 0.723466158
0.000000000 0.512207389 0.715369821
0.001517999 0.410626173 0.711575091
0.000000000 0.183807373 0.696015298
0.522833347 0.106261984 0.658317387
0.675142527 0.118026279 0.633649826
0.780645251 0.165970996 0.629348338
0.879949450 0.206578165 0.619102001
0.006325195 0.585831702 0.724225163
0.000379548 0.558001399 0.724351168
0.000000001 0.475016087 0.720303357
0.000759096 0.280075848 0.699557424
0.523592174 0.209487528 0.662744761
0.679316700 0.209487632 0.643896580
0.788361549 0.233016834 0.633270085
0.882353187 0.258697182 0.618216097
0.000000000 0.667046189 0.713978231
0.000000000 0.636811912 0.718405843
0.003921807 0.565085232 0.710815966
0.022897087 0.427450836 0.689690053
0.504743934 0.329032302 0.656040251
0.664769292 0.318026304 0.634408712
0.771790206 0.333080381 0.635547280
0.872485638 0.342061847 0.616698325
0.000758999 0.775458217 0.710309982
0.000000000 0.762428761 0.720430195
0.000379555 0.693990827 0.703605473
0.247817829 0.589879870 0.690828502
0.488931179 0.453763187 0.657178700
0.654522479 0.441999078 0.636938512
0.761796296 0.445288002 0.632384419
0.868564010 0.446046978 0.621505141
0.007210811 0.750031590 0.657432377
0.007084001 0.739531755 0.659962118
0.045540735 0.733586252 0.658950150
0.311068922 0.725743353 0.667172849
0.506894231 0.604300976 0.664642632
0.648956299 0.541049957 0.629348159
0.749905288 0.547122121 0.625680208
0.854396164 0.545351148 0.618596017
0.268058032 0.685768366 0.614674211
0.301960647 0.686147928 0.619102001
0.373687476 0.678684294 0.617457211
0.460341722 0.661480248 0.619734585
0.549652040 0.646173537 0.625300527
0.649589181 0.633522868 0.624668181
0.750664055 0.653130770 0.634408653
0.850474417 0.665275216 0.639595389
0.442630976 0.761669457 0.658064544
0.456040621 0.763061583 0.658317447
0.521695137 0.767868400 0.672359467
0.614041686 0.780012727 0.693990946
0.727640688 0.798228621 0.746616066
0.819860995 0.833396733 0.808981836
0.813409328 0.776976585 0.715243459
0.874889255 0.760025382 0.681467712
0.680581868 0.899557114 0.773308098
0.698039234 0.899557114 0.774572909
0.740544021 0.901201427 0.794433594
0.809993684 0.909930408 0.830107570
0.864895582 0.921821654 0.866286993
0.915116847 0.938772798 0.909297884
0.916508794 0.925110698 0.868311286
0.936242819 0.881594181 0.794054151
0.005945744 0.627197981 0.829095721
0.000000000 0.604680717 0.826438904
0.005566002 0.543959260 0.829095721
0.000000000 0.415686518 0.814800739
0.072865367 0.239468738 0.790638506
0.603415489 0.182163253 0.748513520
0.757621825 0.181530565 0.744591951
0.873750627 0.205312997 0.736116529
0.006957998 0.656546593 0.821505010
0.002024260 0.640860260 0.827577531
0.000000000 0.586084664 0.823909104
0.002783356 0.468690813 0.815559924
0.112080999 0.296015173 0.799494147
0.614041805 0.244528800 0.757748246
0.759013116 0.242125288 0.741935730
0.875521958 0.261733383 0.741429269
0.005060354 0.719923913 0.834155440
0.003162904 0.703099251 0.825047731
0.003794996 0.652118981 0.821884811
0.002656643 0.556483328 0.807210684
0.135230735 0.400379300 0.793548644
0.599114776 0.348007292 0.753194034
0.750410914 0.339784652 0.741302967
0.876280963 0.340164274 0.739025772
0.000759096 0.817583919 0.828589439
0.002783356 0.795698881 0.822011650
0.001138644 0.753826618 0.817710280
0.013662277 0.674889386 0.802530110
0.317773432 0.548260570 0.795319557
0.596837640 0.469196618 0.748007774
0.747881174 0.441619366 0.737254977
0.866286993 0.443010896 0.737634540
0.004048004 0.891334295 0.794434011
0.001518192 0.879949749 0.802150488
0.002024260 0.867299020 0.811511695
0.245793730 0.799494267 0.807337224
0.427450657 0.698292196 0.791524291
0.585831702 0.571410179 0.758001208
0.741176546 0.538772941 0.728652477
0.852245808 0.538140297 0.721568465
0.000000000 0.848450720 0.754206240
0.012523827 0.843769729 0.763820529
0.195066482 0.844528735 0.761037350
0.342441618 0.837444842 0.768500805
0.472232670 0.822896957 0.773814023
0.611258507 0.701328516 0.752435029
0.740544021 0.626944959 0.724983990
0.848197401 0.628968716 0.707020938
0.324478090 0.808601737 0.725110292
0.349019617 0.803036034 0.718279719
0.396078378 0.800253093 0.727387369
0.472738773 0.790006280 0.729917765
0.554079652 0.763567328 0.717900157
0.654143274 0.739026248 0.717394054
0.757748008 0.737887561 0.738519788
0.858443797 0.765844226 0.742947578
0.422264338 0.852498472 0.735104144
0.447185248 0.857937992 0.737001836
0.510562897 0.864895642 0.744465590
0.617457211 0.874383330 0.771157324
0.738013804 0.894370735 0.805818856
0.860974133 0.913092792 0.866666734
0.924984276 0.937254906 0.914990544
0.914737761 0.883870959 0.827197731
0.000000000 0.695382953 0.913346291
0.003542452 0.683112025 0.921189308
0.000000001 0.639595151 0.913093269
0.000000000 0.563187659 0.910562634
0.001644712 0.416192472 0.896014988
0.304870248 0.282479733 0.881088018
0.688171983 0.229348570 0.845667541
0.836685479 0.229474992 0.833902538
0.004301451 0.727134585 0.921441793
0.000000000 0.706261814 0.914737284
0.000000000 0.666287303 0.910183311
0.000000000 0.594307303 0.905376196
0.003668553 0.458443999 0.898544967
0.322201073 0.335357308 0.887539506
0.687919259 0.289183974 0.846805990
0.838709593 0.278178096 0.835041106
0.000000000 0.774573088 0.905629158
0.004048003 0.760278106 0.909677684
0.000000000 0.725869417 0.910942495
0.000759096 0.660088301 0.907021105
0.001517998 0.546362996 0.900569201
0.338013828 0.413915396 0.883365095
0.690322399 0.363567382 0.844908535
0.830487072 0.347754568 0.833270013
0.002277288 0.847817898 0.912839890
0.001138644 0.832511246 0.907526553
0.003668553 0.807083905 0.911321878
0.001138644 0.747501612 0.904364347
0.044402186 0.651233375 0.893990934
0.382542819 0.519291401 0.881847262
0.691587627 0.473497987 0.838962674
0.834281981 0.448703438 0.834029078
0.004553996 0.934471905 0.921315610
0.001518192 0.923466027 0.909424305
0.002277095 0.899936974 0.902846336
0.071473718 0.852371812 0.901707888
0.319544166 0.770524979 0.891334236
0.464389622 0.650980592 0.880455494
0.685642064 0.567236125 0.849083066
0.838329911 0.537381411 0.827830434
0.000379548 0.963061512 0.868943512
0.005186744 0.961796343 0.870841265
0.025806371 0.959519088 0.872865558
0.232637703 0.952055693 0.898292422
0.455787361 0.892726243 0.900695860
0.563693762 0.788108766 0.879696786
0.689310551 0.659708738 0.843010843
0.840986788 0.625300229 0.819607675
0.234408528 0.941429317 0.856167018
0.255534381 0.933586240 0.845414579
0.332068354 0.935104430 0.848071158
0.440860182 0.930802941 0.863630295
0.546489358 0.926628292 0.871473789
0.658697248 0.913978279 0.870082319
0.738772810 0.809361279 0.860974193
0.850474179 0.740037978 0.807463408
0.370018810 0.909677744 0.808096230
0.382795542 0.908539176 0.823908865
0.424415171 0.900189459 0.818216324
0.496647447 0.894623458 0.818595886
0.573434293 0.877419651 0.812397242
0.653763413 0.859835684 0.811890960
0.795066416 0.856799304 0.834028721
0.877292633 0.864010036 0.838709474
0.002530012 0.747880995 0.968626976
0.003036284 0.736622155 0.976976335
0.003922000 0.706388056 0.977988839
0.000000000 0.652624786 0.974320173
0.000000000 0.557495117 0.971410692
0.003415731 0.393927962 0.972801924
0.455408216 0.328146338 0.961163819
0.776976585 0.266667008 0.927260756
0.007211011 0.769260108 0.979253650
0.001265167 0.753826797 0.987349510
0.002024263 0.729032278 0.977229714
0.000000000 0.676660478 0.976596773
0.001138640 0.588361800 0.980645239
0.000000000 0.439468682 0.974699616
0.466919482 0.363946915 0.956104040
0.783427954 0.307779551 0.935610235
0.001897736 0.807842910 0.972675800
0.001265167 0.799746871 0.971916735
0.000000000 0.770271778 0.974066794
0.003795085 0.723465919 0.974952757
0.003036087 0.641998827 0.968374729
0.001517991 0.518405974 0.970778048
0.476660490 0.430613816 0.954712212
0.781024635 0.374699205 0.927260756
0.001138644 0.872612238 0.967741966
0.000000000 0.861606598 0.970904708
0.000379548 0.841239989 0.974952757
0.005566002 0.796078622 0.971789837
0.001138547 0.727766871 0.968753874
0.106135413 0.625047565 0.965591550
0.502087533 0.520556450 0.959012866
0.792409778 0.470714629 0.933965802
0.001518192 0.941303015 0.960278213
0.002403812 0.931815624 0.969386637
0.000000000 0.917646766 0.967615187
0.000758999 0.880075872 0.968753815
0.088172071 0.822897017 0.958633482
0.343326777 0.732068121 0.968374491
0.521315634 0.607463360 0.955091774
0.791903853 0.558886707 0.931308985
0.000000000 0.998102248 0.954965115
0.002024260 1.000000000 0.959266007
0.024035539 0.993927717 0.963820040
0.288298607 0.970145583 0.961669683
0.425806344 0.920683026 0.963566959
0.496394485 0.852371812 0.966729879
0.590512455 0.730549991 0.956103623
0.800759017 0.652878046 0.926754832
0.289057642 0.996963799 0.926755250
0.309171230 1.000000000 0.930803001
0.382542312 0.997722745 0.930297256
0.485009104 0.996331334 0.938393235
0.588235140 0.996710896 0.946742773
0.676660240 0.975331783 0.966350436
0.713219464 0.887665808 0.952308357
0.822011471 0.765211701 0.933460116
0.428336382 0.994813144 0.902087152
0.447944373 0.995825231 0.913978636
0.486147791 0.991017997 0.915875912
0.555977046 0.991017997 0.925616801
0.638203621 0.986843646 0.933712721
0.733839512 0.983807564 0.941808701
0.832258224 0.976596832 0.948260307
0.868564546 0.910183787 0.945477724
