Assets/Shaders/EldamarStudio/100 Sci-Fi LUTs Pack/LUTs/cube/Aldlid LUT.cube
DOMAIN_MIN 0 0 0
DOMAIN_MAX 1 1 1
LUT_3D_SIZE 32
0.023529001 0.054901998 0.129411995
0.023529001 0.051865615 0.126375601
0.027830549 0.050980002 0.125489995
0.035167839 0.052245162 0.126755163
0.046173092 0.055660997 0.130171001
0.070461869 0.061732996 0.136243001
0.089690000 0.067805000 0.139784679
0.107906409 0.070588000 0.141176000
0.127640992 0.070588000 0.141935095
0.151929021 0.070588000 0.144971490
0.167488873 0.067678869 0.142188132
0.186717242 0.064642742 0.141176000
0.209108278 0.062744997 0.141176000
0.233396992 0.062492032 0.141429037
0.257684976 0.059456423 0.144465417
0.279569775 0.058823999 0.140291005
0.302340388 0.061859995 0.140290990
0.325996548 0.068564408 0.145730570
0.347249001 0.077672042 0.148766965
0.374067366 0.081214361 0.146236643
0.395698994 0.088045739 0.145098001
0.417963237 0.096141994 0.148134127
0.448070973 0.102340475 0.156736493
0.472359002 0.111448102 0.153700098
0.501201570 0.120556280 0.155218288
0.531562328 0.129664660 0.158254325
0.562429070 0.138773069 0.161796004
0.595825434 0.147881448 0.167867988
0.634534776 0.164958954 0.168626994
0.674003541 0.177862197 0.172169432
0.710815966 0.188741595 0.175585389
0.741176009 0.203922004 0.172548994
0.026565386 0.054901998 0.126375601
0.026565386 0.054901998 0.129411995
0.026565386 0.054016385 0.128526390
0.035926614 0.054016385 0.129791230
0.051486097 0.055660997 0.132827163
0.070461869 0.061732996 0.136243001
0.092220321 0.065275319 0.134724677
0.110942379 0.067552388 0.138393000
0.127640605 0.069070384 0.140417099
0.142820626 0.073624387 0.138899490
0.170019209 0.070714518 0.139026001
0.189753637 0.069702610 0.138140380
0.211006030 0.068816997 0.139278740
0.233144030 0.068564035 0.141176000
0.254649371 0.065528423 0.141429022
0.281341165 0.067299187 0.139658406
0.303858578 0.069449805 0.138772801
0.327261537 0.073371418 0.142061606
0.353320986 0.077672049 0.142694205
0.371789992 0.086780362 0.154079944
0.396458060 0.090322733 0.152308658
0.419987530 0.098165996 0.151170000
0.448070973 0.108538985 0.154079601
0.472359002 0.120556489 0.159772098
0.498924255 0.127387375 0.159013003
0.529917598 0.135736659 0.159898624
0.562935114 0.145857066 0.160784006
0.598861814 0.160025448 0.161796004
0.629601300 0.166476980 0.167867988
0.666160345 0.181404173 0.168626994
0.705249786 0.192156985 0.173054814
0.744212389 0.200885609 0.178620994
0.031751998 0.059202999 0.129790992
0.027450999 0.054901998 0.128526390
0.031751998 0.059202999 0.131562218
0.038077157 0.057938162 0.130297378
0.055028323 0.058191225 0.131562233
0.071473867 0.066033997 0.134598166
0.096521318 0.065275319 0.132574454
0.111195706 0.069955997 0.131182775
0.127893776 0.071726903 0.137001663
0.142820790 0.076407231 0.139531702
0.167362601 0.078051910 0.137254998
0.190639243 0.077039778 0.139278740
0.211891636 0.077039778 0.139405221
0.233650029 0.077039778 0.141429037
0.258697391 0.075901419 0.143326774
0.280455768 0.075521968 0.138772801
0.306261986 0.078557968 0.140290990
0.326881796 0.082859181 0.142694205
0.348134220 0.088930815 0.141176000
0.371410787 0.093232140 0.145856947
0.393421739 0.100442767 0.152308971
0.416698366 0.105756126 0.152814776
0.441745698 0.116508767 0.155218259
0.468058020 0.124604769 0.159266010
0.498924255 0.134344995 0.162934780
0.526248991 0.143200323 0.160151795
0.558633983 0.152561769 0.159139723
0.595066309 0.162808448 0.160784006
0.624035656 0.178620994 0.163946763
0.663250804 0.188235417 0.170018747
0.700822175 0.200379759 0.171663374
0.740796983 0.206451774 0.178241774
0.039089162 0.069070160 0.135862991
0.029222000 0.065528162 0.131562218
0.036811996 0.062998161 0.130297378
0.041619159 0.067805000 0.130802989
0.057558544 0.065148838 0.129664823
0.074509934 0.071600065 0.135357052
0.094750315 0.074383482 0.134598151
0.117267706 0.073751159 0.133206829
0.127134994 0.079064064 0.133206829
0.144339010 0.082099684 0.140796512
0.167109564 0.085136034 0.139531717
0.189374074 0.087412998 0.139278740
0.210626468 0.088551641 0.142314643
0.232131898 0.088678166 0.141935170
0.258444399 0.088678166 0.141935423
0.282226622 0.086148165 0.140291005
0.301201999 0.088931195 0.136495829
0.326122552 0.092599988 0.142567828
0.343832999 0.101075202 0.141429037
0.367362738 0.107147515 0.146489352
0.390386134 0.110815987 0.146995738
0.413662285 0.115876123 0.150031865
0.435167640 0.124604985 0.155850828
0.462492079 0.132954001 0.160025105
0.493105292 0.140037864 0.161796123
0.526248991 0.149272323 0.165717855
0.553067982 0.160404995 0.159645841
0.586463928 0.166476995 0.160404548
0.618722260 0.181910127 0.163440838
0.655408084 0.196584255 0.168247983
0.699177563 0.208728820 0.172548994
0.735989809 0.215559840 0.175205827
0.045920454 0.084250547 0.140416995
0.033396613 0.083871000 0.135104001
0.040353999 0.080708548 0.131941780
0.053383708 0.077672385 0.129664823
0.057558544 0.080328546 0.127007991
0.078810938 0.080328546 0.139151990
0.095003322 0.085009642 0.141176000
0.113093153 0.087792993 0.141176000
0.133586556 0.089310892 0.141555548
0.145730570 0.092346512 0.141555548
0.165844411 0.094623864 0.141176000
0.186337695 0.097659737 0.140416995
0.207590088 0.099936642 0.140796646
0.229095519 0.102720000 0.144338965
0.253384262 0.102720000 0.138899460
0.277292967 0.099051453 0.137634456
0.297786176 0.098671995 0.136495814
0.315117002 0.104743987 0.134977534
0.342441469 0.110816009 0.141049564
0.366983175 0.119291812 0.149525359
0.389374197 0.124984249 0.151802748
0.410626590 0.128020123 0.150411412
0.432131946 0.131309494 0.153320551
0.459456384 0.143200561 0.158886552
0.488677979 0.151170000 0.160784006
0.519670904 0.158254221 0.162428543
0.552688539 0.167995006 0.167614996
0.576976538 0.174066991 0.161543012
0.612270594 0.187349796 0.163820282
0.651106775 0.200758964 0.169006988
0.692726135 0.212903082 0.173308000
0.732194543 0.225047097 0.173308000
0.036812067 0.099430934 0.134344995
0.042884067 0.096394546 0.134344995
0.045414001 0.098165773 0.135483772
0.056040321 0.097153775 0.137507841
0.066666931 0.095508933 0.139151990
0.078810938 0.095508933 0.139151990
0.095003322 0.098039255 0.141176000
0.111827992 0.099936999 0.141176000
0.132068247 0.102213897 0.141935095
0.154838949 0.110562518 0.144591942
0.169892803 0.107779860 0.141682073
0.186084673 0.109803736 0.137127995
0.204553694 0.110562645 0.133206636
0.226059124 0.108792000 0.132194966
0.250347883 0.108792000 0.141302586
0.272232860 0.111195192 0.140670061
0.293991178 0.112713248 0.140670061
0.314863950 0.116887987 0.140796587
0.339405090 0.122960009 0.144085959
0.363946795 0.129032001 0.150157958
0.386337817 0.135610044 0.154838741
0.407590210 0.140164137 0.155851007
0.429095566 0.143453509 0.156356946
0.456420004 0.152561903 0.156356946
0.483744353 0.162175626 0.159645647
0.511574686 0.169386342 0.159392685
0.540923297 0.177482858 0.158886880
0.573940873 0.192282990 0.161543012
0.611511648 0.201011822 0.166096985
0.646932125 0.212902963 0.173434258
0.683617890 0.225047216 0.179380000
0.723086953 0.237191871 0.179380000
0.045414001 0.112080999 0.140923321
0.046426002 0.114105254 0.135863319
0.056799546 0.115369864 0.140164316
0.066160642 0.117140993 0.141049832
0.078304999 0.114990316 0.140416995
0.090448998 0.110689320 0.136115998
0.105123319 0.113219641 0.138646320
0.117014699 0.114611320 0.137001604
0.134092316 0.115370221 0.136875093
0.158380657 0.120935835 0.139911488
0.168880552 0.120935865 0.137128130
0.190133184 0.119923994 0.136115998
0.210246637 0.123592317 0.136748642
0.232890353 0.125237018 0.139785036
0.254901797 0.127514318 0.144339219
0.276786774 0.127514318 0.146236643
0.298039198 0.131941646 0.146236643
0.318658978 0.136622310 0.145604074
0.339152038 0.142694324 0.144844979
0.365971059 0.146236658 0.150664002
0.390259296 0.154205889 0.154838741
0.413156241 0.159898445 0.157874867
0.436053276 0.163187817 0.159266204
0.460973918 0.172296226 0.156863004
0.490575552 0.181404024 0.159139708
0.520935953 0.190511987 0.163566992
0.550537348 0.198229060 0.164958730
0.579885960 0.209361166 0.167994857
0.618596017 0.221758142 0.166096985
0.658064365 0.230866522 0.172169432
0.698292077 0.243137240 0.180518687
0.744339347 0.256926328 0.185451999
0.054269418 0.125869706 0.143453285
0.054269418 0.127261385 0.137381285
0.061226837 0.131941929 0.138266996
0.072106451 0.132447541 0.139279008
0.083871000 0.132447541 0.137001723
0.096014999 0.130170703 0.135989711
0.109044611 0.131689027 0.135863319
0.124224991 0.129791290 0.137254998
0.135610476 0.129032388 0.138013706
0.158127725 0.130297214 0.143706486
0.172801867 0.130423695 0.142567828
0.187096789 0.133712694 0.138266698
0.207969919 0.134851336 0.139405340
0.230487034 0.140164375 0.146489680
0.251739383 0.143200412 0.146742702
0.274636060 0.145477697 0.147375286
0.295888484 0.150031492 0.150411278
0.316508442 0.156230137 0.151296854
0.334724754 0.162302405 0.150284752
0.362934649 0.163947061 0.149019718
0.386717260 0.169133663 0.149905041
0.412017673 0.178241283 0.153953299
0.437065482 0.182795495 0.157495007
0.462871730 0.191903904 0.155977190
0.490069538 0.197723120 0.159139708
0.523213327 0.208222389 0.164958671
0.556356728 0.217583776 0.169765651
0.584819436 0.226692140 0.170524731
0.622770429 0.236811951 0.173181579
0.660594821 0.250474185 0.168880016
0.700063288 0.261353582 0.176723793
0.748640299 0.276533991 0.186590716
0.060341999 0.141050100 0.139658004
0.061100900 0.143326998 0.137381092
0.068311408 0.142315090 0.135483772
0.075142257 0.147627920 0.137760997
0.084630094 0.144971088 0.132827535
0.096774094 0.147627950 0.138520092
0.108918093 0.149905235 0.138772994
0.124224797 0.148007676 0.138013899
0.137128100 0.144971102 0.139532089
0.155344889 0.141935483 0.151676103
0.172042906 0.142568097 0.151423007
0.189753160 0.144339010 0.148133904
0.205692634 0.148513556 0.144718453
0.221125990 0.152308971 0.148007870
0.241872311 0.156862780 0.146489680
0.264768958 0.159898818 0.145857096
0.287539184 0.164453000 0.148133993
0.310056537 0.172295615 0.152941003
0.328652859 0.178241849 0.155850857
0.356483102 0.181024998 0.152055904
0.381909728 0.184819996 0.150158256
0.403668195 0.191144958 0.148639992
0.430866808 0.200126082 0.154459000
0.457558811 0.208601907 0.154459000
0.486401170 0.214674294 0.157495007
0.517141104 0.221126080 0.161922678
0.552561939 0.232764155 0.170524999
0.582921982 0.241872534 0.168247640
0.623529315 0.251739323 0.173181564
0.659709275 0.264389366 0.173687652
0.697027504 0.279569596 0.171410114
0.736495912 0.294750005 0.183554903
0.066413999 0.156230509 0.133586004
0.069449618 0.165338099 0.142694399
0.078811057 0.156862780 0.140417486
0.085768968 0.152688339 0.139784992
0.087666482 0.160151497 0.144971550
0.099810489 0.160151511 0.148007944
0.111954480 0.160278022 0.146110162
0.129032195 0.157115534 0.143200278
0.146236479 0.154079497 0.142567709
0.152308494 0.160151482 0.148640484
0.164705500 0.162934870 0.146236613
0.183174759 0.161796242 0.143326744
0.203035802 0.160278022 0.141302511
0.221125990 0.161416590 0.141935095
0.239341974 0.173561350 0.148007870
0.260088325 0.178115174 0.148893490
0.281467170 0.181151196 0.150411293
0.303984523 0.184440404 0.152941003
0.331308991 0.187476039 0.152941003
0.355471253 0.196204886 0.153067514
0.380012453 0.203036010 0.156609520
0.403162122 0.209108010 0.160278007
0.424794018 0.215306491 0.160530999
0.449082822 0.221378505 0.160530999
0.480328768 0.229854301 0.160530999
0.513472199 0.238709673 0.159392685
0.546489179 0.247944564 0.158381000
0.576849878 0.257052928 0.164453000
0.623149574 0.268817455 0.170145467
0.660720885 0.282606125 0.172675505
0.693991125 0.297786325 0.174193472
0.733459532 0.312965989 0.180518508
0.063757129 0.174319997 0.139151990
0.075521611 0.171790347 0.148260385
0.076407000 0.178747728 0.148766786
0.085515581 0.171410710 0.142188713
0.093611993 0.171030864 0.140796989
0.105756000 0.181150869 0.151423067
0.115370318 0.176090866 0.151929125
0.128779158 0.176976591 0.150916994
0.145983219 0.175458640 0.149904877
0.158507004 0.175078869 0.151676089
0.167488873 0.172422737 0.146110132
0.187729374 0.173434868 0.145098001
0.206451729 0.173561096 0.144085869
0.220873028 0.176090911 0.144085869
0.236432850 0.185578823 0.144844964
0.257052660 0.190512195 0.148513943
0.281341076 0.196584195 0.153573811
0.304743826 0.202403575 0.158127576
0.325237006 0.205439791 0.155850872
0.349778712 0.208475396 0.158633515
0.374066979 0.215433002 0.158760011
0.397343129 0.221505255 0.160784006
0.418722004 0.227704212 0.160657525
0.443010807 0.236558869 0.157874882
0.474130243 0.244908154 0.155597597
0.507526636 0.255407870 0.159139663
0.540417135 0.265022069 0.163693994
0.570777833 0.269323409 0.169765994
0.598481774 0.286400974 0.167868167
0.647058666 0.297280163 0.173181564
0.686274588 0.310183585 0.175458863
0.721695006 0.325363755 0.177482873
0.070840992 0.188487992 0.145224512
0.074889004 0.189500377 0.144212142
0.086527511 0.186843723 0.148766518
0.087792352 0.192916051 0.144465744
0.097280286 0.188741505 0.137634456
0.107779995 0.194307506 0.144844741
0.125490308 0.197343245 0.148892999
0.132953987 0.196204960 0.150537729
0.145477355 0.196964249 0.150917262
0.158127770 0.192663014 0.150917262
0.175585121 0.189626873 0.147121996
0.184692994 0.190639243 0.147122264
0.202150777 0.191777602 0.145983621
0.213535994 0.194560245 0.145098001
0.234029144 0.198355407 0.145098001
0.254016519 0.204680443 0.149525553
0.275268942 0.209234238 0.151043743
0.300316304 0.217204154 0.156103581
0.319924027 0.221632227 0.153067976
0.343706727 0.226692155 0.155597657
0.367994964 0.229727760 0.158633739
0.389247119 0.236685380 0.157748133
0.408855021 0.243896499 0.156989008
0.436938792 0.253004611 0.159645647
0.466034025 0.262112260 0.160657972
0.502213657 0.271220624 0.160404563
0.536369264 0.283238322 0.167235792
0.566729605 0.292346686 0.171789989
0.602530062 0.304617226 0.169892162
0.633396387 0.317520440 0.166856229
0.680834889 0.328399837 0.172169730
0.717647016 0.343580246 0.174446732
0.078431003 0.212017268 0.150158361
0.081846647 0.212776676 0.144085869
0.087033547 0.211511508 0.143326774
0.098798484 0.209993318 0.145983651
0.102972642 0.214927539 0.141050100
0.112839930 0.214168638 0.144085705
0.126375675 0.216698319 0.145983323
0.142820999 0.219734356 0.147881076
0.152688086 0.220493644 0.150917456
0.163314492 0.214421645 0.151297003
0.179506868 0.214674413 0.147248775
0.194940016 0.213409260 0.148260623
0.205186278 0.215306997 0.150158361
0.212018028 0.218342677 0.147375003
0.233649611 0.219228283 0.147375003
0.254395813 0.221758291 0.149904996
0.275648177 0.226691619 0.154079646
0.296900541 0.232763782 0.154079646
0.318152994 0.238836586 0.151549965
0.343327075 0.244908661 0.155218288
0.365338624 0.251359880 0.157115743
0.390638769 0.256419778 0.160151869
0.406831115 0.265401632 0.157242000
0.436179817 0.273497880 0.159266010
0.466540277 0.284882993 0.163061291
0.498797953 0.293990940 0.164958969
0.537255049 0.303099215 0.167488649
0.568247616 0.317014426 0.169892460
0.605439425 0.331815273 0.167615175
0.644781768 0.343326807 0.167994574
0.679949224 0.354206204 0.169386566
0.722200990 0.369386643 0.175964639
0.079190031 0.252245009 0.153194040
0.088045388 0.249209419 0.147628039
0.092346773 0.246679261 0.145351037
0.099430963 0.244655073 0.147122130
0.111575022 0.244781539 0.149905458
0.123719022 0.241745934 0.152941063
0.130803034 0.243263751 0.152941003
0.142820731 0.246299714 0.153194040
0.157748088 0.247565001 0.153700098
0.179000482 0.241493002 0.156736493
0.189373836 0.246552989 0.151802972
0.202530220 0.247058809 0.151549742
0.216572031 0.245161071 0.153194040
0.228968993 0.244908035 0.152941003
0.244149372 0.247944415 0.152941003
0.261733025 0.248576999 0.152941003
0.281214178 0.249841839 0.154459193
0.301960528 0.253257126 0.156863004
0.323212981 0.259329915 0.156863019
0.349778384 0.265908003 0.162175968
0.372169465 0.273371309 0.164958969
0.392663091 0.282479137 0.165211871
0.420113951 0.291714013 0.168373987
0.447564900 0.298039079 0.162808001
0.477166533 0.310942292 0.163314253
0.508918643 0.323592693 0.164706007
0.542315066 0.333460003 0.164452970
0.575711429 0.342567623 0.164452970
0.611258626 0.358886689 0.162049174
0.652245343 0.373560995 0.164832041
0.693358600 0.386590600 0.172169209
0.732827008 0.401771039 0.184313998
0.088298410 0.267425418 0.156230420
0.094370410 0.264389783 0.156230420
0.094623767 0.265654624 0.150664419
0.100442834 0.264895558 0.152182251
0.114610672 0.263251275 0.158886582
0.126755416 0.266033918 0.159013063
0.133839414 0.262998313 0.154459000
0.151423112 0.264516115 0.154585719
0.169386402 0.266792983 0.156230420
0.172928497 0.265780985 0.156736493
0.191271007 0.265527993 0.159772128
0.205565825 0.268817246 0.158886582
0.219607860 0.269449800 0.158380643
0.232005373 0.269196779 0.155977383
0.247184977 0.266160399 0.152941003
0.264769167 0.266792983 0.152941003
0.282985389 0.266792983 0.154459193
0.301201552 0.268058002 0.156863004
0.317140996 0.271473944 0.156863004
0.341176748 0.283112019 0.159645647
0.367995143 0.288298696 0.165211573
0.390385985 0.294623673 0.165970579
0.411005586 0.303858012 0.162302002
0.441366404 0.316002786 0.168374002
0.471094549 0.329158515 0.167361990
0.502846599 0.342947304 0.166603267
0.536243021 0.355471373 0.164199948
0.569639385 0.372928351 0.161416590
0.600379646 0.382036626 0.161416590
0.646173358 0.394813329 0.167868420
0.692093551 0.407842964 0.176976815
0.726754963 0.423023403 0.184313998
0.090195999 0.285009593 0.154459193
0.091461003 0.284377187 0.154459193
0.101834007 0.287792802 0.156609967
0.106388509 0.289816588 0.155091837
0.119671054 0.287539780 0.160784006
0.129791066 0.284503669 0.160784006
0.139278993 0.289690107 0.158127815
0.148639992 0.288298786 0.156989098
0.169133291 0.290575504 0.159266204
0.177356005 0.292219788 0.159266204
0.192409813 0.289816588 0.157368928
0.208602056 0.287792325 0.156356543
0.222643808 0.288930982 0.157115653
0.235294253 0.288930982 0.157115966
0.252625167 0.288045377 0.158380583
0.265401602 0.287412792 0.155344814
0.282100171 0.285894990 0.153826624
0.298798203 0.285641998 0.154459193
0.313978165 0.288677961 0.154459208
0.335104108 0.292852819 0.159645647
0.361290604 0.304996789 0.158886746
0.387602985 0.312586963 0.163440809
0.408854991 0.323086292 0.163187817
0.434661806 0.332953781 0.164705813
0.465021998 0.345097989 0.161669806
0.495382696 0.360151440 0.162808135
0.527767241 0.373307973 0.162302196
0.561163604 0.387728959 0.161163554
0.596710801 0.402782798 0.158380806
0.637697518 0.417204350 0.169006750
0.684882760 0.429727942 0.179759800
0.718279183 0.441872001 0.184313998
0.094750188 0.306261986 0.154459193
0.094750188 0.306261986 0.151423201
0.097280197 0.307526976 0.152055785
0.109424189 0.314864129 0.157621846
0.122327805 0.314864188 0.161163554
0.134851053 0.308792174 0.162302196
0.142441511 0.309804201 0.155218333
0.153194189 0.314104974 0.156989485
0.165338188 0.314104974 0.159266204
0.179759502 0.316381693 0.159266204
0.194939867 0.313599080 0.159392685
0.213156238 0.310562938 0.160910726
0.228336632 0.309803843 0.159012988
0.240354195 0.309930354 0.160910800
0.253510624 0.308665186 0.160151586
0.266919792 0.310183376 0.159898609
0.282100171 0.310183376 0.158380806
0.297912955 0.307780176 0.155976996
0.313978255 0.309930414 0.155977011
0.333206385 0.311448544 0.158507019
0.355217844 0.318658978 0.160404548
0.381530881 0.329791129 0.159392938
0.405818999 0.341429174 0.164706007
0.430107802 0.351928890 0.164706007
0.457432181 0.363314390 0.161669806
0.490575135 0.375458360 0.162555471
0.521695018 0.390512258 0.163820133
0.555091619 0.403668374 0.160784006
0.589626610 0.419986993 0.162681639
0.627071321 0.432384372 0.158380955
0.675648153 0.450600952 0.174825981
0.712207198 0.461606175 0.179759800
0.100696005 0.330550134 0.156863004
0.102593414 0.332447529 0.152688414
0.101328425 0.331182539 0.149652421
0.106388420 0.334345132 0.152182415
0.119670965 0.341935545 0.160910591
0.138139993 0.336116552 0.164199948
0.144971490 0.335104555 0.155850992
0.154965430 0.336748838 0.153573990
0.167109579 0.338393122 0.158760414
0.179253593 0.338393122 0.158760414
0.196204856 0.336116433 0.161037117
0.214168251 0.333080292 0.164199576
0.231878653 0.332953632 0.167362005
0.247059047 0.335484028 0.167109042
0.254269570 0.332447708 0.161416590
0.265780985 0.334218800 0.161416575
0.280961365 0.335736990 0.161416575
0.299177945 0.335104555 0.160784006
0.317394018 0.335104555 0.160784006
0.333712608 0.335104555 0.161416575
0.353826344 0.338899404 0.160784006
0.376090676 0.348007292 0.161163568
0.400505930 0.357242137 0.163820446
0.425300807 0.369386166 0.162808448
0.451866269 0.380898148 0.162428722
0.482099950 0.394940108 0.163693681
0.517520130 0.407590091 0.170777947
0.550790727 0.422770381 0.161922559
0.586717367 0.438709527 0.164199576
0.621884763 0.454775304 0.163946673
0.661227167 0.464642525 0.159772411
0.709803998 0.482858539 0.171916425
0.094623983 0.354838997 0.156863004
0.103731588 0.363946617 0.159898624
0.101328030 0.361543059 0.155724049
0.103352025 0.361037046 0.153953224
0.116634570 0.366223633 0.157874987
0.137886956 0.363187999 0.163946971
0.141176000 0.362429023 0.159646004
0.149904758 0.364073306 0.159646004
0.164073244 0.365591109 0.164958894
0.176217988 0.362682015 0.167868018
0.199999973 0.362682015 0.167868033
0.217457250 0.360404760 0.166097268
0.230866641 0.360784024 0.163820326
0.240987048 0.365844101 0.161037058
0.256167412 0.362808496 0.158001438
0.270588160 0.364579201 0.161922976
0.287033409 0.366097063 0.164452970
0.305249989 0.365464658 0.163820401
0.323466003 0.362429023 0.160784006
0.333333373 0.362429023 0.163567364
0.350790739 0.362429023 0.162555233
0.373054981 0.366224140 0.160784021
0.397469550 0.375458986 0.160784066
0.424794734 0.387602955 0.154712051
0.451866299 0.397470236 0.158254042
0.480581969 0.412397623 0.162175685
0.511448145 0.431878924 0.164705947
0.541808844 0.447058499 0.161669567
0.585705459 0.456925869 0.158127859
0.624920845 0.475648403 0.159392744
0.664009809 0.494244337 0.162302047
0.709803998 0.504111052 0.168880045
0.082985282 0.406957746 0.159645647
0.086527601 0.410500050 0.162681982
0.097785987 0.417457432 0.165717587
0.103098996 0.416445464 0.165338174
0.115243092 0.417963445 0.167236015
0.129285276 0.412524015 0.163694009
0.142947346 0.412018090 0.162175685
0.148893058 0.412018090 0.158001363
0.164073363 0.413915366 0.159898907
0.184313640 0.414927244 0.162934512
0.202530354 0.409234762 0.165844351
0.220746607 0.407210499 0.167868078
0.238203987 0.405312747 0.168627292
0.253890306 0.407589734 0.168880329
0.264010072 0.407083809 0.165844068
0.283997446 0.406451404 0.165211648
0.301454753 0.407589734 0.167488649
0.318406343 0.407589734 0.167488649
0.332321376 0.406704366 0.166603029
0.353320748 0.406451404 0.166350007
0.368121386 0.406451404 0.167488649
0.388488144 0.406451404 0.166350007
0.410878867 0.410120070 0.166097015
0.432890356 0.416951746 0.160025001
0.462492198 0.431372434 0.160784304
0.491714299 0.444275677 0.163567364
0.522074759 0.461733073 0.165211946
0.552434862 0.476913244 0.166729555
0.588108599 0.489436716 0.163693860
0.631498992 0.505755544 0.164199769
0.674383104 0.527261198 0.169892222
0.723719358 0.542062104 0.179759711
0.067046009 0.440733731 0.158886746
0.071979657 0.443770140 0.161922663
0.077672273 0.448956728 0.166856229
0.091081426 0.449968725 0.168626994
0.104996562 0.449083179 0.171030805
0.121695131 0.447564989 0.169512987
0.131942004 0.450347990 0.162175685
0.150664002 0.450347990 0.157495007
0.163314462 0.449589074 0.158001259
0.185325757 0.450347990 0.164452523
0.201897740 0.448450476 0.163693875
0.218089774 0.448197216 0.162934750
0.233270168 0.445161104 0.163693637
0.253510535 0.444402218 0.165717974
0.272485584 0.444402218 0.169259578
0.287412792 0.442504466 0.166729748
0.307147384 0.444022655 0.166729748
0.325363964 0.444402218 0.167362154
0.340038031 0.444402218 0.168626994
0.358633637 0.442504466 0.162934750
0.377988726 0.444402218 0.162934750
0.396204740 0.443390071 0.164958745
0.416571498 0.442757457 0.166856229
0.437823892 0.448829800 0.166096985
0.460214794 0.454143167 0.161163554
