Assets/Shaders/EldamarStudio/100 Sci-Fi LUTs Pack/LUTs/cube/Aldlid LUT.cube
LUT_3D_SIZE 8
DOMAIN_MIN 0.000000 0.000000 0.000000
DOMAIN_MAX 0.903226 0.903226 0.903226
0.023529001 0.054901998 0.129411995
0.046173092 0.055660997 0.130171001
0.127640992 0.070588000 0.141935095
0.209108278 0.062744997 0.141176000
0.302340388 0.061859995 0.140290990
0.395698994 0.088045739 0.145098001
0.501201570 0.120556280 0.155218288
0.634534776 0.164958954 0.168626994
0.045920454 0.084250547 0.140416995
0.057558544 0.080328546 0.127007991
0.133586556 0.089310892 0.141555548
0.207590088 0.099936642 0.140796646
0.297786176 0.098671995 0.136495814
0.389374197 0.124984249 0.151802748
0.488677979 0.151170000 0.160784006
0.612270594 0.187349796 0.163820282
0.060341999 0.141050100 0.139658004
0.084630094 0.144971088 0.132827535
0.137128100 0.144971102 0.139532089
0.205692634 0.148513556 0.144718453
0.287539184 0.164453000 0.148133993
0.381909728 0.184819996 0.150158256
0.486401170 0.214674294 0.157495007
0.623529315 0.251739323 0.173181564
0.078431003 0.212017268 0.150158361
0.102972642 0.214927539 0.141050100
0.152688086 0.220493644 0.150917456
0.205186278 0.215306997 0.150158361
0.275648177 0.226691619 0.154079646
0.365338624 0.251359880 0.157115743
0.466540277 0.284882993 0.163061291
0.605439425 0.331815273 0.167615175
0.094750188 0.306261986 0.154459193
0.122327805 0.314864188 0.161163554
0.165338188 0.314104974 0.159266204
0.228336632 0.309803843 0.159012988
0.282100171 0.310183376 0.158380806
0.355217844 0.318658978 0.160404548
0.457432181 0.363314390 0.161669806
0.589626610 0.419986993 0.162681639
0.067046009 0.440733731 0.158886746
0.104996562 0.449083179 0.171030805
0.163314462 0.449589074 0.158001259
0.233270168 0.445161104 0.163693637
0.307147384 0.444022655 0.166729748
0.377988726 0.444402218 0.162934750
0.460214794 0.454143167 0.161163554
0.594560325 0.517899752 0.162175849
0.002277288 0.585831821 0.153574005
0.001897740 0.592536092 0.162808269
0.093105629 0.594180763 0.156863004
0.209993646 0.591524184 0.155091658
0.303225994 0.589753270 0.153574005
0.387856007 0.588867545 0.153320551
0.482226551 0.591018319 0.160784006
0.590006530 0.613788545 0.151802659
0.002656833 0.767994583 0.200252965
0.002277285 0.776090860 0.183048353
0.004301169 0.777735472 0.194433898
0.158127487 0.777102768 0.196584374
0.296521187 0.778747439 0.191271320
0.412650466 0.776343822 0.194813162
0.521948218 0.777988136 0.197469905
0.642504573 0.779632747 0.204174638
0.045034546 0.070208549 0.145477548
0.058317542 0.067046449 0.142694101
0.130044103 0.068943903 0.150917456
0.195066288 0.081846647 0.163567364
0.265528202 0.088551797 0.163440749
0.365464717 0.108412348 0.171663284
0.469070464 0.128399700 0.182795718
0.597343624 0.161922678 0.191650838
0.044655092 0.079949096 0.145856991
0.068564542 0.080328546 0.146236554
0.111954190 0.092093542 0.150537997
0.173560739 0.107400090 0.156483367
0.259708852 0.111701541 0.158760548
0.355597496 0.126881987 0.169259995
0.467298985 0.156609714 0.182669282
0.602403402 0.192156523 0.196331248
0.077546090 0.130044103 0.152055994
0.092852540 0.136748657 0.157621905
0.122960091 0.133207098 0.152055994
0.186084643 0.142188445 0.161543101
0.263251096 0.158254281 0.166224003
0.351296514 0.179759547 0.177988812
0.457179070 0.205819190 0.181530550
0.591397762 0.248450309 0.182163253
0.087665997 0.199240729 0.157874644
0.113598995 0.196078539 0.163061187
0.148386732 0.202024087 0.161037445
0.194560632 0.199620277 0.161796555
0.256799370 0.214927629 0.168121547
0.347754389 0.240860537 0.177356005
0.458570629 0.279443294 0.183048651
0.593421638 0.324857742 0.186717287
0.106135540 0.291460991 0.172169358
0.124731004 0.292093188 0.174067184
0.170018896 0.288172096 0.178368449
0.224161997 0.294117540 0.180012643
0.278178185 0.294876575 0.176091358
0.342315167 0.307020962 0.180771545
0.447058737 0.352561802 0.183428288
0.587096572 0.409867018 0.189500362
0.092220008 0.419354916 0.173434809
0.120177001 0.423655987 0.182037011
0.165085360 0.425553650 0.183807641
0.232764006 0.426691979 0.178873897
0.300442636 0.425174177 0.177609444
0.368500918 0.428715736 0.178368449
0.450094998 0.443896472 0.181530550
0.580771387 0.510183513 0.185452253
0.000000000 0.569892526 0.179000542
0.009867013 0.571031034 0.174825996
0.105249897 0.574952424 0.182036534
0.213788539 0.573434234 0.183301747
0.299177915 0.577103317 0.178747997
0.382542729 0.577609062 0.174952716
0.475648284 0.592536569 0.186211541
0.582795680 0.614041746 0.175838113
0.003795180 0.757368684 0.213788688
0.004553989 0.769513011 0.214168251
0.002024172 0.769006848 0.212397188
0.156862944 0.769259751 0.218089730
0.291207910 0.767994940 0.214421168
0.407463610 0.768121421 0.212776542
0.518532693 0.770272017 0.219101667
0.643643320 0.773560882 0.222770616
0.037571095 0.082353003 0.188109100
0.080202542 0.076913007 0.191271201
0.140164092 0.071347095 0.187350005
0.193422079 0.083871096 0.183048636
0.260847300 0.097912900 0.193548292
0.347754359 0.119038478 0.208728909
0.442504644 0.142568097 0.218596086
0.574952364 0.166856080 0.232004985
0.068564445 0.099177547 0.176344097
0.092852548 0.104237996 0.177988887
0.136369079 0.099936545 0.174826100
0.181783989 0.112080991 0.182669088
0.253131211 0.125869542 0.190891638
0.337254941 0.144591734 0.203921616
0.437444538 0.167615086 0.213915274
0.572675169 0.195445642 0.236179531
0.081467196 0.136369199 0.179507002
0.104996994 0.139532000 0.175205529
0.144212186 0.146489099 0.183427989
0.188361734 0.156356543 0.187729448
0.250727177 0.165338188 0.190512091
0.330550373 0.184187099 0.207337260
0.430613369 0.209993795 0.214800999
0.574572682 0.240733922 0.234534815
0.112080999 0.192915633 0.190512002
0.126881897 0.193801537 0.185325637
0.163694009 0.202024177 0.192030102
0.200885534 0.202024087 0.189626992
0.254142851 0.212271094 0.198355094
0.330423474 0.235294104 0.205692634
0.435294271 0.269702911 0.219101727
0.571157217 0.315369755 0.234661639
0.130803093 0.278178185 0.201517999
0.146489277 0.281214386 0.205439702
0.181024998 0.279570103 0.202909291
0.218216538 0.282352835 0.201011732
0.263377786 0.282732397 0.202909291
0.330170631 0.299557447 0.209234804
0.433902562 0.344338983 0.221884906
0.572295606 0.402656615 0.233143449
0.127640739 0.404553801 0.224667743
0.145983815 0.406830937 0.219481274
0.183554813 0.409614265 0.221885100
0.234914646 0.407590002 0.217963085
0.299683541 0.407590032 0.223908827
0.355217814 0.409487486 0.213535726
0.438962609 0.430487156 0.219481364
0.568753958 0.496647805 0.233017012
0.009867013 0.551675916 0.216951191
0.032384545 0.557368755 0.216951549
0.129917830 0.556862593 0.226439089
0.208475709 0.560531437 0.221758381
0.293611348 0.561922789 0.226312369
0.380644977 0.569006622 0.228336632
0.467299223 0.582416356 0.227957278
0.578494310 0.605059803 0.232637554
0.000000000 0.746995568 0.262239158
0.002656735 0.754712105 0.267045915
0.007716909 0.754458845 0.266160667
0.173307836 0.754838586 0.270841360
0.291208297 0.758380711 0.262998253
0.406704515 0.757495463 0.269449919
0.519164860 0.762681603 0.269323170
0.637697518 0.772422314 0.280328870
0.064516351 0.078431003 0.254522294
0.111195184 0.069449648 0.260215104
0.177103087 0.075648353 0.247185647
0.226438984 0.085768647 0.243769988
0.275395542 0.098292351 0.228462830
0.352814734 0.123086996 0.245793745
0.447944582 0.146868929 0.264010280
0.577355802 0.172802016 0.291714013
0.093864895 0.108918183 0.239342541
0.116381638 0.115622543 0.228462741
0.155344725 0.112839997 0.229221731
0.211511999 0.117899731 0.229221642
0.260974079 0.125363991 0.223403081
0.337254733 0.143706739 0.233396381
0.434535176 0.169259906 0.258444160
0.566223621 0.198608547 0.287159741
0.114358090 0.155977100 0.232132003
0.135230646 0.153067723 0.220873088
0.164452985 0.167362452 0.221378639
0.206830993 0.162555441 0.220113993
0.257431835 0.168753728 0.226185828
0.324984163 0.190765455 0.241365999
0.427956909 0.218975455 0.263251066
0.557748139 0.247565001 0.286274731
0.127766997 0.210246637 0.225806281
0.142568007 0.206324935 0.221758187
0.175837621 0.215433180 0.223276183
0.223149985 0.225932643 0.229221642
0.268184811 0.232890606 0.238583446
0.331309289 0.248323992 0.249968275
0.420493275 0.276407272 0.264010310
0.556609809 0.316634625 0.289184004
0.150031537 0.271347553 0.242631435
0.162681654 0.277672529 0.236685798
0.193168640 0.282859057 0.233523101
0.240607187 0.292220175 0.247311831
0.279064178 0.301455110 0.249968290
0.334092647 0.308665276 0.249588728
0.428083718 0.344085842 0.273624212
0.554079533 0.396837175 0.288804650
0.150663912 0.395698994 0.266413867
0.164452657 0.398735076 0.265275419
0.201265365 0.404174387 0.269576281
0.248956650 0.404048085 0.267931908
0.300948769 0.404174447 0.268058181
0.351296633 0.406957716 0.268058091
0.429981202 0.424668014 0.271473736
0.560910821 0.490828544 0.295888811
0.034535177 0.541176200 0.282099932
0.083112001 0.547121823 0.284503281
0.155218184 0.546109915 0.287159830
0.225300640 0.548386931 0.285894990
0.296774298 0.553194106 0.289436907
0.380138904 0.554838657 0.288424820
0.457558662 0.568121195 0.292726278
0.566476762 0.601897418 0.300695986
0.000000000 0.740670383 0.335357279
0.002277285 0.743073702 0.338899165
0.027577512 0.748134017 0.342441618
0.187602639 0.747627735 0.340796798
0.301201642 0.747754633 0.343579948
0.409487575 0.750410795 0.340796798
0.514737368 0.752688229 0.348260641
0.624161720 0.762934983 0.350790590
0.121315181 0.081467383 0.350031555
0.161796346 0.085009545 0.348133832
0.209234893 0.089310795 0.333712995
0.265148818 0.099051349 0.327767015
0.321062356 0.114358187 0.315623194
0.365844399 0.128779441 0.301328242
0.447944462 0.148134202 0.319418252
0.579759538 0.175079018 0.362934828
0.134471551 0.130423531 0.320809633
0.159898907 0.130423531 0.322327644
0.198481724 0.131182641 0.315243542
0.255787641 0.137887195 0.314990252
0.306008697 0.142568186 0.309930444
0.354838371 0.150790736 0.299303979
0.442125142 0.173055202 0.317646742
0.569133341 0.203162625 0.359013230
0.142568097 0.185705289 0.305629194
0.169386283 0.190006450 0.306767821
0.201391280 0.191144913 0.302340180
0.247565091 0.191144988 0.298039556
0.296141863 0.190385997 0.294496983
0.337887734 0.197090462 0.285515428
0.435420364 0.217077911 0.315622985
0.561669827 0.250980437 0.356989384
0.148893192 0.242378622 0.294117540
0.170904189 0.243896529 0.300442725
0.204806745 0.245920181 0.295635730
0.245794088 0.251865834 0.291334182
0.289310515 0.247438282 0.290195823
0.337507963 0.255281180 0.292093277
0.429474890 0.283491194 0.315875798
0.558507204 0.319797546 0.357748359
0.155977011 0.299303979 0.288172185
0.179506794 0.302340358 0.293358535
0.209234893 0.301581293 0.289943218
0.254016191 0.308285713 0.299303979
0.307147384 0.329791397 0.304744154
0.361669749 0.338772744 0.313725442
0.440227568 0.360910565 0.335231155
0.561543226 0.403542191 0.368627161
0.161669821 0.393674731 0.313092738
0.169133440 0.396710902 0.316382080
0.209108457 0.397849262 0.315749377
0.254143089 0.402530074 0.320050627
0.313092738 0.419101983 0.331435978
0.371283978 0.429221958 0.333333641
0.445920169 0.444781750 0.344212651
0.560404837 0.491334796 0.371157348
0.034408659 0.538646340 0.347754478
0.055914085 0.542947054 0.347628057
0.139405549 0.544971347 0.348513395
0.225933000 0.544085741 0.352814615
0.310309917 0.548766434 0.366603196
0.382922351 0.551043749 0.360531211
0.462745249 0.561922550 0.364832163
0.567741811 0.597596109 0.383554459
0.000000000 0.733459711 0.400252789
0.000379548 0.742567956 0.410499662
0.047817983 0.736242950 0.417457283
0.211132258 0.733586550 0.426438600
0.308918536 0.738013923 0.420872986
0.408981800 0.744465590 0.420999467
0.512460351 0.745730460 0.423655689
0.629348218 0.752308547 0.433776170
0.162428737 0.107779734 0.469702452
0.190006539 0.110056542 0.470588475
0.236179724 0.115243189 0.467805207
0.301581383 0.120556377 0.458697349
0.364705741 0.131182730 0.443263471
0.418975472 0.142947733 0.428715706
0.475648016 0.157115549 0.416951180
0.579632759 0.176596820 0.448070794
0.160658002 0.151802555 0.450221479
0.181783989 0.150410995 0.452624947
0.232384637 0.149904922 0.447817475
0.291334480 0.158254102 0.437317938
0.354965091 0.160151735 0.430613488
0.412776649 0.169892475 0.418848455
0.469702750 0.180518731 0.411258906
0.577988148 0.204554096 0.444149286
0.163314342 0.213030100 0.429854363
0.188108802 0.217710301 0.434535146
0.224161997 0.217204347 0.422770441
0.281340957 0.215686545 0.417583793
0.339911252 0.220872909 0.413029790
0.393927991 0.224414736 0.407590032
0.454016268 0.229221836 0.400000006
0.567235827 0.254142821 0.441366345
0.162302017 0.282099813 0.413788736
0.190512195 0.279822707 0.408855110
0.228336528 0.279063821 0.399873435
0.277419269 0.280328900 0.407210469
0.326502383 0.282732189 0.398861527
0.382163078 0.287918836 0.392156601
0.446047008 0.290955007 0.394686967
0.566729665 0.320936173 0.443137467
0.161163554 0.348513246 0.399620533
0.180139154 0.345603913 0.393801391
0.222264543 0.348387301 0.397723079
0.265654773 0.352055609 0.399746925
0.329158783 0.353067458 0.392536223
0.378368199 0.355471164 0.391397476
0.444528818 0.363693714 0.402782917
0.566097558 0.403162360 0.448956072
0.153320536 0.424920708 0.407463461
0.157368749 0.428715736 0.396078467
0.204933733 0.426691979 0.398228824
0.258823901 0.423908830 0.397596747
0.317394197 0.432131648 0.406704932
0.391777486 0.456040710 0.420746237
0.472485989 0.478051990 0.434914917
0.573307872 0.508918524 0.465401709
0.033270013 0.532068312 0.418722242
0.048829988 0.535104275 0.417583913
0.144718185 0.532953799 0.420366645
0.218469635 0.538899183 0.422390819
0.300569236 0.547880828 0.432637572
0.391524464 0.570018888 0.455281407
0.475395262 0.582163334 0.461480200
0.584060431 0.612144232 0.483364731
0.001265167 0.724857569 0.489310563
0.001265167 0.730044425 0.501454771
0.003415643 0.728399813 0.497280270
0.138267040 0.727134645 0.492725998
0.291081429 0.730297267 0.498924881
0.410120457 0.733333468 0.511701524
0.512839973 0.740543723 0.518785417
0.622643650 0.750537634 0.519418001
0.168626994 0.138519987 0.639721513
0.198988259 0.142821029 0.635800600
0.251739293 0.146363184 0.628083467
0.321188986 0.152561277 0.625173926
0.395572394 0.163567185 0.613156557
0.464895725 0.172169283 0.600632548
0.540417552 0.185578987 0.588741541
0.614674509 0.199620277 0.582795680
0.170271739 0.181657284 0.624035597
0.193674996 0.190512091 0.628715813
0.247311652 0.187855989 0.619987547
0.319924027 0.191397533 0.618216217
0.389247179 0.196837634 0.609361172
0.465275288 0.206704572 0.604048014
0.537128568 0.212903276 0.591397822
0.608854949 0.227324530 0.576849937
0.171157718 0.248070791 0.612270772
0.194939747 0.248197377 0.609108269
0.245414287 0.249715075 0.596457660
0.308665365 0.254016638 0.595572531
0.380012453 0.260721177 0.590132892
0.450727522 0.263124377 0.582289517
0.523086309 0.267552257 0.573687553
0.599241018 0.275648087 0.568753719
0.162428722 0.335863262 0.584313869
0.192662850 0.328399807 0.577862203
0.236938730 0.332320988 0.576849759
0.299304008 0.333079875 0.578621268
0.366223812 0.331056356 0.572549164
0.439342350 0.337887436 0.572548926
0.508032799 0.342061967 0.564199805
0.588361800 0.345224470 0.566097319
0.130423918 0.414800465 0.572675586
0.170145661 0.409740895 0.564705968
0.220999107 0.414927334 0.565591574
0.284123719 0.412650198 0.561543226
0.350916982 0.415812731 0.557368517
0.422897190 0.413282633 0.554079533
0.496394366 0.420366764 0.556483328
0.581783414 0.422770202 0.560657859
0.092346996 0.495635569 0.564832091
0.125616565 0.496268213 0.563567340
0.187729105 0.492852628 0.561543107
0.259582698 0.491967022 0.553320706
0.334851444 0.495003015 0.551802814
0.411258280 0.503352463 0.549525559
0.491207808 0.504996717 0.552688420
0.580392063 0.511954546 0.559266090
0.008222721 0.585452557 0.562934875
0.026312456 0.580898523 0.550284564
0.121315539 0.581530511 0.551043749
0.225173995 0.578115225 0.555724263
0.311195284 0.583301723 0.551170230
0.405312717 0.592536569 0.553447545
0.505755544 0.618469298 0.585452557
0.608222604 0.644402564 0.603794992
0.000000000 0.725237131 0.604933321
0.002277285 0.719038367 0.600253224
0.000000000 0.719164670 0.601138413
0.098671563 0.727134824 0.595445693
0.270714641 0.730803192 0.603921354
0.397469550 0.737128377 0.607969522
0.531562328 0.749904871 0.625300229
0.642124891 0.755218089 0.634408653
0.143706337 0.212143779 0.812397420
0.180898458 0.210752785 0.806577682
0.244402260 0.214168042 0.807590067
0.319038481 0.222390980 0.803415358
0.405186385 0.227830783 0.801897585
0.493611455 0.244149357 0.794180632
0.584313512 0.258443803 0.789753139
0.673624575 0.270967782 0.779632807
0.142694488 0.253257334 0.812397420
0.182669476 0.247944340 0.810499907
0.237824544 0.251486689 0.800126433
0.323465973 0.255661130 0.800126493
0.406578362 0.265148520 0.799873233
0.495888352 0.274383545 0.796078563
0.582289696 0.286907017 0.787982166
0.678558052 0.299557328 0.777735591
0.156483173 0.316002637 0.800252736
0.178747997 0.320429862 0.797469735
0.235547259 0.317394018 0.797343314
0.316634983 0.321947873 0.795951843
0.393548340 0.327767134 0.791650712
0.484250516 0.334851027 0.788741410
0.577102959 0.343453646 0.781783521
0.669196844 0.351170123 0.771789551
0.161037356 0.408855051 0.782669008
0.182036817 0.405819058 0.784819543
0.237318173 0.405439645 0.780898213
0.314357609 0.409614235 0.784186959
0.393801451 0.412523746 0.779380202
0.480076075 0.416318417 0.772548735
0.567741692 0.421378851 0.769512773
0.664769173 0.425426781 0.765591383
0.155471340 0.497279942 0.778494418
0.184946179 0.500569165 0.774446547
0.237191647 0.498798132 0.774066985
0.309551090 0.497912943 0.772295952
0.384566784 0.501201928 0.765211880
0.470967710 0.501581132 0.764705837
0.559013426 0.500822425 0.759645462
0.654522598 0.503858089 0.757368624
0.079569802 0.579506397 0.767868578
0.126122698 0.582416296 0.765085220
0.194687158 0.583301723 0.766223550
0.284882873 0.583807588 0.762049258
0.378494740 0.587349772 0.757621765
0.466919720 0.590132535 0.754965425
0.554711878 0.588994026 0.749525845
0.647691369 0.589247406 0.750158310
0.004807300 0.671600521 0.764199376
0.009234674 0.673497796 0.767235637
0.133965597 0.670082211 0.760657847
0.246299505 0.675521672 0.760531127
0.351802826 0.677545726 0.755977035
0.454522401 0.680581808 0.754838467
0.557115555 0.683870792 0.746489406
0.656673014 0.687792361 0.753573358
0.001265167 0.765464544 0.766729772
0.001265167 0.775205374 0.762049377
0.003795100 0.767994583 0.758254170
0.174067125 0.772042751 0.760151625
0.314231515 0.766729772 0.744085670
0.434914440 0.772042692 0.746615648
0.558760047 0.780771673 0.755976975
0.700316370 0.804680526 0.778621256
