Assets/Shaders/EldamarStudio/100 Sci-Fi LUTs Pack/LUTs/cube/Aldlid LUT.cube
LUT_3D_SIZE 5
DOMAIN_MIN 0.000000 0.000000 0.000000
DOMAIN_MAX 0.903226 0.903226 0.903226
0.023529001 0.054901998 0.129411995
0.107906409 0.070588000 0.141176000
0.257684976 0.059456423 0.144465417
0.417963237 0.096141994 0.148134127
0.634534776 0.164958954 0.168626994
0.054269418 0.125869706 0.143453285
0.124224991 0.129791290 0.137254998
0.251739383 0.143200412 0.146742702
0.412017673 0.178241283 0.153953299
0.622770429 0.236811951 0.173181579
0.088298410 0.267425418 0.156230420
0.151423112 0.264516115 0.154585719
0.247184977 0.266160399 0.152941003
0.390385985 0.294623673 0.165970579
0.600379646 0.382036626 0.161416590
0.040733755 0.468058109 0.155850872
0.137507871 0.481720120 0.159519002
0.271726519 0.477799118 0.165717706
0.399241120 0.479823142 0.157874867
0.594307303 0.541682184 0.157874867
0.002656833 0.767994583 0.200252965
0.000000000 0.776723266 0.192409962
0.231498986 0.777735174 0.193674967
0.436938673 0.777355790 0.195572257
0.642504573 0.779632747 0.204174638
0.044402007 0.082353003 0.177482694
0.126502290 0.070588000 0.177482709
0.223276272 0.088298410 0.179127410
0.376344144 0.124857575 0.202656582
0.584819794 0.168121234 0.221631825
0.073876992 0.124224991 0.169639707
0.125236690 0.129791275 0.175837994
0.218089685 0.147121996 0.181404278
0.358380854 0.177608684 0.198734999
0.584187031 0.229601651 0.222643852
0.117014416 0.239341974 0.181024998
0.159519419 0.240986705 0.189879701
0.236053407 0.243896410 0.194180578
0.363187730 0.277292848 0.199999839
0.578621030 0.362049103 0.219734401
0.103099577 0.443769962 0.207210571
0.159518987 0.450347722 0.205945402
0.266160816 0.447058976 0.206577986
0.384566694 0.450727671 0.211764574
0.575078845 0.523972034 0.219101980
0.000000000 0.753826857 0.246046618
0.001644708 0.757241845 0.250221670
0.239089087 0.763946772 0.254395992
0.432763964 0.764073133 0.256546646
0.635926545 0.770904481 0.259582490
0.101454392 0.075142421 0.302086979
0.178874105 0.082732707 0.289690375
0.272738397 0.097406581 0.274635971
0.378620982 0.130170986 0.272359282
0.573687196 0.172675818 0.328272969
0.130423695 0.162175983 0.270714402
0.170398265 0.162808403 0.259962112
0.250474393 0.167741701 0.257305682
0.353194237 0.183428273 0.264263242
0.559013247 0.234155819 0.318532377
0.143200412 0.255028814 0.247817561
0.187349692 0.252751678 0.254649103
0.270714819 0.277292818 0.266160429
0.361669958 0.295635372 0.284124285
0.544971168 0.355850816 0.322454244
0.143580168 0.420240551 0.288424999
0.183175281 0.425806701 0.290955424
0.278557986 0.435926557 0.303099096
0.378368139 0.435040832 0.301454395
0.563567281 0.512586951 0.333333075
0.001265006 0.729412019 0.371663600
0.012650304 0.736242890 0.375837922
0.240481004 0.743200421 0.375458628
0.431498975 0.745477438 0.376850039
0.624288380 0.764832020 0.390006602
0.173561126 0.113851994 0.511195362
0.231119275 0.120050542 0.511574864
0.341049701 0.133712709 0.493864417
0.450348109 0.151043996 0.464136392
0.580897927 0.177355975 0.471346945
0.168626994 0.205692276 0.484756261
0.226692125 0.207589701 0.477925122
0.327640831 0.213536114 0.468058407
0.431372404 0.219101831 0.447817951
0.569765866 0.239721522 0.462871522
0.164073423 0.328905821 0.442125261
0.217077985 0.330297261 0.445414424
0.308032840 0.327640831 0.437317967
0.406198263 0.327387542 0.423529565
0.564326286 0.356482953 0.461606801
0.128019884 0.457305253 0.430740118
0.177356288 0.463377565 0.432384282
0.285389125 0.462112397 0.431499124
0.415054142 0.496521235 0.460215122
0.585198879 0.538014114 0.498545080
0.000000000 0.728399694 0.513346076
0.001897579 0.730676770 0.526881814
0.216065839 0.729791403 0.518785655
0.439721793 0.736369252 0.536242723
0.617836535 0.753320694 0.544465542
0.143706337 0.212143779 0.812397420
0.227450833 0.212397069 0.809108019
0.361543238 0.225806370 0.801897407
0.515369952 0.247185469 0.788614750
0.673624575 0.270967782 0.779632807
0.155218124 0.296774507 0.797975540
0.221631825 0.297406524 0.802656412
0.356736124 0.302340209 0.793927670
0.509550989 0.317393929 0.784946024
0.670461774 0.336748660 0.776597023
0.166223973 0.454775333 0.784439981
0.229854271 0.448576897 0.772928238
0.349905223 0.452751577 0.775205135
0.495762229 0.460088134 0.770018578
0.656167030 0.460594594 0.761543214
0.041113537 0.604554057 0.763820052
0.168121547 0.602530003 0.764452517
0.323212802 0.607463896 0.756989419
0.487412781 0.612650096 0.752688110
0.649462461 0.613282919 0.751423240
0.001265167 0.765464544 0.766729772
0.001012124 0.765464604 0.758254409
0.249336034 0.770018995 0.753067851
0.465021908 0.775584877 0.748133838
0.700316370 0.804680526 0.778621256
