Assets/Shaders/EldamarStudio/100 Sci-Fi LUTs Pack/LUTs/cube/Amelia LUT.cube
DOMAIN_MIN 0 0 0
DOMAIN_MAX 1 1 1
LUT_3D_SIZE 32
0.007843000 0.000000000 0.094117999
0.001771000 0.000000000 0.091081612
0.000000000 0.004300999 0.092346773
0.001265161 0.009108162 0.096648000
0.003922000 0.012903451 0.102720000
0.003922000 0.022011064 0.108792000
0.001391678 0.028589645 0.107273676
0.003288997 0.036306284 0.107526705
0.012397194 0.045414094 0.111321993
0.030613992 0.054522485 0.117394000
0.066286996 0.060720995 0.120556869
0.098671496 0.068817250 0.129664987
0.127893642 0.079063997 0.138393357
0.155218035 0.090449028 0.141429037
0.182542384 0.093485415 0.144465417
0.212270588 0.103731990 0.147501811
0.242631376 0.117394179 0.152055994
0.272359550 0.131309405 0.158127993
0.299683988 0.140417039 0.164200023
0.321442395 0.149525359 0.170272008
0.344591975 0.160530984 0.182036728
0.367868125 0.171663120 0.195193127
0.389373481 0.181151003 0.204301476
0.416697919 0.199367821 0.213409096
0.446299553 0.213029996 0.224794567
0.475268632 0.226565644 0.235547304
0.503099144 0.241746068 0.244148999
0.533459842 0.256926417 0.250220984
0.569133580 0.272106111 0.258949816
0.600253105 0.292599380 0.275142163
0.630234182 0.316887945 0.296394587
0.666666985 0.341176003 0.317647010
0.007843000 0.000000000 0.088045999
0.001771000 0.003036387 0.100189999
0.002150774 0.007337387 0.099304385
0.001771226 0.014674225 0.097659998
0.000885613 0.022770159 0.097027451
0.000885613 0.037191451 0.105755612
0.005945612 0.033649389 0.106767610
0.006072000 0.042631313 0.110815704
0.015433190 0.053004485 0.115875997
0.042757988 0.057558876 0.117394008
0.069702871 0.069576383 0.126375854
0.105755880 0.077925637 0.133712739
0.135863379 0.084756732 0.139152259
0.161543071 0.091461033 0.138899416
0.191650778 0.105629414 0.147501811
0.214168176 0.113472797 0.148134395
0.239595369 0.121948376 0.152055994
0.265654981 0.131941974 0.159392983
0.290575624 0.143453434 0.170272008
0.326249361 0.155344412 0.181910008
0.344971716 0.164705738 0.188487992
0.366856515 0.175711378 0.197216883
0.392409861 0.187096491 0.204427987
0.419734329 0.202403441 0.216445491
0.447058678 0.218342900 0.223276392
0.476660311 0.232637644 0.232511267
0.505629420 0.247311994 0.242125377
0.533459842 0.259962022 0.253257394
0.561163783 0.277799249 0.259329379
0.598228753 0.298671722 0.269828945
0.632384419 0.321188986 0.291713774
0.666666985 0.341176003 0.323718995
0.003542000 0.015053772 0.094876997
0.003921774 0.018090161 0.098419003
0.000000000 0.025426999 0.104111224
0.001771226 0.030234160 0.105376385
0.000000000 0.037191547 0.101581454
0.000000000 0.047058705 0.100063063
0.000758999 0.050980546 0.114484549
0.015053698 0.051486544 0.111195132
0.023908868 0.063630678 0.117773317
0.050094988 0.069449723 0.121948004
0.079696640 0.076913767 0.130676866
0.111069009 0.087033510 0.135736734
0.142820984 0.095003217 0.143453285
0.167109072 0.099557035 0.143959731
0.193674803 0.110942401 0.149272636
0.218975559 0.119165018 0.155471236
0.241745755 0.129791215 0.160025418
0.266034365 0.137760803 0.164832428
0.290322810 0.148387015 0.169386238
0.319291770 0.160531014 0.181530789
0.350031734 0.172675475 0.191777036
0.368248135 0.182036638 0.199114129
0.393421978 0.193042010 0.206325218
0.422770679 0.206198692 0.214421228
0.452245265 0.219228283 0.226312771
0.478178293 0.234408647 0.232384756
0.506515026 0.249082997 0.242251992
0.533839405 0.261226982 0.257684976
0.559013009 0.282985628 0.260214984
0.598734975 0.301201940 0.275142163
0.634029150 0.322959989 0.292852342
0.662366033 0.341176003 0.325489998
0.002529999 0.038836159 0.103225842
0.001771226 0.041872546 0.103225842
0.001771226 0.045414545 0.106641226
0.001265161 0.050727319 0.112207152
0.000885613 0.054522611 0.114484541
0.000000000 0.061479997 0.107147388
0.005059999 0.065022320 0.113219641
0.019101698 0.069702990 0.123339906
0.040354092 0.075016089 0.120303318
0.061606500 0.083111838 0.128905639
0.089057729 0.088045582 0.132953703
0.121442236 0.097406730 0.141809061
0.151423275 0.105376281 0.147121668
0.175458342 0.111448318 0.152561873
0.198734984 0.119544573 0.153573751
0.224288598 0.127513990 0.160277992
0.248576984 0.135357156 0.165338188
0.272232533 0.147501141 0.175711557
0.295888811 0.157241985 0.176470369
0.321695387 0.166603327 0.182289705
0.346489727 0.177482307 0.191271424
0.372801989 0.190638959 0.199367166
0.394686818 0.200379148 0.208348989
0.425047666 0.212523654 0.216697991
0.452878147 0.224668160 0.226059407
0.479190290 0.236938640 0.237950817
0.504491031 0.251107067 0.243516907
0.532574236 0.262492150 0.257937968
0.557242155 0.283997625 0.266540140
0.591903448 0.307273954 0.275142163
0.636938870 0.325490206 0.293737978
0.660088837 0.343706340 0.319164842
0.007463549 0.064642541 0.107020542
0.001771000 0.067678928 0.108159088
0.000000000 0.068943992 0.110942096
0.000885613 0.069323547 0.118279159
0.005819450 0.069702990 0.125489995
0.002783063 0.078810610 0.122454382
0.013915091 0.083997324 0.123466447
0.033143245 0.087918989 0.125996441
0.059329189 0.092473090 0.131309450
0.080581598 0.095509477 0.137381449
0.104743741 0.099304222 0.135863230
0.133965775 0.107653089 0.141808972
0.163567275 0.117140733 0.152055889
0.187603027 0.123466484 0.160910547
0.208855405 0.129664987 0.158254430
0.234535336 0.138140291 0.164073184
0.259962082 0.147248194 0.170524731
0.283617556 0.156609535 0.174952567
0.304870009 0.168753564 0.190132976
0.329285264 0.175711706 0.192536458
0.351676285 0.183681354 0.196711004
0.373940527 0.194433674 0.202403545
0.398228526 0.209234551 0.208475545
0.428083330 0.220872551 0.220113546
0.453510553 0.233776018 0.230739832
0.476787090 0.245920539 0.240100980
0.499177992 0.258317620 0.251865596
0.529537976 0.267425984 0.254901975
0.554965079 0.285642236 0.267805278
0.587349653 0.307526916 0.281973481
0.625553191 0.330423623 0.294876516
0.661985993 0.348640442 0.307020545
0.004427936 0.079822935 0.116128936
0.001391549 0.082859315 0.125237316
0.000000000 0.085895158 0.122074865
0.000000000 0.088425159 0.124351703
0.002783063 0.090955384 0.131561995
0.020999063 0.093990996 0.125489995
0.040733635 0.105628930 0.135104060
0.059708856 0.109676994 0.138646066
0.080961123 0.109930098 0.139658064
0.104870364 0.107653484 0.140417054
0.129031867 0.116508864 0.146489799
0.153320491 0.122580856 0.149019614
0.177988559 0.128526211 0.153573707
0.199747026 0.132574096 0.157874942
0.220999390 0.141682476 0.163946941
0.244655594 0.150284797 0.166097194
0.267932117 0.159392670 0.171663374
0.289690286 0.168500572 0.177229926
0.310941994 0.177861944 0.184060976
0.337761074 0.187223285 0.193674654
0.360784680 0.195825726 0.201264799
0.383048922 0.205945864 0.207843140
0.407336920 0.218342915 0.211511940
0.431625724 0.224414930 0.217583939
0.454649180 0.240606919 0.231499210
0.477798969 0.255028397 0.240101263
0.502087116 0.267679006 0.246173114
0.529537976 0.282606363 0.257938355
0.557241797 0.291714072 0.266287059
0.587602675 0.306388259 0.281720459
0.622011483 0.324857593 0.298924893
0.655914009 0.345604062 0.316128939
0.001391678 0.107653640 0.127766997
0.003415935 0.110689379 0.131815389
0.008981547 0.111574993 0.134471998
0.018975157 0.112966314 0.134218991
0.029727861 0.115116991 0.141302869
0.045793634 0.120303378 0.141682640
0.069070280 0.123339638 0.143200323
0.091714337 0.130549937 0.148766324
0.110815957 0.132953510 0.149525419
0.131562293 0.135231122 0.151296645
0.153320625 0.136243179 0.152055740
0.175584882 0.145351052 0.158128008
0.199367598 0.151928991 0.162808329
0.221758634 0.156103313 0.167236030
0.240733728 0.158380404 0.171031311
0.261986107 0.167488798 0.181910306
0.284630179 0.176597193 0.186843634
0.305882543 0.185705215 0.192915991
0.327134699 0.194813624 0.198988020
0.351422757 0.203921348 0.207843289
0.378747880 0.213029727 0.209360898
0.400253326 0.222138122 0.214926988
0.421378821 0.232764304 0.219860688
0.443263799 0.243643329 0.230740324
0.472106546 0.251992613 0.239089012
0.495509267 0.268058300 0.252372026
0.519797444 0.281847239 0.258823574
0.545098066 0.297027111 0.264895588
0.574952126 0.314484805 0.281973749
0.604047716 0.327134818 0.294623345
0.638456821 0.346742600 0.312080860
0.675142646 0.372928321 0.330297321
0.019734401 0.129791290 0.139911413
0.027704071 0.134472027 0.136369392
0.035041332 0.137001693 0.145477697
0.044149265 0.135736853 0.142947704
0.063504107 0.136116415 0.147501722
0.079949334 0.142188415 0.151802942
0.094497338 0.149019301 0.154838681
0.117141396 0.148766696 0.159518987
0.138393790 0.152561411 0.158760086
0.157495409 0.158633947 0.160025492
0.175331861 0.160531700 0.160152003
0.198228940 0.164959133 0.165844694
0.217204347 0.171789765 0.169639707
0.239974990 0.177355692 0.174699709
0.260973960 0.180138692 0.179127410
0.279949486 0.184060499 0.187729269
0.302719682 0.193168893 0.196837664
0.322833538 0.201644689 0.202909708
0.342061996 0.209740967 0.208981723
0.366097450 0.218849063 0.212903380
0.387349486 0.229601428 0.224288672
0.414674401 0.237697691 0.224288404
0.434914470 0.246426493 0.230360404
0.456166893 0.260088712 0.239468813
0.479316831 0.268311292 0.247691408
0.508285940 0.278810978 0.256799340
0.533839107 0.294244409 0.269197077
0.560404837 0.310562938 0.276786983
0.590006351 0.328399658 0.293105632
0.618722081 0.349778891 0.304617435
0.651739299 0.364073694 0.320682675
0.691208303 0.389879704 0.338899285
0.057685189 0.148007289 0.152814895
0.067552090 0.153320774 0.145224705
0.076786771 0.154206216 0.150284678
0.088172257 0.159266159 0.156609923
0.096901089 0.156230539 0.153194457
0.113599092 0.161164105 0.160404995
0.125743419 0.168247774 0.161669776
0.139911801 0.172295809 0.166350082
0.159646198 0.171537101 0.171663180
0.180898592 0.177609086 0.168627575
0.198608324 0.180771962 0.170019090
0.217583597 0.185832083 0.174573153
0.238456726 0.190765455 0.180265903
0.253890097 0.193548098 0.180265903
0.277166069 0.198608086 0.185325891
0.297406614 0.203794912 0.193801284
0.317141175 0.209108204 0.200632378
0.340796739 0.218216583 0.207969978
0.356230170 0.224415109 0.214295000
0.378241718 0.232511356 0.215560094
0.397976100 0.241240084 0.222011641
0.417710215 0.252119005 0.234914988
0.444908053 0.258570492 0.240860477
0.466792881 0.273750901 0.246299908
0.488804370 0.283618003 0.253130972
0.512839735 0.291714072 0.260594666
0.539152145 0.304364145 0.270715058
0.568753839 0.322327882 0.285895407
0.599114656 0.340543956 0.304491073
0.628463030 0.360025257 0.314105064
0.658570588 0.384566993 0.326755077
0.698038995 0.396710992 0.344971091
0.100189999 0.175332457 0.167994514
0.103225604 0.178368077 0.164958909
0.108791508 0.172928244 0.165970713
0.120050341 0.174446166 0.165717512
0.136369497 0.186590552 0.162302077
0.142441511 0.183554947 0.177482441
0.156609833 0.185958177 0.174573004
0.171537191 0.189247221 0.175458476
0.186970592 0.192789495 0.180771574
0.202151000 0.198861495 0.183807969
0.226312503 0.202024370 0.189500496
0.244149223 0.207084492 0.193295226
0.259709120 0.212017849 0.195445523
0.275142491 0.214800492 0.195445538
0.293358475 0.214800492 0.195445538
0.314231247 0.222264305 0.202909321
0.333839387 0.229601488 0.208981678
0.352941513 0.236432582 0.214041978
0.374193966 0.245540991 0.226185992
0.392409980 0.251739502 0.229728356
0.408981711 0.256040752 0.232637748
0.426312625 0.261480361 0.238203645
0.447944462 0.270714492 0.246932477
0.472232491 0.285894901 0.249968082
0.496394575 0.298797995 0.257684767
0.521948159 0.309297651 0.266666651
0.548260570 0.319544554 0.276787072
0.569512904 0.334724903 0.291967422
0.599114656 0.352687955 0.312460780
0.629474938 0.369133145 0.321189493
0.661479712 0.388235092 0.330297440
0.698038995 0.414927006 0.360151470
0.142694741 0.193928003 0.174446732
0.142821223 0.199873492 0.171410382
0.148007616 0.200758874 0.172675774
0.152814448 0.198987901 0.178241566
0.163187534 0.206072181 0.181150869
0.181909874 0.208095938 0.183680922
0.187982515 0.207589984 0.186210990
0.200379729 0.211890861 0.185831711
0.215053871 0.216192096 0.189120874
0.232384488 0.220113859 0.190006495
0.247564852 0.220366865 0.190133005
0.263756871 0.227451250 0.198229253
0.279190272 0.234408870 0.204174742
0.296141893 0.239215702 0.207716748
0.311701715 0.241871864 0.207716748
0.329917729 0.246679470 0.210119933
0.352182239 0.250727743 0.215180188
0.372549266 0.254016727 0.219481573
0.389247119 0.260847837 0.229348883
0.407716841 0.267172873 0.235926881
0.425932854 0.275142610 0.240987003
0.443137228 0.281214863 0.245034739
0.462492347 0.288425207 0.250221133
0.483997762 0.298038900 0.256040841
0.506009042 0.308665276 0.261353731
0.528273523 0.322959840 0.272612512
0.553573906 0.336116105 0.285768807
0.584440291 0.344086289 0.300948560
0.605692625 0.361922830 0.308159113
0.635294378 0.383681238 0.324604422
0.666540265 0.401391715 0.336495697
0.700948834 0.418595880 0.360783994
0.175079241 0.220240504 0.184566990
0.179127246 0.222264498 0.189627111
0.183428243 0.224035501 0.184819505
0.189500242 0.224035501 0.185325891
0.193295032 0.226312712 0.191397816
0.204680443 0.229348302 0.196331516
0.221378624 0.233902231 0.198355258
0.227450967 0.233902231 0.196710974
0.239595085 0.238456339 0.199747249
0.256546259 0.241492733 0.202277258
0.271853119 0.243643492 0.204300985
0.285009265 0.247691497 0.206325233
0.300568879 0.254522622 0.212017983
0.318912029 0.259456038 0.216318995
0.330550373 0.262492061 0.219861001
0.348133981 0.267931610 0.222264707
0.366350353 0.272486180 0.228336319
0.387096971 0.273624659 0.232384577
0.400885314 0.278304994 0.238709971
0.420872688 0.286401272 0.245035008
0.435293972 0.292473257 0.247311994
0.453257263 0.301455140 0.253131002
0.471600503 0.308665723 0.257305235
0.492852896 0.317773342 0.263377547
0.514105260 0.324857295 0.273498237
0.538140655 0.335357308 0.282353222
0.560658097 0.351296514 0.295888901
0.587982416 0.360404909 0.308032513
0.616825044 0.375079215 0.315243512
0.643390179 0.393295199 0.328399450
0.672865331 0.415306926 0.343832821
0.703984737 0.429728240 0.362808257
0.211511910 0.252878278 0.201264992
0.217583925 0.251739651 0.204680741
0.223655909 0.252878278 0.206451744
0.229727924 0.255155265 0.205059797
0.235040918 0.255155265 0.202403635
0.237318218 0.257431984 0.209234923
0.249588922 0.258443922 0.212144315
0.262365282 0.263503909 0.213029712
0.270714343 0.265021920 0.213030085
0.285894752 0.268437773 0.219481632
0.298798144 0.272612512 0.221505418
0.311954260 0.275395632 0.223402902
0.325236917 0.279190630 0.227577627
0.345983297 0.282479286 0.227830589
0.356862664 0.286401063 0.233016983
0.372042894 0.292979270 0.238962799
0.389120668 0.296394855 0.241619438
0.405439705 0.298798651 0.248197213
0.417077661 0.301328331 0.250221610
0.435294032 0.309930354 0.257179022
0.454269260 0.317141294 0.264010280
0.466413289 0.322201163 0.264010280
0.484503508 0.331056505 0.269955754
0.505755901 0.340164363 0.277039617
0.528146863 0.349272251 0.286527574
0.551043630 0.358127326 0.297533602
0.577862144 0.370272130 0.309171557
0.599747062 0.382416278 0.318279177
0.627830625 0.398355454 0.327008307
0.658191144 0.415306866 0.339025915
0.686780214 0.435293883 0.359013170
0.713851631 0.454016626 0.374952644
0.261353999 0.288298994 0.223782033
0.266920000 0.284503639 0.218469054
0.272486001 0.286274761 0.219607800
0.278558016 0.290576041 0.222391024
0.284883082 0.295382947 0.229222029
0.284883082 0.295382947 0.229222029
0.291714340 0.291081995 0.228210032
0.301075339 0.291841030 0.228716031
0.311448127 0.297154009 0.230487049
0.326628506 0.303226024 0.239595443
0.335989892 0.309298009 0.239974961
0.347122014 0.311575025 0.240481034
0.359898657 0.312081009 0.242252037
0.374826014 0.312334061 0.248324037
0.390006393 0.318406045 0.251359612
0.405186802 0.326628834 0.258696795
0.420367181 0.331436008 0.263756990
0.434788465 0.331436008 0.263883621
0.443896115 0.331436008 0.260847986
0.458064377 0.339531690 0.268184721
0.476786762 0.346742511 0.278684497
0.495509028 0.352055937 0.287033975
0.508159101 0.355344534 0.287413478
0.529537976 0.364452899 0.296521127
0.552308559 0.375838041 0.305376291
0.576596975 0.387982011 0.314990640
0.601138115 0.399873167 0.324351937
0.625426888 0.412017941 0.333459556
0.652118802 0.429475009 0.345224619
0.680961311 0.447944403 0.359898806
0.709803939 0.467678994 0.377735257
0.734091997 0.491967022 0.402024060
0.291713953 0.312586993 0.226818413
0.291713953 0.300442994 0.229854807
0.292978972 0.305249631 0.237444833
0.296773970 0.311827898 0.237571388
0.303605080 0.316382289 0.233017415
0.315243810 0.310562551 0.250474393
0.315243810 0.313092887 0.240354389
0.323719382 0.317520708 0.240607411
0.335230798 0.322960317 0.244655311
0.347880870 0.321441978 0.248703048
0.357242256 0.327513963 0.249082565
0.368374377 0.331562221 0.253131062
0.379380018 0.335104376 0.255661398
0.390006393 0.339658409 0.257432401
0.402150393 0.342694789 0.263504386
0.417330801 0.348766804 0.266540021
0.432511181 0.353953183 0.272358984
0.447691560 0.355723977 0.277166128
0.462112844 0.355723977 0.282100350
0.471220464 0.361289978 0.281847388
0.487286448 0.367994875 0.287539840
0.506135404 0.374067396 0.293864846
0.523339450 0.379633278 0.296521068
0.547628284 0.388740897 0.305629462
0.564453065 0.400126547 0.312460393
0.585705340 0.412270784 0.323339641
0.610499442 0.423908889 0.336748987
0.637570858 0.433270276 0.348639965
0.661859632 0.450727344 0.360404402
0.688551545 0.470714539 0.379632950
0.716508567 0.491334558 0.402024001
0.743200421 0.513219416 0.426312804
0.317267597 0.329664797 0.241871983
0.312460601 0.331941783 0.237697586
0.327514380 0.328399777 0.249335960
0.325490236 0.332953572 0.256672978
0.328146577 0.336748987 0.249841988
0.348386824 0.338772714 0.251866013
0.345603973 0.337887108 0.264009982
0.350537688 0.340923488 0.253510684
0.360404789 0.346236795 0.255028695
0.369259775 0.344845086 0.258064300
0.378494650 0.350537598 0.258190781
0.387603045 0.352561593 0.260215044
0.397090614 0.356356770 0.265907973
0.405439824 0.361922771 0.268943995
0.419734597 0.362808406 0.275015980
0.434281796 0.368247986 0.278684795
0.446426183 0.372802168 0.281720400
0.460468113 0.376470596 0.286906779
0.477419764 0.380012572 0.292979121
0.487033457 0.383174777 0.293485194
0.501834273 0.389247268 0.299177945
0.520050764 0.395319790 0.304743856
0.538266778 0.401518255 0.307906002
0.558001041 0.410625875 0.314737678
0.577735782 0.419734061 0.323845476
0.598608613 0.433143646 0.335610330
0.623402834 0.446299791 0.350790739
0.646932185 0.457305402 0.361036986
0.671600401 0.471979737 0.373181581
0.695888698 0.491966963 0.390638769
0.722580552 0.512333810 0.413409382
0.749904990 0.532068014 0.436179996
0.338519990 0.352435380 0.260088384
0.344592363 0.355471373 0.254016399
0.341176569 0.357242376 0.259961754
0.362428963 0.359772384 0.267552137
0.355471164 0.360657811 0.268058181
0.366097212 0.365591198 0.266540200
0.374193192 0.363567173 0.269576192
0.376343906 0.365211904 0.273244500
0.384693205 0.367489189 0.267172873
0.390765190 0.367489189 0.270208716
0.398228854 0.371789992 0.271853387
0.408855438 0.375332177 0.272359431
0.417963535 0.376470536 0.276534170
0.424668014 0.381909996 0.282353133
0.437318385 0.383175194 0.287159979
0.450980365 0.387982190 0.292346597
0.464642555 0.395572364 0.295382977
0.474383354 0.397976190 0.298418581
0.490828902 0.402277172 0.303604960
0.502213836 0.405565828 0.304110974
0.517014325 0.412017465 0.311321944
0.535231113 0.419102132 0.319418192
0.553447187 0.425680190 0.323212892
0.571663201 0.433396488 0.330677003
0.588361561 0.440986484 0.339025885
0.606578290 0.450094849 0.348133832
0.634029210 0.465022266 0.362934977
0.658317387 0.478178382 0.369006753
0.676154613 0.492978781 0.385325640
0.701961100 0.510183334 0.402783155
0.730676770 0.530550182 0.426692158
0.760531187 0.548766196 0.449842185
0.358001143 0.380898565 0.276407570
0.375585347 0.380898565 0.272865564
0.375458568 0.382163554 0.275015801
0.372169316 0.384061009 0.281593710
0.391903609 0.388994545 0.278178543
0.381530523 0.391524225 0.283238590
0.387729138 0.388867527 0.284250587
0.397596270 0.387096673 0.283238471
0.405945539 0.390638977 0.282352656
0.412017554 0.390638977 0.285389066
0.418722153 0.393548250 0.289057851
0.427577496 0.395951807 0.290702403
0.439848483 0.398988068 0.291714400
0.449209124 0.401770711 0.297533423
0.458696932 0.404427558 0.300569117
0.468311131 0.410499543 0.304743558
0.479822785 0.416824728 0.309930176
0.492599934 0.424667984 0.312333971
0.504743934 0.424667984 0.315369606
0.518153131 0.428083360 0.317520142
0.532194555 0.433649302 0.323845446
0.549145877 0.442125112 0.333965987
0.567362607 0.451106966 0.340164483
0.585578620 0.457178950 0.349272877
0.602150261 0.464516133 0.357748270
0.619987249 0.472612202 0.368753612
0.638203979 0.482226551 0.377356082
0.668057978 0.497280389 0.377609134
0.683744669 0.511827648 0.394939780
0.704111516 0.528778911 0.414294749
0.731182992 0.546363115 0.435673624
0.770651400 0.564579129 0.466034442
0.382290006 0.402151018 0.285516024
0.397470385 0.402151018 0.291587979
0.404301256 0.406452030 0.290196210
0.403542161 0.410752863 0.293232143
0.404048443 0.413282633 0.299430996
0.413156062 0.410246998 0.293358982
0.415433347 0.412776679 0.293358982
0.420873016 0.413409024 0.293358982
0.427198023 0.415180087 0.294623971
0.433270037 0.420999050 0.300569504
0.442251891 0.423908919 0.306515008
0.449083000 0.424921006 0.310309738
0.459076673 0.426312655 0.311954051
0.473497987 0.429095954 0.312713087
0.485641956 0.429095954 0.315749496
0.490322828 0.436559200 0.316381991
0.497153819 0.442378193 0.319923997
0.507779658 0.445920438 0.324478030
0.522960007 0.448956072 0.324478030
0.540670753 0.454522789 0.333080351
0.552688241 0.458444208 0.339531958
0.563567221 0.462998033 0.346110016
0.576471031 0.469323039 0.352308542
0.594687045 0.475395024 0.361416936
0.612902999 0.486021608 0.368248016
0.633649349 0.497659981 0.380138963
0.656419992 0.509551048 0.395572126
0.674635947 0.521695018 0.401644915
0.693864703 0.534092009 0.415180087
0.715116918 0.550031424 0.429095417
0.738772690 0.567362607 0.443769962
0.761543036 0.582795978 0.462998092
0.434408754 0.456799388 0.322454393
0.438457131 0.454016745 0.322960377
0.445034981 0.456166953 0.322580606
0.446805745 0.459076375 0.320809364
0.445287943 0.459835291 0.324604571
0.444782168 0.456799686 0.325743377
0.453889757 0.458823413 0.322201043
0.459076375 0.460214734 0.323592693
0.465907484 0.460214734 0.325490296
0.474003732 0.462238729 0.329538018
0.474636257 0.462618232 0.330044031
0.485768378 0.465654641 0.336116552
0.494497061 0.467552364 0.337634414
0.505882442 0.470588684 0.336495727
0.515496671 0.473118365 0.342061788
0.527640700 0.475522220 0.347501367
0.533333361 0.480834901 0.348260373
0.542441308 0.483870983 0.350537360
0.557621658 0.486907125 0.350537360
0.570018768 0.492726117 0.358886719
0.580645025 0.498798400 0.369892359
0.590891480 0.503731787 0.376723498
0.604933560 0.509803712 0.381151229
0.620493352 0.515875757 0.390259624
0.636432648 0.521947742 0.399367452
0.654142678 0.533080399 0.410120040
0.674636126 0.545224726 0.424920738
0.692852676 0.557368696 0.430992901
0.716381669 0.572169542 0.447691649
0.738393426 0.586211264 0.461227030
0.762681723 0.603415728 0.477798969
0.785831392 0.620493412 0.501707792
0.460594743 0.487918735 0.341049999
0.467425644 0.492473096 0.346742719
0.470461965 0.488045692 0.340796977
0.473497897 0.492346466 0.344085723
0.475268930 0.493231922 0.345856726
0.478304923 0.490195930 0.344338924
0.477799147 0.492220134 0.353700131
0.486906767 0.495255738 0.347374737
0.493231714 0.495508701 0.349399090
0.501201451 0.495508701 0.352434993
0.507273734 0.497406483 0.354458749
0.513472438 0.499430716 0.358507276
0.522200882 0.501328468 0.361164093
0.529538035 0.503858685 0.358886749
0.537002146 0.508539021 0.364958704
0.550410926 0.509677529 0.371030748
0.562555373 0.511195719 0.375584930
0.570018888 0.513851881 0.375964463
0.582668900 0.516887963 0.375964463
0.593168676 0.524604738 0.388108820
0.605312765 0.530676782 0.391524464
0.614420891 0.534724772 0.401644468
0.629474759 0.539152265 0.405819237
0.642884433 0.546995461 0.414927632
0.654269278 0.554965198 0.420240432
