Assets/Shaders/EldamarStudio/100 Sci-Fi LUTs Pack/LUTs/cube/Amelia LUT.cube
LUT_3D_SIZE 5
DOMAIN_MIN 0.000000 0.000000 0.000000
DOMAIN_MAX 0.903226 0.903226 0.903226
0.007843000 0.000000000 0.094117999
0.003288997 0.036306284 0.107526705
0.182542384 0.093485415 0.144465417
0.367868125 0.171663120 0.195193127
0.569133580 0.272106111 0.258949816
0.019734401 0.129791290 0.139911413
0.117141396 0.148766696 0.159518987
0.260973960 0.180138692 0.179127410
0.414674401 0.237697691 0.224288404
0.590006351 0.328399658 0.293105632
0.291713953 0.312586993 0.226818413
0.323719382 0.317520708 0.240607411
0.402150393 0.342694789 0.263504386
0.506135404 0.374067396 0.293864846
0.661859632 0.450727344 0.360404402
0.476787001 0.508159280 0.353194237
0.506135404 0.521568537 0.376723409
0.555850804 0.537255108 0.388235092
0.631625295 0.563061297 0.421885014
0.747121930 0.625553131 0.495888799
0.706388593 0.748133898 0.599240780
0.708539069 0.762555480 0.611385047
0.740923226 0.769766033 0.623403013
0.786970139 0.783174932 0.648576736
0.839594781 0.809613764 0.696014941
0.000000000 0.013409289 0.122580700
0.006577994 0.047438700 0.130423710
0.203795105 0.119038828 0.176850110
0.382542998 0.196204990 0.224288255
0.565085232 0.289057642 0.283491701
0.044275686 0.133712709 0.165717721
0.141302973 0.152055696 0.179126993
0.269829512 0.194560274 0.201391414
0.411005706 0.247817993 0.242252111
0.592915893 0.328652680 0.309677690
0.296900392 0.298797995 0.247438282
0.328652680 0.314484417 0.254649103
0.406704813 0.339405358 0.274636388
0.502593517 0.375711530 0.306008995
0.654649138 0.449083060 0.373813927
0.479569703 0.508539140 0.366603523
0.506515145 0.510183275 0.375711709
0.552561879 0.530423880 0.397343248
0.633270144 0.552941144 0.429348141
0.739911497 0.620366931 0.499810070
0.692852676 0.749146044 0.590385854
0.702972829 0.758001208 0.606324792
0.735989928 0.762175739 0.623782516
0.780139208 0.779759645 0.648197472
0.838962674 0.803415477 0.692978859
0.000000000 0.049714994 0.181783825
0.038077395 0.076533996 0.190258995
0.221125811 0.130802989 0.217077985
0.388741553 0.205060273 0.256419986
0.567741632 0.289057642 0.317773640
0.114864111 0.155977115 0.214421406
0.167488813 0.164452702 0.226565272
0.283870786 0.203035697 0.246173277
0.421505123 0.256673127 0.282479405
0.591524065 0.336496115 0.345604092
0.308664978 0.309297562 0.279823005
0.342947274 0.318785667 0.291967094
0.417836398 0.344592392 0.317141384
0.516002178 0.381910384 0.346616387
0.655281603 0.452624798 0.409487784
0.487539113 0.497027397 0.402530134
0.511701286 0.510436296 0.409108520
0.552561641 0.530423820 0.424162120
0.626438856 0.555597544 0.459455967
0.739531815 0.619987369 0.528146923
0.683997631 0.742947638 0.597849607
0.698798060 0.754711747 0.622011602
0.725110412 0.756609321 0.632511199
0.776597142 0.775964499 0.655408025
0.844276071 0.805692792 0.703858435
0.053257249 0.089310862 0.265781134
0.138140574 0.106641412 0.269829124
0.264010102 0.156989411 0.291334867
0.415939271 0.222644120 0.328653127
0.582162738 0.301581144 0.392789274
0.185072824 0.178494409 0.293611586
0.221758544 0.188614711 0.294497132
0.323086828 0.219734564 0.315875828
0.446046829 0.270082414 0.345983416
0.605692506 0.344718397 0.413409203
0.333459824 0.321694970 0.357747972
0.366729826 0.332827210 0.358001262
0.433523387 0.351802796 0.377988845
0.526122987 0.382542819 0.409740537
0.663757205 0.448323905 0.473877102
0.499304086 0.500316262 0.463124275
0.515243292 0.518279552 0.467678815
0.559013426 0.532953858 0.489183992
0.641492963 0.565085292 0.520936131
0.745730639 0.619987428 0.569639266
0.681087911 0.744212627 0.640101075
0.692852497 0.750031352 0.654269516
0.714737356 0.759266198 0.665907621
0.765464783 0.779886067 0.685515642
0.841872096 0.809361100 0.739152431
0.210878938 0.139911160 0.427956581
0.262112498 0.153320879 0.429221749
0.361796379 0.192282990 0.446806043
0.501961112 0.250221252 0.479316890
0.637064755 0.333712786 0.524730742
0.270208806 0.207969651 0.438709468
0.307400554 0.215812981 0.451739311
0.394433796 0.247817993 0.466160595
0.519671142 0.295635819 0.498165667
0.655407608 0.368627518 0.539025784
0.356988966 0.330802977 0.487918973
0.381530702 0.343327224 0.497533083
0.459709376 0.362934560 0.513472199
0.567994714 0.401897669 0.542567968
0.695888638 0.466413349 0.586211622
0.515116811 0.541682422 0.592282891
0.524730980 0.546109855 0.594813406
0.561669767 0.547375262 0.603036225
0.632637441 0.563314319 0.614420950
0.753446996 0.618343115 0.653130949
0.680075943 0.753446937 0.708918631
0.690954924 0.756356478 0.717141032
0.717394173 0.764579177 0.734598219
0.769006908 0.781530619 0.752814770
0.851486623 0.816192627 0.788741589
