Assets/Shaders/EldamarStudio/100 Sci-Fi LUTs Pack/LUTs/cube/Amelia LUT.cube
LUT_3D_SIZE 8
DOMAIN_MIN 0.000000 0.000000 0.000000
DOMAIN_MAX 0.903226 0.903226 0.903226
0.007843000 0.000000000 0.094117999
0.003922000 0.012903451 0.102720000
0.012397194 0.045414094 0.111321993
0.127893642 0.079063997 0.138393357
0.242631376 0.117394179 0.152055994
0.344591975 0.160530984 0.182036728
0.446299553 0.213029996 0.224794567
0.569133580 0.272106111 0.258949816
0.007463549 0.064642541 0.107020542
0.005819450 0.069702990 0.125489995
0.059329189 0.092473090 0.131309450
0.163567275 0.117140733 0.152055889
0.259962082 0.147248194 0.170524731
0.351676285 0.183681354 0.196711004
0.453510553 0.233776018 0.230739832
0.554965079 0.285642236 0.267805278
0.057685189 0.148007289 0.152814895
0.096901089 0.156230539 0.153194457
0.159646198 0.171537101 0.171663180
0.238456726 0.190765455 0.180265903
0.317141175 0.209108204 0.200632378
0.397976100 0.241240084 0.222011641
0.488804370 0.283618003 0.253130972
0.599114656 0.340543956 0.304491073
0.211511910 0.252878278 0.201264992
0.235040918 0.255155265 0.202403635
0.270714343 0.265021920 0.213030085
0.325236917 0.279190630 0.227577627
0.389120668 0.296394855 0.241619438
0.454269260 0.317141294 0.264010280
0.528146863 0.349272251 0.286527574
0.627830625 0.398355454 0.327008307
0.338519990 0.352435380 0.260088384
0.355471164 0.360657811 0.268058181
0.384693205 0.367489189 0.267172873
0.417963535 0.376470536 0.276534170
0.464642555 0.395572364 0.295382977
0.517014325 0.412017465 0.311321944
0.588361561 0.440986484 0.339025885
0.676154613 0.492978781 0.385325640
0.460594743 0.487918735 0.341049999
0.475268930 0.493231922 0.345856726
0.493231714 0.495508701 0.349399090
0.522200882 0.501328468 0.361164093
0.562555373 0.511195719 0.375584930
0.605312765 0.530676782 0.391524464
0.654269278 0.554965198 0.420240432
0.732700706 0.601011813 0.472359389
0.564959228 0.607083976 0.428336263
0.577861845 0.613662302 0.443390101
0.592156649 0.619607627 0.454902083
0.612650275 0.625553668 0.462618560
0.643137276 0.632131338 0.472865373
0.676660478 0.643643320 0.490701824
0.716887951 0.658697009 0.515243292
0.766477287 0.682858884 0.557874978
0.706388593 0.748133898 0.599240780
0.710815728 0.759013295 0.607083738
0.712334037 0.763820648 0.610372841
0.737634420 0.767741621 0.617583632
0.748513818 0.774319768 0.624161839
0.780644834 0.781403899 0.645540833
0.807463765 0.791903675 0.665781319
0.839594781 0.809613764 0.696014941
0.000000000 0.007463549 0.106640995
0.003922000 0.013282999 0.103858545
0.014674192 0.054016192 0.126502454
0.136875182 0.097533353 0.155218095
0.242251724 0.131941542 0.170904189
0.349272460 0.177102998 0.200632483
0.448323816 0.221632004 0.234408706
0.562934875 0.275521964 0.265780926
0.003542452 0.068564542 0.119544543
0.007337546 0.074003547 0.134471536
0.058444187 0.098292544 0.144212201
0.166730091 0.123339638 0.157115638
0.264262915 0.155471370 0.184693366
0.350158095 0.191524357 0.205440015
0.438962519 0.226692021 0.231878281
0.546995819 0.288551807 0.266666532
0.081973188 0.151170105 0.163820103
0.107526734 0.166097209 0.164958641
0.160784647 0.171537101 0.172801629
0.235673293 0.191524461 0.186084732
0.314864069 0.215812653 0.205313191
0.391651005 0.245667353 0.230739728
0.480835199 0.281847268 0.257685095
0.590132892 0.334724814 0.297912836
0.222517624 0.245794073 0.207590088
0.236685827 0.254522175 0.210752904
0.267552257 0.259203196 0.216951191
0.322074711 0.276027650 0.231119290
0.377356291 0.292852372 0.244022638
0.445920110 0.312839925 0.263251215
0.519924283 0.343580067 0.290195942
0.615053892 0.389753252 0.324857473
0.340670377 0.343833208 0.264136791
0.345856726 0.352940738 0.265907735
0.378368288 0.358760267 0.272738904
0.418089628 0.369386554 0.286907196
0.465021998 0.384186924 0.296900809
0.511575162 0.404301167 0.312207431
0.580138922 0.433649451 0.338013917
0.666666567 0.484756440 0.382669002
0.463124275 0.470461726 0.342061907
0.470335037 0.475395471 0.348007560
0.484503537 0.488804281 0.350537539
0.513472617 0.493485183 0.359645993
0.553447068 0.503605306 0.372801989
0.599746943 0.519670844 0.394307762
0.649082899 0.546616018 0.425933182
0.727640629 0.595192671 0.471347451
0.561796248 0.592662990 0.431499094
0.572928548 0.605945766 0.441872299
0.583174884 0.613662302 0.449462384
0.602782965 0.614041865 0.457684934
0.631372452 0.625806272 0.472106367
0.668690920 0.636812329 0.484250724
0.707779825 0.652877808 0.507779837
0.763440967 0.677672029 0.548513412
0.696774065 0.748892903 0.581277788
0.697533071 0.759013295 0.601011872
0.707526743 0.759013295 0.603036046
0.732068062 0.762175620 0.612017632
0.747248650 0.770777643 0.627071619
0.776090860 0.777229369 0.641366303
0.802277029 0.790006340 0.663377464
0.836432815 0.805692792 0.686906755
0.000759096 0.017204000 0.131688893
0.003542452 0.028969096 0.132068440
0.021758193 0.062618904 0.141808987
0.142315179 0.099051446 0.166476741
0.256799400 0.144212380 0.194434091
0.357495129 0.184819892 0.217203990
0.454269469 0.229475081 0.248323783
0.558759987 0.287792802 0.287539572
0.000000000 0.080708094 0.138646081
0.012397190 0.084629998 0.150917456
0.076154634 0.105756000 0.163440645
0.180012375 0.131182641 0.183048546
0.276913643 0.164073542 0.204681009
0.362682194 0.202024192 0.227703735
0.455914170 0.243263736 0.254395634
0.557368577 0.295003146 0.290322542
0.088298284 0.152688190 0.177102983
0.120430090 0.166476637 0.187729448
0.178494290 0.180139184 0.193548083
0.247817829 0.201770633 0.205692634
0.327387393 0.220872983 0.228842273
0.404680729 0.251865745 0.248323992
0.490322560 0.290575564 0.274889171
0.595698893 0.341049880 0.318026662
0.232384369 0.248956278 0.220493644
0.241745457 0.254522294 0.226059541
0.281847119 0.267425746 0.234282091
0.326375574 0.279570073 0.241998971
0.390385926 0.295256197 0.260088384
0.450348079 0.316761732 0.279570103
0.528273046 0.350031346 0.304996818
0.619608045 0.396457821 0.341808707
0.351043284 0.350158095 0.270967990
0.362682104 0.356103659 0.280961514
0.379127264 0.364326268 0.288298309
0.414421290 0.369386554 0.295762330
0.463124365 0.380771399 0.304744005
0.511954486 0.404174358 0.325110435
0.583681285 0.437065482 0.355724156
0.669702649 0.484883159 0.399241060
0.466919571 0.474889398 0.351422817
0.473118365 0.475901514 0.353573531
0.487286478 0.483364999 0.364579648
0.514231622 0.492726088 0.373561203
0.549905241 0.502973199 0.383807391
0.596584618 0.519797623 0.399493992
0.650980234 0.545098186 0.429475009
0.726755023 0.595572352 0.481593907
0.557242155 0.591271281 0.431372464
0.567868531 0.600379467 0.443263561
0.582795441 0.607843041 0.454269290
0.604680479 0.611764610 0.459202915
0.633017004 0.621884525 0.474509835
0.668690979 0.634028971 0.495129704
0.706768274 0.649335742 0.516002536
0.762934685 0.681340694 0.557874978
0.696141720 0.746868730 0.584060609
0.697153628 0.753446996 0.597343087
0.702719569 0.755470812 0.606072128
0.723212957 0.759898603 0.617583632
0.745857179 0.765338421 0.631498814
0.772801816 0.773940623 0.644149482
0.801011860 0.785958290 0.663883626
0.834408641 0.804427564 0.691461027
0.005566002 0.034788352 0.165844351
0.000000000 0.046173092 0.166856289
0.052624833 0.074383192 0.176343992
0.163187638 0.109297641 0.201138645
0.263124377 0.148513556 0.214421451
0.364199966 0.189626992 0.235926896
0.459202915 0.235420629 0.272359341
0.570524991 0.294623971 0.312207431
0.002656546 0.090069994 0.176723540
0.017204534 0.093611538 0.177862093
0.100063190 0.113978542 0.191650644
0.191397831 0.141049996 0.203795001
0.281087995 0.171157539 0.221758276
0.366097718 0.210373253 0.244022623
0.462491900 0.251486391 0.272232711
0.571790159 0.301201522 0.312460452
0.120176837 0.169260010 0.206831083
0.140417635 0.167994648 0.208855450
0.191777289 0.186464190 0.223403081
0.258823723 0.204047844 0.234408900
0.334472090 0.231119379 0.251992553
0.413282841 0.258064538 0.267552346
0.502213776 0.300063282 0.301707894
0.603921354 0.346110284 0.337887615
0.240606919 0.252878278 0.244402289
0.265401274 0.261226922 0.248070747
0.296015292 0.275648266 0.257685184
0.346489638 0.288172275 0.271853268
0.400253087 0.307021081 0.282732278
0.461353451 0.327767104 0.302846521
0.535989642 0.358254224 0.332447648
0.630487442 0.402403265 0.368880451
0.352435380 0.355344623 0.302720010
0.368627548 0.360025644 0.307147175
0.395319551 0.371410310 0.312333733
0.428589195 0.380771399 0.322074383
0.470461816 0.392915815 0.331056505
0.524984121 0.414421201 0.359013081
0.588108838 0.443769842 0.375711560
0.673371136 0.493864805 0.423150003
0.467552364 0.478811085 0.376723737
0.476534069 0.479570091 0.376091301
0.491207987 0.488931000 0.386590660
0.519418001 0.495508701 0.388994634
0.557242215 0.508791924 0.402656466
0.602150619 0.523718894 0.425300479
0.653510392 0.550537646 0.452625096
0.727513909 0.596457720 0.497659802
0.560025275 0.598102629 0.459709257
0.576597035 0.605186522 0.473118275
0.584819794 0.611005604 0.474256903
0.607589960 0.614927292 0.482732624
0.635040820 0.622264206 0.492978990
0.675015807 0.637571394 0.511701643
0.711827934 0.655281603 0.532574594
0.769133389 0.685389221 0.572801590
0.688424945 0.745856941 0.606071889
0.698039353 0.750411212 0.611131966
0.706135035 0.752688050 0.618216157
0.722074628 0.758633733 0.625300467
0.742188215 0.765338421 0.636179745
0.769386470 0.773560882 0.649715483
0.800759137 0.788361788 0.669323325
0.841872096 0.805945337 0.697279751
0.001518192 0.057937995 0.201264992
0.006831187 0.065022185 0.199873388
0.092220284 0.089310803 0.215433180
0.182036817 0.122200996 0.225300550
0.276407152 0.156609789 0.241365999
0.371157467 0.198987991 0.269575983
0.463504165 0.240354076 0.297533184
0.578368008 0.299936980 0.344592154
0.043896534 0.108791895 0.211637914
0.073118441 0.111574546 0.216698349
0.131688729 0.130044177 0.224035189
0.211005822 0.149652094 0.239088982
0.291713715 0.180518642 0.251233548
0.378368169 0.213788882 0.276533991
0.468816996 0.255028546 0.303605348
0.573813617 0.305882215 0.344971627
0.154206187 0.175458282 0.231119379
0.187602744 0.183302000 0.246046990
0.216825068 0.194307178 0.247691184
0.276154548 0.212650537 0.260973990
0.341556221 0.235800266 0.278178364
0.423150092 0.264389843 0.297280341
0.500569344 0.300822377 0.326628476
0.601644456 0.352814704 0.372043163
0.258696914 0.258444279 0.273750603
0.277545720 0.265148640 0.282479614
0.306894392 0.277672678 0.285135984
0.352308244 0.290575475 0.295129448
0.397343814 0.304996818 0.309044600
0.464769095 0.334851533 0.329285026
0.538899183 0.363693923 0.357115477
0.631499290 0.403541893 0.398861706
0.357242376 0.357242376 0.325869352
0.378747702 0.364326388 0.331941515
0.402782977 0.373814017 0.341682255
0.436053038 0.383934259 0.348639995
0.482732356 0.404300958 0.365970999
0.534724891 0.419987381 0.377608985
0.599367499 0.445793897 0.404933363
0.679190636 0.492978781 0.450347960
0.471094102 0.478431553 0.408855230
0.484250456 0.480329067 0.401517749
0.494370431 0.486780643 0.409234822
0.527387500 0.501075447 0.425047547
0.560657740 0.514611185 0.437065363
0.599873543 0.527261257 0.454142928
0.662112296 0.554459214 0.478937626
0.733839154 0.599240959 0.523213029
0.567362428 0.599241197 0.484882981
0.572295904 0.607589900 0.492346644
0.590006411 0.612650216 0.497280180
0.602150559 0.618848562 0.503605247
0.635420382 0.631499171 0.516888201
0.672359467 0.640733838 0.535231054
0.715370178 0.657179236 0.554459274
0.774446487 0.693232238 0.594560146
0.678558171 0.750663996 0.615433216
0.692346573 0.750410914 0.625933170
0.700568974 0.755850554 0.632257879
0.716888249 0.758254170 0.637065053
0.742188215 0.766603231 0.646552801
0.767489076 0.775584936 0.662744999
0.802909613 0.788362026 0.682605624
0.841492832 0.805692732 0.706514835
0.030992988 0.082226478 0.254648983
0.068184540 0.088551804 0.248703733
0.141935736 0.108159095 0.255408078
0.211638108 0.134724900 0.272612274
0.299051404 0.169260189 0.285515517
0.387602478 0.207463458 0.307400703
0.469070464 0.246173725 0.337887436
0.579379916 0.298798233 0.379633069
0.089690082 0.117014728 0.245288000
0.122327730 0.127261534 0.257431746
0.169386640 0.142947540 0.268817186
0.238203615 0.161416903 0.273371279
0.308791935 0.188741088 0.283491492
0.385958314 0.222391173 0.307400733
0.469955564 0.260088563 0.333586484
0.569259942 0.305755615 0.374319881
0.192409992 0.190638736 0.276407361
0.215306893 0.197722733 0.289057255
0.241492823 0.204047933 0.288677812
0.294750035 0.220873088 0.296774209
0.355976909 0.240733728 0.312080920
0.427324623 0.272612095 0.331815332
0.500063002 0.303099096 0.358380646
0.609740794 0.352308631 0.410625994
0.281594068 0.267299116 0.314484656
0.295382708 0.273371190 0.321062356
0.323339581 0.279570013 0.319797724
0.363693923 0.292852372 0.332447767
0.411891252 0.306894183 0.345983565
0.474256635 0.332447708 0.362934709
0.541176379 0.360151470 0.391397655
0.632890463 0.403162569 0.432764262
0.373434454 0.363441199 0.359392464
0.392915815 0.365211904 0.364199966
0.412144184 0.374066830 0.374699622
0.437950462 0.383427918 0.382542700
0.480202198 0.400252998 0.397090346
0.534218490 0.419860959 0.415939182
0.598102748 0.446426272 0.436559230
0.681087792 0.483744532 0.478937447
0.474003971 0.474003971 0.430739999
0.477925479 0.481340945 0.437318236
0.497532964 0.487159967 0.442125201
0.524604619 0.496521354 0.455534637
0.561037242 0.509171486 0.469449908
0.609108210 0.530676723 0.487539738
0.662491798 0.554965198 0.506388426
0.733333409 0.590385675 0.546109796
0.562428594 0.595951557 0.516634703
0.570145667 0.599746585 0.514737725
0.581656873 0.608475626 0.522201359
0.603162289 0.615180135 0.532827139
0.631119549 0.627830684 0.542567551
0.670208693 0.642251551 0.562175572
0.720682979 0.661859572 0.582542479
0.777861953 0.693990946 0.622897029
0.681593895 0.741429448 0.636558890
0.686274350 0.745730519 0.649588943
0.691334724 0.747501314 0.646173418
0.707147419 0.755091488 0.650347888
0.728399515 0.764326572 0.666034162
0.758380592 0.778114796 0.674889624
0.798608363 0.788362026 0.700316250
0.839594781 0.807083726 0.731309593
0.123465985 0.108791701 0.318532258
0.149778724 0.116002284 0.315622985
0.197090566 0.133206695 0.326502204
0.261353552 0.155218005 0.335863292
0.339025885 0.183301896 0.350158066
0.416824996 0.215812534 0.366476983
0.495635271 0.256166965 0.388488263
0.582162738 0.302466691 0.424035430
0.151802808 0.141049802 0.312966555
0.175711542 0.144086003 0.317900300
0.217583999 0.159519449 0.330043793
0.281847090 0.175837919 0.335989982
0.346742362 0.202024192 0.346869200
0.420619994 0.234282285 0.365338743
0.496520966 0.268691003 0.391144991
0.579886079 0.311448246 0.419607937
0.225426987 0.203035817 0.339026272
0.239595279 0.209487736 0.341176540
0.270841122 0.218595907 0.350158274
0.326249033 0.230234176 0.361416817
0.387729168 0.251486272 0.374320269
0.455028296 0.280708432 0.390765369
0.529411614 0.311827898 0.414168477
0.612523556 0.353320658 0.450474292
0.303352654 0.279190361 0.372295916
0.311448365 0.284250259 0.374320179
0.338772833 0.289057195 0.377356261
0.379000276 0.299936980 0.389753282
0.429981083 0.319164932 0.398734808
0.493737996 0.338772804 0.418848574
0.558380544 0.366097331 0.442378283
0.633143902 0.403541893 0.470967799
0.386337906 0.372043163 0.410879254
0.393801540 0.376343727 0.425679922
0.413788885 0.380645275 0.429095358
0.442125261 0.384693384 0.433523029
0.485009283 0.398735106 0.446553171
0.543326974 0.417457342 0.463250995
0.604047954 0.445667386 0.483238459
0.675522029 0.480581731 0.518785417
0.477672428 0.486780435 0.488551736
0.491208196 0.490828454 0.499557227
0.503099144 0.498039484 0.497153640
0.523719013 0.503352702 0.499177903
0.560657740 0.511448324 0.513345718
0.607210457 0.527134776 0.528146744
0.662365735 0.551043749 0.548639774
0.732700706 0.588994443 0.587982595
0.564959228 0.597596288 0.557368517
0.564073503 0.599999964 0.556862593
0.579632938 0.607716560 0.559898794
0.603162289 0.612144172 0.571283937
0.633902371 0.622770548 0.583428442
0.672611952 0.639721751 0.600759268
0.720809579 0.660974264 0.619481564
0.778494656 0.693864226 0.655407548
0.674636364 0.740037858 0.663756788
0.683870971 0.741556048 0.665274918
0.690575659 0.745477378 0.672359228
0.701834142 0.752308547 0.679190457
0.723465860 0.761416793 0.691081703
0.757621586 0.773560882 0.703605354
0.789120615 0.787982523 0.720682740
0.842251658 0.814547837 0.749778092
0.210878938 0.139911160 0.427956581
0.230486795 0.141935095 0.426565617
0.275774896 0.156356737 0.433269799
0.327261269 0.178873822 0.443263769
0.401517957 0.209867179 0.459835589
0.480708450 0.243137121 0.474762797
0.553699970 0.281467438 0.495888770
0.637064755 0.333712786 0.524730742
0.235546961 0.163693994 0.427703977
0.247564808 0.172042832 0.429601312
0.283365250 0.179759532 0.429601312
0.339405537 0.200126544 0.441112995
0.405945718 0.223276183 0.454775333
0.478810728 0.257558554 0.473750949
0.552814364 0.291334361 0.493864536
0.636685312 0.340164810 0.519671023
0.283365071 0.222896829 0.445287704
0.295003533 0.227197811 0.446299434
0.326881915 0.234788343 0.457558692
0.371536732 0.250727296 0.464769095
0.433143377 0.271094263 0.475521803
0.507273793 0.299178064 0.499683559
0.575205386 0.335610271 0.513851881
0.657431841 0.379000545 0.541808605
0.320682824 0.292599648 0.464136451
0.333333433 0.297786474 0.479063630
0.364326477 0.303985089 0.476280600
0.407716632 0.317267269 0.489563763
0.467804998 0.331309438 0.502972782
0.527387679 0.354712188 0.512966275
0.596331358 0.383427918 0.531435370
0.670588255 0.423782080 0.560784221
0.393168956 0.387855917 0.509550810
0.401518017 0.391271532 0.513598919
0.414927453 0.392156929 0.519797564
0.449462414 0.394433826 0.521821558
0.506135166 0.409234822 0.535483658
0.565212011 0.432004929 0.553447425
0.631119788 0.459076256 0.571031153
0.704237819 0.496774018 0.594180763
0.494876623 0.513851881 0.578367889
0.493611455 0.512966216 0.579000592
0.506008863 0.515749633 0.584440291
0.526502371 0.514231622 0.583681345
0.555597484 0.516255558 0.587349713
0.606324971 0.532700479 0.600759029
0.675015628 0.559266269 0.617710292
0.743073642 0.591777265 0.642757714
0.572802246 0.633902729 0.638962448
0.584439993 0.634028792 0.645287633
0.591524303 0.634661674 0.643643379
0.611005604 0.634787858 0.649588823
0.634788156 0.644655287 0.654016495
0.672738671 0.648450315 0.664010406
0.720809519 0.666793108 0.682732284
0.782922089 0.696773767 0.702340484
0.680075943 0.753446937 0.708918631
0.683491826 0.756736279 0.726122320
0.691966772 0.757368565 0.718152940
0.707020581 0.760025442 0.726755440
0.728652477 0.765211642 0.736116529
0.757621467 0.776217520 0.748766482
0.793042541 0.792662621 0.764958858
0.851486623 0.816192627 0.788741589
