Assets/Shaders/EldamarStudio/100 Sci-Fi LUTs Pack/LUTs/cube/Ashleigh LUT.cube
DOMAIN_MIN 0 0 0
DOMAIN_MAX 1 1 1
LUT_3D_SIZE 32
0.003922000 0.000000000 0.000000000
0.031246386 0.000000000 0.000000000
0.067172773 0.002150774 0.006451774
0.105376318 0.003922000 0.010499839
0.141809091 0.003922000 0.008222548
0.178241864 0.003922000 0.011258936
0.224794641 0.006451677 0.021884996
0.268437684 0.004554003 0.027450999
0.306388080 0.000000000 0.028968999
0.339784503 0.000000000 0.035041004
0.376090735 0.000000000 0.041112997
0.412523508 0.002024256 0.049209252
0.447817624 0.002783356 0.056040641
0.481214076 0.000000000 0.059329998
0.514611244 0.000000000 0.065401994
0.552814782 0.000000000 0.076280996
0.587729394 0.000000000 0.089943185
0.619355142 0.000632576 0.105123565
0.655788004 0.003668965 0.120303981
0.686654031 0.001138643 0.129917651
0.722707212 0.000000000 0.140923470
0.757115960 0.000000000 0.150031865
0.781910002 0.000758977 0.153700009
0.818342805 0.018975005 0.171916813
0.850221515 0.039468277 0.185578987
0.877798915 0.057937652 0.194939986
0.903605044 0.074130058 0.202530071
0.937001407 0.095382430 0.217710435
0.965085447 0.116634794 0.232890800
0.987096965 0.132573962 0.249841943
0.999114394 0.150031179 0.265401602
0.996078014 0.180391997 0.274509996
0.022138000 0.021252386 0.021252386
0.034281999 0.033396386 0.009108387
0.068058155 0.037697386 0.009108387
0.109171480 0.040353999 0.015559838
0.150537938 0.040733546 0.020746097
0.184313864 0.043390386 0.026439324
0.220746636 0.043390386 0.026945390
0.265654683 0.040986776 0.033776384
0.305629194 0.035673678 0.035041392
0.336748898 0.033396386 0.032005396
0.370145261 0.033396386 0.043896385
0.408475757 0.029348390 0.052245639
0.445920378 0.024794357 0.060215384
0.480961055 0.018215999 0.065654963
0.511574864 0.018215999 0.074509613
0.547375202 0.015812807 0.085389219
0.584693372 0.013662194 0.096015185
0.617457569 0.012776578 0.107526764
0.646679640 0.015812976 0.120303981
0.680329025 0.024415359 0.129917651
0.714737475 0.026186030 0.140923470
0.753067732 0.030360512 0.153068006
0.787855506 0.037065271 0.162681893
0.821379185 0.052372161 0.177988812
0.853257358 0.068311438 0.191650987
0.880834937 0.086654127 0.202403665
0.905629456 0.102972768 0.211132392
0.933965802 0.116634808 0.223782435
0.970018983 0.132574201 0.238962799
0.989626944 0.151296332 0.254143178
0.999114394 0.169512570 0.268437773
0.996078014 0.195572391 0.277545601
0.048956543 0.051106773 0.040353999
0.056799546 0.054648772 0.036812000
0.079696320 0.064642549 0.033270001
0.112333931 0.068184547 0.026945163
0.151423320 0.068943545 0.028589549
0.186590940 0.073750705 0.034661870
0.220366865 0.076407544 0.031373002
0.256799638 0.076407544 0.034661997
0.298545182 0.072865546 0.041492902
0.331689030 0.071220830 0.042378232
0.369259864 0.068943545 0.047311999
0.400632501 0.066919804 0.053384256
0.439721853 0.063251317 0.063377991
0.476660073 0.057432026 0.071474001
0.507020831 0.053636547 0.078684345
0.548639834 0.053383581 0.092346609
0.585072637 0.051865771 0.101454996
0.618975401 0.050094549 0.111195333
0.644782066 0.051612750 0.124857947
0.679823160 0.058064904 0.134218648
0.713219464 0.063377798 0.143326730
0.747375250 0.067425542 0.156230345
0.783301711 0.075395271 0.169765979
0.818722129 0.086527675 0.186970145
0.845541000 0.097407050 0.195572764
0.875901341 0.111195751 0.204933763
0.903732002 0.125869766 0.213282943
0.935989678 0.134724766 0.223782212
0.964832604 0.151675791 0.240733802
0.985325754 0.170398161 0.252372205
0.996204793 0.188108355 0.266793370
0.998228788 0.208601996 0.278430998
0.078052156 0.084503159 0.062365480
0.089184150 0.083238319 0.066160321
0.098924764 0.087159775 0.062365480
0.123719156 0.095003322 0.057305161
0.152561635 0.095003322 0.041746002
0.189880028 0.099304318 0.040733997
0.223782480 0.106641479 0.041745998
0.256293565 0.109297998 0.043517157
0.292726189 0.109297998 0.049589157
0.329158843 0.109297998 0.058190841
0.367235869 0.106388450 0.061479870
0.403162509 0.104617417 0.065781415
0.435800284 0.101581514 0.069956154
0.474636197 0.101454996 0.081088126
0.506008804 0.097406492 0.086147994
0.542061925 0.097406477 0.098165631
0.581783354 0.097406477 0.111322150
0.618216097 0.097406477 0.118659139
0.645035028 0.097406484 0.133206978
0.681720555 0.100442871 0.141555816
0.716255605 0.104617417 0.149398729
0.747628212 0.107653290 0.159519255
0.777609527 0.113598824 0.174193636
0.810626149 0.122707225 0.188994005
0.840480387 0.129285291 0.200632572
0.867552161 0.135990143 0.209234983
0.897406876 0.148134157 0.215306997
0.931561947 0.155724153 0.223655701
0.961290300 0.169892117 0.235673472
0.984313726 0.186084479 0.253637046
0.991650581 0.204680294 0.265402019
1.000000000 0.219481155 0.280961335
0.106135547 0.117899641 0.088931449
0.124351539 0.115243480 0.099177711
0.130803093 0.115369871 0.096521318
0.137001708 0.120429866 0.086907312
0.159392640 0.126122996 0.072865099
0.198861793 0.126122996 0.054649096
0.232511327 0.134724990 0.055155091
0.263883859 0.141555831 0.061733250
0.295762569 0.144591644 0.070461996
0.332194567 0.144591644 0.076534003
0.368247718 0.142441422 0.080075674
0.403921485 0.141429543 0.084376961
0.440354288 0.140670449 0.089690447
0.477040052 0.137887090 0.096268512
0.510689437 0.137887090 0.099683672
0.541682601 0.139911354 0.109550536
0.573940754 0.141809091 0.121315375
0.607210577 0.141809091 0.132321522
0.643643439 0.141809091 0.144465566
0.682479382 0.142568097 0.151802555
0.718152702 0.143706352 0.158254102
0.749525249 0.146362677 0.165970713
0.776976883 0.149525538 0.177988946
0.804554343 0.158380911 0.187096655
0.834155560 0.162934795 0.198482022
0.864136279 0.167109221 0.209487975
0.894750059 0.170904547 0.221378997
0.922074437 0.183048531 0.227450997
0.951676071 0.194813058 0.234661534
0.979253471 0.206957415 0.248450160
0.996963620 0.219102070 0.267678648
1.000000000 0.231246084 0.285895467
0.139531940 0.151296809 0.110183060
0.157747924 0.151296809 0.128399834
0.169512689 0.146489859 0.132194862
0.173307866 0.149525806 0.128146932
0.180645019 0.159519389 0.118406251
0.211005792 0.162554994 0.091081873
0.240354329 0.162554994 0.082985863
0.268690675 0.164578989 0.082226865
0.298798263 0.166603118 0.086021833
0.335230947 0.171916798 0.094750002
0.368753791 0.174825922 0.100821987
0.400632501 0.174825937 0.102339931
0.434282273 0.174825937 0.103352055
0.470968038 0.174319863 0.105376124
0.510436416 0.174319863 0.117520891
0.541682601 0.174319863 0.125743061
0.575079381 0.176344126 0.135357127
0.609740913 0.178241864 0.143706590
0.640606999 0.178241879 0.147501960
0.677039742 0.183807865 0.159645960
0.712080717 0.183175132 0.168880671
0.743453145 0.182162866 0.177482739
0.770904124 0.182921916 0.187096566
0.801265001 0.188993931 0.196204975
0.831119597 0.193295285 0.207589924
0.860088587 0.200505838 0.215559736
0.888931096 0.210119918 0.221631989
0.922074437 0.216444910 0.233522996
0.949398816 0.225932747 0.247564808
0.979000390 0.237317815 0.259455919
0.999493957 0.249462202 0.272232622
1.000000000 0.261606872 0.282859087
0.175458640 0.194813311 0.149145633
0.186084971 0.189753324 0.157242402
0.206451729 0.191904098 0.169006869
0.218342960 0.192030638 0.172675312
0.224541515 0.200126633 0.171283871
0.239848495 0.201012015 0.156863019
0.262618959 0.201517954 0.134598643
0.288298637 0.198228970 0.120303944
0.314737439 0.197975963 0.112587318
0.345856994 0.204048276 0.112840168
0.379379869 0.212271079 0.121568315
0.412776738 0.215306699 0.127640307
0.445920587 0.218089640 0.132067963
0.481847316 0.220872641 0.136495665
0.514484346 0.220872641 0.141809151
0.556356549 0.218469441 0.149146318
0.588741183 0.219860762 0.158127829
0.624794364 0.222264320 0.166603625
0.660847723 0.222264320 0.171537295
0.689184010 0.225300655 0.177862331
0.721821725 0.227577642 0.184313580
0.754585743 0.227197826 0.193168938
0.785072625 0.228589147 0.203795120
0.815433443 0.227450967 0.212902904
0.848070920 0.235800236 0.224288568
0.875901282 0.239342272 0.236432627
0.902593136 0.247058630 0.243390322
0.933965743 0.253130645 0.251486301
0.956989110 0.264389783 0.261227131
0.980771482 0.275268912 0.272865504
0.999114394 0.288298547 0.285136014
0.997469664 0.302087635 0.297533005
0.210246697 0.233776107 0.183428109
0.220999375 0.230993107 0.187855765
0.235420763 0.229728177 0.197722927
0.255408287 0.227704242 0.210626021
0.267552406 0.233017236 0.216698110
0.275395632 0.239342406 0.208855331
0.289690316 0.240986690 0.194560364
0.307653695 0.237697676 0.173307985
0.330423713 0.232384786 0.152055591
0.355091512 0.235800385 0.141555980
0.384945869 0.239848569 0.146742523
0.419987023 0.244908437 0.148892686
0.453384191 0.247944340 0.152687699
0.489564031 0.254269451 0.160278022
0.524098694 0.261227101 0.166097403
0.557495236 0.260468215 0.168247983
0.598481894 0.260468215 0.175838187
0.632131279 0.263503969 0.185578972
0.669576228 0.264516115 0.193674996
0.702846348 0.264010042 0.198102713
0.730423748 0.266793400 0.207210660
0.760784566 0.267805248 0.212270528
0.793295503 0.270967394 0.223529696
0.822138071 0.272485584 0.231119514
0.854775548 0.275268972 0.239215568
0.886780560 0.281594008 0.251359969
0.912080765 0.284123689 0.261986077
0.941302836 0.287918687 0.266919702
0.966982782 0.296015352 0.275648534
0.984946191 0.309803933 0.284756452
0.999114394 0.321062595 0.295635849
0.996078014 0.334724993 0.310815722
0.245920181 0.267931998 0.212271094
0.255787283 0.267173082 0.216824904
0.270081878 0.267173082 0.224794284
0.285768330 0.268691033 0.236432418
0.303226084 0.260341644 0.254269630
0.310057193 0.273244947 0.250854194
0.320430100 0.276786864 0.241239741
0.334218800 0.276407182 0.223402590
0.350917190 0.271094084 0.204427287
0.369133204 0.268058479 0.183174893
0.393042058 0.267173082 0.179127052
0.423402697 0.268437922 0.176596925
0.458696902 0.271473646 0.174699187
0.491840988 0.275016040 0.175458223
0.529791236 0.289184421 0.184566602
0.562049448 0.294624090 0.187982187
0.593169212 0.297659904 0.190259293
0.633902550 0.300063103 0.199367672
0.667805016 0.302972972 0.211385205
0.700948715 0.301960826 0.215939462
0.732447684 0.301201731 0.222390994
0.761543274 0.304238051 0.232764035
0.792030454 0.307273686 0.241998911
0.820619881 0.312713295 0.249336094
0.850980282 0.315749496 0.254648983
0.883744240 0.318785518 0.263504177
0.913598955 0.321315199 0.274636209
0.940923333 0.321315199 0.277925521
0.968247890 0.327387750 0.287792712
0.988488078 0.338013887 0.294623733
0.999114394 0.352181703 0.307020575
0.996078014 0.361290097 0.322201014
0.288424999 0.304364026 0.245667517
0.291461378 0.301328421 0.254775882
0.303478688 0.300569534 0.261480480
0.318658650 0.305629492 0.267805487
0.333586127 0.314990461 0.275522053
0.345730901 0.311954081 0.290702462
0.355091661 0.309677333 0.287286997
0.367615223 0.308539003 0.271094561
0.384313583 0.307526886 0.249968484
0.405565947 0.304490507 0.237824470
0.420872837 0.301454902 0.216572106
0.442631483 0.300569534 0.204427734
0.470841587 0.301834345 0.198987991
0.503984988 0.305376083 0.199747026
0.534344971 0.314484447 0.208855405
0.565085113 0.323845834 0.215559989
0.592409909 0.332574308 0.218342975
0.621758521 0.339531511 0.220620066
0.667299032 0.339531511 0.229728475
0.692852736 0.342441380 0.236179993
0.721441984 0.341429263 0.240227759
0.752687871 0.340670139 0.244655013
0.785958469 0.343706489 0.251106560
0.819354951 0.346742898 0.263251334
0.847944260 0.347628474 0.268311203
0.878304660 0.349146307 0.275648326
0.910562575 0.351675987 0.286780953
0.937886953 0.351675987 0.292852938
0.965211987 0.359645844 0.306767613
0.985452235 0.370398462 0.312839508
0.996204555 0.382668972 0.319417566
0.996078014 0.394686460 0.340416998
0.328019857 0.337887615 0.281973720
0.333966136 0.337761134 0.288172245
0.345603973 0.343326956 0.295129836
0.359519064 0.344339013 0.301201880
0.373055160 0.347122192 0.309171438
0.387729585 0.349145800 0.329411775
0.399873734 0.351170063 0.342061847
0.409361303 0.355471462 0.333333164
0.419734627 0.358507514 0.312839746
0.430234194 0.355471104 0.292093694
0.442757726 0.352434754 0.265401870
0.459961832 0.345351130 0.242125243
0.482479393 0.340417743 0.228589520
0.510310054 0.337887615 0.223023698
0.540670693 0.339026153 0.221505404
0.566223741 0.350537747 0.233016998
0.600126565 0.361669868 0.235547200
0.632637799 0.370904326 0.236685842
0.666793048 0.373181611 0.248070970
0.695635378 0.378747612 0.254395992
0.720050573 0.378114998 0.256672978
0.750411153 0.378114730 0.262744993
0.785199463 0.382668853 0.274130225
0.807463944 0.377355903 0.272358924
0.840860307 0.380392283 0.277672410
0.870841324 0.381024867 0.277925193
0.901201844 0.383048743 0.283491403
0.926122427 0.387855738 0.299178004
0.950790584 0.387855738 0.307906151
0.981404245 0.397975832 0.324351400
0.998987854 0.408348858 0.332953721
0.998987854 0.416444868 0.344085872
0.363440752 0.381404489 0.318405986
0.367488772 0.383428246 0.322454244
0.384060740 0.385831982 0.330550492
0.397975832 0.389879584 0.337887347
0.410499960 0.387982249 0.346995324
0.425679922 0.392662555 0.369892418
0.440354228 0.395698816 0.381530762
0.454142928 0.398735195 0.383807749
0.462492317 0.404807508 0.369006813
0.467299491 0.403036267 0.347248465
0.475142509 0.402024120 0.324098617
0.489310741 0.398987770 0.300822228
0.505249739 0.387602866 0.274256736
0.525237322 0.378115207 0.258191407
0.546742797 0.369259983 0.246299818
0.576343954 0.376850247 0.243137240
0.603668392 0.384440452 0.255281270
0.638456881 0.394433916 0.256672978
0.666034341 0.400252968 0.266034007
0.693611622 0.408096254 0.276660502
0.720936000 0.410373241 0.280834734
0.744339108 0.408475518 0.278937250
0.775711775 0.412397027 0.286527514
0.806451917 0.412017733 0.287286609
0.832764328 0.414800793 0.290828526
0.868943632 0.416445494 0.295256227
0.900189817 0.417457491 0.296647489
0.924478233 0.423529506 0.311827898
0.950790644 0.430360764 0.322074652
0.975078881 0.432131529 0.336495429
0.998861372 0.440860122 0.350284576
1.000000000 0.445793748 0.355218261
0.409361273 0.442504913 0.365084916
0.413535506 0.444402158 0.366982639
0.427197695 0.446299702 0.375458688
0.443516612 0.446805716 0.384566754
0.456040800 0.444148898 0.394054025
0.471220613 0.448702902 0.415306777
0.487539232 0.454522222 0.429222226
0.500442624 0.456419975 0.433523268
0.514863908 0.459456354 0.430487245
0.519038737 0.459835887 0.415306568
0.523845911 0.456420273 0.389626682
0.532574534 0.453257650 0.368374288
0.546616256 0.451359898 0.344844908
0.558001280 0.435673505 0.313978851
0.569639683 0.418722153 0.290449083
0.591144919 0.412523717 0.272738636
0.621505022 0.418595821 0.271220624
0.649968207 0.421632200 0.281467229
0.673750997 0.429727942 0.287033290
0.698545337 0.438835979 0.296394706
0.727008402 0.443390280 0.306261867
0.755344927 0.446426421 0.310309619
0.777103245 0.446679413 0.304743648
0.809487820 0.447691530 0.304743886
0.836812258 0.453004599 0.308918625
0.866287231 0.457432270 0.314990640
0.903225601 0.457432270 0.322580695
0.927514195 0.462239265 0.335357279
0.955597818 0.470967799 0.344845116
0.980012536 0.477672696 0.356989205
0.997216642 0.480708301 0.372548878
1.000000000 0.483744621 0.376091272
0.472865045 0.519924045 0.426312089
0.479696035 0.520177066 0.426312089
0.491207838 0.520430028 0.434661537
0.504364192 0.519923925 0.445034891
0.513978541 0.517267048 0.455028117
0.529158950 0.517267048 0.467172891
0.546616077 0.524604380 0.481341302
0.560910821 0.528779089 0.491208315
0.571031094 0.529032111 0.494750053
0.583175123 0.532068491 0.500822067
0.586337924 0.524478257 0.471094161
0.590638995 0.517394066 0.445034862
0.598482013 0.513599038 0.422011465
0.610119998 0.512334049 0.393674999
0.613156438 0.491081715 0.357242256
0.625806808 0.472486079 0.325869501
0.647058964 0.463377863 0.308412075
0.674509585 0.465907604 0.308538586
0.695761979 0.468943983 0.311574966
0.718026340 0.476533711 0.316635013
0.744718432 0.482352734 0.326249033
0.774067283 0.487413138 0.335863054
0.804048479 0.496268511 0.341808558
0.828209996 0.493485153 0.336116016
0.851233244 0.497280061 0.337381303
0.876407266 0.502466738 0.342062056
0.906009018 0.505250037 0.349146068
0.930296957 0.505250037 0.364326447
0.959139645 0.512713253 0.373940796
0.984946191 0.520050466 0.385072976
0.999746978 0.525490463 0.396078557
0.999746978 0.528526068 0.405186951
0.500189424 0.547248423 0.459709227
0.515369773 0.550284803 0.459709227
0.520050585 0.552688062 0.466160446
0.530676961 0.556356370 0.473371118
0.544212818 0.559771776 0.479569793
0.556483388 0.559771776 0.497532874
0.571663737 0.564832389 0.507147312
0.590765536 0.568248212 0.522453964
0.607969940 0.567489147 0.533712506
0.622644246 0.565464854 0.537254810
0.623150229 0.568501234 0.528778911
0.621758580 0.562934637 0.500442803
0.624035418 0.559139371 0.475395560
0.631372392 0.557874382 0.451360106
0.637444377 0.542694807 0.411890984
0.650094748 0.526249409 0.382668972
0.663756967 0.510436594 0.354712009
0.679063559 0.501581252 0.338140219
0.689689994 0.499303967 0.335862964
0.722074389 0.496774316 0.333333343
0.749145746 0.503858030 0.339785159
0.774066865 0.511701107 0.346489817
0.794940054 0.520556450 0.347881317
0.816192448 0.523592830 0.350916922
0.847185314 0.527640760 0.356609702
0.875268638 0.535104454 0.364453048
0.903225601 0.541935742 0.372928739
0.930296957 0.544718385 0.382542402
0.951928794 0.547375202 0.389752954
0.980391920 0.553447247 0.401770741
0.999114394 0.559519410 0.413661987
0.996710598 0.564958811 0.420366555
0.529917598 0.581783593 0.493105799
0.547501147 0.584819973 0.500316560
0.547627747 0.587855816 0.496015012
0.557495117 0.592156529 0.510183096
0.575711489 0.597090125 0.520430028
0.593927801 0.595066428 0.524477780
0.608602107 0.600126386 0.547121882
0.622137725 0.606198728 0.554585576
0.638836205 0.607716739 0.567488670
0.652372241 0.606325090 0.573814034
0.660214961 0.606704593 0.572422504
0.654143214 0.603668749 0.559266090
0.653763592 0.598734736 0.533080280
0.659835577 0.596710622 0.509550750
0.665907621 0.585832000 0.474383175
0.674383402 0.575458825 0.439721584
0.686527431 0.557242393 0.413914979
0.695888400 0.539658427 0.384946048
0.701454818 0.527766824 0.360657603
0.725616395 0.527134359 0.360025138
0.753320456 0.525995970 0.356989056
0.779127061 0.533585966 0.362049311
0.800379753 0.542441368 0.363567501
0.823908865 0.545477748 0.366603702
0.842884541 0.553067505 0.371916622
0.871473730 0.562049329 0.380898088
0.897786021 0.572169721 0.390512317
0.925110400 0.579000354 0.401518166
0.954332590 0.577229619 0.407969594
0.979126930 0.582036793 0.419354767
0.997343421 0.588994384 0.433649570
0.991271019 0.596584618 0.442757577
0.566350400 0.619734168 0.524984360
0.580012619 0.621252358 0.531056345
0.581024587 0.624288619 0.532447875
0.585072577 0.627324522 0.533965409
0.604933381 0.632764041 0.555724084
0.622770131 0.632005095 0.558380604
0.637444675 0.633523166 0.569006801
0.652498186 0.638077319 0.586464167
0.666160405 0.641872287 0.594054222
0.679823101 0.641113162 0.603921473
0.690575540 0.642631352 0.607337356
0.692093432 0.643137217 0.601770937
0.685262561 0.637065172 0.584313512
0.689689994 0.633143365 0.560151339
0.693232000 0.624035418 0.529284954
0.700190008 0.616445363 0.503478765
0.710816205 0.608855188 0.471600175
0.719291389 0.588235438 0.446679026
0.723213196 0.570018828 0.410752565
0.735104442 0.556356370 0.384693384
0.757874668 0.554838598 0.379759640
0.782163143 0.555850506 0.379759371
0.806451857 0.563820243 0.383428186
0.830740213 0.568247914 0.387855887
0.848956585 0.572802067 0.390132993
0.869955957 0.580518365 0.396204978
0.894244134 0.592409968 0.404680192
0.920556605 0.602529705 0.414800704
0.945983648 0.607083976 0.426185966
0.971537113 0.610879362 0.434535146
0.996204913 0.616951346 0.447058976
0.992789209 0.625427186 0.457937986
0.605692565 0.656040132 0.556609929
0.616698503 0.657305121 0.559013188
0.618216515 0.658823311 0.560531139
0.620367110 0.661859691 0.564958751
0.636306107 0.665275574 0.576723158
0.647438109 0.668564200 0.588614821
0.659582615 0.669070125 0.595699131
0.673371434 0.670714676 0.603795111
0.688045144 0.673498034 0.614674151
0.706261933 0.670461655 0.626818180
0.718026578 0.671979785 0.633776307
0.723339558 0.675648272 0.635547161
0.723466098 0.675901115 0.625047028
0.721188664 0.670082092 0.604047656
0.721947670 0.661732674 0.577861845
0.722960174 0.655660689 0.557748079
0.732700944 0.648956120 0.535989881
0.742314935 0.641619146 0.503731549
0.748386979 0.623403072 0.476407111
0.752308905 0.601517916 0.433649719
0.764200151 0.586717248 0.407084376
0.784566998 0.582542956 0.397343546
0.808728516 0.585578620 0.403289050
0.832511246 0.591144562 0.408854961
0.852498710 0.594939828 0.411638141
0.871853530 0.601897538 0.415686131
0.895635664 0.607463598 0.422264218
0.919797838 0.619228125 0.428462714
0.940797210 0.629348338 0.441239357
0.963947177 0.639089167 0.453510314
0.981783986 0.648577094 0.462998122
1.000000000 0.654649138 0.469070137
0.633017123 0.680329025 0.593042016
0.651233852 0.686401010 0.593042016
0.662239254 0.687665999 0.595445752
0.670082211 0.689184189 0.600759149
0.678811014 0.692600071 0.610120416
0.678811014 0.698672056 0.619228005
0.689942956 0.699431002 0.626059711
0.703731775 0.701075315 0.632131994
0.718153000 0.704111159 0.638710022
0.730550051 0.706894517 0.645035028
0.740037918 0.703858137 0.654269874
0.747375011 0.707400084 0.665149033
0.751802683 0.709803700 0.665528297
0.754585922 0.706514955 0.649588943
0.760657966 0.703478575 0.631373048
0.751802981 0.699936807 0.612397313
0.754838824 0.693611741 0.594180942
0.766603053 0.684123993 0.570525229
0.766603053 0.671980023 0.531056046
0.772675753 0.656546652 0.492599666
0.780392289 0.636812210 0.460215330
0.792536259 0.620114088 0.436432928
0.808728516 0.609867513 0.418469518
0.829980910 0.612903118 0.421505123
0.856040299 0.616192281 0.427071631
0.880961359 0.626185954 0.435420960
0.904744089 0.640860081 0.446553051
0.925996423 0.643896461 0.455661416
0.944844961 0.655660987 0.464516073
0.970398366 0.667551994 0.475901395
0.992915988 0.679443300 0.487792939
1.000000000 0.691082001 0.499430984
0.704870105 0.746363103 0.654522061
0.709171534 0.749652505 0.657305479
0.716634989 0.753573716 0.659456253
0.723213077 0.754206061 0.662492275
0.730803549 0.754585743 0.668184757
0.738013744 0.751043737 0.674889147
0.748134434 0.752055705 0.678937435
0.755344748 0.752055705 0.686401010
0.763693750 0.754712105 0.693611562
0.771789789 0.759772182 0.699684083
0.778241277 0.762555599 0.719797969
0.789373934 0.757495463 0.718785584
0.796964049 0.759392798 0.721821427
0.801391721 0.759392738 0.715116739
0.802403748 0.753826678 0.701960802
0.798861742 0.750790298 0.681340992
0.793548763 0.747754574 0.661226869
0.799241126 0.741176546 0.639215827
0.799241126 0.731182814 0.606198907
0.807589710 0.724604726 0.586211085
0.817457497 0.709424376 0.548640013
0.823402941 0.687918961 0.515622854
0.827830374 0.666793227 0.485262275
0.841112912 0.653889894 0.461732835
0.866919875 0.659202754 0.464769006
0.894244373 0.664136708 0.470335394
0.918406308 0.674257040 0.479190439
0.935104072 0.677292824 0.488298804
0.953700304 0.682985365 0.492093533
0.973687530 0.696647525 0.500948548
0.993927956 0.708918333 0.517394185
1.000000000 0.719165385 0.540923774
0.739025712 0.776344001 0.687918723
0.736369371 0.783175409 0.690955102
0.754585683 0.784313977 0.693991065
0.758886456 0.784819543 0.704617441
0.764579535 0.784187019 0.709550679
0.770651519 0.781150997 0.706514716
0.776596904 0.787729442 0.717647076
0.785452247 0.789373755 0.717393994
0.791777074 0.789626718 0.728525817
0.801264703 0.793421745 0.740290940
0.805439472 0.792789578 0.751423120
0.813662231 0.797343731 0.767741919
0.824668050 0.794687092 0.765085101
0.831498981 0.797469735 0.765591204
0.834787965 0.794686675 0.758380473
0.828083694 0.785325646 0.735230684
0.826565564 0.783807456 0.715496480
0.826312602 0.780518770 0.695256054
0.825047731 0.772675455 0.669955671
0.831499159 0.768247724 0.643137455
0.838709474 0.760278463 0.623023450
0.849842131 0.745098054 0.588614643
0.850853980 0.721695185 0.554079473
0.861226797 0.704743564 0.523213029
0.875268877 0.692219734 0.499683738
