Assets/Shaders/EldamarStudio/100 Sci-Fi LUTs Pack/LUTs/cube/Ashleigh LUT.cube
LUT_3D_SIZE 8
DOMAIN_MIN 0.000000 0.000000 0.000000
DOMAIN_MAX 0.903226 0.903226 0.903226
0.003922000 0.000000000 0.000000000
0.141809091 0.003922000 0.008222548
0.306388080 0.000000000 0.028968999
0.447817624 0.002783356 0.056040641
0.587729394 0.000000000 0.089943185
0.722707212 0.000000000 0.140923470
0.850221515 0.039468277 0.185578987
0.965085447 0.116634794 0.232890800
0.106135547 0.117899641 0.088931449
0.159392640 0.126122996 0.072865099
0.295762569 0.144591644 0.070461996
0.440354288 0.140670449 0.089690447
0.573940754 0.141809091 0.121315375
0.718152702 0.143706352 0.158254102
0.834155560 0.162934795 0.198482022
0.951676071 0.194813058 0.234661534
0.245920181 0.267931998 0.212271094
0.303226084 0.260341644 0.254269630
0.350917190 0.271094084 0.204427287
0.458696902 0.271473646 0.174699187
0.593169212 0.297659904 0.190259293
0.732447684 0.301201731 0.222390994
0.850980282 0.315749496 0.254648983
0.968247890 0.327387750 0.287792712
0.409361273 0.442504913 0.365084916
0.456040800 0.444148898 0.394054025
0.514863908 0.459456354 0.430487245
0.546616256 0.451359898 0.344844908
0.621505022 0.418595821 0.271220624
0.727008402 0.443390280 0.306261867
0.836812258 0.453004599 0.308918625
0.955597818 0.470967799 0.344845116
0.566350400 0.619734168 0.524984360
0.604933381 0.632764041 0.555724084
0.666160405 0.641872287 0.594054222
0.685262561 0.637065172 0.584313512
0.710816205 0.608855188 0.471600175
0.757874668 0.554838598 0.379759640
0.848956585 0.572802067 0.390132993
0.945983648 0.607083976 0.426185966
0.739025712 0.776344001 0.687918723
0.764579535 0.784187019 0.709550679
0.791777074 0.789626718 0.728525817
0.824668050 0.794687092 0.765085101
0.826565564 0.783807456 0.715496480
0.838709474 0.760278463 0.623023450
0.875268877 0.692219734 0.499683738
0.960910678 0.710689425 0.519797623
0.826059580 0.870841265 0.801518261
0.839595318 0.879063845 0.821125627
0.860847414 0.881720424 0.850980401
0.885388911 0.886527240 0.894496918
0.896900773 0.884882987 0.905123353
0.901454747 0.875268817 0.825427115
0.921821237 0.856420279 0.731562257
0.967868209 0.810373366 0.622897029
0.898165822 0.947880983 0.964073598
0.896901011 0.949399471 0.979000509
0.907021046 0.954965115 0.986843765
0.924983978 0.955850780 0.989373624
0.947122216 0.959392607 0.988994181
0.945477664 0.956230283 0.994560063
0.940923214 0.953193963 0.964832366
0.970018983 0.946489692 0.873624623
0.000000000 0.000000000 0.229980633
0.159392640 0.003542452 0.202909186
0.301708102 0.000000000 0.202529743
0.437570930 0.000000000 0.218975559
0.572802186 0.000000000 0.239468738
0.709930480 0.000000000 0.257052273
0.831372559 0.000379548 0.266287297
0.948133945 0.049715351 0.296900690
0.003542452 0.158254102 0.204806730
0.154712543 0.133966088 0.213915095
0.295383096 0.126123011 0.213915199
0.433649719 0.115243189 0.221758097
0.567235947 0.099557288 0.235800087
0.706768155 0.101834089 0.255408287
0.833649576 0.129791081 0.281214386
0.963946879 0.183301494 0.317520797
0.134725004 0.266414106 0.239722073
0.226439089 0.267931998 0.258317560
0.334977746 0.261985719 0.268691093
0.447817713 0.272991627 0.260467827
0.581783772 0.282859087 0.275901288
0.710816205 0.278811097 0.288931280
0.832890391 0.289436907 0.311068982
0.947754502 0.312080741 0.332447618
0.321188897 0.421505094 0.338393003
0.384819806 0.420745999 0.366729796
0.482732832 0.430107921 0.423908919
0.510436475 0.426692158 0.380518466
0.598355472 0.413914919 0.336369514
0.720809400 0.435926527 0.345477164
0.839974463 0.452877998 0.365085363
0.956483066 0.468437642 0.392915815
0.508918643 0.589247406 0.494623721
0.554712176 0.599367380 0.528146565
0.625300348 0.609993756 0.562934816
0.685768306 0.618975282 0.600253165
0.688045263 0.593928158 0.497533202
0.737508178 0.545350969 0.411005706
0.839721799 0.574067175 0.438203841
0.943453610 0.609867036 0.465654820
0.702340066 0.757242084 0.657937825
0.732574463 0.761037469 0.678304732
0.763187647 0.771916330 0.704996467
0.811637819 0.779379904 0.746742427
0.814421296 0.772675335 0.720050335
0.832890689 0.745224476 0.630107284
0.865401447 0.681340754 0.520303309
0.952055693 0.710056722 0.541556001
0.812650263 0.856166840 0.796331108
0.828463256 0.862239122 0.805439532
0.841745317 0.871600270 0.825174272
0.869323313 0.874383628 0.860847592
0.893358588 0.882858872 0.905376196
0.890955031 0.874636292 0.834914684
0.921821237 0.860088706 0.757242501
0.964200020 0.823908746 0.646046817
0.884124100 0.949525356 0.974067032
0.895003140 0.950790524 0.978114963
0.906388283 0.953699946 0.980392277
0.920809567 0.956609726 0.992788970
0.942061841 0.959645987 0.993801177
0.942947447 0.957495213 0.992536306
0.944465756 0.953699827 0.971030891
0.966096938 0.948007822 0.884123802
0.000759096 0.000000000 0.430993080
0.118785538 0.000000000 0.414927632
0.313346088 0.006325001 0.391018152
0.441872269 0.000000000 0.377735287
0.567995310 0.000000000 0.372802287
0.701328456 0.000000000 0.396458089
0.822897077 0.001518192 0.413788915
0.947754741 0.005692832 0.413409263
0.001138547 0.174699187 0.420746297
0.065781087 0.141809091 0.419228166
0.297660112 0.126122996 0.391018271
0.434534848 0.120683096 0.364326268
0.560910344 0.117140740 0.381530493
0.690955281 0.119797282 0.396837533
0.825426817 0.119670987 0.412776470
0.953446984 0.133586362 0.420873106
0.000759096 0.322074294 0.426945180
0.136622548 0.315749317 0.432131767
0.309551001 0.273371160 0.409740359
0.445414662 0.262871563 0.388615191
0.575205505 0.253890097 0.400506109
0.700569391 0.249209195 0.409487724
0.817204297 0.247438371 0.407337189
0.939911246 0.269196659 0.423149973
0.158887073 0.411511809 0.402403355
0.229095638 0.400885373 0.405692369
0.333459407 0.402909726 0.409614295
0.477419525 0.401771188 0.426059276
0.582542717 0.404933274 0.421125919
0.709045112 0.405313015 0.439215630
0.830360651 0.420999527 0.450601071
0.947501540 0.445287824 0.476786822
0.345477343 0.550917149 0.468437463
0.392915606 0.561037302 0.480708539
0.486527234 0.568121374 0.507779956
0.623782337 0.578620791 0.574825823
0.657558441 0.576850176 0.546363115
0.717393875 0.545224369 0.488172084
0.829728186 0.579633176 0.512207508
0.935989916 0.599873483 0.534218669
0.601644278 0.731435955 0.625047684
0.631246030 0.733713090 0.634788156
0.695382595 0.737760842 0.668058217
0.763693750 0.750284672 0.706641316
0.816065967 0.767995059 0.757368743
0.818216443 0.734724760 0.663503945
0.847185373 0.679190457 0.569513202
0.938267052 0.711448312 0.591903806
0.775458753 0.851233482 0.766729772
0.792283475 0.848071277 0.778747499
0.814927220 0.857558429 0.803794980
0.854396164 0.864768922 0.851107061
0.888172150 0.881594181 0.907526851
0.894117773 0.877925217 0.876533628
0.920303226 0.865148485 0.790891528
0.963061452 0.823908985 0.686148286
0.884250581 0.945856929 0.963187873
0.883238673 0.951169789 0.972422540
0.896521211 0.949398935 0.980897784
0.917141140 0.954458833 0.989120543
0.941176414 0.956483066 0.989120841
0.948133826 0.958886921 0.995698869
0.940797091 0.955977023 0.982668757
0.962681770 0.946868956 0.911068678
0.000000000 0.002783356 0.635547280
0.007969638 0.000000000 0.623023331
0.302846521 0.003542355 0.602276862
0.460721284 0.001138644 0.566097617
0.586970389 0.000000000 0.536749065
0.705755830 0.001138644 0.542315006
0.823782563 0.000000000 0.547501624
0.937634468 0.033776000 0.545983434
0.000000000 0.162935093 0.622517645
0.007463549 0.151549548 0.623023331
0.292599648 0.140670553 0.605060279
0.458317369 0.106514998 0.561796308
0.572422743 0.099810541 0.536495686
0.692472756 0.110436089 0.537634373
0.819101930 0.121694922 0.546995342
0.945097983 0.147374913 0.557748199
0.000000000 0.367994845 0.647058725
0.125110269 0.349019647 0.632763863
0.293358654 0.296901107 0.626565635
0.467805177 0.272991657 0.593295276
0.581530511 0.254649103 0.547501624
0.702973068 0.253890097 0.543074071
0.816571832 0.261353463 0.559266508
0.938646317 0.268690884 0.554459095
0.034155548 0.501707911 0.644022584
0.173687726 0.506388605 0.643642902
0.337381363 0.491967291 0.639215469
0.470334917 0.435040921 0.603668630
0.576976836 0.385704935 0.553446949
0.700442612 0.384186983 0.556483269
0.817710221 0.394686997 0.558254182
0.938013673 0.414421260 0.568627477
0.196458191 0.576091170 0.595445752
0.259203196 0.575584888 0.596584320
0.365844369 0.573687375 0.602024078
0.478431642 0.556862652 0.590259254
0.590765238 0.539405525 0.576723516
0.698545098 0.526122808 0.567236185
0.814168453 0.542315125 0.579759419
0.930044413 0.573560953 0.598988116
0.366729975 0.676786721 0.605692744
0.416825086 0.683365166 0.605945528
0.497785985 0.688424945 0.612017393
0.613788784 0.698292196 0.638962805
0.743706524 0.715370297 0.703605354
0.788108826 0.716255486 0.698292077
0.831878603 0.683238387 0.637444735
0.924857438 0.722327411 0.657558441
0.675015807 0.828462958 0.722580612
0.692852676 0.831752002 0.729791045
0.730676770 0.834281862 0.750031769
0.795319259 0.844655275 0.796584547
0.862491906 0.863883734 0.871220827
0.894370556 0.881973803 0.921442151
0.910689294 0.860341549 0.834155500
0.947627962 0.822264075 0.727261186
0.846679389 0.940796971 0.926501930
0.858823657 0.945477605 0.948766530
0.883997738 0.950537503 0.972169638
0.899683654 0.954838634 0.985831797
0.930044115 0.958760262 0.993168533
0.952941060 0.963440776 0.993421614
0.950031459 0.958253980 0.988994181
0.965591490 0.954332590 0.953953147
0.004807003 0.015433186 0.793169200
0.000000000 0.009993995 0.792915702
0.256167203 0.004680902 0.764832377
0.459708929 0.003922000 0.746615946
0.599493980 0.000000000 0.712333977
0.707780242 0.001518192 0.680581927
0.818848550 0.000000000 0.677166224
0.933712780 0.016824966 0.671221018
0.004807003 0.179632932 0.778115392
0.005060354 0.172675550 0.781277359
0.253637075 0.167615190 0.771916389
0.460088491 0.145224646 0.742694557
0.590891957 0.113851637 0.705503166
0.691840291 0.095762543 0.669449925
0.819228232 0.112586796 0.672106504
0.939531922 0.142947450 0.682605982
0.019734375 0.373687267 0.792410076
0.041239657 0.355344623 0.795951784
0.281214386 0.331435919 0.784313440
0.465907723 0.309044719 0.758380711
0.598861217 0.278052092 0.715623021
0.696015179 0.248956278 0.678178370
0.818216145 0.253131002 0.671600163
0.932447612 0.262871742 0.672359288
0.200632289 0.544085920 0.818469048
0.283744454 0.536622286 0.814673841
0.399620831 0.516508698 0.792156518
0.481087804 0.464009792 0.762934744
0.605312824 0.426312596 0.729538381
0.696141779 0.389753461 0.681847036
0.819228172 0.392536253 0.681214154
0.940417409 0.400885612 0.678937376
0.290955365 0.650474370 0.796457946
0.353953272 0.656799197 0.806198776
0.448071152 0.650474191 0.802024066
0.549399197 0.646932542 0.787729383
0.633270144 0.585325539 0.752435327
0.702466786 0.530802906 0.693738222
0.813915491 0.523213387 0.678557992
0.923718929 0.540417552 0.675268769
0.373307973 0.733333409 0.758254290
0.402150482 0.733713031 0.764705837
0.463883400 0.727007866 0.758760333
0.543200195 0.716002643 0.747122169
0.633649826 0.699177980 0.723212898
0.725869238 0.676786721 0.710310221
0.818595946 0.657305479 0.688930988
0.918658733 0.688298583 0.703478873
0.382036626 0.777988613 0.694750428
0.407210797 0.783428133 0.695888281
0.504996479 0.788994133 0.709171414
0.620366991 0.796710908 0.731309116
0.747121930 0.812397420 0.770651519
0.853257596 0.838836491 0.868311405
0.885642111 0.848450541 0.873750806
0.934598029 0.825300395 0.794686854
0.751549721 0.932194591 0.859962046
0.774320066 0.935483992 0.876027524
0.804553986 0.939405739 0.903478742
0.844781637 0.942062199 0.945350885
0.898291945 0.949272633 0.983301759
0.945224285 0.960025430 0.991271496
0.967742026 0.968121171 0.992536187
0.963567197 0.954712212 0.982036650
0.004048004 0.081846982 0.928526461
0.000379548 0.079190530 0.924604475
0.103858292 0.089816473 0.915876150
0.393422097 0.087792732 0.900442481
0.564452887 0.072738722 0.868943691
0.689816475 0.022770461 0.822770476
0.797343791 0.003542452 0.786337733
0.920809627 0.018722722 0.806325376
0.000379548 0.202909276 0.927007735
0.001518192 0.201265275 0.918406129
0.144086272 0.200885728 0.914737284
0.403542340 0.192915723 0.897280276
0.557621777 0.181151018 0.865148485
0.697912574 0.158886880 0.830613494
0.803794980 0.134724632 0.797596276
0.928146482 0.155850708 0.820872903
0.001138661 0.361923099 0.929158807
0.011764845 0.348513246 0.934471726
0.233775944 0.350031465 0.925996065
0.424414665 0.333965719 0.903858185
0.569259942 0.317646772 0.876533926
0.689310730 0.291081458 0.828336477
0.795951784 0.259962201 0.795572162
0.922074676 0.269449890 0.804300904
0.333459675 0.554838359 0.951549470
0.371157378 0.551549435 0.944971442
0.400505900 0.529917896 0.932321131
0.484629899 0.499430627 0.917267680
0.593169093 0.481467515 0.892599463
0.704364359 0.441492647 0.847691774
0.797976077 0.397849351 0.797090411
0.935356975 0.412017643 0.823655963
0.422770262 0.690828621 0.969006717
0.447564870 0.689437270 0.967868268
0.511448443 0.685642004 0.957242012
0.584440172 0.665654719 0.928905904
0.633649588 0.618468881 0.902339995
0.720682919 0.584440172 0.859709203
0.804933310 0.529791176 0.804301083
0.927766919 0.528652668 0.813282728
0.483997732 0.777861774 0.944338977
0.509044766 0.780391932 0.955724120
0.561416745 0.778115273 0.950664282
0.626059473 0.778620780 0.954459488
0.698039234 0.777482271 0.948260486
0.750410676 0.724857509 0.891334713
0.810373008 0.652625144 0.807084024
0.922706842 0.658317626 0.800379574
0.475774884 0.834535003 0.912207186
0.482605964 0.838077128 0.901201725
0.525869489 0.835420549 0.904870629
0.585704982 0.835673928 0.897533119
0.663377702 0.826186180 0.882352889
0.746489406 0.815559983 0.862365961
0.834282100 0.799620628 0.847312152
0.925236881 0.815939248 0.849588990
0.429095209 0.907147467 0.830107629
0.461226940 0.902593136 0.832637787
0.528020203 0.902972937 0.834408224
0.642631590 0.909297764 0.857178807
0.771663129 0.921188951 0.903605461
0.875268579 0.935230732 0.975584805
0.959519088 0.960910380 0.990259230
0.959898770 0.956988990 0.989500105
0.000000000 0.144086286 1.000000000
0.002024260 0.143706739 0.999240994
0.000759109 0.151929289 0.996837080
0.287413061 0.152055636 1.000000000
0.482985169 0.159519076 0.998355269
0.641113520 0.159013003 0.988488257
0.768248320 0.139784977 0.969133496
0.878684342 0.110183418 0.934724689
0.000000000 0.242378339 0.998355269
0.000000000 0.241998792 0.998355269
0.025047664 0.240101442 1.000000000
0.319291621 0.243137434 0.999620438
0.502087414 0.244655341 0.995572329
0.647185683 0.242631361 0.988614798
0.770904541 0.224035814 0.980012596
0.878431261 0.203668818 0.948639631
0.000000020 0.375332206 1.000000000
0.020619996 0.369639397 0.997596264
0.167868644 0.370398283 1.000000000
0.371157557 0.368374556 0.994433761
0.522833347 0.362555295 0.999240935
0.652245164 0.355471373 0.988108754
0.774320126 0.327134550 0.976976514
0.875901520 0.290069818 0.944212556
0.369765818 0.566097677 1.000000000
0.367109537 0.554965198 0.997216642
0.385199100 0.535990000 0.997722745
0.477798939 0.524098575 1.000000000
0.581404388 0.517773628 0.998481810
0.681088090 0.501075387 1.000000000
0.785072625 0.472485989 0.988488257
0.888172150 0.425932646 0.968753934
0.546742439 0.708285928 0.998481989
0.561163843 0.708538890 0.998861372
0.587729454 0.706768095 0.997722864
0.620746136 0.687160194 0.998481810
0.649082899 0.655534387 0.996711016
0.717393696 0.633017182 0.999240994
0.795446336 0.597723186 0.986970067
0.886653841 0.541176438 0.965338051
0.634282470 0.808349013 0.998102248
0.636180043 0.815180480 0.999620438
0.665275097 0.814674139 1.000000000
0.703732014 0.813535631 1.000000000
0.747880757 0.803162336 1.000000000
0.767615318 0.762808323 0.998355269
0.816192329 0.725237012 0.993168533
0.893864810 0.658190906 0.963567257
0.653130829 0.879317284 1.000000000
0.657558680 0.869702578 0.998355329
0.676660478 0.872232676 0.998355269
0.728273273 0.883111894 0.998861432
0.783175290 0.886401176 0.998481810
0.848197043 0.898544848 0.991777480
0.868817270 0.872106254 1.000000000
0.912839949 0.799873531 0.974699259
0.602403641 0.935357153 0.993168712
0.608855069 0.932321191 0.998734832
0.633396506 0.932447672 0.996837080
0.668817401 0.937001884 0.994686723
0.717393935 0.938646615 0.997216821
0.765844345 0.937002063 0.993927777
0.834155500 0.920303464 0.988614678
0.948007166 0.939025819 0.991397798
0.005060025 0.193674803 0.996078014
0.001265167 0.196963832 0.993927538
0.032637551 0.206577957 0.996204793
0.305629253 0.218595788 1.000000000
0.478178352 0.230739951 1.000000000
0.620872736 0.243263632 0.998102248
0.741303146 0.256293327 0.998355269
0.852624953 0.243516773 0.998734832
0.003795180 0.278684378 0.997469962
0.006325105 0.276786536 0.999240994
0.137128219 0.277545631 0.998734832
0.346110016 0.286527544 0.994054437
0.498545021 0.299303979 0.993547976
0.633649409 0.311448276 0.998481810
0.751549542 0.316002458 0.997975826
0.864389658 0.304870486 0.999620497
0.115622520 0.398861319 0.997343183
0.174825937 0.394686908 0.993421853
0.288804829 0.396078348 0.998734832
0.416445076 0.398228914 0.997469962
0.531688690 0.404807270 0.998734832
0.654016495 0.407210737 0.999240935
0.758507371 0.404048175 0.999240935
0.861479878 0.381657004 0.996205032
0.423276424 0.552435040 0.997216642
0.423655599 0.551043510 0.998481870
0.466793180 0.546109915 1.000000000
0.531815290 0.549146235 0.998861372
0.614674091 0.545224249 0.996457815
0.696141779 0.537001669 0.998734832
0.786084473 0.528020203 0.997596204
0.877925456 0.499936759 0.998861313
0.642757773 0.728020370 0.998861313
0.643516779 0.727008224 0.994054317
0.637950540 0.703605175 1.000000000
0.638582885 0.684882998 0.998481810
0.683364809 0.672738850 1.000000000
0.742441654 0.661986113 0.998734832
0.812776625 0.644402087 0.998102427
0.889816582 0.612902999 0.998734891
0.716002226 0.820619941 0.996078014
0.728399575 0.820872962 1.000000000
0.737381399 0.823782563 0.998102307
0.768880367 0.820240617 0.996837139
0.787096858 0.806704819 0.997722745
0.803288996 0.777861774 0.998102248
0.849842012 0.762808263 0.998734832
0.906135201 0.724098563 1.000000000
0.778494358 0.896773994 0.999620438
0.780391812 0.897659719 0.992409766
0.791903675 0.899430811 0.997216821
0.828842402 0.906641364 0.998861372
0.862618446 0.914737344 0.998734832
0.891460836 0.914611220 0.994560301
0.904491007 0.889184117 0.995066464
0.936495900 0.856420279 1.000000000
0.775458753 0.940164804 1.000000000
0.779632807 0.935230672 0.997596264
0.793421686 0.933713019 0.996584356
0.816698074 0.941429675 0.994687021
0.861226916 0.945730746 0.992156982
0.907653332 0.960151494 0.993295193
0.949904978 0.972296238 0.992030203
0.964959025 0.957115650 0.986844003
