Assets/Shaders/EldamarStudio/100 Sci-Fi LUTs Pack/LUTs/cube/Ashleigh LUT.cube
LUT_3D_SIZE 5
DOMAIN_MIN 0.000000 0.000000 0.000000
DOMAIN_MAX 0.903226 0.903226 0.903226
0.003922000 0.000000000 0.000000000
0.268437684 0.004554003 0.027450999
0.514611244 0.000000000 0.065401994
0.757115960 0.000000000 0.150031865
0.965085447 0.116634794 0.232890800
0.210246697 0.233776107 0.183428109
0.307653695 0.237697676 0.173307985
0.524098694 0.261227101 0.166097403
0.760784566 0.267805248 0.212270528
0.966982782 0.296015352 0.275648534
0.500189424 0.547248423 0.459709227
0.590765536 0.568248212 0.522453964
0.637444377 0.542694807 0.411890984
0.774066865 0.511701107 0.346489817
0.951928794 0.547375202 0.389752954
0.754206121 0.790512264 0.705123127
0.796584129 0.813662529 0.748766601
0.853763223 0.823782265 0.799999952
0.861986160 0.785579145 0.647311985
0.962681651 0.736242831 0.540543914
0.898165822 0.947880983 0.964073598
0.903478801 0.956989169 0.985578477
0.931562424 0.951043367 0.989499986
0.941935360 0.953446925 0.992536128
0.970018983 0.946489692 0.873624623
0.000000000 0.000000000 0.385452092
0.283744425 0.003288997 0.348513365
0.500569105 0.002277292 0.336748391
0.737255156 0.005566131 0.364832401
0.952308714 0.003668699 0.380518407
0.000000000 0.281846970 0.384440422
0.274636418 0.244528994 0.364199400
0.517899811 0.229222119 0.365591377
0.746363103 0.211511686 0.376849860
0.949019670 0.246932536 0.398861378
0.302340269 0.492979407 0.423908681
0.432131410 0.502846420 0.455408126
0.601517797 0.509044647 0.494623691
0.749652088 0.500189543 0.453763574
0.942821205 0.523845613 0.470841378
0.681087971 0.766350269 0.660721123
0.743706167 0.779759526 0.699683785
0.836179733 0.804553986 0.792915523
0.843010724 0.769892514 0.677672148
0.944085956 0.738266826 0.595951676
0.887792826 0.949904978 0.968500793
0.896268129 0.952435017 0.980138958
0.928272963 0.958253980 0.993422031
0.944845080 0.958380520 0.994433820
0.967488825 0.944591761 0.903731644
0.000000000 0.003289416 0.713978827
0.219734401 0.000000000 0.697659791
0.536875367 0.000632584 0.644022346
0.730044544 0.000632584 0.605819106
0.935104489 0.009234826 0.606072426
0.001644708 0.319418132 0.714358091
0.216825098 0.275016099 0.707779646
0.536116421 0.233776107 0.650854111
0.722833335 0.216445401 0.612017512
0.927767217 0.230866820 0.609361231
0.173561200 0.585199356 0.730297387
0.353826821 0.582542419 0.728652656
0.553826392 0.511954427 0.677292824
0.725742817 0.452498823 0.620493412
0.931815207 0.472232789 0.615812838
0.317394137 0.691714406 0.633776248
0.422517419 0.701581419 0.643390238
0.613535643 0.698038936 0.657432139
0.805566192 0.732447684 0.732194781
0.926501930 0.745477676 0.698039353
0.808095992 0.938772798 0.898671567
0.843390226 0.940797210 0.934851468
0.898291945 0.949905217 0.985831797
0.960657656 0.965211689 0.990512311
0.958253980 0.952561378 0.975711584
0.000000000 0.103099123 0.967995107
0.003922000 0.107021123 0.961163640
0.470335662 0.103478998 0.924225092
0.710056961 0.056167118 0.858191133
0.910183370 0.038962655 0.836938620
0.000632580 0.320683271 0.971916080
0.077419341 0.319418103 0.955597520
0.488045663 0.306767970 0.933965743
0.713599145 0.260721117 0.862745166
0.907906234 0.238330275 0.836938441
0.399240702 0.628968835 0.987729430
0.485515088 0.630613685 0.981530726
0.565591395 0.571790099 0.946110308
0.729664683 0.511068940 0.875268698
0.920303524 0.458190948 0.844908237
0.506262004 0.802150309 0.976723254
0.561923146 0.802150548 0.987097025
0.680961549 0.801897526 0.983807981
0.775711060 0.759266257 0.931815207
0.922959924 0.691208124 0.839341938
0.434914798 0.912207782 0.882985592
0.487792462 0.910815954 0.884503424
0.630486667 0.908286035 0.880328715
0.859076440 0.929664910 0.967235684
0.960404813 0.958506942 0.988234997
0.005060025 0.193674803 0.996078014
0.004554165 0.202530086 1.000000000
0.399747044 0.223150223 0.997343183
0.653510273 0.246805623 0.998355269
0.852624953 0.243516773 0.998734832
0.055913784 0.361669391 0.997090101
0.198482186 0.358127683 0.996710896
0.454269230 0.367235512 0.996331275
0.673244953 0.373814106 1.000000000
0.861480057 0.351296544 0.995445848
0.534597993 0.640859962 0.999367416
0.538140297 0.622896910 1.000000000
0.603035808 0.606198370 0.998102367
0.737001836 0.595445931 1.000000000
0.884123743 0.546742618 1.000000000
0.738013744 0.844402134 0.997343183
0.748007655 0.849335968 0.998102248
0.804427624 0.845667541 0.998734951
0.829095244 0.810499549 0.998355389
0.914231777 0.755218267 0.998734832
0.775458753 0.940164804 1.000000000
0.787096500 0.935989857 0.995825231
0.843516827 0.941429675 0.990132630
0.920303464 0.962681651 0.992789149
0.964959025 0.957115650 0.986844003
