Assets/Shaders/EldamarStudio/100 Sci-Fi LUTs Pack/LUTs/cube/Barad LUT.cube
DOMAIN_MIN 0 0 0
DOMAIN_MAX 1 1 1
LUT_3D_SIZE 32
0.086274996 0.011765000 0.019608000
0.086274996 0.011765000 0.019608000
0.088425227 0.013915226 0.021758227
0.088931158 0.014421161 0.024794161
0.087033994 0.012523999 0.028209999
0.093106002 0.018595999 0.034281999
0.094117999 0.027198322 0.040353999
0.095762290 0.033017289 0.044781707
0.099556997 0.036812000 0.047059000
0.105629005 0.042884003 0.047059007
0.120429866 0.048955999 0.055787869
0.129538000 0.053004257 0.060847737
0.136748642 0.058317639 0.066160642
0.145857036 0.066919968 0.074762970
0.154965416 0.069955580 0.077798583
0.164073184 0.077798799 0.085641801
0.177735373 0.088424996 0.093231998
0.194686979 0.099303991 0.098671578
0.206831023 0.105376013 0.101707980
0.216192365 0.114231363 0.110309653
0.232890725 0.127134725 0.119417734
0.253131002 0.142315120 0.129538000
0.271600008 0.157621980 0.141808495
0.295888811 0.175838009 0.156988919
0.329285562 0.189499989 0.165337995
0.368501276 0.201644331 0.175584644
0.412524045 0.214295074 0.191271126
0.464136392 0.229475439 0.209487885
0.526375413 0.244655117 0.222390980
0.595445693 0.261606395 0.245161355
0.667425752 0.280708581 0.273750961
0.737254977 0.301961005 0.298038989
0.092346996 0.011765000 0.028716389
0.080202229 0.014800613 0.016571613
0.082353003 0.016951386 0.020872613
0.087919161 0.016192388 0.026059322
0.092726447 0.012903451 0.031246388
0.096141614 0.021631612 0.037318386
0.089563936 0.025173934 0.038330387
0.094623998 0.033270322 0.041745674
0.101075388 0.038330387 0.044022612
0.102593392 0.039848395 0.044022620
0.114484385 0.051739383 0.055661350
0.127513990 0.056040641 0.062871993
0.135609999 0.061353739 0.066919737
0.143073663 0.070208609 0.072232649
0.154965416 0.076027580 0.080834970
0.166476995 0.083870798 0.083871193
0.177735388 0.089943185 0.090196386
0.192915738 0.097533375 0.096900798
0.209867418 0.108412415 0.104743585
0.216445401 0.128399745 0.113345981
0.236685723 0.136622384 0.124351375
0.258191139 0.147375003 0.134598121
0.274889350 0.160657629 0.144591898
0.304996431 0.178874403 0.153953299
0.333839178 0.192536384 0.166856378
0.370145559 0.206072047 0.178621039
0.412524045 0.219860986 0.192789465
0.464136392 0.232511058 0.203415886
0.523719251 0.247691423 0.226944953
0.594180822 0.262871563 0.244149387
0.665654778 0.279822975 0.268564552
0.731182992 0.298924595 0.295003384
0.094117999 0.013915226 0.027071454
0.088424996 0.010499613 0.025680002
0.082732543 0.019987000 0.022137774
0.085768610 0.019228227 0.026944937
0.091587774 0.014674225 0.030993454
0.091081835 0.022011064 0.031752225
0.099051327 0.026059322 0.041366227
0.093232289 0.030739997 0.039721940
0.104364417 0.039342321 0.044022769
0.112713784 0.043517005 0.049588777
0.120050773 0.050853997 0.056925964
0.128146768 0.060974251 0.062998481
0.136622131 0.066540353 0.070082352
0.141682059 0.075395070 0.075395070
0.150031835 0.081467547 0.082606182
0.164326221 0.089942805 0.086907037
0.176470608 0.097532995 0.092979416
0.189247340 0.103099376 0.098419003
0.205945954 0.115243793 0.102972820
0.221632004 0.129285365 0.112080589
0.231498986 0.144844994 0.123086706
0.254522473 0.154459119 0.134218648
0.271473974 0.167615280 0.143706232
0.301834017 0.179759815 0.158886909
0.336495548 0.197722986 0.168121770
0.375205278 0.211258650 0.178874075
0.417963415 0.225932986 0.193042353
0.466287166 0.238076985 0.207084447
0.523719251 0.252877802 0.227324724
0.595066190 0.271600157 0.240986750
0.669575989 0.286653966 0.262112796
0.735863268 0.302340001 0.291967213
0.092852838 0.019481160 0.026059322
0.087286450 0.014674000 0.025300225
0.086780608 0.017710160 0.027450999
0.086274996 0.026059324 0.028716162
0.089690156 0.020746322 0.032511450
0.089310937 0.025047321 0.033017065
0.096395001 0.032384481 0.038836159
0.102846295 0.035799995 0.045287549
0.102846101 0.042631093 0.045287933
0.119544812 0.051739488 0.056926001
0.124857999 0.056673162 0.060720995
0.132194817 0.064769089 0.067299254
0.139405474 0.073877484 0.070335351
0.143200204 0.082732163 0.078937069
0.150284827 0.088804670 0.085009828
0.159772336 0.096015185 0.089943349
0.174699381 0.103604995 0.093485028
0.188108981 0.111574560 0.103858404
0.203921840 0.124351785 0.107021011
0.218090013 0.135231003 0.112839974
0.235040992 0.148640156 0.123845473
0.250221133 0.158760160 0.135989979
0.269070327 0.173181489 0.145224154
0.298292011 0.184566900 0.158886641
0.331941724 0.200505987 0.170272112
0.371410429 0.216065824 0.183175296
0.420999289 0.230234101 0.192789122
0.468817323 0.241618991 0.209487885
0.527514398 0.258949816 0.231625631
0.593801379 0.276407331 0.247817978
0.671852887 0.296774149 0.260088563
0.742441177 0.309677154 0.292726010
0.089816548 0.028589547 0.032132000
0.081846714 0.026691709 0.027197774
0.080961324 0.027577322 0.026818322
0.083997615 0.029854612 0.029854612
0.086654447 0.033270452 0.032511450
0.092726454 0.033270452 0.041619062
0.099178001 0.043010999 0.046426319
0.103605285 0.050221384 0.049462385
0.107400097 0.054016098 0.053257097
0.116508484 0.063124478 0.062365480
0.120556869 0.067172863 0.063883543
0.127261281 0.073877282 0.069576249
0.136748642 0.082985193 0.076407447
0.145603999 0.091840543 0.079696096
0.154585868 0.097912543 0.085768826
0.162429005 0.104364090 0.091461442
0.172296196 0.110815540 0.096774347
0.186590984 0.117646560 0.100442566
0.204807028 0.132826984 0.115622975
0.216192365 0.143200353 0.121568806
0.230992988 0.154965177 0.129538447
0.250980139 0.168247998 0.141682550
0.272485495 0.174699485 0.153573543
0.299809933 0.189879909 0.159645557
0.330929846 0.206577986 0.167994827
0.368121743 0.222390771 0.181657061
0.413030118 0.234788477 0.199240580
0.467678845 0.243896082 0.211385339
0.529917836 0.262491822 0.232637495
0.597975910 0.281593829 0.252371728
0.668058157 0.300569504 0.271094114
0.743959427 0.318785548 0.298418552
0.086780936 0.037697934 0.038203999
0.086780936 0.043769933 0.041239612
0.085262865 0.044022866 0.038456708
0.087033771 0.043263771 0.038962774
0.089690059 0.042378061 0.041619062
0.089690067 0.048450064 0.041619062
0.098292388 0.056040380 0.050727319
0.103605285 0.062365703 0.055534706
0.106641091 0.065401770 0.058570772
0.110436484 0.069196485 0.062365487
0.119544871 0.078304872 0.071473874
0.125616997 0.084376998 0.077039935
0.134471938 0.092093579 0.082479641
0.145603999 0.100948937 0.085768864
0.151675999 0.107020929 0.091840863
0.165464848 0.115496732 0.095509186
0.176091194 0.124098673 0.102087252
0.185578987 0.132067934 0.108285934
0.192663029 0.138898984 0.109550983
0.213662356 0.154079378 0.127514005
0.230992988 0.162555009 0.135610044
0.252245128 0.173181176 0.144718319
0.278557479 0.186843485 0.156609938
0.305881917 0.202023923 0.162681952
0.333206862 0.214926988 0.171031222
0.367109627 0.229474649 0.185705587
0.410120279 0.244149134 0.205439806
0.467678845 0.259076476 0.220492944
0.527640581 0.270840913 0.232637718
0.597722530 0.286274165 0.252119094
0.669069827 0.304617256 0.274130493
0.734851062 0.327893943 0.301454931
0.088804677 0.059455998 0.049335998
0.088804677 0.060467996 0.049841933
0.088804677 0.062238999 0.050727319
0.090069838 0.063504159 0.050601158
0.093105771 0.063757092 0.053637095
0.095256001 0.067678317 0.055787317
0.097786322 0.071220644 0.058317639
0.103605285 0.077040032 0.064136609
0.108918190 0.080835320 0.066413678
0.117267802 0.085642166 0.067678526
0.116002545 0.094496861 0.079064183
0.125110924 0.099557251 0.082100317
0.135104641 0.106261961 0.088298671
0.148134321 0.115117319 0.093864672
0.154206321 0.121189311 0.095382676
0.160278320 0.127261311 0.096647680
0.173560992 0.136243179 0.102593191
0.184946239 0.145351052 0.111701563
0.196711034 0.153320342 0.117394336
0.214168042 0.165212005 0.123972327
0.235420406 0.174699634 0.138393313
0.255281121 0.182795629 0.146742448
0.279569477 0.196457818 0.157621980
0.306893915 0.211638227 0.173308000
0.338772833 0.226818591 0.181657284
0.374952585 0.240607291 0.196331635
0.419228256 0.256293654 0.215560064
0.474889606 0.273497760 0.226692170
0.537760556 0.286021292 0.239215657
0.603794932 0.301707715 0.258443922
0.679063737 0.320303589 0.281340867
0.751043320 0.344592005 0.307020992
0.088551708 0.078810699 0.056546707
0.091840707 0.080455408 0.058190994
0.090195999 0.080455408 0.061479993
0.086400837 0.081720248 0.061479993
0.089057684 0.084376991 0.064136833
0.095888771 0.086147763 0.067172766
0.102213606 0.090828314 0.068564318
0.100316294 0.090575710 0.068311289
0.105629005 0.095129900 0.072865099
0.117773548 0.102087289 0.075521715
0.120303839 0.109424539 0.083871029
0.127008244 0.114484243 0.087919287
0.133839354 0.117520630 0.089057930
0.146742642 0.125869989 0.097406708
0.155598000 0.134724990 0.102972701
0.160025284 0.140796989 0.101327993
0.170651481 0.148387194 0.105882183
0.184187129 0.158127978 0.115622982
0.200379699 0.168247759 0.125743255
0.215053737 0.180139005 0.132068291
0.231878445 0.186843991 0.140290990
0.254142731 0.194939986 0.153447121
0.276533484 0.207463473 0.163946971
0.306893915 0.225679904 0.179127008
0.340417117 0.239215970 0.192156985
0.380771548 0.254395992 0.201265007
0.428589195 0.269070387 0.220999405
0.484377027 0.285009682 0.233523443
0.543706417 0.299556971 0.243643254
0.611005187 0.315243393 0.262871623
0.683491588 0.334345579 0.286274284
0.762428701 0.357874721 0.309803993
0.086274996 0.095509097 0.061859999
0.092346996 0.099304385 0.064136706
0.089690134 0.098671995 0.069323100
0.088677928 0.102213934 0.072106004
0.081846640 0.103731647 0.073624097
0.093611866 0.102593191 0.077799030
0.100189678 0.107653186 0.073750906
0.103352100 0.108791709 0.075901486
0.100316100 0.108033001 0.075142197
0.112460107 0.117140621 0.084250592
0.120303646 0.122580744 0.090449102
0.128146991 0.126628742 0.093231998
0.137634456 0.130423740 0.093611546
0.140923098 0.133713096 0.096900903
0.152055740 0.144845083 0.108032882
0.159266204 0.152940989 0.109677292
0.167615294 0.159772292 0.112713277
0.182795495 0.170145497 0.123086654
0.200885758 0.182416022 0.135357201
0.215054005 0.193042204 0.141935185
0.230613723 0.202529743 0.149904728
0.248071089 0.208602190 0.159519121
0.272738576 0.220493183 0.174446493
0.306134999 0.238582999 0.185958102
0.341049552 0.254522473 0.198102474
0.384566456 0.268058389 0.210373402
0.434155315 0.284250170 0.221505150
0.491587400 0.297153890 0.239974871
0.551549435 0.310436308 0.250221342
0.617077529 0.328905404 0.271220356
0.685768306 0.348007590 0.291587591
0.764706016 0.369260013 0.312839985
0.086274996 0.116761498 0.074004009
0.092346996 0.122833498 0.074004009
0.085515447 0.120177016 0.078431495
0.082605682 0.121948011 0.080708332
0.090955026 0.131056041 0.079696111
0.100063413 0.121948436 0.091840871
0.099177681 0.125869974 0.078304850
0.099936709 0.127008274 0.077292942
0.103352480 0.126249000 0.087286979
0.109424479 0.132321015 0.093358979
0.121568464 0.135610372 0.099557489
0.127387762 0.138772756 0.103605226
0.131942004 0.142947301 0.105375998
0.137887478 0.148893505 0.106008522
0.143959478 0.154965490 0.112080522
0.155091509 0.163693681 0.116002329
0.166856378 0.171157390 0.121821672
0.179759875 0.179253891 0.132195041
0.194939539 0.194433540 0.147375479
0.213029757 0.201138735 0.154079974
0.232890725 0.213156223 0.162049219
0.253890127 0.226818264 0.171157122
0.275774956 0.238709971 0.180518493
0.309171408 0.244781986 0.189626902
0.342567742 0.260594487 0.201138481
0.385831624 0.277166188 0.214674175
0.440228105 0.293358564 0.230613559
0.494876832 0.314610928 0.251865923
0.560277998 0.324857831 0.262365818
0.630233705 0.343073875 0.287412852
0.700316250 0.366223574 0.315369606
0.764706016 0.387475997 0.324983984
0.083365135 0.138013870 0.089057870
0.083618134 0.138266861 0.089057870
0.081088126 0.140037864 0.086907096
0.079317033 0.139279038 0.093231991
0.088045865 0.144971743 0.097279869
0.094623938 0.143453807 0.089184001
0.098671682 0.144465551 0.098798454
0.098039001 0.146869004 0.093864739
0.101328224 0.146615967 0.099430993
0.109550998 0.150537729 0.105503000
0.109803997 0.150790736 0.105756000
0.117899984 0.155850857 0.107779995
0.125237122 0.162049383 0.112207510
0.135357186 0.169639826 0.117520742
0.146742865 0.173054993 0.118279740
0.155218065 0.176723808 0.124351740
0.165338188 0.189373732 0.130929664
0.177356109 0.200379580 0.140037701
0.194813058 0.206451789 0.150664106
0.212776721 0.221632108 0.160278484
0.230992988 0.231878862 0.168374747
0.253257245 0.244022876 0.176470727
0.278810620 0.254143327 0.183807850
0.312207788 0.262998015 0.195698917
0.352435440 0.273624569 0.207084000
0.394687027 0.290575713 0.223402649
0.447818190 0.307273924 0.241619065
0.509677708 0.323719293 0.258064419
0.566982567 0.344971657 0.274003834
0.636558652 0.362176031 0.288930953
0.707653344 0.384440333 0.315875560
0.773434877 0.405692756 0.337127984
0.074257009 0.159266248 0.104237735
0.080328748 0.155218259 0.104237735
0.080075741 0.155218259 0.104111217
0.077798903 0.156483099 0.101075150
0.085009739 0.159519285 0.108285703
0.091081746 0.161163986 0.104363993
0.094623938 0.163694188 0.105882317
0.096015260 0.165085509 0.110056996
0.098292157 0.165085509 0.110816091
0.107400224 0.166856736 0.115623251
0.109803997 0.169006988 0.117899984
0.113851994 0.173054978 0.117899984
0.121062644 0.179126993 0.120176986
0.131815255 0.187096789 0.128146738
0.140417576 0.191904083 0.131688729
0.154206455 0.198987782 0.132447720
0.167868257 0.203541964 0.141556114
0.179759562 0.217836559 0.149904937
0.196584299 0.223655969 0.156229973
0.214800462 0.235800087 0.169386357
0.233017206 0.245288193 0.174699724
0.254269391 0.256167144 0.183554858
0.282099724 0.265528232 0.191018224
0.319291443 0.278431356 0.205060005
0.357495546 0.291840553 0.223276243
0.408349276 0.303984940 0.231245920
0.460974157 0.321442068 0.248703331
0.521695256 0.339658439 0.266919672
0.584187210 0.358128071 0.282100081
0.643642783 0.381151170 0.297279984
0.711954355 0.403542161 0.319670796
0.776471019 0.425933242 0.349272519
0.066666998 0.179379985 0.118279286
0.072359264 0.175585002 0.118279286
0.076154001 0.174952641 0.119417638
0.077419162 0.176217780 0.120429799
0.080455452 0.178494379 0.117014639
0.085768357 0.180012584 0.117773347
0.088172033 0.181910306 0.119670965
0.092979357 0.184440643 0.119923994
0.094497360 0.185958624 0.121441990
0.103225522 0.186717629 0.124857835
0.107653223 0.188488409 0.127893761
0.113851994 0.192409620 0.130043998
0.121062644 0.197343290 0.130043998
0.130170956 0.203162253 0.136116058
0.137128353 0.208349183 0.142188281
0.150411159 0.216824830 0.146868646
0.165970996 0.225553274 0.151802376
0.183554560 0.232257843 0.163314566
0.198734999 0.241366252 0.167362347
0.215559661 0.252118647 0.178115010
0.237191468 0.265022099 0.186843738
0.259456247 0.271094620 0.191904128
0.287286609 0.280202270 0.201011762
0.325742930 0.294370562 0.214167908
0.367488831 0.309550911 0.230486915
0.413282871 0.324478239 0.249082670
0.474509835 0.338646263 0.254649132
0.533459902 0.360531062 0.275269061
0.597596407 0.379127294 0.293485165
0.661859572 0.399747193 0.312081009
0.725237012 0.424920857 0.329917461
0.786717653 0.449462622 0.362555623
0.065907970 0.197849035 0.130423993
0.065654933 0.198102072 0.130677029
0.067805231 0.200252846 0.132068217
0.071094126 0.203036204 0.135610163
0.074383453 0.205819488 0.138267025
0.077419065 0.202783093 0.132195026
0.077672035 0.202024072 0.129917994
0.083364703 0.203668714 0.130297348
0.091208003 0.206957996 0.128526062
0.097280011 0.213029996 0.134598061
0.103857994 0.213789001 0.138013899
0.111448251 0.215306804 0.140290797
0.120809615 0.218848631 0.142947033
0.129917994 0.221631989 0.142694056
0.139025614 0.224667609 0.148766831
0.152940840 0.232763872 0.157495230
0.168121234 0.241366193 0.166097224
0.183554560 0.250727594 0.175205529
0.198734984 0.259835988 0.184313938
0.214927360 0.268943697 0.190132976
0.237444758 0.283238441 0.197217032
0.265781224 0.297913015 0.204048127
0.296394944 0.304238021 0.213409498
0.332827032 0.316382051 0.222770169
0.376596868 0.330803305 0.233396530
0.425173968 0.345983684 0.248576969
0.479317188 0.362429053 0.266287148
0.543074250 0.386717051 0.284503877
0.609740555 0.405945688 0.305629164
0.675015628 0.426186144 0.328652412
0.742188692 0.448703587 0.352688193
0.812017977 0.476028025 0.376977026
0.056799591 0.219101399 0.142567992
0.053763203 0.222137794 0.145604387
0.055660948 0.224541590 0.141555861
0.059962012 0.226312816 0.143706158
0.065401584 0.227324858 0.150790542
0.071347065 0.230107456 0.153447390
0.069323324 0.227071702 0.139785081
0.078431420 0.227957100 0.147501692
0.090195999 0.230233967 0.156862825
0.091208011 0.231245980 0.152814820
0.103099003 0.237317994 0.158886820
0.107906252 0.236053228 0.156230390
0.115622997 0.238836169 0.157748178
0.126881614 0.245919973 0.163946435
0.135989994 0.245919973 0.160910830
0.149905220 0.256166995 0.171789989
0.165085614 0.263124615 0.178747594
0.180898398 0.269323140 0.184313819
0.198734999 0.281088352 0.193421543
0.225047380 0.290196031 0.194180578
0.247944459 0.301201373 0.206831053
0.274889380 0.314610809 0.218469396
0.305502564 0.325490385 0.225553483
0.341935396 0.337634385 0.240733907
0.389753222 0.352055669 0.245540529
0.441492677 0.367236048 0.258823216
0.498039156 0.383428454 0.277925104
0.567362249 0.404933810 0.290575862
0.636432350 0.426565617 0.314104915
0.693231702 0.448956311 0.337760776
0.750031292 0.471726567 0.361163974
0.815053582 0.494243979 0.383049011
0.038077209 0.247564584 0.157115802
0.044655427 0.243390188 0.157748386
0.045920040 0.248576790 0.158633992
0.055281520 0.249336138 0.159392759
0.064010255 0.248197779 0.166603506
0.059962004 0.249209657 0.163567126
0.065654516 0.254396111 0.168248266
0.070841193 0.253004789 0.159645870
0.084503390 0.256040603 0.171030998
0.087792814 0.259329587 0.171536997
0.099430814 0.260341585 0.169892788
0.107526809 0.262365580 0.173940539
0.114357993 0.260847777 0.172422633
0.126755029 0.265907615 0.178494558
0.140164405 0.270208597 0.179759413
0.154079795 0.275015593 0.186337799
0.169260189 0.282606184 0.193927988
0.185705543 0.288172007 0.198229209
0.205692843 0.302087128 0.207336828
0.229854375 0.309045255 0.208095789
0.257178724 0.321947843 0.215686262
0.286021441 0.335609913 0.230866805
0.319670767 0.349146008 0.239848301
0.360657603 0.361290604 0.250474691
0.408475637 0.373434573 0.265654504
0.462871730 0.391271442 0.274762422
0.519038677 0.408981770 0.293484926
0.581277251 0.428336412 0.309424669
0.648703158 0.447185576 0.327387720
0.709677100 0.470208704 0.353446931
0.763946533 0.496267945 0.376597166
0.827703774 0.522074580 0.396331787
0.025932807 0.273371190 0.172296196
0.033523392 0.273371190 0.175332189
0.038330231 0.269829184 0.176849991
0.042631000 0.277166337 0.173055157
0.057558618 0.275522172 0.180645436
0.051865876 0.275522172 0.180265307
0.061480191 0.276027977 0.178241447
0.066286996 0.280329198 0.182416469
0.079190098 0.280329198 0.181657180
0.087539777 0.284883201 0.187729180
0.096394807 0.286653996 0.185072675
0.107526794 0.288172185 0.187603116
0.118153080 0.290449202 0.190638736
0.130803227 0.291208178 0.193675026
0.143453598 0.294750184 0.196710959
0.157115802 0.299304396 0.203035995
0.176850006 0.305376381 0.209107995
0.192662939 0.309045166 0.212144375
0.213029996 0.321568429 0.219481230
0.238583222 0.331435710 0.221758381
0.266287088 0.341682434 0.230866268
0.298671633 0.355850458 0.241998926
0.336495847 0.370777875 0.253636986
0.380392015 0.387097001 0.264136672
0.426692009 0.399241179 0.274762869
0.481087774 0.414168149 0.292725831
0.539279103 0.436812133 0.307147264
0.597975731 0.459076345 0.322327882
0.662112415 0.474256635 0.346615970
0.723339677 0.492979288 0.368627340
0.775331914 0.520809591 0.399493754
0.835294008 0.552435338 0.422137976
0.022264011 0.295888543 0.187476560
0.027704211 0.302593112 0.193548560
0.031625662 0.300695539 0.196204796
0.037191585 0.299683690 0.197975710
0.043643035 0.307653546 0.190006539
0.044401992 0.307653546 0.198355198
0.057685066 0.305755794 0.196710542
0.068311296 0.306008637 0.194307268
0.075648092 0.308918536 0.197469980
0.090828486 0.308918536 0.203541979
0.098544985 0.311195254 0.202150270
0.109297559 0.314231396 0.203921497
0.123718843 0.318406135 0.209487915
0.141682595 0.324225098 0.212270558
0.151549965 0.324604541 0.214927405
0.163061544 0.327640772 0.219734550
0.180645138 0.331562519 0.225553349
0.203668118 0.337002128 0.226691559
0.221884936 0.343074143 0.229727954
0.249715507 0.353447139 0.234661907
0.278305024 0.365591139 0.242757812
0.312081218 0.377735227 0.257178694
0.354838938 0.390259445 0.266413540
0.400885463 0.411511868 0.278557569
0.447691381 0.426565558 0.290954828
0.498798281 0.441492677 0.301201642
0.555976868 0.459708691 0.323466063
0.616445303 0.489563435 0.333333403
0.677925348 0.506514549 0.359139502
0.737507880 0.523465931 0.386590362
0.791018546 0.545730710 0.413409144
0.836558998 0.582163513 0.452877581
0.016192010 0.323213011 0.202656999
0.019228403 0.332321405 0.208728999
0.022517275 0.332574219 0.208349228
0.029348373 0.331815183 0.210879147
0.040607434 0.334977984 0.217330977
0.049715046 0.334977984 0.217330992
0.058064342 0.334978044 0.220619619
0.066287056 0.336369276 0.219607696
0.075901128 0.339405119 0.218595892
0.096900523 0.342314988 0.221758023
0.109171033 0.342315018 0.224920899
0.122833282 0.344592243 0.225426957
0.138899282 0.348766983 0.228210017
0.156863034 0.354585946 0.233522981
0.172043398 0.357621551 0.233522996
0.184313998 0.362808019 0.236179844
0.201012194 0.367109239 0.242504790
0.221884951 0.370398581 0.247943997
0.240101010 0.373434991 0.241872013
0.272233129 0.379507005 0.253257751
0.301328719 0.389879972 0.258950233
0.332954139 0.402023971 0.267046124
0.373055011 0.414547533 0.281593978
0.421631843 0.435799927 0.293738008
0.472232848 0.452498317 0.312713265
0.526122928 0.468817353 0.323212981
0.583302081 0.487033904 0.329538077
0.637950838 0.505249977 0.356862426
0.693105578 0.529790998 0.377355814
0.748513341 0.553067446 0.402909160
0.799873292 0.578621149 0.430866212
0.842631102 0.609488070 0.461986005
0.024035361 0.364452720 0.223403364
0.032637753 0.367995143 0.226692021
0.035673589 0.368500978 0.228463024
0.042504687 0.365464896 0.228589535
0.053890362 0.365465194 0.233902827
0.060594782 0.367868364 0.236306012
0.074763037 0.370398700 0.236306012
0.087666005 0.370651752 0.240733355
0.097912475 0.372548997 0.243390203
0.111068867 0.375584871 0.248450592
0.137507737 0.381277382 0.243136883
0.147627980 0.383301646 0.244148999
0.162428722 0.386338025 0.244148999
0.180645093 0.390512705 0.247185037
0.198355779 0.393548310 0.254775375
0.215939358 0.394180745 0.254775375
0.234914750 0.399493724 0.258950025
0.258064717 0.404427379 0.266160369
0.280581772 0.409614027 0.268690377
0.301581085 0.418216407 0.273751110
0.334977746 0.420493394 0.282100379
0.368121415 0.431119621 0.290069580
0.407716721 0.446932554 0.304870039
0.450980574 0.462871253 0.311701715
0.501833975 0.484123647 0.323845714
0.559013009 0.500316024 0.343580008
0.619481206 0.517647088 0.356356740
0.676407218 0.538140416 0.376849800
0.731055975 0.561670005 0.401518017
0.778620720 0.585958004 0.424667656
0.825679541 0.611131966 0.455407560
0.868184388 0.639595032 0.493358403
0.048323721 0.406957448 0.246552974
0.065022103 0.406198859 0.249589086
0.064136691 0.406831443 0.250474483
0.069702625 0.406325042 0.253004462
0.081214726 0.405692726 0.255914181
0.090322718 0.410246521 0.255913794
0.103985034 0.409487784 0.258317471
0.115876421 0.412523746 0.258317471
0.132068291 0.412776709 0.263883471
0.145730689 0.414673984 0.269955963
0.160910591 0.416824460 0.266286999
0.181783721 0.422769964 0.266160458
0.194307461 0.424667716 0.267299086
0.213282496 0.427198052 0.268564224
0.236432552 0.431878775 0.276027858
0.256546438 0.432511210 0.274130464
0.279316634 0.437065005 0.280202448
0.302719861 0.443516463 0.286400884
0.324478209 0.449588448 0.291207761
0.349778563 0.454648823 0.299177706
0.374825954 0.463757217 0.307147741
0.407210469 0.464769065 0.313219726
0.444275916 0.478304982 0.325110465
0.488551527 0.491713792 0.327640802
0.537887514 0.511448026 0.349652469
