Assets/Shaders/EldamarStudio/100 Sci-Fi LUTs Pack/LUTs/cube/Barad LUT.cube
LUT_3D_SIZE 5
DOMAIN_MIN 0.000000 0.000000 0.000000
DOMAIN_MAX 0.903226 0.903226 0.903226
0.086274996 0.011765000 0.019608000
0.095762290 0.033017289 0.044781707
0.154965416 0.069955580 0.077798583
0.253131002 0.142315120 0.129538000
0.526375413 0.244655117 0.222390980
0.088551708 0.078810699 0.056546707
0.100316294 0.090575710 0.068311289
0.155598000 0.134724990 0.102972701
0.254142731 0.194939986 0.153447121
0.543706417 0.299556971 0.243643254
0.056799591 0.219101399 0.142567992
0.078431420 0.227957100 0.147501692
0.135989994 0.245919973 0.160910830
0.274889380 0.314610809 0.218469396
0.636432350 0.426565617 0.314104915
0.092852496 0.450474381 0.272865236
0.162428930 0.456040651 0.282606006
0.284123778 0.472738951 0.300948977
0.456799388 0.509298146 0.339532018
0.764579594 0.622517347 0.454396099
0.685894489 0.805818558 0.573307514
0.704364181 0.808475435 0.587096393
0.757748246 0.813662410 0.616571367
0.841872454 0.837950468 0.657052398
0.919544637 0.864642560 0.714737177
0.086907007 0.033017289 0.060847409
0.101327993 0.040860288 0.070335694
0.144465417 0.089310698 0.107905991
0.225047410 0.169386417 0.169386417
0.503478408 0.261606663 0.263630807
0.086907007 0.086021699 0.077166408
0.104237713 0.104996689 0.103984989
0.137001708 0.141302973 0.131815523
0.228968844 0.205060109 0.188994259
0.527134359 0.306135565 0.284503579
0.064010002 0.223655984 0.175331980
0.082985580 0.228589684 0.181530684
0.139278576 0.251486093 0.193928108
0.262112528 0.313725263 0.245667368
0.619734049 0.430487037 0.348134041
0.129285231 0.448197663 0.301960707
0.174193352 0.459582388 0.313725531
0.288045347 0.471726686 0.326501995
0.456420064 0.506767929 0.358886689
0.769512951 0.625806153 0.476407200
0.692220092 0.797722816 0.596584678
0.705882192 0.800632417 0.601012170
0.758001149 0.814041734 0.623023391
0.836558998 0.834914565 0.661606371
0.917267263 0.861479938 0.716888309
0.056167006 0.055534583 0.193547994
0.095762290 0.062112574 0.191017985
0.140543580 0.103351980 0.185072407
0.223402709 0.176596999 0.227957115
0.508791804 0.279949635 0.330423385
0.079064004 0.130170822 0.176596984
0.094117999 0.131435990 0.178874105
0.131056279 0.159266114 0.192915574
0.222137958 0.227324262 0.245287821
0.528779268 0.326754928 0.352308512
0.053510174 0.237444386 0.223023400
0.079064004 0.256420225 0.234155402
0.170778230 0.314611226 0.287792802
0.296900898 0.343073934 0.314610988
0.623149514 0.446173608 0.416192472
0.191144943 0.460594654 0.369260132
0.232384503 0.471980125 0.371916533
0.335357219 0.491967201 0.392536223
0.493737906 0.526375830 0.423276246
0.780771554 0.635546923 0.535230756
0.699051380 0.801265001 0.620872974
0.710309863 0.800885320 0.633649707
0.759518981 0.811638176 0.651612639
0.843137622 0.832637429 0.690954983
0.920177221 0.864642620 0.744591713
0.001012128 0.099177867 0.365085244
0.049588572 0.122327574 0.357495129
0.163567409 0.159013405 0.350284398
0.275901109 0.212903127 0.354206085
0.561163366 0.292725950 0.439341933
0.001264999 0.189374119 0.336875439
0.059455995 0.198481694 0.341176122
0.161669672 0.220114112 0.345730543
0.275016248 0.260973841 0.356862694
0.579506636 0.344465673 0.455787331
0.013030007 0.314357698 0.354965091
0.090702109 0.316634804 0.364705950
0.196078107 0.344086230 0.375205368
0.346109927 0.374825984 0.405945539
0.669955552 0.466413349 0.512966633
0.238836363 0.490702271 0.454269379
0.292473376 0.502087533 0.457305223
0.424920619 0.535483956 0.494244516
0.636053264 0.612270534 0.568121374
0.809108198 0.672738791 0.630360484
0.719417751 0.803288579 0.687033415
0.738646388 0.808475435 0.701454580
0.782668889 0.824794471 0.724224985
0.844654918 0.846046746 0.747754574
0.918785572 0.874003768 0.783301890
0.000000000 0.219987452 0.687033534
0.088298485 0.232005075 0.696015239
0.345983386 0.267045945 0.692346394
0.579380035 0.312966615 0.686527550
0.782795191 0.387602568 0.688298345
0.000000000 0.308285773 0.680075526
0.152941078 0.309297621 0.682226360
0.375078678 0.333459914 0.680455387
0.594560385 0.375332028 0.684503317
0.786337614 0.438962698 0.692978799
0.236052558 0.458064616 0.681214154
0.298165470 0.466919720 0.680455446
0.457937747 0.482985556 0.685768604
0.639215529 0.511448443 0.695256233
0.808728397 0.561543345 0.707274020
0.532827139 0.659202754 0.713851690
0.567109406 0.661859572 0.720050573
0.633902252 0.666666627 0.724983990
0.737381041 0.682985425 0.730423689
0.855281532 0.720936179 0.759898543
0.769386590 0.842504561 0.796710730
0.774066985 0.840480626 0.798734605
0.811764836 0.850347579 0.817710400
0.872738779 0.865907729 0.834281743
0.944212556 0.909044743 0.893484592
