Assets/Shaders/EldamarStudio/100 Sci-Fi LUTs Pack/LUTs/cube/Barad LUT.cube
LUT_3D_SIZE 8
DOMAIN_MIN 0.000000 0.000000 0.000000
DOMAIN_MAX 0.903226 0.903226 0.903226
0.086274996 0.011765000 0.019608000
0.087033994 0.012523999 0.028209999
0.099556997 0.036812000 0.047059000
0.136748642 0.058317639 0.066160642
0.177735373 0.088424996 0.093231998
0.232890725 0.127134725 0.119417734
0.329285562 0.189499989 0.165337995
0.526375413 0.244655117 0.222390980
0.089816548 0.028589547 0.032132000
0.086654447 0.033270452 0.032511450
0.107400097 0.054016098 0.053257097
0.136748642 0.082985193 0.076407447
0.172296196 0.110815540 0.096774347
0.230992988 0.154965177 0.129538447
0.330929846 0.206577986 0.167994827
0.529917836 0.262491822 0.232637495
0.086274996 0.095509097 0.061859999
0.081846640 0.103731647 0.073624097
0.100316100 0.108033001 0.075142197
0.137634456 0.130423740 0.093611546
0.167615294 0.159772292 0.112713277
0.230613723 0.202529743 0.149904728
0.341049552 0.254522473 0.198102474
0.551549435 0.310436308 0.250221342
0.066666998 0.179379985 0.118279286
0.080455452 0.178494379 0.117014639
0.094497360 0.185958624 0.121441990
0.121062644 0.197343290 0.130043998
0.165970996 0.225553274 0.151802376
0.237191468 0.265022099 0.186843738
0.367488831 0.309550911 0.230486915
0.597596407 0.379127294 0.293485165
0.025932807 0.273371190 0.172296196
0.057558618 0.275522172 0.180645436
0.079190098 0.280329198 0.181657180
0.118153080 0.290449202 0.190638736
0.176850006 0.305376381 0.209107995
0.266287088 0.341682434 0.230866268
0.426692009 0.399241179 0.274762869
0.662112415 0.474256635 0.346615970
0.048323721 0.406957448 0.246552974
0.081214726 0.405692726 0.255914181
0.132068291 0.412776709 0.263883471
0.194307461 0.424667716 0.267299086
0.279316634 0.437065005 0.280202448
0.374825954 0.463757217 0.307147741
0.537887514 0.511448026 0.349652469
0.749652028 0.593168616 0.426565349
0.327767074 0.603415847 0.373054534
0.346995622 0.601518095 0.369133532
0.380391985 0.607210577 0.374699652
0.446426392 0.617457271 0.391524196
0.520809293 0.626185715 0.405818850
0.613789082 0.641872287 0.438583016
0.701707542 0.662238777 0.459329545
0.827450931 0.708918095 0.527640700
0.685894489 0.805818558 0.573307514
0.696900666 0.805818558 0.585199177
0.711701274 0.807210565 0.593674660
0.738013566 0.811132252 0.605566204
0.780518591 0.820619583 0.628715932
0.828969121 0.834408462 0.646932125
0.869070351 0.853510618 0.683111429
0.919544637 0.864642560 0.714737177
0.083491549 0.020746548 0.025426548
0.090195999 0.016824547 0.025047095
0.103858449 0.041113451 0.052877642
0.132447883 0.070082352 0.074762642
0.168501094 0.097026989 0.101833992
0.221632197 0.144718468 0.137001798
0.321315736 0.194560543 0.182163447
0.510309815 0.255408257 0.237570792
0.090575546 0.029727997 0.031246092
0.098039001 0.026944641 0.033650000
0.109424450 0.058317546 0.058317546
0.127387539 0.090449445 0.086527541
0.160658002 0.120935827 0.109297730
0.229474992 0.160025343 0.147627726
0.320682973 0.215686247 0.187982291
0.512333989 0.274889469 0.245793670
0.086654447 0.095888644 0.075521640
0.089816548 0.102972642 0.081467099
0.103099450 0.110815637 0.090828896
0.123845994 0.130803198 0.106515095
0.158254206 0.161669746 0.126881897
0.217963532 0.203162536 0.164832339
0.333206654 0.254396260 0.209108293
0.541555583 0.313852042 0.263124496
0.069829099 0.173055097 0.117773533
0.082479708 0.174193546 0.126502439
0.097659551 0.184819981 0.134345531
0.121441998 0.197343275 0.140923172
0.161417007 0.223150089 0.163187742
0.223655969 0.264769375 0.199620366
0.356103808 0.312334001 0.239468470
0.577735603 0.377103359 0.295256287
0.040860001 0.270588547 0.189374179
0.056167353 0.268816918 0.179253384
0.087033905 0.277925193 0.191777274
0.125363901 0.289310545 0.201265097
0.174446195 0.302973181 0.216065988
0.263883829 0.337254465 0.244781733
0.423402816 0.398355365 0.289563566
0.661227107 0.474636197 0.355597556
0.060847528 0.402909458 0.259456009
0.091208003 0.406198651 0.268437654
0.133333459 0.411132008 0.271727085
0.194434002 0.423402548 0.279443473
0.275901198 0.441492468 0.288931191
0.373687267 0.456293643 0.311448276
0.540544271 0.510689139 0.353700250
0.745603859 0.591650784 0.432384491
0.325110644 0.595951855 0.367615551
0.331562370 0.594813526 0.377482504
0.365464866 0.596710861 0.379253536
0.434661359 0.604933858 0.391777545
0.507780015 0.620999336 0.408475518
0.604300916 0.636053145 0.432637572
0.690828562 0.654775381 0.457432121
0.811132014 0.706894517 0.531182408
0.680455089 0.803541839 0.581151247
0.690069258 0.801770926 0.580645382
0.703098953 0.801644266 0.589879692
0.733965576 0.804047644 0.605313063
0.774319887 0.819481254 0.623908937
0.822770298 0.828968763 0.643769860
0.868311048 0.843769908 0.678936958
0.917520404 0.859455705 0.703351974
0.083112098 0.036812000 0.079063997
0.087413445 0.040734001 0.082985193
0.106641091 0.045414094 0.090069897
0.132447898 0.072865002 0.101834096
0.158254087 0.111954376 0.129158989
0.211132243 0.155724078 0.164073437
0.294243991 0.214547798 0.214547992
0.499430656 0.263883561 0.273750812
0.092599906 0.053636648 0.079063997
0.106388450 0.053131089 0.088551901
0.107399993 0.066919640 0.090449445
0.129411906 0.098671995 0.117140733
0.158001348 0.128779545 0.139405191
0.207589984 0.176976472 0.173940465
0.304743767 0.225047737 0.218342796
0.506514549 0.279190540 0.281847239
0.083871000 0.106514998 0.093106091
0.092473090 0.110056639 0.108792000
0.103478998 0.131562188 0.125237182
0.123086900 0.144845098 0.140164196
0.151929095 0.173814192 0.157369092
0.210246637 0.212650448 0.191018179
0.317394286 0.259076446 0.234788358
0.532953501 0.321821749 0.294623792
0.077292651 0.183681533 0.157115549
0.081593908 0.187982187 0.162934989
0.097280003 0.196204737 0.164073452
0.117140748 0.204806730 0.169133276
0.157874644 0.230993181 0.190638736
0.222138077 0.269702613 0.227450728
0.357368559 0.317899972 0.263377666
0.579253674 0.384566784 0.327640802
0.054901998 0.278810978 0.208981276
0.062365547 0.277166367 0.207463369
0.088551901 0.285768390 0.212144181
0.125996083 0.294370472 0.225173727
0.172928199 0.309297949 0.238077179
0.260974348 0.344339281 0.260594457
0.428209811 0.401518285 0.309930146
0.656293511 0.476913184 0.385578722
0.094117559 0.408981711 0.285768390
0.116381817 0.411385000 0.286527276
0.148893163 0.419860810 0.293231755
0.210373104 0.426185906 0.303732097
0.286906987 0.443010569 0.315116823
0.376723677 0.458697379 0.329032123
0.543453574 0.513472319 0.379380375
0.748513520 0.595951796 0.461733341
0.343579769 0.598861456 0.397596270
0.364579350 0.595698833 0.406957567
0.395572096 0.601897657 0.406072289
0.456040174 0.612144470 0.422517359
0.526502132 0.626944900 0.438077450
0.613282621 0.638836503 0.461353898
0.700442731 0.660847723 0.485262543
0.820493519 0.715243161 0.555217981
0.690955162 0.797975540 0.593295455
0.696774364 0.801644266 0.607716560
0.714737177 0.803162396 0.607337415
0.744971395 0.811638355 0.622643709
0.783048391 0.821378767 0.637318015
0.823149800 0.832637310 0.660088658
0.873497665 0.846805871 0.691714227
0.918279469 0.860720575 0.723719180
0.065528356 0.056040641 0.149778634
0.078810550 0.059582900 0.151928991
0.107400000 0.060341902 0.152308539
0.128905639 0.079063997 0.149145633
0.158633545 0.115875989 0.169639453
0.209487736 0.163187832 0.200885639
0.298418641 0.219228283 0.249462649
0.503858149 0.273244768 0.310815752
0.079317003 0.080708191 0.148007184
0.091714092 0.083364643 0.148513556
0.103858449 0.089690439 0.147627741
0.123086900 0.104870185 0.147122085
0.155471340 0.136622548 0.165844291
0.200885639 0.176850200 0.203542084
0.306261927 0.236052915 0.258190930
0.501834333 0.294497073 0.317647159
0.079316907 0.123719089 0.151929095
0.092220455 0.129159093 0.157874644
0.102720000 0.138520002 0.161290079
0.125110537 0.153067648 0.168374300
0.149525374 0.182036653 0.193042442
0.207337186 0.224414736 0.227450728
0.318279475 0.274004102 0.273624420
0.530170560 0.333839208 0.338013560
0.072233006 0.185578987 0.174952641
0.080455460 0.193801522 0.180898175
0.098418646 0.210626289 0.195445642
0.124477997 0.245034978 0.227071270
0.164832443 0.256419927 0.234535009
0.222011477 0.287412971 0.261986017
0.352434814 0.334218562 0.301707923
0.571283877 0.393295109 0.361416727
0.060847644 0.284250200 0.247185439
0.073118538 0.291208297 0.242631271
0.102087446 0.305755854 0.258823633
0.146615908 0.315876007 0.266919345
0.191524178 0.331941575 0.281088173
0.281720191 0.363693923 0.304617405
0.435420543 0.412903011 0.348892808
0.656799376 0.492852598 0.419101745
0.128146812 0.416065812 0.323213279
0.147248358 0.415939093 0.319544375
0.178241819 0.424667925 0.329031914
0.232890382 0.436812460 0.339405745
0.309171468 0.451612741 0.351423353
0.394813210 0.471220553 0.374699742
0.556356847 0.523213029 0.412270546
0.750917137 0.605439365 0.494370610
0.369639397 0.597849548 0.431119621
0.382921994 0.599873245 0.437823981
0.408222556 0.599747062 0.435800254
0.464389384 0.612397194 0.451486528
0.532700896 0.623782575 0.464136451
0.615433037 0.639975011 0.483491659
0.700569212 0.665022194 0.513725460
0.820872903 0.714104652 0.574952364
0.695509374 0.801770806 0.621252596
0.699430406 0.800252557 0.621252298
0.719544649 0.803668499 0.623909116
0.746489525 0.811891079 0.638709188
0.785452127 0.816571832 0.653257310
0.828336418 0.831119299 0.675521493
0.872865260 0.846805990 0.711954415
0.918532729 0.862997830 0.738772750
0.044023003 0.055787615 0.239595369
0.063630998 0.057937995 0.238203809
0.096394904 0.076660186 0.223909184
0.136116445 0.099430993 0.228715986
0.160531193 0.129158795 0.222391188
0.211891443 0.169007182 0.247817919
0.310563177 0.224794567 0.292093396
0.522960365 0.281467617 0.363187641
0.058570359 0.094244540 0.222391188
0.075395197 0.102972537 0.225553170
0.100063361 0.112333730 0.222517282
0.121821545 0.131562084 0.219355196
0.159392625 0.149904743 0.221125722
0.206704289 0.190259278 0.248703644
0.313092887 0.239215717 0.295888573
0.511827946 0.297533154 0.360910654
0.070841201 0.158127993 0.213029981
0.075774647 0.161290184 0.218089744
0.094876900 0.165970996 0.223276377
0.119165100 0.174952656 0.222011551
0.151170000 0.193421990 0.230993092
0.209867179 0.228968814 0.264262825
0.329032362 0.282606274 0.318532437
0.548134089 0.343326986 0.383428365
0.055154812 0.216192186 0.238203809
0.069576457 0.222011551 0.231372640
0.092852645 0.232890725 0.246426433
0.123592384 0.248576626 0.259962261
0.167868540 0.272106618 0.274130374
0.242124915 0.302593410 0.302972853
0.375078917 0.343706250 0.350664258
0.591650784 0.405692607 0.412523627
0.055534188 0.297533393 0.277039975
0.069576085 0.305882633 0.282732368
0.107906282 0.317900091 0.296774298
0.174193367 0.346869290 0.317900181
0.263504386 0.388361573 0.356356353
0.330044299 0.400885552 0.365718156
0.470587939 0.434535205 0.399241179
0.670461535 0.500316322 0.465907991
0.148387104 0.425174177 0.355850697
0.165717915 0.430866718 0.357748270
0.216951549 0.441366374 0.374952465
0.288171709 0.466160804 0.395446002
0.360531092 0.479443014 0.407463878
0.443642944 0.501328230 0.422264189
0.592536271 0.546742201 0.469196916
0.765844166 0.616824806 0.540796816
0.404553920 0.604300797 0.470461726
0.416445464 0.611511827 0.475774825
0.450854033 0.616951466 0.486148179
0.498165518 0.621252060 0.491081744
0.562049091 0.637318373 0.507273555
0.638456702 0.649588823 0.525490046
0.721694827 0.672738850 0.555977285
0.829221606 0.729285061 0.615433037
0.706767380 0.799367547 0.653004408
0.709803760 0.803288817 0.650347531
0.723719060 0.803921461 0.658190548
0.751802504 0.812903166 0.666160762
0.790385962 0.821758270 0.676660240
0.832384467 0.834155440 0.701581240
0.879190147 0.849968135 0.730044127
0.917014599 0.868817270 0.752940774
0.000000000 0.086021475 0.334724724
0.017204462 0.094623990 0.334724724
0.079696462 0.113472477 0.323086739
0.129917994 0.134218633 0.322959721
0.183934182 0.164073437 0.319038719
0.242504463 0.193674728 0.320809454
0.325996548 0.234155282 0.348260254
0.553573370 0.289690048 0.424920619
0.016066011 0.130676985 0.309677541
0.026818564 0.138519987 0.309677243
0.078937553 0.149145827 0.318659157
0.128779352 0.163567171 0.314231724
0.176217467 0.184313625 0.311195552
0.236179650 0.212903082 0.324857473
0.329412013 0.247817740 0.347501278
0.542061806 0.305123210 0.428336173
0.023276629 0.195699081 0.306009084
0.046679724 0.197217092 0.304364264
0.076407358 0.206324920 0.302719444
0.126122996 0.212523729 0.310816079
0.176343828 0.233270168 0.315749645
0.236053452 0.253636986 0.328020364
0.344338894 0.292346746 0.360531330
0.580012381 0.351549536 0.445667267
0.023403168 0.259456009 0.312207371
0.050347809 0.261100829 0.317141175
0.086527646 0.265654802 0.316888183
0.135610640 0.277545750 0.327640742
0.194940001 0.295888454 0.340544194
0.259329557 0.318659276 0.350284636
0.392283559 0.349399000 0.390385568
0.615179956 0.421125829 0.469070286
0.058823440 0.335736662 0.354712099
0.084503628 0.340544194 0.351802826
0.125996009 0.350790530 0.358886898
0.193295106 0.369513184 0.370272070
0.278557897 0.392536104 0.396205008
0.362555355 0.416065693 0.416445374
0.504490495 0.452877909 0.455155104
0.694750071 0.516635358 0.522833765
0.177103177 0.444149226 0.412776738
0.198734939 0.445667028 0.412776917
0.240101025 0.459835708 0.417583793
0.315876007 0.481846720 0.438836217
0.438709587 0.519038498 0.479696482
0.559139967 0.567741454 0.520556450
0.655914187 0.586084723 0.541303039
0.782289326 0.637571216 0.592915833
0.423276544 0.610120296 0.516508520
0.438076854 0.612397075 0.525743246
0.470588267 0.618216574 0.529411912
0.532447696 0.635926247 0.545224190
0.617836714 0.659582257 0.573813915
0.678811193 0.673371494 0.589879990
0.746616006 0.693990946 0.611764729
0.846805930 0.746489704 0.672232509
0.717646658 0.802529693 0.680708289
0.729411602 0.806831241 0.688677847
0.737128437 0.805692434 0.693864346
0.763567209 0.818596005 0.704617143
0.795825243 0.826565444 0.716634929
0.832257867 0.841492653 0.729032338
0.875648618 0.855281532 0.758633375
0.917520523 0.871979833 0.774952352
0.000000000 0.145351276 0.478937536
0.000000000 0.148640275 0.482226551
0.041366387 0.163567185 0.473244548
0.157748267 0.185072631 0.472865194
0.250600934 0.210626185 0.471094549
0.348260552 0.234408721 0.470841080
0.449082792 0.264642566 0.470082283
0.588488042 0.302845955 0.501960874
0.000000000 0.183048576 0.468690842
0.008728713 0.183554530 0.465528250
0.047691192 0.194433823 0.465528339
0.160910457 0.213662192 0.464010358
0.247944385 0.234788269 0.462871999
0.344338983 0.254901826 0.468690723
0.448070854 0.281087995 0.472106099
0.585072219 0.315117091 0.500695586
0.004553995 0.239468470 0.461480141
0.000000000 0.248956189 0.458064497
0.063124381 0.255914360 0.463377655
0.170145348 0.267298996 0.462365657
0.262365520 0.282479376 0.462492287
0.356103539 0.300063074 0.470335543
0.469322801 0.327134550 0.483617663
0.616192162 0.363440812 0.513092875
0.004427648 0.321315616 0.457684845
0.018722437 0.323719025 0.457305282
0.107020728 0.324351728 0.456925899
0.190385550 0.337001920 0.457179189
0.286021292 0.349398911 0.465528250
0.386970282 0.365211725 0.477292538
0.493991166 0.385831535 0.494750202
0.650221169 0.431878537 0.535736799
0.106008634 0.407716542 0.481214225
0.130677074 0.410120457 0.483870834
0.191524550 0.417963386 0.481087744
0.268817186 0.424541175 0.491081893
0.352182209 0.435167760 0.495509148
0.453510284 0.454902083 0.509804010
0.561163902 0.473624468 0.532953560
0.719418049 0.527893960 0.581403971
0.282479256 0.519291878 0.529538453
0.304490536 0.522833467 0.533712804
0.342188448 0.525110483 0.533839464
0.404807389 0.537760615 0.539658189
0.494623750 0.556103885 0.558886528
0.591397703 0.578621149 0.584060788
0.686780274 0.603289187 0.604048252
0.800505996 0.657052219 0.649462342
0.476533830 0.634155869 0.585452557
0.492599368 0.634535253 0.582669139
0.511321723 0.641998827 0.595192671
0.566603541 0.650347948 0.606072247
0.635420680 0.670335412 0.622517586
0.723592520 0.708159447 0.659076750
0.805060089 0.745603561 0.701201558
0.865654707 0.774193048 0.726375818
0.727008164 0.807463288 0.728020489
0.733080149 0.809108078 0.733712733
0.749272346 0.809614062 0.730803013
0.774952650 0.819860816 0.743326843
0.805059791 0.834408343 0.761922896
0.851486385 0.848323882 0.777735353
0.883744359 0.866160870 0.797470033
0.927640319 0.877419353 0.829475045
0.000000000 0.219987452 0.687033534
0.000379548 0.222770616 0.696520984
0.139911503 0.232510880 0.694244325
0.275901079 0.253636777 0.694750011
0.414927125 0.276786804 0.687159657
0.546995461 0.304617286 0.684503555
0.668943524 0.341935158 0.690069258
0.782795191 0.387602568 0.688298345
0.000379548 0.254522502 0.684123993
0.012523627 0.260088801 0.685641587
0.147122055 0.267931789 0.687159777
0.287792683 0.280708522 0.682352662
0.418215930 0.300442547 0.680328906
0.543326616 0.327008128 0.681973100
0.662745118 0.357748091 0.680581570
0.777735829 0.400126576 0.690575123
0.014674201 0.321189106 0.682605803
0.078178279 0.327514201 0.684629917
0.202782854 0.330044061 0.680455387
0.318406016 0.345857173 0.678684294
0.435926586 0.360531241 0.680202305
0.562429070 0.384439886 0.685009360
0.682099760 0.415939420 0.693358481
0.788108349 0.450347692 0.692219734
0.141808748 0.407336891 0.669323206
0.189753026 0.412017673 0.675774753
0.265401363 0.418342501 0.675900936
0.366476655 0.428969234 0.678937256
0.474003553 0.443010837 0.680202127
0.587349534 0.457431883 0.681087852
0.693864465 0.482100040 0.687286437
0.789626837 0.515117109 0.693105340
0.311827719 0.516635180 0.685388565
0.337381274 0.518912077 0.687665880
0.373687595 0.519417942 0.682605803
0.443895966 0.520303607 0.682479382
0.537001669 0.531562150 0.684503555
0.632763803 0.548260808 0.693611383
0.732447684 0.569892526 0.703731775
0.817963064 0.598228753 0.717646778
0.489057213 0.633143544 0.706514597
0.507147193 0.633017004 0.713345885
0.533206880 0.633776069 0.704617321
0.574446440 0.634661734 0.708791792
0.634408474 0.640607119 0.718785286
0.704237640 0.654649258 0.722833335
0.780518532 0.672359467 0.736116111
0.847438574 0.697406471 0.751549244
0.641492546 0.738520086 0.751676083
0.650980234 0.739911139 0.746869028
0.663504303 0.735230923 0.744844794
0.695762038 0.742314816 0.751170039
0.731056035 0.749652028 0.755976915
0.776976526 0.757115602 0.762301981
0.832131386 0.769765913 0.774699152
0.894496977 0.795952082 0.803668439
0.769386590 0.842504561 0.796710730
0.767488718 0.837950587 0.805312812
0.776596665 0.843769729 0.799493670
0.800505936 0.844908357 0.811005771
0.825806439 0.847691357 0.819101810
0.860341430 0.862618387 0.827956736
0.902593255 0.881214321 0.857558489
0.944212556 0.909044743 0.893484592
