Assets/Shaders/EldamarStudio/100 Sci-Fi LUTs Pack/LUTs/cube/Bert LUT.cube
DOMAIN_MIN 0 0 0
DOMAIN_MAX 1 1 1
LUT_3D_SIZE 32
0.000000000 0.003922000 0.000000000
0.027324386 0.003922000 0.000000000
0.061100550 0.003922000 0.004300999
0.095003322 0.003922000 0.005313001
0.125743538 0.004301451 0.000000000
0.159139931 0.007337064 0.000000000
0.192536324 0.012902999 0.000000000
0.224288404 0.014041712 0.003288997
0.253131002 0.014041902 0.007843000
0.277419031 0.023149516 0.007843000
0.319164723 0.023529001 0.007843000
0.353573501 0.027577514 0.005819260
0.386211276 0.033650000 0.007337351
0.421885014 0.039721999 0.015433032
0.449209392 0.045793995 0.012397422
0.481340796 0.049462192 0.009361196
0.514737189 0.055534188 0.009361193
0.548133731 0.064642563 0.013029992
0.581530929 0.073750973 0.019102000
0.614927411 0.077292651 0.019608000
0.650221467 0.082226478 0.023402996
0.683618128 0.088298991 0.029474998
0.711195469 0.094370991 0.035420511
0.744591951 0.100443006 0.038456906
0.775711536 0.108791701 0.043769997
0.808855295 0.116508342 0.051233660
0.844782054 0.123086937 0.059329934
0.878178418 0.132194534 0.062365543
0.914231598 0.143959656 0.070714816
0.945351124 0.154332757 0.079823196
0.972675562 0.162554994 0.088931374
1.000000000 0.168626994 0.098039001
0.009108387 0.025174389 0.006072000
0.039468385 0.025174389 0.006072000
0.060341544 0.029475387 0.003921774
0.087666161 0.036306385 0.007337388
0.117773704 0.043390386 0.009108387
0.159139931 0.043769836 0.009108387
0.187476322 0.046806097 0.004048388
0.219860703 0.050727442 0.003036387
0.252371907 0.051992483 0.005566290
0.283491820 0.056546673 0.007842998
0.307779789 0.059835285 0.004933872
0.347501248 0.059961773 0.006831127
0.382036537 0.064009994 0.004680615
0.416319042 0.069829032 0.004301032
0.449209392 0.073118389 0.012397422
0.481340796 0.074383393 0.016571995
0.514737189 0.078304775 0.016951386
0.547501147 0.085262373 0.019101990
0.578494549 0.091966972 0.025173996
0.611891031 0.098292001 0.022896644
0.647185087 0.103478380 0.024541352
0.682605743 0.108538747 0.029474998
0.714357615 0.112713501 0.035799984
0.750663936 0.121695384 0.047564521
0.781783581 0.127767384 0.050600901
0.812144279 0.134724766 0.057305660
0.843770027 0.140291065 0.065401934
0.872106433 0.144339308 0.068437546
0.913472593 0.153446913 0.071473829
0.940037966 0.163440809 0.081593961
0.966223836 0.172548980 0.091081597
1.000000000 0.180771768 0.098039001
0.026818775 0.046426773 0.020746548
0.048576772 0.046426773 0.025047548
0.068184555 0.050727773 0.014294773
0.093991324 0.054269772 0.011258838
0.122833773 0.063251317 0.013915226
0.151170105 0.072106540 0.013915226
0.185325548 0.074636318 0.008855226
0.217583627 0.080961704 0.006072226
0.250727206 0.084250547 0.006072226
0.282732695 0.085895255 0.007716517
0.313851982 0.088930897 0.011385096
0.344212234 0.091967024 0.010373225
0.381150931 0.092093542 0.009867001
0.414548039 0.095635548 0.004806999
0.447944373 0.096774191 0.012017636
0.485641807 0.103858545 0.018722221
0.519038558 0.105376348 0.021758227
0.552435100 0.110183343 0.022390803
0.584313810 0.114737555 0.026944999
0.613156199 0.120809548 0.026818417
0.648450255 0.126881540 0.027577516
0.681846917 0.131941676 0.029601775
0.713092744 0.134978026 0.033523247
0.749525547 0.140037909 0.043643005
0.783554554 0.144718781 0.051106513
0.813915312 0.152182087 0.058317557
0.844782054 0.159013122 0.068184935
0.875395417 0.163694218 0.074509546
0.907400548 0.169892684 0.079696603
0.949905336 0.180771515 0.086274520
0.969386578 0.187602773 0.096267991
0.995698988 0.192916006 0.102339998
0.045541160 0.074003994 0.037697840
0.065022320 0.068944000 0.047564998
0.079822928 0.074510157 0.042378385
0.098798163 0.079316996 0.024668001
0.134092376 0.078937545 0.020872612
0.154964998 0.088804930 0.018215999
0.183301643 0.097659834 0.015686002
0.218342394 0.105249703 0.012902999
0.251739204 0.114358097 0.012144096
0.281087995 0.115876161 0.011638163
0.313093036 0.117520444 0.013661999
0.347754240 0.119291410 0.019481160
0.381150931 0.123466156 0.017204162
0.415054053 0.123719156 0.011891128
0.450474381 0.123719156 0.016950993
0.482352942 0.128399953 0.019228157
0.522580564 0.135737121 0.024794161
0.555344939 0.138772741 0.024794161
0.588108838 0.141808972 0.027197970
0.617204368 0.145097986 0.028716162
0.648956299 0.149905160 0.030613579
0.686401188 0.156989291 0.036685836
0.714864135 0.160405159 0.037824351
0.749019623 0.162302420 0.044655260
0.780645132 0.165338278 0.052751314
0.813915312 0.171157628 0.060341172
0.845288098 0.178747311 0.070461839
0.879443586 0.183301881 0.077292539
0.910183489 0.191903979 0.088804662
0.941303015 0.197723120 0.090322904
0.980265856 0.208096147 0.101201527
0.994686961 0.208855167 0.108411998
0.062618993 0.109297544 0.054395642
0.083112381 0.098292090 0.069955483
0.097533539 0.100063324 0.068564087
0.113978542 0.107400484 0.058064386
0.137128085 0.110056639 0.036432549
0.164452478 0.107021026 0.027324162
0.191777423 0.114357993 0.025047095
0.224035531 0.125743091 0.024667548
0.257431716 0.137887090 0.024288096
0.281720549 0.146995485 0.021252481
0.311448753 0.148893088 0.017836677
0.345477551 0.149272546 0.021758251
0.381530374 0.150790542 0.027071549
0.414927542 0.156609580 0.021505548
0.454142958 0.156736091 0.024414673
0.483491600 0.159519359 0.023782354
0.514990807 0.163694084 0.023402996
0.554585934 0.168754071 0.028589549
0.584946096 0.171789676 0.028589552
0.616065741 0.172801644 0.032511353
0.648703277 0.174699277 0.034408804
0.683364809 0.179000661 0.039341997
0.722454429 0.187856019 0.051486019
0.752814531 0.188108996 0.055281449
0.781656861 0.190385789 0.062492281
0.812143981 0.195825204 0.071600400
0.844908535 0.203795090 0.079949096
0.881341279 0.203795090 0.079949096
0.912460506 0.212903067 0.093611643
0.941808701 0.220493197 0.099557467
0.968880177 0.224794522 0.098545365
0.999240994 0.230866536 0.113724999
0.092978999 0.136621937 0.081720799
0.108159378 0.133586317 0.099936798
0.120050766 0.131182864 0.091840863
0.133459926 0.136496097 0.080708541
0.152308479 0.143453807 0.069828942
0.167488873 0.143453807 0.045540936
0.194813266 0.137887225 0.038962871
0.227071464 0.141429409 0.035547160
0.260468125 0.150790781 0.033775933
0.284756929 0.165211484 0.033396479
0.311954796 0.177229732 0.027450997
0.343833238 0.181277603 0.025932934
0.380012572 0.182668924 0.030866642
0.417963177 0.183933973 0.036685936
0.451360315 0.186970353 0.036685936
0.490575701 0.191903859 0.041998863
0.521442175 0.195952117 0.038962744
0.551296592 0.198861867 0.034914576
0.578874111 0.199114859 0.037697949
0.614800751 0.204933822 0.048829939
0.650221467 0.208096057 0.048071001
0.685136080 0.211132050 0.046552803
0.719418049 0.215180412 0.051486019
0.749778867 0.218216032 0.063630804
0.782416224 0.220746279 0.069702931
0.816192269 0.225173846 0.077672660
0.850601017 0.231245995 0.086274862
0.878304899 0.234155864 0.092093870
0.909424663 0.234155864 0.092093870
0.941556036 0.241492614 0.100442752
0.970398545 0.249588579 0.106135048
0.993169010 0.258190930 0.113724999
0.123339638 0.169006959 0.114105314
0.133460030 0.165970698 0.122201316
0.146489650 0.169386312 0.129664540
0.157242328 0.171410486 0.116634987
0.172169313 0.176850319 0.107273638
0.185198933 0.176850319 0.091587640
0.207969636 0.174319997 0.069829315
0.233649716 0.166603357 0.055534616
0.266540319 0.168248311 0.049462315
0.297912657 0.178115174 0.053004310
0.320050538 0.190385744 0.044654999
0.349399179 0.204554245 0.042630997
0.381151289 0.214168280 0.043769639
0.415686339 0.221125960 0.049335998
0.446805596 0.221885055 0.049335998
0.487412959 0.227324635 0.051739801
0.523972213 0.231878445 0.054649319
0.553953290 0.234281987 0.051739629
0.583175063 0.234281987 0.056673285
0.616319060 0.237318322 0.052878328
0.650854051 0.241493061 0.063124575
0.685642123 0.244528815 0.064262994
0.718912005 0.247438312 0.068563841
0.749272823 0.248070732 0.068690807
0.779632986 0.251106918 0.074003711
0.815559626 0.256925941 0.085389003
0.851107001 0.263124317 0.096900932
0.876407087 0.264136434 0.100948669
0.908918619 0.267046332 0.106767677
0.941050112 0.268817544 0.110310107
0.971789956 0.275521964 0.118659012
0.994686663 0.282985628 0.126375318
0.158633694 0.207337394 0.147501692
0.161164090 0.202656716 0.151929393
0.175711706 0.202783108 0.160784334
0.182795703 0.206325114 0.157495111
0.193042248 0.209361404 0.144592017
0.203921407 0.211891398 0.129917696
0.226185620 0.214294791 0.115117081
0.253763378 0.206325114 0.097153701
0.275775075 0.196458206 0.072865307
0.306008697 0.197216988 0.067425705
0.329537868 0.205818981 0.067172535
0.358507216 0.216698244 0.064136408
0.388867706 0.231878638 0.062997766
0.419228345 0.247059032 0.065022022
0.449588686 0.254016697 0.066413701
0.482985288 0.260468394 0.063883796
0.522454083 0.263504416 0.063883796
0.555977523 0.267046094 0.063124873
0.587349832 0.269070089 0.066161007
0.620493412 0.268564045 0.075901687
0.653889954 0.273244709 0.072738953
0.686274529 0.275268972 0.077798828
0.719038486 0.277672201 0.081846900
0.750917077 0.279190391 0.081846893
0.782922387 0.281467259 0.081720412
0.813282371 0.288678318 0.087539367
0.850474417 0.296015024 0.103478938
0.877039731 0.294876397 0.108791538
0.910942435 0.295888543 0.116128683
0.942694366 0.300569206 0.118911713
0.973434448 0.302719980 0.125869885
0.997722745 0.307273984 0.134977713
0.193548098 0.248324186 0.177862093
0.193548471 0.243770182 0.182416484
0.206325188 0.241999179 0.191904098
0.214674100 0.241240099 0.199241191
0.217330649 0.241619647 0.186717629
0.227957025 0.247312188 0.168880418
0.245920181 0.252625108 0.154206097
0.268943399 0.253384084 0.138140485
0.298545063 0.241240099 0.122960098
0.313725471 0.229095310 0.089563705
0.336875081 0.228336275 0.086401001
0.365717649 0.234155446 0.086148098
0.398735195 0.245540634 0.085009456
0.428589195 0.260974079 0.082479127
0.457937837 0.276660502 0.085515514
0.486780584 0.287792772 0.083618000
0.517900288 0.295382977 0.079822898
0.554965436 0.296015561 0.076154098
0.588614941 0.301961094 0.072991982
0.621252418 0.302719921 0.088425271
0.654648721 0.304617196 0.095256262
0.687792122 0.307906270 0.093738124
0.718279421 0.307906270 0.090828992
0.751676023 0.310310096 0.093232192
0.785072744 0.313345909 0.095509090
0.818596005 0.319038332 0.098924659
0.848956227 0.329158992 0.106009066
0.879316926 0.326375663 0.114104733
0.914990485 0.327514112 0.123212814
0.945603907 0.330297172 0.133080184
0.975711167 0.333839089 0.131182581
1.000000000 0.333839089 0.140290990
0.214800507 0.284756988 0.199114516
0.223908901 0.284756988 0.208222896
0.241113290 0.284503996 0.219228506
0.249588847 0.283238828 0.230107665
0.244655073 0.281088084 0.235294431
0.265907466 0.284124464 0.220114052
0.276533842 0.287286669 0.202276841
0.287919015 0.292093515 0.181024536
0.304617107 0.292852521 0.159392893
0.331941456 0.280708522 0.144212484
0.352940857 0.262745500 0.119544253
0.378367722 0.257685483 0.106641285
0.408222437 0.263757348 0.100189850
0.440733939 0.279190063 0.097659521
0.465021938 0.297406822 0.100695908
0.489563584 0.310689479 0.103731677
0.515623152 0.322706997 0.104870006
0.545857012 0.332447559 0.103478499
0.585325539 0.335483998 0.097406499
0.616192281 0.344212890 0.102593012
0.648576736 0.349019736 0.105502523
0.681973159 0.350158125 0.106388137
0.715243042 0.347375482 0.109045006
0.748640239 0.347375482 0.109045006
0.782036781 0.349778712 0.113725483
0.816824853 0.354205966 0.119544484
0.851992607 0.359519035 0.124225080
0.882353306 0.359519035 0.121189475
0.918026388 0.364705503 0.129285112
0.945603669 0.368753731 0.147248372
0.969892204 0.370145380 0.160784379
1.000000000 0.367235541 0.152435005
0.250600725 0.324098855 0.237823859
0.262618244 0.318279862 0.238203377
0.269576401 0.322580874 0.245161533
0.280708760 0.324098855 0.254522592
0.282100052 0.324225277 0.263630569
0.293231815 0.332321674 0.268690825
0.301833868 0.330297410 0.248450413
0.315496385 0.332574427 0.231498912
0.332447827 0.335863620 0.211005732
0.355471224 0.332321584 0.189374104
0.368247718 0.317267746 0.153826877
0.391524374 0.299051225 0.131562367
0.415686369 0.290322661 0.118912220
0.441493034 0.291081727 0.112333842
0.468437850 0.303984821 0.110056542
0.499936670 0.322200984 0.115496732
0.528779387 0.336875200 0.119038545
0.558760405 0.351043433 0.120429866
0.593674898 0.363187850 0.118911862
0.624794602 0.371790230 0.118405864
0.655154824 0.379000872 0.120429866
0.687539339 0.381024629 0.120429866
0.720809698 0.378114998 0.121315509
0.751422822 0.378114998 0.118532866
0.784819961 0.380392283 0.125363573
0.816824794 0.384819746 0.132067993
0.849715352 0.389879733 0.138140127
0.882479846 0.389879733 0.142315328
0.910183787 0.395192713 0.136622205
0.947627962 0.397722751 0.151549160
0.974825859 0.400505871 0.166729748
0.997090161 0.403541744 0.161669880
0.291081488 0.363567233 0.273244739
0.295129508 0.365591228 0.271220505
0.302972525 0.364073217 0.281593770
0.310310125 0.367615223 0.286401063
0.318659216 0.367235780 0.294749796
0.332700551 0.369766176 0.307147175
0.339278489 0.374826163 0.297027171
0.345350921 0.373434484 0.275774807
0.361290425 0.375332236 0.259076506
0.380012453 0.375332236 0.237318471
0.398608238 0.372928888 0.211511999
0.416824490 0.353700519 0.183175236
0.433143616 0.333206743 0.156230196
0.449336052 0.320177197 0.138393238
0.474889666 0.323465973 0.126502082
0.504996777 0.336369485 0.136748850
0.538393199 0.350031316 0.135231048
0.568627477 0.364199579 0.134345263
0.599241257 0.379379988 0.131562263
0.627830744 0.393042326 0.137634501
0.660088718 0.402150750 0.135736763
0.689563394 0.410373241 0.135610253
0.720936239 0.412650019 0.135863245
0.753193974 0.414547741 0.138519883
0.785831809 0.416824520 0.140544206
0.819228649 0.417077899 0.144085824
0.850221395 0.421758413 0.149272248
0.882100344 0.426312238 0.158380628
0.912207544 0.427577227 0.159898832
0.943073869 0.428336471 0.159139708
0.976723313 0.428968906 0.175331876
0.996078014 0.433902264 0.176849991
0.331309289 0.407589912 0.307779968
0.332447648 0.409107924 0.304743886
0.340164274 0.412017286 0.311195403
0.346362770 0.414294571 0.323592752
0.355091721 0.413915008 0.328146458
0.370271921 0.410879195 0.343326837
0.378367931 0.414294928 0.341429263
0.384440064 0.415939271 0.323213220
0.392789721 0.418216377 0.304996818
0.407969415 0.419354916 0.287919283
0.425553143 0.418849170 0.262239397
0.446805537 0.413662672 0.241239786
0.464642286 0.393548667 0.215812638
0.468690664 0.369006872 0.180391923
0.490322798 0.358886510 0.160404935
0.517141223 0.357621580 0.156103790
0.546742439 0.368248105 0.160278440
0.578873813 0.377988279 0.151802644
0.606198967 0.392662644 0.145730644
0.633523345 0.408981651 0.149019703
0.664642692 0.421505392 0.153953254
0.695003271 0.429601640 0.152941123
0.722201169 0.441745609 0.153194144
0.753573537 0.449841887 0.158254296
0.783554554 0.455154985 0.158633634
0.819228649 0.456546307 0.163440958
0.852119148 0.454522699 0.161922634
0.882479846 0.462365478 0.172801629
0.912839949 0.463503927 0.176976472
0.942694187 0.465148509 0.181151196
0.975205183 0.462112665 0.184187591
0.997216642 0.464642286 0.192789286
0.367742062 0.458950043 0.343706071
0.370777667 0.453637093 0.342188448
0.382162869 0.453257293 0.344592035
0.393548101 0.457558393 0.351676166
0.399873078 0.462745547 0.361543566
0.405945867 0.459709167 0.376723975
0.412777036 0.461227357 0.382289767
0.419355094 0.461227357 0.372296065
0.426186115 0.460721165 0.350031942
0.441366494 0.469829559 0.340923518
0.453637034 0.464390010 0.310057133
0.471600324 0.462619036 0.286274582
0.489690036 0.457052767 0.264642477
0.501581073 0.438836068 0.236812070
0.516761422 0.411511689 0.212524086
0.537887633 0.392536253 0.192283437
0.563188136 0.387223214 0.179127038
0.590765536 0.395951986 0.173561037
0.618090034 0.408096045 0.167489037
0.645667374 0.425553709 0.163440704
0.676027715 0.440228015 0.166097075
0.706388235 0.450854033 0.170904160
0.730803490 0.457179010 0.173940510
0.758127868 0.475142002 0.176976860
0.783681035 0.486780286 0.173687458
0.814167976 0.492726058 0.174572691
0.852119148 0.493485093 0.183175027
0.882479846 0.496521473 0.189247027
0.912839949 0.496901035 0.192156866
0.941176176 0.499936998 0.197216973
0.969639182 0.503605425 0.203162640
1.000000000 0.500569046 0.206199035
0.404174805 0.507526815 0.374066800
0.407210410 0.510563195 0.389247209
0.416698337 0.505249619 0.385578781
0.426945239 0.506135106 0.387096792
0.433396667 0.511448801 0.394939929
0.442377865 0.511322260 0.410120308
0.456040263 0.508285880 0.420240700
0.467678785 0.508159399 0.421505511
0.474763095 0.508285880 0.407210618
0.474762857 0.512334287 0.380391896
0.487033397 0.506894052 0.365464509
0.503225923 0.506894231 0.340417385
0.520936191 0.507020712 0.316255569
0.534977436 0.499556750 0.288425177
0.544085801 0.481340766 0.255028814
0.554459214 0.451612592 0.228336394
0.572802186 0.430486798 0.207463384
0.597217143 0.421758413 0.195572406
0.627198458 0.423276454 0.194813386
0.657305479 0.438203782 0.183175385
0.683238447 0.454016715 0.184313819
0.709424376 0.467552394 0.188361824
0.733839095 0.478431374 0.189120889
0.761163473 0.490575403 0.192156509
0.790765166 0.503984392 0.192915559
0.819860756 0.515496314 0.195825070
0.852119148 0.524098754 0.204427391
0.882479846 0.529917836 0.210499391
0.912839949 0.530297399 0.208602250
0.939658403 0.530297399 0.213915154
0.967235982 0.531562388 0.223276198
1.000000000 0.530929804 0.233523399
0.447817773 0.553700387 0.416445374
0.441240013 0.554332972 0.422011167
0.450727403 0.553067803 0.428589553
0.464136958 0.551043510 0.428336591
0.473245025 0.554839015 0.433649570
0.478304654 0.552814782 0.438709706
0.492472917 0.550284445 0.463251084
0.502719581 0.553826511 0.467425764
0.511827946 0.554585576 0.461353570
0.513725281 0.552688241 0.437571198
0.520429790 0.556609690 0.419354498
0.530550063 0.554585397 0.400126129
0.546489596 0.553826571 0.371663302
0.562175632 0.549272358 0.341049731
0.579886019 0.539658427 0.316255391
0.593801379 0.516634762 0.282858968
0.601391613 0.486274391 0.247943997
0.618216336 0.463883847 0.223276228
0.643263936 0.451486617 0.214420974
0.666413844 0.455787361 0.210499763
0.696774244 0.467172742 0.205945775
0.723086894 0.482353002 0.209993646
0.748893082 0.497280002 0.211511493
0.776217461 0.509424627 0.214547694
0.798987806 0.519291282 0.213029310
0.826185763 0.532700419 0.212902784
0.854522347 0.545857012 0.218469128
0.884883046 0.555723965 0.224541590
0.905629158 0.568500757 0.222643837
0.937760770 0.564958751 0.232004941
0.966603577 0.565464735 0.242124990
1.000000000 0.568500757 0.251233786
0.487286180 0.593169153 0.458950162
0.488804728 0.596205175 0.465022147
0.484124184 0.594054401 0.460468143
0.497533351 0.593548357 0.471094221
0.513472736 0.595825613 0.479569703
0.523339629 0.592789233 0.485262364
0.530423462 0.592789233 0.495888680
0.543706596 0.593295276 0.511448383
0.548260570 0.600885451 0.509171247
0.552814543 0.597090364 0.493232161
0.558886588 0.599620402 0.475015819
0.565464675 0.600126565 0.456293494
0.575711370 0.597849309 0.437318116
0.590259254 0.592030227 0.403541893
0.607716799 0.587223351 0.375964344
0.624161780 0.575838149 0.343579769
0.637824357 0.554585397 0.314737171
0.645161331 0.524225414 0.274762571
0.663757145 0.500316560 0.255154759
0.677419305 0.486147821 0.232890338
0.702846229 0.488424718 0.227198184
0.731183052 0.498545229 0.228210047
0.757874966 0.515496373 0.231119186
0.783807695 0.527640820 0.232763901
0.811132252 0.537508070 0.235799894
0.836559296 0.542441368 0.232763872
0.861606479 0.558001280 0.234661371
0.890955091 0.573181391 0.242757872
0.915243328 0.589500010 0.245414346
0.936242580 0.599873364 0.245667130
0.967868567 0.596457720 0.263883382
1.000000000 0.601897180 0.272486180
0.521315098 0.628463089 0.500316083
0.534092247 0.633270085 0.506894529
0.532447934 0.634155333 0.502213955
0.532194674 0.633016706 0.503352523
0.547754586 0.635294080 0.521568120
0.568754077 0.632257760 0.535230458
0.574825823 0.634281874 0.542188466
0.581530333 0.637318254 0.549399078
0.591904104 0.640986979 0.554838598
0.591904104 0.644022644 0.545730174
0.597723126 0.642251551 0.527261078
0.601897538 0.642757773 0.509677529
0.610246539 0.638583422 0.490702450
0.622643590 0.632510722 0.475016057
0.635167778 0.629095495 0.440480858
0.648450315 0.624921083 0.403415501
0.663377345 0.614674330 0.371789873
0.674889505 0.595825136 0.346236140
0.687033534 0.565464973 0.315876067
0.694244146 0.536622167 0.279063553
0.711701274 0.520050108 0.254142851
0.737381220 0.520935774 0.245288000
0.761669993 0.532953978 0.248070627
0.785958171 0.544591963 0.247564554
0.813535511 0.555724263 0.250853568
0.844528854 0.561922967 0.255281240
0.872359455 0.563947082 0.253763556
0.899177849 0.584819973 0.265654534
0.925869823 0.602150500 0.272485554
0.950917184 0.616951168 0.276280552
0.972675562 0.625553489 0.279063612
1.000000000 0.628589153 0.297280401
0.557747960 0.670967996 0.548893034
0.572928369 0.670967996 0.545857370
0.574952781 0.673624218 0.541682482
0.576470792 0.674888968 0.545224428
0.587223113 0.674762547 0.561037421
0.605439901 0.671726942 0.558000982
0.611258686 0.673750639 0.569133639
0.615938962 0.676786721 0.583808005
0.622517288 0.680582047 0.597976029
0.628336966 0.686527491 0.603415430
0.634155989 0.677925110 0.582669079
0.634155750 0.681720257 0.565717697
0.637571037 0.684124053 0.546868980
0.649968088 0.678052008 0.523592949
0.665148437 0.671979964 0.502340615
0.675268888 0.670967996 0.465401590
0.689437032 0.665907800 0.430740029
0.705249667 0.653510392 0.400885850
0.714358032 0.632257998 0.370525002
0.723719418 0.599114656 0.340164274
0.738266945 0.568121493 0.309044987
0.758254170 0.549399137 0.285515845
0.779886007 0.548134446 0.272359490
0.804174840 0.557242095 0.269323081
0.828462958 0.571157277 0.268817008
0.857431948 0.581656992 0.273497641
0.887539864 0.588235140 0.281087995
0.902719498 0.600379884 0.287160009
0.926881671 0.613282919 0.293737978
0.953194141 0.629474938 0.299809963
0.978241622 0.644275546 0.305375993
1.000000000 0.652877927 0.312460065
0.599746764 0.707906723 0.580771744
0.606577814 0.713472784 0.586084783
0.611005425 0.713472784 0.585199416
0.612397373 0.714611113 0.586717248
0.619987547 0.713852108 0.598482192
0.630992889 0.708412647 0.600252807
0.644149721 0.705376387 0.607337058
0.652878106 0.711195469 0.617584109
0.661986172 0.716508627 0.627830744
0.670082748 0.720556378 0.629854739
0.670588732 0.720429897 0.629222214
0.674636424 0.717393756 0.609993577
0.674256742 0.719671071 0.592915773
0.679316700 0.715243757 0.572675705
0.686906815 0.709171712 0.556483328
0.699683368 0.707906723 0.530423939
0.713725388 0.706388533 0.498545289
0.730044305 0.699810207 0.469449997
0.739152730 0.687159777 0.439089149
0.748260379 0.671474099 0.403162390
0.764958799 0.638077319 0.369006664
0.779000521 0.607842982 0.337887287
0.789626837 0.590259373 0.315369904
0.811258852 0.580771863 0.296394467
0.844655573 0.587602794 0.295635372
0.869576335 0.597090364 0.295635372
0.895383060 0.603668451 0.300063014
0.915117264 0.613535881 0.306134999
0.935610533 0.630992949 0.312207669
0.958001554 0.641619205 0.320050448
0.980645359 0.655028343 0.328019977
1.000000000 0.666033983 0.335989714
0.638456464 0.742441714 0.609234750
0.644528449 0.746615946 0.619101703
0.646299481 0.748386979 0.624667704
0.650094628 0.745857000 0.624667704
0.656420290 0.745350957 0.630360544
0.662492275 0.745351017 0.630360544
0.670335412 0.741809130 0.640354037
0.680835068 0.745351195 0.652751446
0.694244206 0.752182484 0.661606729
0.706768215 0.754079700 0.663883686
0.707147717 0.754206181 0.663883686
0.707274199 0.754206181 0.659329712
0.710309803 0.753067613 0.643390179
0.711827695 0.750284731 0.626692116
0.719544470 0.747501671 0.609867036
0.724731207 0.744338989 0.586970448
0.736875176 0.741302967 0.558127761
0.752435327 0.739152312 0.532321453
0.761543751 0.735104203 0.507020950
0.778241873 0.722327828 0.471094191
0.787349463 0.705250025 0.438456476
0.804553866 0.671853065 0.399999678
0.809614241 0.642631173 0.367994726
0.823782623 0.619860709 0.339658320
0.848829806 0.606198728 0.317267478
