Assets/Shaders/EldamarStudio/100 Sci-Fi LUTs Pack/LUTs/cube/Bert LUT.cube
LUT_3D_SIZE 5
DOMAIN_MIN 0.000000 0.000000 0.000000
DOMAIN_MAX 0.903226 0.903226 0.903226
0.000000000 0.003922000 0.000000000
0.224288404 0.014041712 0.003288997
0.449209392 0.045793995 0.012397422
0.683618128 0.088298991 0.029474998
0.914231598 0.143959656 0.070714816
0.158633694 0.207337394 0.147501692
0.253763378 0.206325114 0.097153701
0.449588686 0.254016697 0.066413701
0.686274529 0.275268972 0.077798828
0.910942435 0.295888543 0.116128683
0.404174805 0.507526815 0.374066800
0.467678785 0.508159399 0.421505511
0.544085801 0.481340766 0.255028814
0.709424376 0.467552394 0.188361824
0.912839949 0.530297399 0.208602250
0.674889266 0.773814142 0.642631352
0.711195588 0.778747857 0.683111966
0.752308547 0.783681095 0.662112534
0.824794114 0.736622095 0.473877132
0.957621753 0.662997782 0.361669809
0.864262819 0.937507927 0.856546640
0.879064083 0.938393235 0.858443797
0.909424365 0.937381148 0.885895252
0.923086822 0.941050112 0.831625819
0.992409945 0.912713766 0.705123425
0.002277292 0.156609699 0.247817993
0.226565704 0.001644708 0.228209987
0.446299672 0.002277292 0.223276705
0.677419305 0.007463875 0.225553572
0.904996634 0.105629116 0.237950400
0.002277292 0.247185409 0.216824681
0.225932688 0.225932688 0.222643703
0.448576808 0.238330111 0.227577403
0.678051949 0.255028546 0.242631406
0.906894386 0.283111989 0.259202868
0.351169974 0.488551795 0.381277382
0.448323667 0.499304086 0.430360377
0.529032350 0.474130362 0.351802826
0.695762396 0.485894978 0.304111212
0.906641066 0.527387619 0.319164813
0.659835279 0.774826288 0.653257251
0.699430704 0.782669246 0.683364809
0.757874846 0.789500535 0.710183680
0.811764956 0.736622095 0.539531827
0.943832934 0.678431451 0.434661686
0.864642501 0.943326950 0.854648948
0.883491695 0.942314923 0.862744927
0.920430005 0.943327248 0.896268427
0.925996065 0.943959832 0.847691119
0.990132689 0.916255653 0.735736609
0.000000000 0.366223812 0.527767181
0.004933705 0.196204975 0.511701524
0.445919991 0.003289416 0.445287406
0.675521851 0.000000000 0.452498823
0.901707411 0.000632584 0.452498645
0.000000000 0.501960933 0.525236785
0.003288997 0.392030090 0.500569105
0.456420243 0.224920988 0.456799507
0.675774693 0.223655984 0.449209362
0.902087092 0.224920988 0.448576808
0.005187006 0.515369773 0.449968815
0.202656835 0.492093533 0.449209392
0.452498823 0.452498823 0.452498823
0.676154375 0.464895397 0.460341811
0.901074946 0.491840601 0.477419615
0.482479602 0.735610425 0.596078396
0.564326465 0.741935551 0.624414861
0.738519669 0.770272255 0.719924271
0.779380322 0.735357523 0.641492665
0.916761398 0.721568644 0.573434770
0.836938620 0.940037787 0.850601196
0.860720932 0.949272394 0.864895403
0.916002393 0.950410962 0.912081182
0.945983410 0.953826368 0.905755639
0.983934164 0.932320833 0.797090232
0.000000000 0.545350969 0.771916330
0.002277292 0.461986125 0.773181558
0.105755761 0.179253414 0.739026248
0.679696143 0.003922001 0.683618128
0.900821924 0.001012128 0.680708289
0.002277292 0.634534895 0.779380262
0.005566131 0.571790159 0.768880248
0.071979642 0.324604720 0.736875415
0.677545846 0.229095280 0.672485709
0.904111266 0.227956951 0.675268888
0.002277288 0.829475105 0.781403840
0.001265164 0.806198835 0.768500984
0.344845176 0.639215589 0.749778509
0.680455506 0.449589074 0.682732284
0.899050772 0.451233804 0.673877120
0.112207256 0.771916389 0.680708289
0.268943846 0.762428820 0.686654210
0.480328918 0.737887084 0.691208243
0.675901115 0.679696143 0.677799046
0.898418784 0.700063288 0.692852795
0.596204996 0.925490081 0.793548465
0.653889894 0.933080196 0.805060148
0.795572281 0.940164685 0.852245033
0.950537801 0.962682128 0.941555917
0.971284091 0.939152658 0.871726751
0.002656833 0.679949820 0.951802671
0.001012124 0.639342010 0.959519088
0.000000000 0.471473515 0.963188052
0.482226223 0.222390950 0.936748624
0.898544967 0.001265167 0.895888746
0.000000000 0.751169801 0.964958966
0.002530012 0.708159506 0.961669803
0.001897590 0.565970659 0.955217779
0.481593847 0.345983624 0.933459461
0.906008720 0.222137511 0.901074946
0.001265167 0.901581168 0.955850601
0.000632584 0.878937542 0.958254099
0.137128174 0.780012429 0.956609368
0.496015221 0.563947082 0.940670371
0.904364228 0.453131229 0.904996753
0.182289749 0.993927836 0.940670550
0.327893555 0.990765214 0.943959832
0.547628105 0.988741279 0.957115650
0.683365285 0.860215008 0.944085777
0.900948763 0.678810954 0.908159196
0.403035969 0.978114963 0.899809778
0.464642465 0.974446714 0.892219901
0.593295276 0.966350675 0.898292005
0.754964948 0.954585791 0.911195695
0.899809778 0.901074946 0.903604984
