Assets/Shaders/EldamarStudio/100 Sci-Fi LUTs Pack/LUTs/cube/Bert LUT.cube
LUT_3D_SIZE 8
DOMAIN_MIN 0.000000 0.000000 0.000000
DOMAIN_MAX 0.903226 0.903226 0.903226
0.000000000 0.003922000 0.000000000
0.125743538 0.004301451 0.000000000
0.253131002 0.014041902 0.007843000
0.386211276 0.033650000 0.007337351
0.514737189 0.055534188 0.009361193
0.650221467 0.082226478 0.023402996
0.775711536 0.108791701 0.043769997
0.914231598 0.143959656 0.070714816
0.062618993 0.109297544 0.054395642
0.137128085 0.110056639 0.036432549
0.257431716 0.137887090 0.024288096
0.381530374 0.150790542 0.027071549
0.514990807 0.163694084 0.023402996
0.648703277 0.174699277 0.034408804
0.781656861 0.190385789 0.062492281
0.912460506 0.212903067 0.093611643
0.193548098 0.248324186 0.177862093
0.217330649 0.241619647 0.186717629
0.298545063 0.241240099 0.122960098
0.398735195 0.245540634 0.085009456
0.517900288 0.295382977 0.079822898
0.654648721 0.304617196 0.095256262
0.785072744 0.313345909 0.095509090
0.914990485 0.327514112 0.123212814
0.331309289 0.407589912 0.307779968
0.355091721 0.413915008 0.328146458
0.392789721 0.418216377 0.304996818
0.464642286 0.393548667 0.215812638
0.546742439 0.368248105 0.160278440
0.664642692 0.421505392 0.153953254
0.783554554 0.455154985 0.158633634
0.912839949 0.463503927 0.176976472
0.487286180 0.593169153 0.458950162
0.513472736 0.595825613 0.479569703
0.548260570 0.600885451 0.509171247
0.575711370 0.597849309 0.437318116
0.637824357 0.554585397 0.314737171
0.702846229 0.488424718 0.227198184
0.811132252 0.537508070 0.235799894
0.915243328 0.589500010 0.245414346
0.638456464 0.742441714 0.609234750
0.656420290 0.745350957 0.630360544
0.694244206 0.752182484 0.661606729
0.710309803 0.753067613 0.643390179
0.736875176 0.741302967 0.558127761
0.787349463 0.705250025 0.438456476
0.848829806 0.606198728 0.317267478
0.947754800 0.645034671 0.336116374
0.774067283 0.867552280 0.755724251
0.780012548 0.862618685 0.754585385
0.804048359 0.865907550 0.779759467
0.835040927 0.869196534 0.802656591
0.836179495 0.867678344 0.762555122
0.861480296 0.859455824 0.689563394
0.912966609 0.823402584 0.584819496
0.973687410 0.726754844 0.445920259
0.864262819 0.937507927 0.856546640
0.879822791 0.934851110 0.855913937
0.881594002 0.938140213 0.855660915
0.902972758 0.940417528 0.883997619
0.913093030 0.940417528 0.878304780
0.922327757 0.941302776 0.844276071
0.945224524 0.942315280 0.790765047
0.992409945 0.912713766 0.705123425
0.000000000 0.081467099 0.132827535
0.126122996 0.000000000 0.127261534
0.262871623 0.000000000 0.135610089
0.385452271 0.001517999 0.128905535
0.515623152 0.022643998 0.131309345
0.650094926 0.062492188 0.141555637
0.774067283 0.103352286 0.150411278
0.907653451 0.136622131 0.164199546
0.000000000 0.141050085 0.117899641
0.129664540 0.128905535 0.130044073
0.251865774 0.130423635 0.129664645
0.383934289 0.141050100 0.136748731
0.514737189 0.150790721 0.144591644
0.649082720 0.166097283 0.148513541
0.775078833 0.189500272 0.157242090
0.908665299 0.206072375 0.167235941
0.159772098 0.258570194 0.184440538
0.222011641 0.257811189 0.215812653
0.279696226 0.251865745 0.187223196
0.381024718 0.267172992 0.160531193
0.515496314 0.292979211 0.167235732
0.648323715 0.302340090 0.168753743
0.783428490 0.310942173 0.179632917
0.906388223 0.327893823 0.187476233
0.316002637 0.412396908 0.314864188
0.353320390 0.414421290 0.337634176
0.398355663 0.419861078 0.340670258
0.447691619 0.395951837 0.258444160
0.546110213 0.377229810 0.208349094
0.656926036 0.430993110 0.212397084
0.784946322 0.450094908 0.220240295
0.906135261 0.456419826 0.229980916
0.471852928 0.589879394 0.452498376
0.496900827 0.591903746 0.473118186
0.550664365 0.598102689 0.520809472
0.576090991 0.596964121 0.457684904
0.630486786 0.556989193 0.350917101
0.698924661 0.497153640 0.268058002
0.805059910 0.544085801 0.284756422
0.912840247 0.592030525 0.288931102
0.633902907 0.742314696 0.614674211
0.650221467 0.743200719 0.623402596
0.691081405 0.751802921 0.664516270
0.713725328 0.752182484 0.659076691
0.733712792 0.741176486 0.587349534
0.783681512 0.700821996 0.472991645
0.847058713 0.609108031 0.354079455
0.945098162 0.655155122 0.366476893
0.767995000 0.860088706 0.752434969
0.783048570 0.867172718 0.758507252
0.805945694 0.864009857 0.783554375
0.830992818 0.873498023 0.801897705
0.842884064 0.868311346 0.767995000
0.864136636 0.858570516 0.700822115
0.910309851 0.830360591 0.604427516
0.965464890 0.730170608 0.465528429
0.867805243 0.936875105 0.858570397
0.871726632 0.940417528 0.861732781
0.881847262 0.937254608 0.867678642
0.902213752 0.941556036 0.882352889
0.913978398 0.943453550 0.885009468
0.921948195 0.943579912 0.851107061
0.951676071 0.940037966 0.795825541
0.992030382 0.916634798 0.715243340
0.000000000 0.183175176 0.280455291
0.001517998 0.079949103 0.267425746
0.256167203 0.004680902 0.259329289
0.388615102 0.000000000 0.256546646
0.516382098 0.000759096 0.255408108
0.643769860 0.003162904 0.260215193
0.771663487 0.010626184 0.249715477
0.903225660 0.080581866 0.267552346
0.001138547 0.272232622 0.267046183
0.007463548 0.206451565 0.268691003
0.254142731 0.131688997 0.258949727
0.383048385 0.132447898 0.258949727
0.517520607 0.127261341 0.253383845
0.650727570 0.127640799 0.261733115
0.777608871 0.153194442 0.266793370
0.902972579 0.183301687 0.268437833
0.000000001 0.283618182 0.255534202
0.116761103 0.275395542 0.253510565
0.258570194 0.260088205 0.253004283
0.381530285 0.266413987 0.255408108
0.514737189 0.271094292 0.267931998
0.648703516 0.280075729 0.268691093
0.775585115 0.292220294 0.279569894
0.908412337 0.311448246 0.283997238
0.209108084 0.402276814 0.298419088
0.277039647 0.400632620 0.324351281
0.383048266 0.412017286 0.378368169
0.429348290 0.395192921 0.330297559
0.528020263 0.397976190 0.298039526
0.646426141 0.434788078 0.301960766
0.776597142 0.444149166 0.307779998
0.903858006 0.453130901 0.315622985
0.421252370 0.574193597 0.450348079
0.457432240 0.576976836 0.471979827
0.523972273 0.590638518 0.513852179
0.567868471 0.593421876 0.522074759
0.608855367 0.556230247 0.408096254
0.686274230 0.510816157 0.343453735
0.797723114 0.556989312 0.362808257
0.912081063 0.594686985 0.366223902
0.615053356 0.738140404 0.618089557
0.631878734 0.738013566 0.628336489
0.670335174 0.746236682 0.651739419
0.724857569 0.755597711 0.700569212
0.729917765 0.743580282 0.625427067
0.771031082 0.701201439 0.512713552
0.837571204 0.627071619 0.422011286
0.931688726 0.669070482 0.434914738
0.764705598 0.858950019 0.753573477
0.776470423 0.860214770 0.761290491
0.803415596 0.866793215 0.776597023
0.832384586 0.871979892 0.811384916
0.847817719 0.876281261 0.804048181
0.860468149 0.859582424 0.739531696
0.898165584 0.830613554 0.639089346
0.960657716 0.739278793 0.513472676
0.862112761 0.943832934 0.860467792
0.868943691 0.938899219 0.861986101
0.883491576 0.941555977 0.868564188
0.901960731 0.947754562 0.885641932
0.923592687 0.947122097 0.904490590
0.923212826 0.947754502 0.867425799
0.951928914 0.943959653 0.818216383
0.991650879 0.916508675 0.741555810
0.000000000 0.299936980 0.439468265
0.006325001 0.240481094 0.425679833
0.071347550 0.063757539 0.413156003
0.386211276 0.000000000 0.387856007
0.517520607 0.000379548 0.397343189
0.648450732 0.000000000 0.385705024
0.770651579 0.000000000 0.387856007
0.906135261 0.000000000 0.386464298
0.000759096 0.361164063 0.432890743
0.000759096 0.313345999 0.427704185
0.023908831 0.168753639 0.411258280
0.378368288 0.127640992 0.383048385
0.523086607 0.127261549 0.384693265
0.642378271 0.128146634 0.384693205
0.774446547 0.130044267 0.387476534
0.903731883 0.129411802 0.390132904
0.000000000 0.468057811 0.427577347
0.003162904 0.454016715 0.426565647
0.139658019 0.342315078 0.424035192
0.386590719 0.259329200 0.389374077
0.518785298 0.254522294 0.390259176
0.645161152 0.254142731 0.387729287
0.776849926 0.257431835 0.392156720
0.903352201 0.260088384 0.386084676
0.003415642 0.429348290 0.378873944
0.082353003 0.424161911 0.381150961
0.250347823 0.417584002 0.389120728
0.386211276 0.380645275 0.383427918
0.513472617 0.390891999 0.383807361
0.645287812 0.404680610 0.400379390
0.775205672 0.412017554 0.403542280
0.905123174 0.430866480 0.411005437
0.227830276 0.544212699 0.429727763
0.286654204 0.543706238 0.436432302
0.397090375 0.555091858 0.461353362
0.542947352 0.571916401 0.537508011
0.575079203 0.547248721 0.474763155
0.664010108 0.534724772 0.443769634
0.780771554 0.572802067 0.448956400
0.904364407 0.584440172 0.461100608
0.506514788 0.711827815 0.574826181
0.538140476 0.716129124 0.593042374
0.613788724 0.724731266 0.628969312
0.692979097 0.742441714 0.680708349
0.731815279 0.746362686 0.688804448
0.758127689 0.698418796 0.592662692
0.822264135 0.646299779 0.507147491
0.918658853 0.693991005 0.519670963
0.726375520 0.855787516 0.747627974
0.739531755 0.860973954 0.754838824
0.765591562 0.860468030 0.768627405
0.821631908 0.870335221 0.805439532
0.858570635 0.881973624 0.843137443
0.862365663 0.871347427 0.781404138
0.892219901 0.834535003 0.686147988
0.950158060 0.755091548 0.582669258
0.856167018 0.944086194 0.858317733
0.858696878 0.944212496 0.863251030
0.876281142 0.946236372 0.875774741
0.900442779 0.949905038 0.890828788
0.925489783 0.956103802 0.910815954
0.933206677 0.954206169 0.899051070
0.944718480 0.947754443 0.852245271
0.986084402 0.926122785 0.773308158
0.000000000 0.417584181 0.598608375
0.005186551 0.378747642 0.596710742
0.007843000 0.241998971 0.589247167
0.282859087 0.079822898 0.551296711
0.514737189 0.003922000 0.519291341
0.641492486 0.002024260 0.519797802
0.776596963 0.000000000 0.518785298
0.908918619 0.001518192 0.514104962
0.000000000 0.465780944 0.597849250
0.004807003 0.428589404 0.592156649
0.001517999 0.319164902 0.579253733
0.275142074 0.171157554 0.549146235
0.516002655 0.129285082 0.518785417
0.649968743 0.127640799 0.515875936
0.772928655 0.129032537 0.516761601
0.900189638 0.129791349 0.518152773
0.000000000 0.572802067 0.606451571
0.003162905 0.536242962 0.602276683
0.009487914 0.454396188 0.581277430
0.251992553 0.294624001 0.547121882
0.513978481 0.253004283 0.513093114
0.644402206 0.256546438 0.508286178
0.774952292 0.255408108 0.518658996
0.900568902 0.257685095 0.515496254
0.003542452 0.635799885 0.578621030
0.000759096 0.638583243 0.582542956
0.001518110 0.624668241 0.588361561
0.315369755 0.487539589 0.554332793
0.511954725 0.384693086 0.514357924
0.647311985 0.387097090 0.519418180
0.772169530 0.387476474 0.515243471
0.905376196 0.385325640 0.516002595
0.003035997 0.586843371 0.518659174
0.047058828 0.585199416 0.521441936
0.246553183 0.569639385 0.521821320
0.388108641 0.549146175 0.514611185
0.519544184 0.514737189 0.514105022
0.647438228 0.522960126 0.524477959
0.774825990 0.536749005 0.529664636
0.905123174 0.549525559 0.540670335
0.246046916 0.669449747 0.553194046
0.305376381 0.667425632 0.557621658
0.407590002 0.677798986 0.569513083
0.545730531 0.691840351 0.611005545
0.693485022 0.720177233 0.688678324
0.718912065 0.688424766 0.629474938
0.801011801 0.672612309 0.591018200
0.902593136 0.709930599 0.600885510
0.594560444 0.833017170 0.699810266
0.611132145 0.836558938 0.705502927
0.668058395 0.842378557 0.727893472
0.758127928 0.848703504 0.769513130
0.842378199 0.873624504 0.835420310
0.865148604 0.872991741 0.829981029
0.875268579 0.834535003 0.735736668
0.932953715 0.780012548 0.657685041
0.807969630 0.944339156 0.841872096
0.817583740 0.944086134 0.848703384
0.843516648 0.946615815 0.862618804
0.885515630 0.948766589 0.880202413
0.917773426 0.954206169 0.916002393
0.947754562 0.960278213 0.929791331
0.945350945 0.953699946 0.892346621
0.979127169 0.927261114 0.821125627
0.002024260 0.523086727 0.746615708
0.002277191 0.489690185 0.742441714
0.000000000 0.409361005 0.738519728
0.005566002 0.196205273 0.712207496
0.445288032 0.099051349 0.679822922
0.646299481 0.001897740 0.648197174
0.772043049 0.000000000 0.643137455
0.902339816 0.000000000 0.645540595
0.002024260 0.555218041 0.740543962
0.003542452 0.527766883 0.735483766
0.005566002 0.451992363 0.724225223
0.001517999 0.277039737 0.720303297
0.443896443 0.180518821 0.673877358
0.640860260 0.129664540 0.644655287
0.768121243 0.130550355 0.647944212
0.902972698 0.128526270 0.645920277
0.001517998 0.642883897 0.739658356
0.001138547 0.619354844 0.739025950
0.001517998 0.553573787 0.735230803
0.000379548 0.425173849 0.716255307
0.441998959 0.296901107 0.683617830
0.647185326 0.259708852 0.647691667
0.770524800 0.261732906 0.642125249
0.903352439 0.257305354 0.646679282
0.000000000 0.775838315 0.753067613
0.001138644 0.750284672 0.747880936
0.000759097 0.695382774 0.728905678
0.137381434 0.591144800 0.720682740
0.419354826 0.435167819 0.682732522
0.646299481 0.379253358 0.641998827
0.769892693 0.386211246 0.642125070
0.903605223 0.388994455 0.643390417
0.000000000 0.782795668 0.718532503
0.003921903 0.779759347 0.714990616
0.015180191 0.778115213 0.722454190
0.289057821 0.759392500 0.722959995
0.480075955 0.631499171 0.693738043
0.645034730 0.516381979 0.646679282
0.777229369 0.515749156 0.644275725
0.905249834 0.514105082 0.650095046
0.049462441 0.732447445 0.650347948
0.155091554 0.725110888 0.657179296
0.285388947 0.719165266 0.653763711
0.416318625 0.706261814 0.658823431
0.532827079 0.683618009 0.652245760
0.648576796 0.644275725 0.644402206
0.779127002 0.654649019 0.656166732
0.895129621 0.669955492 0.661227405
0.239595085 0.787602365 0.670335591
0.298165560 0.791397870 0.674256623
0.404933274 0.793674648 0.674383521
0.542567790 0.806704760 0.702593148
0.691587508 0.824667811 0.745477557
0.837571263 0.860468328 0.839089572
0.851233065 0.828083575 0.771283984
0.921188772 0.806072116 0.728399515
0.658950210 0.935610175 0.799620748
0.687033296 0.930043936 0.798861623
0.725490093 0.937381446 0.816192031
0.795572340 0.941176534 0.848070621
0.875015795 0.954332590 0.898544788
0.943200707 0.958380818 0.938519955
0.957874358 0.962555230 0.935357451
0.972801924 0.941429675 0.862871647
0.000000000 0.613662004 0.861985981
0.000000000 0.588994443 0.862998247
0.002277288 0.529791415 0.858950198
0.004427648 0.401897281 0.858570635
0.066793099 0.219987184 0.827451050
0.592536211 0.108791798 0.790006101
0.775079012 0.000000000 0.777988255
0.901074946 0.000000000 0.778494477
0.000000000 0.644528806 0.865022480
0.000000000 0.620240688 0.861733019
0.000000000 0.566223800 0.857305288
0.000000000 0.452498704 0.856293559
0.067552097 0.270588517 0.833017290
0.592915773 0.183681548 0.795192838
0.774067283 0.130929798 0.770524800
0.897912502 0.129664540 0.770904303
0.001517999 0.711574852 0.861353338
0.000379548 0.689690113 0.864642560
0.001518192 0.647185564 0.860594451
0.001138644 0.547374904 0.854775608
0.061480008 0.379000574 0.839215636
0.587096870 0.301581174 0.792536318
0.767615497 0.259329289 0.766856253
0.904111326 0.258570194 0.777609110
0.002276998 0.818216264 0.863630295
0.003036094 0.805566311 0.861732900
0.004933716 0.763187647 0.855281770
0.000000000 0.684883237 0.852371931
0.239848241 0.549146235 0.838709831
0.582542717 0.438836098 0.807084143
0.772928596 0.392283320 0.768500805
0.904996634 0.386717647 0.778115094
0.000000000 0.921821237 0.869323075
0.000758999 0.916255236 0.869070292
0.000759113 0.895762384 0.865907550
0.308665514 0.836053491 0.858696938
0.437065303 0.728020132 0.839974761
0.574067116 0.577356398 0.809993804
0.775585115 0.513978422 0.768374264
0.905629516 0.513219237 0.773307979
0.000379548 0.905503035 0.828969061
0.039848089 0.904870391 0.839342117
0.224288642 0.898039103 0.844275892
0.393548369 0.899303973 0.848197162
0.544844866 0.887539744 0.852245748
0.643896163 0.767109513 0.825174272
0.781151295 0.647944212 0.770777881
0.904996634 0.646299541 0.773181796
0.261606842 0.864263296 0.781910241
0.290828556 0.861985981 0.790892005
0.367615372 0.859582424 0.785325348
0.468690902 0.850853562 0.790259242
0.579633117 0.841492712 0.793928266
0.672991753 0.817836881 0.788488090
0.771789968 0.771790028 0.771789968
0.896520913 0.787476599 0.785578609
0.094370484 0.906261861 0.784692764
0.227324426 0.902719736 0.784313560
0.362048984 0.906388283 0.785198987
0.524351358 0.911195457 0.804680347
0.678810835 0.918911874 0.831498981
0.829095244 0.939785182 0.876027644
0.947501659 0.965971053 0.950663984
0.964326322 0.941809118 0.900569201
0.002656833 0.679949820 0.951802671
0.000758999 0.664768994 0.955976903
0.001265168 0.622643709 0.960278034
0.000000000 0.537761152 0.956356704
0.003035997 0.368753850 0.951169908
0.352435112 0.243896320 0.945603728
0.737887502 0.112586878 0.920050800
0.898544967 0.001265167 0.895888746
0.000000000 0.707652986 0.955217838
0.000000000 0.689563334 0.951043546
0.003289011 0.647944391 0.958380759
0.001517999 0.574066699 0.956230223
0.002530012 0.419607759 0.955597699
0.352561891 0.295635730 0.944212496
0.737128675 0.189626753 0.916508317
0.896647334 0.129411817 0.897912621
0.001265167 0.768627226 0.963187695
0.002656832 0.751676083 0.953320682
0.000759096 0.716255546 0.958380640
0.000759096 0.645794034 0.956609666
0.000000000 0.523212969 0.953194141
0.355850935 0.390259266 0.939278781
0.731689036 0.300063372 0.915876031
0.904490829 0.260594457 0.903858006
0.003035990 0.855028272 0.959519148
0.002530012 0.842378378 0.959013045
0.003036186 0.815180421 0.959518909
0.001138644 0.760657787 0.953193963
0.049968198 0.658823431 0.950537443
0.376850218 0.513978422 0.939784944
0.723086357 0.437318176 0.917267501
0.906135261 0.386590838 0.899809778
0.001265167 0.954459012 0.953699946
0.000000000 0.943959177 0.959519148
0.064516008 0.924984097 0.946362913
0.280328751 0.881088138 0.954838455
0.385199100 0.801265001 0.955724001
0.478557885 0.676407278 0.949272513
0.713472426 0.570398450 0.920303524
0.902339816 0.518912196 0.894496739
0.096015081 0.996710896 0.942694843
0.164958596 0.995192707 0.945097804
0.320809275 0.997596145 0.948766708
0.448703349 0.990006268 0.959645808
0.576217473 0.941808939 0.957748175
0.636559129 0.849082649 0.945856929
0.717773616 0.718659163 0.939026237
0.896647632 0.645161271 0.902339816
0.333206803 0.989879608 0.925869823
0.360404700 0.988867521 0.931182325
0.432384402 0.987602353 0.925995767
0.531435728 0.987223089 0.935230911
0.641239583 0.984946072 0.943326831
0.750917077 0.976976514 0.957495034
0.807337105 0.890448749 0.942315280
0.907020628 0.774067283 0.909298062
0.403035969 0.978114963 0.899809778
0.438329965 0.975205481 0.903858066
0.479063630 0.975964546 0.888678074
0.556230068 0.965591133 0.903984785
0.636938870 0.962682009 0.902846158
0.734724581 0.955091476 0.909171522
0.822770119 0.939279079 0.916761637
0.899809778 0.901074946 0.903604984
