Assets/Shaders/EldamarStudio/100 Sci-Fi LUTs Pack/LUTs/cube/Beywyn LUT.cube
LUT_3D_SIZE 5
DOMAIN_MIN 0.000000 0.000000 0.000000
DOMAIN_MAX 0.903226 0.903226 0.903226
0.082353003 0.043136999 0.047059000
0.138266698 0.072232708 0.074510001
0.220366567 0.105249576 0.098039001
0.341429234 0.166730002 0.145224258
0.537760615 0.228968799 0.214547977
0.109803997 0.147754416 0.102972701
0.150031716 0.153320700 0.112460412
0.233776122 0.177229404 0.138646409
0.355471134 0.221379116 0.176217705
0.550790787 0.282605827 0.231878519
0.140543580 0.298165828 0.176470995
0.181783825 0.305375963 0.187349692
0.262871832 0.320429951 0.200759411
0.397596419 0.347881407 0.234408692
0.583427906 0.407463551 0.282479644
0.198228985 0.494497240 0.280581981
0.240733817 0.508159280 0.294623852
0.335230529 0.515369892 0.309677124
0.464010119 0.529791296 0.331562251
0.640354216 0.579506636 0.406325221
0.403162420 0.752181768 0.498671770
0.442378432 0.760025442 0.501201749
0.510309756 0.763946772 0.513598979
0.622517288 0.774319768 0.538519740
0.744212568 0.797975600 0.581024408
0.090195999 0.057179291 0.119291708
0.135989994 0.080075711 0.124224991
0.219734401 0.118026704 0.149399117
0.342061996 0.172928542 0.195192695
0.528905869 0.233776107 0.249209389
0.113724999 0.147121996 0.147121996
0.151675984 0.159518987 0.155597985
0.232131407 0.185072392 0.181783810
0.351170003 0.220366985 0.212523982
0.545856893 0.281214565 0.269702852
0.146110117 0.290954977 0.217709988
0.174193293 0.299810112 0.223276287
0.263503969 0.318153083 0.235041127
0.390512437 0.343959391 0.264516115
0.577988505 0.407463551 0.318279475
0.201771125 0.490828574 0.309045136
0.237444401 0.501961112 0.317520529
0.332953811 0.508159399 0.331309080
0.457811236 0.519924223 0.350916982
0.635167658 0.576217413 0.410752654
0.397596300 0.745983303 0.496900499
0.429348588 0.753446937 0.506261587
0.503478706 0.757621408 0.519797444
0.610626101 0.771157265 0.548260450
0.751043379 0.790765405 0.593674898
0.094117999 0.077798583 0.211890981
0.134345278 0.093484998 0.219101399
0.217077985 0.127514407 0.234155819
0.339405239 0.177229822 0.275648117
0.526628375 0.231498823 0.330297232
0.117014416 0.162175983 0.232131407
0.146110132 0.164453119 0.239341989
0.230487123 0.192283407 0.255028397
0.346615851 0.227197856 0.284376830
0.541302979 0.275901586 0.345983624
0.135989994 0.293611377 0.277925402
0.172928274 0.303099096 0.293611795
0.265527964 0.324351817 0.312586993
0.390512377 0.345604122 0.336748958
0.582922041 0.402909636 0.387222946
0.189753413 0.486274540 0.374446124
0.232257977 0.496394813 0.385831386
0.322833687 0.508159339 0.395066410
0.455913812 0.524224997 0.414294958
0.638836324 0.582795680 0.470714509
0.375079006 0.739658237 0.546236217
0.413915455 0.751549125 0.546869218
0.488045633 0.754711747 0.555976987
0.605566204 0.769512832 0.581910372
0.748386741 0.792789459 0.626818419
0.085262872 0.103984997 0.350284398
0.134977862 0.115749255 0.354206115
0.232131407 0.145477548 0.365971118
0.350284368 0.185325861 0.389500111
0.533839583 0.236432686 0.453889966
0.095382579 0.177861825 0.366603523
0.146363005 0.184693277 0.372801840
0.239721686 0.202403277 0.385958433
0.360784560 0.236052990 0.403542250
0.548892736 0.285135835 0.465401947
0.106767870 0.310562551 0.408728838
0.161416575 0.314864099 0.414041817
0.261859685 0.327640831 0.426818550
0.395445704 0.350284696 0.447691113
0.586464047 0.398608506 0.496521205
0.170651257 0.493485123 0.482732266
0.219987705 0.504870236 0.483617693
0.321821809 0.512081027 0.498671681
0.469956130 0.535737276 0.522960126
0.651865900 0.578241229 0.566097260
0.357495189 0.740670443 0.625679791
0.392283320 0.748513460 0.620366514
0.465780944 0.755723894 0.628842473
0.594813585 0.772548556 0.649588764
0.759013414 0.801138401 0.691840708
0.006578155 0.129411995 0.607210577
0.110815868 0.139278829 0.598987699
0.266919792 0.162175998 0.611132264
0.433902621 0.201138690 0.627450585
0.607210577 0.260341793 0.646299779
0.001012124 0.199114531 0.608222306
0.097532898 0.206704810 0.612144113
0.269196510 0.220999405 0.620493293
0.438330054 0.256672978 0.634661555
0.616698325 0.304870397 0.658823431
0.000000000 0.334850967 0.635167181
0.020114020 0.338140368 0.635294020
0.264262974 0.353193939 0.647058845
0.453763336 0.381403953 0.659076452
0.640481055 0.422643781 0.684376717
0.087160051 0.550158262 0.685009599
0.164832279 0.547248363 0.683364809
0.302845985 0.546869218 0.687286437
0.483112127 0.557621777 0.701834023
0.687665999 0.592283070 0.725110710
0.378621221 0.763946772 0.749525607
0.395319104 0.766097367 0.751423240
0.467299402 0.775837600 0.761543453
0.604300737 0.788867772 0.776090741
0.774572730 0.818975568 0.803288579
