Assets/Shaders/EldamarStudio/100 Sci-Fi LUTs Pack/LUTs/cube/Beywyn LUT.cube
DOMAIN_MIN 0 0 0
DOMAIN_MAX 1 1 1
LUT_3D_SIZE 32
0.082353003 0.043136999 0.047059000
0.088424996 0.043136999 0.050094616
0.092346773 0.045287773 0.053130776
0.099177994 0.049588997 0.054901998
0.110562995 0.055660997 0.055660997
0.116634995 0.061732996 0.061732996
0.127766997 0.067805000 0.070335321
0.138266698 0.072232708 0.074510001
0.147375092 0.075268902 0.076027997
0.156483486 0.078304529 0.082100004
0.165591121 0.084250741 0.082353003
0.176723510 0.088298738 0.086401001
0.190006644 0.093611643 0.092473000
0.205186963 0.102213971 0.098039001
0.220366567 0.105249576 0.098039001
0.233143598 0.113092795 0.105249800
0.249842182 0.122201189 0.114358187
0.270461977 0.130044416 0.122201420
0.288678020 0.133080050 0.125237048
0.301328003 0.141682357 0.133839354
0.319164723 0.154585734 0.139152259
0.341429234 0.166730002 0.145224258
0.365591496 0.172928497 0.157242477
0.386843890 0.182036906 0.166350096
0.412650287 0.191144705 0.175458282
0.442757636 0.198861346 0.184566662
0.475142062 0.205439940 0.193675071
0.502466440 0.214547530 0.202783450
0.537760615 0.228968799 0.214547977
0.574193358 0.242377952 0.226691961
0.612397194 0.255407572 0.240607202
0.654901981 0.270588011 0.258823991
0.082353003 0.055281773 0.056167386
0.088424996 0.055281773 0.050094616
0.096647777 0.061733000 0.055281550
0.102720000 0.062744997 0.059203222
0.110942543 0.062491998 0.061732996
0.119671382 0.073876999 0.067805000
0.128273070 0.069829002 0.068816997
0.138266698 0.077166408 0.073118322
0.147375092 0.083618388 0.075268902
0.156483501 0.084377296 0.079063624
0.168501005 0.090322770 0.088045485
0.177735642 0.096394993 0.088424996
0.190006644 0.099304385 0.092473000
0.205440000 0.102972999 0.098545000
0.223402962 0.114357963 0.104111001
0.236179382 0.117394187 0.106514797
0.249841809 0.122201189 0.112839997
0.268058151 0.128905579 0.120430179
0.288678020 0.139152050 0.128273442
0.304111362 0.147754356 0.139658406
0.322201133 0.154964998 0.145224735
0.343453526 0.164705738 0.149272770
0.365717977 0.173054978 0.157368988
0.389879495 0.185072526 0.169386491
0.415686458 0.194180906 0.178494677
0.443011016 0.203289062 0.187602699
0.473624378 0.212017998 0.196204752
0.508538425 0.223655924 0.202783450
0.538519681 0.230107382 0.214547977
0.575964570 0.244149178 0.221378759
0.611891329 0.259329379 0.231498808
0.645793617 0.276659995 0.249715611
0.086654000 0.067425996 0.060974225
0.090575770 0.067425996 0.059202999
0.096647777 0.071727000 0.059582550
0.107020997 0.078304939 0.066919833
0.114863999 0.075648546 0.071726546
0.122201160 0.080708548 0.076027773
0.127008453 0.079822779 0.077039778
0.137760773 0.080328770 0.078684486
0.147375092 0.089943230 0.080961771
0.156483501 0.092726231 0.082606077
0.170651764 0.098545223 0.091460876
0.182795763 0.102593482 0.094497003
0.193168998 0.107400350 0.094497003
0.207337260 0.108665258 0.098545000
0.223655984 0.115116984 0.104616992
0.239215761 0.122201025 0.110436030
0.254395783 0.129791215 0.114990614
0.268943578 0.135989577 0.121695183
0.284124017 0.146615788 0.130803198
0.304111362 0.151676133 0.136243016
0.323086739 0.160784021 0.144592002
0.344339132 0.168121129 0.149905354
0.365717977 0.177102983 0.157368988
0.390006006 0.185199007 0.169513002
0.412270308 0.192915514 0.177229509
0.440986753 0.204806879 0.184946209
0.470082283 0.215433300 0.193801135
0.504869998 0.225932986 0.203162894
0.535989642 0.237064987 0.214547977
0.573434353 0.244908199 0.232005164
0.610626400 0.261986196 0.237317935
0.640986741 0.282732546 0.249209225
0.092726000 0.080835164 0.067805000
0.095762387 0.082099997 0.067805000
0.100949004 0.083871000 0.068690613
0.105755836 0.088678166 0.071727000
0.117140934 0.091714449 0.078557618
0.123213157 0.092599832 0.078051776
0.131815150 0.091334678 0.083618164
0.138519987 0.091967151 0.086527713
0.149905086 0.097280055 0.088045903
0.159013495 0.102846004 0.087539844
0.170145705 0.106387995 0.093738288
0.184566990 0.111701414 0.100569002
0.196711004 0.114737511 0.100569002
0.209361061 0.118026160 0.101328038
0.225553572 0.122074410 0.108412154
0.240733638 0.127513990 0.114484154
0.253636986 0.134092316 0.118026227
0.272485554 0.145603731 0.124098837
0.284124017 0.154711977 0.132574037
0.304364383 0.160784364 0.139911518
0.323086739 0.165085569 0.143579990
0.343326986 0.173181310 0.150664121
0.364452839 0.182163149 0.159898981
0.388741165 0.190512165 0.172042996
0.414547622 0.196584165 0.177102998
0.434914291 0.203035653 0.185704976
0.466287136 0.217710122 0.191777125
0.500442564 0.227577612 0.202403888
0.528652489 0.239342138 0.214547977
0.568627179 0.250980198 0.228210002
0.606704652 0.261859596 0.246805832
0.636686027 0.285009831 0.250979990
0.098039001 0.096774548 0.078810550
0.100695841 0.099051155 0.079569548
0.106641449 0.099936545 0.079190098
0.111068837 0.100822158 0.080075711
0.115243092 0.103478998 0.083112001
0.121315867 0.106514610 0.074003607
0.134218678 0.107779540 0.081088088
0.146109700 0.109044701 0.089563996
0.154838547 0.111701444 0.094117902
0.163946941 0.114737064 0.091081515
0.170904547 0.116002090 0.093864866
0.183048710 0.119291507 0.100569278
0.196711004 0.124225348 0.106261544
0.209108040 0.127514049 0.107020579
0.227198273 0.133586094 0.116128959
0.243010730 0.139658093 0.122453995
0.256293178 0.145730376 0.126628548
0.266793102 0.151676416 0.127134532
0.288045555 0.160784066 0.133206561
0.308918387 0.169892371 0.144845173
0.327514172 0.175585181 0.151676267
0.343706548 0.179633439 0.156356573
0.362049043 0.185831949 0.165338472
0.386084795 0.197723016 0.176976547
0.414168447 0.205312997 0.180771545
0.440480977 0.212523535 0.185578525
0.460594594 0.219228119 0.197469592
0.497027308 0.231372878 0.203542352
0.524351537 0.243137524 0.214927435
0.560910285 0.255281508 0.227071509
0.604806781 0.267931581 0.239595070
0.632131994 0.283112019 0.251739085
0.098039001 0.118026935 0.081846938
0.098039001 0.114990547 0.087918930
0.107147068 0.115116931 0.086527705
0.113219060 0.115116931 0.085262865
0.115243092 0.115622997 0.086148381
0.127387866 0.115623005 0.089183994
0.135989666 0.121188931 0.087665930
0.146109700 0.122959927 0.091334768
0.154459000 0.123465993 0.094876900
0.160910562 0.123845451 0.097153515
0.172928795 0.132700801 0.099936873
0.186084673 0.134218872 0.104996994
0.198987707 0.136369348 0.109297931
0.209108040 0.139658064 0.110056967
0.224288404 0.145730823 0.119165346
0.239974856 0.151802868 0.123466119
0.256672949 0.157874867 0.130044192
0.272106171 0.163314432 0.135736927
0.285009921 0.166856050 0.136242956
0.303478926 0.175964355 0.147880957
0.325995982 0.183174998 0.156230062
0.346742332 0.188741058 0.161796004
0.365085423 0.194939569 0.168374076
0.386337817 0.204047978 0.174446866
0.410372972 0.211384997 0.181530938
0.438456416 0.221631646 0.186590925
0.466287076 0.234282002 0.194686934
0.493990928 0.243516892 0.206577957
0.530423641 0.253004819 0.217963040
0.563061059 0.264389902 0.230107471
0.600758791 0.276533902 0.243137524
0.638203979 0.289184004 0.257811874
0.105629317 0.134218678 0.092473000
0.108158998 0.131182939 0.093484998
0.110309772 0.132447541 0.097406775
0.120050482 0.132826999 0.095129840
0.124604635 0.133206546 0.094244219
0.132447869 0.135357320 0.097280383
0.139532000 0.135357320 0.100315996
0.150284320 0.141429320 0.100315996
0.159519002 0.143200323 0.102466770
0.165591002 0.143200323 0.105502844
0.180012420 0.144338876 0.111068867
0.188108668 0.149399266 0.114105254
0.201770633 0.151043683 0.118532673
0.214168027 0.154332325 0.120683029
0.229348406 0.160404503 0.129791409
0.244528800 0.166477278 0.134092182
0.261226982 0.172549307 0.137128189
0.279443145 0.177988738 0.144212574
0.295382977 0.181024373 0.149905324
0.308033019 0.189626679 0.153447017
0.328146726 0.198735058 0.163693741
0.351802558 0.205439642 0.170398310
0.373434812 0.211511627 0.176470309
0.399494231 0.218216226 0.182542488
0.423023313 0.227324605 0.188614681
0.448702931 0.235040948 0.194687024
0.478431165 0.246932060 0.201265261
0.509804070 0.256040454 0.211384982
0.542567909 0.270208836 0.220999300
0.577229440 0.281087965 0.234914497
0.614168108 0.294117570 0.246046990
0.656926334 0.307906330 0.256293684
0.109803997 0.147754416 0.102972701
0.112839609 0.144718379 0.106261700
0.115875773 0.145983636 0.105123058
0.121442162 0.149019256 0.105629444
0.129791453 0.149019241 0.102972701
0.134598285 0.149525642 0.104743928
0.147248700 0.154964983 0.112713374
0.150031716 0.153320700 0.112460412
0.163693711 0.159392700 0.113219313
0.173307702 0.161163703 0.116255477
0.183174863 0.161163703 0.120556697
0.195572421 0.164832249 0.124604538
0.202782765 0.165591627 0.127640933
0.217204064 0.168374419 0.130929694
0.233776122 0.177229404 0.138646409
0.250600785 0.183301598 0.142947614
0.264262974 0.186337993 0.147501409
0.282858551 0.192789569 0.151296690
0.302087247 0.197849467 0.159392968
0.316381991 0.206451342 0.164579347
0.334218740 0.212270722 0.168121457
0.355471134 0.221379116 0.176217705
0.379127294 0.228083685 0.182289705
0.404933929 0.234155700 0.188361719
0.429980993 0.240860283 0.194433719
0.455660611 0.251359969 0.203288689
0.484503120 0.260720760 0.210879415
0.519038558 0.269829124 0.221125945
0.550790787 0.282605827 0.231878519
0.587476134 0.294370681 0.241239876
0.620872736 0.308285683 0.256420076
0.663378000 0.324225008 0.264768988
0.111321993 0.161417007 0.113599092
0.114357799 0.158380806 0.115875997
0.118152864 0.160404876 0.117773317
0.122960158 0.161922932 0.113978162
0.130929992 0.165338099 0.111322001
0.133586153 0.163440943 0.111322001
0.147754550 0.168247774 0.119165093
0.157621905 0.170777798 0.125363708
0.160658091 0.170019105 0.123845898
0.178874090 0.176091090 0.126881510
0.186970085 0.177102998 0.130676761
0.197849512 0.181151196 0.133712828
0.208096445 0.185325637 0.136748731
0.217963085 0.183048993 0.139785051
0.236179724 0.194180995 0.145350993
0.253636986 0.199999988 0.148260713
0.270335168 0.204554006 0.153573990
0.283111602 0.205819160 0.160278559
0.304111004 0.214801073 0.166477114
0.320556462 0.223149851 0.172549099
0.340290725 0.229221836 0.177482724
0.360025138 0.232764021 0.180012986
0.381403983 0.241745919 0.186084986
0.405692816 0.247818097 0.192157000
0.429980993 0.255408078 0.198229000
0.457937717 0.264263064 0.207083970
0.485262156 0.275901169 0.218722060
0.520935833 0.285009533 0.230613783
0.552814543 0.295256078 0.241998971
0.586970210 0.307906181 0.253131121
0.625426769 0.318153173 0.264010459
0.658824027 0.336369187 0.279190093
0.117394000 0.179633006 0.128779486
0.120430388 0.176597387 0.119671099
0.125616968 0.180012971 0.121947996
0.131562486 0.182163328 0.122580484
0.137001991 0.180518508 0.117394015
0.137001991 0.186590508 0.117394015
0.147248492 0.187223017 0.119924329
0.156356514 0.185958207 0.124984488
0.163693711 0.185199499 0.129917905
0.175838485 0.191271484 0.132953510
0.188235477 0.194433630 0.138898998
0.202150747 0.199367523 0.142820776
0.213788986 0.204301342 0.145857140
0.220999479 0.207337022 0.148893446
0.239215478 0.213409007 0.151929066
0.255028307 0.214927003 0.152688012
0.271853387 0.218216002 0.157368734
0.289184391 0.224035159 0.166350573
0.304364055 0.230107963 0.175458968
0.322580725 0.236306518 0.181657493
0.344465464 0.242504984 0.187729478
0.365591139 0.247438371 0.191651002
0.381403983 0.250853539 0.192156985
0.405692816 0.256926328 0.198229000
0.429980993 0.267552465 0.204301000
0.459835291 0.279443443 0.213155970
0.494370550 0.291081548 0.224794060
0.521694899 0.300189912 0.233902439
0.554711759 0.306641459 0.243137345
0.587982118 0.320050418 0.254142970
0.622517705 0.336116195 0.267046094
0.658824027 0.348513961 0.282226503
0.120556869 0.197849751 0.135230988
0.123592511 0.191903517 0.131941602
0.122327901 0.195319682 0.127134770
0.128653005 0.200126708 0.133459866
0.137634456 0.200758874 0.138013870
0.140164122 0.201770872 0.138013870
0.147754446 0.205313191 0.132953867
0.159518987 0.208981723 0.138140693
0.168121189 0.210499868 0.144718766
0.175964981 0.212270856 0.147754386
0.188108996 0.212523863 0.144971728
0.202277258 0.217583746 0.153067470
0.216318995 0.222517639 0.156736001
0.226438999 0.225300744 0.157495171
0.239341974 0.226059735 0.155218452
0.257558614 0.232131734 0.163061053
0.276281029 0.236179739 0.170651376
0.293991417 0.242251724 0.179886296
0.304617077 0.248323947 0.184440091
0.322580725 0.248830006 0.185199127
0.342694730 0.256546736 0.191018119
0.363946855 0.263630867 0.196078256
0.381403983 0.268817246 0.198102504
0.405692816 0.277672678 0.201391876
0.429980993 0.283744842 0.207463875
0.457052290 0.293232173 0.214927182
0.489437133 0.303858101 0.226565123
0.519165277 0.315370291 0.242884323
0.554458797 0.321821868 0.249335870
0.589879334 0.333207041 0.258191198
0.626185954 0.349399120 0.268311232
0.664642990 0.363567144 0.279443145
0.125616997 0.216065988 0.141303003
0.130676866 0.214041725 0.142315120
0.131435767 0.216571540 0.141303033
0.132194996 0.221379161 0.138267085
0.141682535 0.224414960 0.146236554
0.144718572 0.226059243 0.151170254
0.150790587 0.226565301 0.152181998
0.161543250 0.227956980 0.147754714
0.173687264 0.232511088 0.154585987
0.182289705 0.233776242 0.158886775
0.194181249 0.235799968 0.158127874
0.206325248 0.235799983 0.159139723
0.221505642 0.239594981 0.164831996
0.234282210 0.241998792 0.165338054
0.244654983 0.245541245 0.167615667
0.259582341 0.250348240 0.172169700
0.279316902 0.254902065 0.181277320
0.299304277 0.259835571 0.190385729
0.311195314 0.264516234 0.192030042
0.328652442 0.269070268 0.194307253
0.344971448 0.272865266 0.196204990
0.366982967 0.279823124 0.201138377
0.387223214 0.285009712 0.204174519
0.407716542 0.294117630 0.207210898
0.438077509 0.302973002 0.218596250
0.460974127 0.309044987 0.224668235
0.489943326 0.318026245 0.233649507
0.521821856 0.330170631 0.248829871
0.553446949 0.341050237 0.256419986
0.589879334 0.350664198 0.264263183
0.625426769 0.366476953 0.275142580
0.662618995 0.382795244 0.286527514
0.131688997 0.242251635 0.154206276
0.134345353 0.241113275 0.154965386
0.139532000 0.244275630 0.155850992
0.142061993 0.249082804 0.156863108
0.148134008 0.251360089 0.154206276
0.151929289 0.252877712 0.161037564
0.157495350 0.254522294 0.162808329
0.167994991 0.254522294 0.165970713
0.179380089 0.256040275 0.163693994
0.191144660 0.259456128 0.169006988
0.202150747 0.261353403 0.170398638
0.215433627 0.263503909 0.172422379
0.226438999 0.263503909 0.173181280
0.241619393 0.263756871 0.173687279
0.252498209 0.268943816 0.179759830
0.267552078 0.273877621 0.184693336
0.284629822 0.279570073 0.192283452
0.304617196 0.281340688 0.198861226
0.319797635 0.283364981 0.198355302
0.338899285 0.290322632 0.202277005
0.358633369 0.297533303 0.205313087
0.375837773 0.302593142 0.208349481
0.399873465 0.305882484 0.211511642
0.419101626 0.314990371 0.215559900
0.445287853 0.322959930 0.226565629
0.475395620 0.331815273 0.239848614
0.498166114 0.338393360 0.246426567
0.530930042 0.349904925 0.257937998
0.562808216 0.362049282 0.267046273
0.596710622 0.373055220 0.276027828
0.635799825 0.386084646 0.287792623
0.670208991 0.404047638 0.303225994
0.137507960 0.279949069 0.176470995
0.134977639 0.277419388 0.173940599
0.139784768 0.278431267 0.173054993
0.147627994 0.281720161 0.174573123
0.153953046 0.283997506 0.177229956
0.160025045 0.280961126 0.177229956
0.166350052 0.282479346 0.175205708
0.177102730 0.284377009 0.176343992
0.190512091 0.285389006 0.181151032
0.199620485 0.291461021 0.181151032
0.208981842 0.291714013 0.183554828
0.222138211 0.293738276 0.186843738
0.235041380 0.295889020 0.187855601
0.244655073 0.296141982 0.185579032
0.259835422 0.299177587 0.191651031
0.277672589 0.302213848 0.195319235
0.295635939 0.306515008 0.201138198
0.313472569 0.311448425 0.208222583
0.328652978 0.308412045 0.205186978
0.349399388 0.316002399 0.210753039
0.372296005 0.324604779 0.215180323
0.395319134 0.331941932 0.217710122
0.416698009 0.335104048 0.220872983
0.438076913 0.344085902 0.226944998
0.461859584 0.351170063 0.237571046
0.487792671 0.358886689 0.248956293
0.515876174 0.367995113 0.260847926
0.546236873 0.377103478 0.269955516
0.578494728 0.388614982 0.281214654
0.613662302 0.399494171 0.293864965
0.652245581 0.410373420 0.308285981
0.697786033 0.425553054 0.326501995
0.140543580 0.298165828 0.176470995
0.143579975 0.301201433 0.179506615
0.143200412 0.300821990 0.179126993
0.147627994 0.303984404 0.181656986
0.154079556 0.308285534 0.186337575
0.163061425 0.305249870 0.186337575
0.171663731 0.302213490 0.188867897
0.181783825 0.305375963 0.187349692
0.193042412 0.308664978 0.187729090
0.199620500 0.309676975 0.190259412
0.211637989 0.309929967 0.187349543
0.225173831 0.311954230 0.191650584
0.238077223 0.314990610 0.194812998
0.247691453 0.317394346 0.194686636
0.262871832 0.320429951 0.200759411
0.282859206 0.323466212 0.204427615
0.300442755 0.326502204 0.208981410
0.316887707 0.330802947 0.215053573
0.334724963 0.335736424 0.217330962
0.355471373 0.338266760 0.225427344
0.376723707 0.342568129 0.232005402
0.397596419 0.347881407 0.234408692
0.416698009 0.353320807 0.233016983
0.440986812 0.359392822 0.239088997
0.466919690 0.368374705 0.249715567
0.495003283 0.378241807 0.257685125
0.525237501 0.389247447 0.264136553
0.558380842 0.398355812 0.276027501
0.583427906 0.407463551 0.282479644
0.616697907 0.420746148 0.296900928
0.654016376 0.434661567 0.315622926
0.694750428 0.449841797 0.338645995
0.145983607 0.318785787 0.183681190
0.144212395 0.326628387 0.189120606
0.151549771 0.321062565 0.192156762
0.153573647 0.322833627 0.194939792
0.158127546 0.328146607 0.200252801
0.163187936 0.327134699 0.200252801
0.174699515 0.328905463 0.200379312
0.185452193 0.327513784 0.201770991
0.197596386 0.331308872 0.200252801
0.206957802 0.332953572 0.201644480
0.216444999 0.332953572 0.203668728
0.228589505 0.332953572 0.200632334
0.242251813 0.335610449 0.205565795
0.253131032 0.338646740 0.208095789
0.268311411 0.341682345 0.209867015
0.285894990 0.342314810 0.215939194
0.302593172 0.345351189 0.217456996
0.317520142 0.349019587 0.221758142
0.335736960 0.355091602 0.226565763
0.356736392 0.358380347 0.230360553
0.379885972 0.365211695 0.237571195
0.401644319 0.371284127 0.243643194
0.421378493 0.378621250 0.245161012
0.443390012 0.382415980 0.251233608
0.467678756 0.388488561 0.257305592
0.496268302 0.398861766 0.269196957
0.527135074 0.410499841 0.276280880
0.560531437 0.419608206 0.286527574
0.595572591 0.426312745 0.293358654
0.623402536 0.440733552 0.304744154
0.657684743 0.455660760 0.324984342
0.694118023 0.469322979 0.350790590
0.152055994 0.338519990 0.195825189
0.152055606 0.347628027 0.201897189
0.156103566 0.348386973 0.204300761
0.158886805 0.343074203 0.204807147
0.162302107 0.348640203 0.210499644
0.168754131 0.350917190 0.213914990
0.179380193 0.351929069 0.215433195
0.186969995 0.353320390 0.212397188
0.199873090 0.353320390 0.213915184
0.212776780 0.355597675 0.215433195
0.222011313 0.354205996 0.213788867
0.234661505 0.358760178 0.220366925
0.247944638 0.357621819 0.216192186
0.260721207 0.360152185 0.220493227
0.275901586 0.364452958 0.221758381
0.291966975 0.365085393 0.226565376
0.310183376 0.368121386 0.232637376
0.322959960 0.371157587 0.232637376
0.340291142 0.376343966 0.236938938
0.359772384 0.378114820 0.238709837
0.382922351 0.383428127 0.243643194
0.406198502 0.392536253 0.250727326
0.427450866 0.401517987 0.257178873
0.448703289 0.405945271 0.261859596
0.472232550 0.411258757 0.267931789
0.496521324 0.420114160 0.275395453
0.527135074 0.431246191 0.286401004
0.560531437 0.439342409 0.294497222
0.596584618 0.448829979 0.310057193
0.629474938 0.457432121 0.319924146
0.659835160 0.476533771 0.335989952
0.692599833 0.490575373 0.361416817
0.158760414 0.359266132 0.210372999
0.161796197 0.368374527 0.216445133
0.163820013 0.370398551 0.217583567
0.168627143 0.371031135 0.219481125
0.164832145 0.371410578 0.216824979
0.176976845 0.377229542 0.225173622
0.187223420 0.377609134 0.226691902
0.196331427 0.376976550 0.226691991
0.201138079 0.378241539 0.222390980
0.216318473 0.378241539 0.228462979
0.226312444 0.375964254 0.224794567
0.239468828 0.379759401 0.228336573
0.254649043 0.386211157 0.236179560
0.269829452 0.383428544 0.231119558
0.285009801 0.388741553 0.234535396
0.299557179 0.390006542 0.238077402
0.316887796 0.392409980 0.244781971
0.334472001 0.397849530 0.249588981
0.349652410 0.400885165 0.249588981
0.367615581 0.402403116 0.250221580
0.388361871 0.404933453 0.253383964
0.411638558 0.410753012 0.259203136
0.433017433 0.419734150 0.268184990
0.454775900 0.425806165 0.271726668
0.479569972 0.432511121 0.278937161
0.505123258 0.441366524 0.287033200
0.529918015 0.453510553 0.296141624
0.563061416 0.459835529 0.302340120
0.597217023 0.470588118 0.321821600
0.632005095 0.481593728 0.339658529
0.662997723 0.492979139 0.352941126
0.693358541 0.514231563 0.371157169
0.167868048 0.389626980 0.222517043
0.170904428 0.398735374 0.228589803
0.165338218 0.399241209 0.228210181
0.166350350 0.398988187 0.231751993
0.176976949 0.401771426 0.241113037
0.189120948 0.404807061 0.241113037
0.193674698 0.403036326 0.234282315
0.202403486 0.400253296 0.232764274
0.213029861 0.399747044 0.234282032
0.222390518 0.405566007 0.234535024
0.234661773 0.405566007 0.237697899
0.248577237 0.407337248 0.237951010
0.263757348 0.412018001 0.241240010
0.278937072 0.416825026 0.246299997
0.294117451 0.416825026 0.252371997
0.306894034 0.417331010 0.250980228
0.323845208 0.418848813 0.254775256
0.343579620 0.422137648 0.261733025
0.358760059 0.425174028 0.261733025
0.376723766 0.430992991 0.264516383
0.394939989 0.432763964 0.267299265
0.414674193 0.434282184 0.270588160
0.436053067 0.437950969 0.274257004
0.460341871 0.444022983 0.280329019
0.488931000 0.452372283 0.292979270
0.518785298 0.462619007 0.306008935
0.548134029 0.474763006 0.317394078
0.575458407 0.486906976 0.326502442
0.603288770 0.495888829 0.338013947
0.638456583 0.507020950 0.352941215
0.675395489 0.519797623 0.367868602
0.708538949 0.535484016 0.383302003
0.185325727 0.445035100 0.256925732
0.182795405 0.443010777 0.249083132
0.187982008 0.445667386 0.253004581
0.188361704 0.445793927 0.253763527
0.196711376 0.448071212 0.259835720
0.204048380 0.446299821 0.259835720
0.211132362 0.446805745 0.257305384
0.219354719 0.445667386 0.255281717
0.229981005 0.445287853 0.257558733
0.237064898 0.449336112 0.257558733
0.257431775 0.449589103 0.263251245
0.267552286 0.451612830 0.268311381
0.281214654 0.452372015 0.268690735
0.296394736 0.453257710 0.269323021
0.311575115 0.455787390 0.270334989
0.329158694 0.455787390 0.276407629
0.343579918 0.457305580 0.276028067
0.361669689 0.459709108 0.280076116
0.379000396 0.460594714 0.282226384
0.396964103 0.463630378 0.290575713
0.417078108 0.469702840 0.293611616
0.437191844 0.472485960 0.296647489
0.458317697 0.475648373 0.299683839
0.477292806 0.481720388 0.303099006
0.501581609 0.487792403 0.309171587
0.530929685 0.496394694 0.322833657
0.560784042 0.506641448 0.336369127
0.588108420 0.516508698 0.347754806
0.618089676 0.528652668 0.359519362
0.652624905 0.539658368 0.376976550
0.688551903 0.554458976 0.398608536
0.718153358 0.573434412 0.423276722
0.192157000 0.474256992 0.272485733
0.192915604 0.476913333 0.267172664
0.196331471 0.477925479 0.272359699
0.201138318 0.477925479 0.271600127
0.207337260 0.480708748 0.272738814
0.216445252 0.482226551 0.274257004
0.220619991 0.479822725 0.275522143
0.231625691 0.479822725 0.277419448
0.244781822 0.480581820 0.279190630
0.254269481 0.483618200 0.278052002
0.265401602 0.485641986 0.281973720
0.284250259 0.485768467 0.284250736
0.294497013 0.486527383 0.289184093
0.308918267 0.483997673 0.288424730
0.324098647 0.487033308 0.291713744
0.341682732 0.487665743 0.292725861
0.359898716 0.487665743 0.297280431
0.376091123 0.490954995 0.299557567
0.394307494 0.493484974 0.305123508
0.412523717 0.496268123 0.304237604
0.432637721 0.497406453 0.313345969
0.451866120 0.502467096 0.315369725
0.471220970 0.505629480 0.317773491
0.489436984 0.511701465 0.324351549
0.516002536 0.515875757 0.329664558
