Assets/Shaders/EldamarStudio/100 Sci-Fi LUTs Pack/LUTs/cube/Beywyn LUT.cube
LUT_3D_SIZE 8
DOMAIN_MIN 0.000000 0.000000 0.000000
DOMAIN_MAX 0.903226 0.903226 0.903226
0.082353003 0.043136999 0.047059000
0.110562995 0.055660997 0.055660997
0.147375092 0.075268902 0.076027997
0.190006644 0.093611643 0.092473000
0.249842182 0.122201189 0.114358187
0.319164723 0.154585734 0.139152259
0.412650287 0.191144705 0.175458282
0.537760615 0.228968799 0.214547977
0.098039001 0.096774548 0.078810550
0.115243092 0.103478998 0.083112001
0.154838547 0.111701444 0.094117902
0.196711004 0.124225348 0.106261544
0.256293178 0.145730376 0.126628548
0.327514172 0.175585181 0.151676267
0.414168447 0.205312997 0.180771545
0.524351537 0.243137524 0.214927435
0.111321993 0.161417007 0.113599092
0.130929992 0.165338099 0.111322001
0.160658091 0.170019105 0.123845898
0.208096445 0.185325637 0.136748731
0.270335168 0.204554006 0.153573990
0.340290725 0.229221836 0.177482724
0.429980993 0.255408078 0.198229000
0.552814543 0.295256078 0.241998971
0.131688997 0.242251635 0.154206276
0.148134008 0.251360089 0.154206276
0.179380089 0.256040275 0.163693994
0.226438999 0.263503909 0.173181280
0.284629822 0.279570073 0.192283452
0.358633369 0.297533303 0.205313087
0.445287853 0.322959930 0.226565629
0.562808216 0.362049282 0.267046273
0.152055994 0.338519990 0.195825189
0.162302107 0.348640203 0.210499644
0.199873090 0.353320390 0.213915184
0.247944638 0.357621819 0.216192186
0.310183376 0.368121386 0.232637376
0.382922351 0.383428127 0.243643194
0.472232550 0.411258757 0.267931789
0.596584618 0.448829979 0.310057193
0.192157000 0.474256992 0.272485733
0.207337260 0.480708748 0.272738814
0.244781822 0.480581820 0.279190630
0.294497013 0.486527383 0.289184093
0.359898716 0.487665743 0.297280431
0.432637721 0.497406453 0.313345969
0.516002536 0.515875757 0.329664558
0.630233645 0.555218458 0.384566694
0.245667562 0.605439305 0.340797275
0.276534021 0.603541970 0.362302452
0.307653069 0.605439305 0.358633459
0.352688193 0.610499918 0.367235988
0.415559530 0.613282859 0.378114969
0.487413019 0.619481564 0.394813120
0.567488790 0.629601240 0.415559560
0.665654600 0.656925678 0.447185367
0.403162420 0.752181768 0.498671770
0.428715587 0.754079819 0.496520966
0.445920497 0.762049496 0.500189722
0.489057600 0.763693810 0.510562956
0.541176438 0.767994940 0.518532753
0.605313241 0.773560882 0.536495745
0.675521612 0.781403840 0.554459035
0.744212568 0.797975600 0.581024408
0.083112001 0.054522451 0.083491549
0.103858545 0.059962451 0.084629998
0.151297003 0.087033994 0.101075090
0.188868001 0.108158998 0.117140643
0.247185647 0.129664540 0.143453196
0.320050746 0.161417007 0.170524538
0.408348829 0.193168551 0.188108802
0.527640343 0.226059541 0.221252248
0.099556997 0.103099450 0.110183448
0.118405998 0.104237996 0.099936545
0.148134112 0.116002090 0.109677091
0.193927646 0.129664645 0.129664645
0.251106739 0.152435347 0.148260728
0.322707176 0.177861989 0.170018986
0.410246551 0.208349288 0.194560543
0.536749065 0.253510535 0.229981124
0.111321993 0.158254102 0.126502454
0.138393462 0.167741999 0.138013989
0.163820103 0.176723555 0.140290990
0.205313087 0.188868001 0.152435452
0.264389545 0.206831083 0.170018896
0.330044001 0.226818547 0.187602639
0.421125740 0.255407989 0.211511701
0.543959320 0.291587800 0.250474542
0.134851098 0.244276091 0.164832547
0.141050011 0.243137538 0.172801644
0.178241640 0.251360089 0.176217288
0.217710286 0.266287267 0.184820101
0.279570103 0.275268823 0.200506091
0.351928979 0.294117540 0.217330530
0.442757696 0.326249212 0.247185558
0.568753958 0.364579439 0.281214476
0.147754535 0.335610628 0.207210541
0.167868197 0.338772863 0.224162191
0.197849527 0.348260522 0.217330739
0.245920271 0.353320390 0.229095548
0.305123627 0.363946736 0.241619632
0.375079095 0.377482474 0.254396081
0.470208883 0.407210678 0.279949456
0.589120746 0.449462175 0.320429802
0.182922259 0.462998062 0.278937489
0.202403724 0.468817204 0.280834734
0.236559272 0.471094012 0.282859176
0.287792623 0.474509478 0.291461200
0.354332834 0.484124154 0.304870278
0.423149914 0.495382756 0.314357907
0.512839973 0.510689437 0.339152455
0.624794424 0.553573608 0.383807987
0.253257543 0.586843848 0.350916803
0.268057823 0.592536092 0.358886838
0.295762092 0.594813287 0.357748091
0.347501665 0.599114358 0.367615640
0.408981919 0.608981729 0.378241390
0.481340736 0.616698325 0.394433558
0.569006503 0.633523285 0.423150003
0.667426050 0.664389849 0.462365597
0.400126576 0.744971633 0.494623601
0.410246462 0.757748127 0.497280061
0.440354288 0.757748127 0.502213597
0.481973588 0.757874548 0.509550810
0.535230517 0.761922777 0.519291520
0.598228872 0.768374503 0.532068610
0.670335293 0.775711298 0.552055120
0.752688169 0.788867712 0.581783473
0.090195999 0.056419998 0.123845905
0.110562995 0.068943903 0.132827535
0.147375107 0.083871000 0.138646081
0.192789286 0.111701444 0.155976996
0.246806189 0.136368990 0.173181191
0.317267478 0.165338099 0.197469994
0.409614056 0.196711004 0.224161789
0.524604619 0.232763991 0.258064806
0.099556997 0.104237996 0.126502544
0.112839989 0.108159088 0.132068440
0.145730197 0.117140636 0.145730078
0.190386087 0.139911458 0.159392640
0.248323992 0.160278454 0.181783885
0.318405926 0.185325548 0.204933643
0.411385089 0.212776840 0.230234176
0.534598470 0.252245277 0.266160458
0.113724999 0.166097105 0.164579108
0.125363901 0.165717661 0.163314551
0.164579093 0.173940092 0.171537101
0.208475992 0.187982097 0.185705081
0.266413987 0.210753083 0.205313087
0.334977716 0.228462726 0.223403081
0.417330772 0.255408078 0.239848182
0.544844687 0.294876814 0.279316962
0.141176000 0.240354180 0.192536280
0.144971281 0.247058734 0.194940090
0.177103102 0.251739740 0.207210734
0.221252546 0.262365282 0.216571644
0.280834824 0.275648177 0.225553170
0.351676106 0.295635641 0.247185364
0.444149196 0.326249003 0.269829333
0.564073205 0.362555265 0.304237843
0.152814895 0.333712995 0.239722088
0.165085360 0.341556072 0.245414093
0.195066094 0.347881198 0.247565091
0.243263721 0.355344623 0.255408108
0.303225994 0.363441080 0.262365252
0.372295827 0.379380047 0.278811097
0.473750591 0.412017465 0.308539063
0.587096632 0.455914199 0.348766655
0.188867897 0.464262724 0.305249840
0.198988184 0.470461935 0.303225905
0.237950459 0.468817115 0.306641430
0.287792623 0.472359270 0.318532735
0.348007709 0.482985616 0.323086649
0.422896981 0.490322351 0.340797096
0.511068940 0.512207270 0.363820612
0.623023391 0.549398839 0.403668702
0.249715462 0.590385854 0.369766086
0.260341525 0.586211264 0.371536821
0.295129567 0.592915714 0.379000366
0.348260343 0.595951557 0.391018301
0.410879254 0.605439305 0.401644558
0.487792552 0.615939081 0.419481456
0.567615330 0.633649349 0.446173459
0.669196725 0.663757086 0.479822814
0.395825297 0.742188394 0.501201749
0.414800584 0.745730639 0.507526755
0.434155673 0.752940834 0.515875936
0.480455309 0.755470812 0.521315277
0.530929983 0.757495105 0.528273165
0.593168497 0.765844524 0.548260450
0.664768994 0.776723266 0.566856146
0.747501433 0.792030394 0.593674600
0.091334641 0.074510001 0.178241640
0.110183448 0.079949193 0.179000646
0.143832639 0.094876900 0.185705096
0.190006644 0.117647000 0.196711004
0.247565180 0.137887195 0.215433285
0.321948081 0.168121457 0.239721999
0.408096284 0.198988289 0.263503909
0.529790819 0.230107829 0.305628985
0.106261544 0.112460442 0.185705096
0.122453995 0.117520280 0.185705096
0.146109730 0.127387628 0.192283630
0.189627007 0.137887195 0.204554096
0.247944549 0.161416993 0.222896829
0.319671005 0.184819996 0.241998985
0.415053576 0.217330635 0.275268823
0.533965707 0.251360059 0.306135178
0.125110537 0.167362452 0.205312997
0.135230556 0.173560649 0.206704378
0.166603550 0.184566736 0.227324083
0.206071988 0.193927646 0.231878370
0.260847270 0.213915199 0.247185543
0.332447916 0.232764184 0.266413867
0.426818460 0.261226922 0.290702015
0.547248423 0.291208446 0.321188986
0.134977996 0.242757991 0.243770003
0.149399459 0.244276091 0.243643180
0.176343992 0.260847390 0.252624720
0.222517282 0.272991627 0.258444279
0.282732189 0.281214207 0.272991627
0.350790441 0.302340388 0.288931161
0.446299851 0.327387542 0.311701268
0.566097617 0.362555265 0.346489429
0.150917351 0.340797186 0.287918717
0.167362541 0.346363097 0.291587800
0.199493751 0.354965091 0.293105990
0.246805981 0.358507544 0.299304187
0.307906359 0.366603196 0.305123448
0.380265743 0.387729406 0.326375723
0.477292836 0.410373092 0.348892808
0.596205056 0.449715167 0.387349635
0.176343992 0.463503838 0.343579739
0.197469994 0.466287196 0.345477343
0.232257724 0.471979707 0.350537628
0.284882724 0.474763066 0.356103629
0.351549447 0.485768467 0.364705741
0.422517627 0.493611455 0.379632831
0.509550631 0.513345897 0.395825535
0.628336370 0.552561641 0.437444806
0.245161206 0.587476552 0.407589912
0.266793370 0.591271520 0.415180355
0.291081458 0.592789471 0.416950941
0.348766625 0.601518273 0.428336263
0.408855170 0.606198549 0.438203692
0.484250724 0.618848860 0.451612741
0.571916163 0.638583183 0.471600175
0.675015688 0.664895713 0.511575043
0.384187311 0.744338751 0.528273046
0.409487844 0.749146044 0.532194614
0.431625575 0.751802504 0.535230637
0.471853405 0.754711747 0.540164411
0.525490165 0.759266257 0.549272537
0.588488400 0.767868400 0.562049389
0.669702888 0.778747261 0.590132654
0.751422942 0.793927789 0.612017632
0.090195999 0.083871193 0.241365984
0.114104547 0.092093639 0.245667547
0.144971281 0.103478998 0.254649192
0.189120635 0.123086803 0.261606187
0.246806175 0.145730183 0.270967990
0.317267478 0.171410471 0.294496983
0.409614056 0.200632572 0.323465973
0.530803204 0.234155655 0.365717977
0.108285807 0.121315375 0.250094742
0.112839893 0.129411802 0.250727177
0.152435452 0.136369094 0.252498537
0.193168730 0.151676461 0.262492061
0.249588817 0.170019194 0.280834734
0.319544286 0.192789093 0.296394646
0.411891192 0.218595892 0.329664558
0.536242902 0.253510535 0.373181611
0.120050810 0.178494275 0.264010191
0.125363901 0.184566647 0.274130404
0.163061097 0.193548098 0.275648296
0.210879192 0.202909291 0.287159830
0.264010191 0.213915199 0.296900809
0.331688821 0.236179724 0.318026274
0.423656166 0.263377815 0.342315078
0.545603573 0.292599708 0.381277740
0.129032448 0.250600994 0.294876844
0.138646275 0.260088265 0.302340269
0.175205559 0.262744904 0.307021081
0.222011641 0.274509817 0.313598812
0.278811187 0.281467438 0.321062475
0.354838461 0.302340180 0.342694640
0.449209750 0.328526199 0.373687267
0.570777655 0.360278249 0.398608446
0.152056009 0.341556013 0.331309170
0.158633754 0.344338715 0.338393390
0.195066079 0.357368916 0.346236289
0.244022623 0.362302631 0.345477372
0.311068982 0.378368169 0.365085363
0.388108701 0.390006185 0.376470447
0.480708361 0.412776560 0.397723198
0.598734617 0.446679205 0.433649361
0.175964534 0.466160476 0.390259355
0.195192903 0.468943805 0.399999708
0.227703646 0.471600384 0.397596449
0.283238530 0.480202287 0.410246551
0.350158006 0.485768467 0.416445404
0.423276514 0.497406453 0.420240700
0.521821737 0.518911779 0.447564840
0.632384658 0.552941144 0.485135823
0.236559182 0.590638638 0.453004271
0.251233280 0.596584499 0.458696932
0.286654174 0.600000083 0.464642346
0.337887615 0.601138711 0.467678577
0.407843471 0.610879481 0.480202466
0.483238012 0.618975103 0.492726207
0.575331867 0.635041416 0.516761482
0.678684413 0.666793346 0.546362936
0.366223752 0.749525607 0.565338433
0.385325670 0.751549602 0.564958811
0.412270516 0.754206359 0.568627596
0.459329396 0.754332304 0.571663618
0.517394125 0.758886755 0.582922220
0.590891600 0.767615616 0.591271222
0.667552054 0.780771494 0.616445243
0.757621527 0.798608422 0.642884433
0.088298738 0.099936739 0.318911731
0.106640995 0.107020542 0.324983984
0.148133993 0.116002090 0.329664558
0.201011732 0.135609999 0.339152455
0.258064628 0.150790736 0.346615732
0.327007711 0.178241730 0.366223723
0.407716721 0.201264992 0.383554727
0.531309605 0.235420823 0.435673714
0.094750457 0.134724990 0.325363517
0.115369998 0.136369288 0.332447916
0.150537804 0.145350829 0.334977627
0.197343186 0.157495201 0.343073994
0.255155176 0.175837934 0.349272460
0.331688732 0.198608741 0.368121475
0.420366555 0.220113799 0.401391536
0.544085562 0.256419897 0.443516731
0.108538911 0.193548098 0.346869081
0.121568806 0.193042547 0.343326718
0.160784096 0.198608443 0.353067577
0.208475798 0.206704468 0.356735826
0.270588517 0.220113993 0.368121266
0.338266969 0.238077179 0.382036597
0.426312745 0.264895797 0.406072050
0.551169932 0.293990880 0.448197305
0.113345735 0.269070625 0.379380107
0.131056100 0.264263004 0.370018810
0.166603357 0.271347523 0.378241479
0.220872983 0.278810889 0.384566486
0.287792623 0.293358654 0.391903818
0.360278487 0.306767732 0.409234732
0.450221568 0.329791397 0.431372374
0.578494430 0.363440871 0.468690723
0.131688997 0.356735915 0.407969654
0.149778903 0.350284696 0.405439436
0.190132752 0.360278249 0.412270725
0.240607187 0.366982758 0.415053457
0.310183376 0.378368199 0.423656166
0.388361663 0.393928200 0.444908351
0.485515356 0.414800763 0.466160566
0.609614193 0.443770021 0.501707911
0.166603252 0.464136750 0.452371716
0.180645347 0.467552274 0.450853914
0.224794462 0.472738802 0.457305372
0.276027620 0.478937596 0.466034472
0.345730454 0.487160176 0.471473634
0.430487484 0.499304205 0.485515505
0.522960305 0.519670784 0.502719522
0.641998589 0.547880650 0.534724534
0.234914273 0.592410088 0.521188855
0.242884189 0.590891838 0.515116870
0.277040184 0.597090244 0.517647088
0.332194716 0.603794992 0.524098754
0.400759190 0.616824865 0.533712983
0.486906976 0.623782039 0.544591725
0.581151009 0.639469087 0.566982567
0.689942896 0.671979606 0.600758970
0.357495129 0.740923524 0.612270534
0.373054713 0.748007417 0.604807019
0.398608357 0.745477617 0.607969761
0.440354198 0.751422822 0.613788724
0.500695586 0.758886755 0.617077827
0.577862263 0.769765675 0.632131338
0.664516151 0.783807755 0.652245402
0.754965425 0.801897585 0.677419424
0.059835713 0.116002284 0.439089566
0.089184262 0.120303735 0.439215571
0.140291005 0.126881897 0.443137467
0.211385295 0.139532000 0.449715197
0.280328989 0.163819999 0.461227089
0.357748479 0.183048278 0.468817264
0.443010569 0.206831291 0.485515565
0.544844627 0.241619423 0.516002297
0.063630715 0.147628024 0.448197544
0.091081999 0.152182311 0.443263531
0.143959358 0.157242268 0.453257382
0.211132541 0.172422275 0.457558811
0.279822797 0.182922244 0.461353689
0.361417025 0.208096445 0.481467545
0.451612562 0.229475006 0.494117558
0.550537229 0.263630837 0.518785417
0.058696825 0.201391280 0.461733371
0.095256299 0.202783197 0.457431912
0.148133814 0.209993795 0.464136571
0.212650433 0.218975455 0.469323188
0.289690167 0.231878474 0.473497570
0.370272070 0.248324007 0.492473155
0.457811356 0.271727055 0.506514668
0.559645832 0.301960915 0.529285312
0.046805725 0.280202329 0.484503269
0.080834977 0.275774986 0.482732624
0.147754461 0.282732189 0.482985377
0.220240280 0.289184004 0.487792552
0.301960826 0.303985089 0.505123258
0.385705024 0.318405926 0.509297967
0.478810906 0.341429293 0.528146923
0.585578680 0.365338624 0.552940965
0.073371723 0.373560965 0.505755723
0.094117455 0.374572814 0.507779837
0.155344814 0.377356261 0.507273734
0.225300446 0.377103031 0.513599157
0.313219368 0.387729377 0.522327363
0.405186713 0.405692577 0.533333302
0.500063360 0.421252370 0.553573608
0.609740674 0.451359719 0.578241587
0.127261445 0.486400992 0.532700539
0.153067544 0.487539709 0.546236753
0.198608637 0.485894740 0.547375023
0.263251096 0.487412810 0.548639834
0.342947274 0.496015221 0.562555015
0.430234015 0.505502939 0.569892466
0.533965766 0.525490463 0.583048999
0.646679461 0.548134148 0.612776697
0.226691976 0.608349562 0.594939828
0.240606815 0.598608255 0.597216845
0.272359073 0.606831312 0.590385854
0.328652561 0.611638546 0.598228574
0.400632471 0.622517407 0.606198370
0.489689797 0.633143783 0.617457330
0.591018260 0.653763235 0.641998827
0.704870343 0.676154077 0.663504362
0.352814138 0.745857060 0.678684533
0.365338445 0.744591892 0.666666925
0.394560277 0.746236444 0.672233045
0.439847946 0.756103754 0.672865331
0.499936700 0.765085518 0.680455327
0.575458646 0.774319708 0.693358481
0.666666925 0.787729204 0.709045053
0.767741859 0.803921342 0.735610306
0.006578155 0.129411995 0.607210577
0.033523142 0.130171001 0.603162408
0.131309360 0.143327087 0.599999845
0.219354808 0.153953165 0.608475447
0.311828017 0.172802016 0.616698623
0.406831354 0.195825472 0.622896552
0.507020891 0.224288717 0.635546803
0.607210577 0.260341793 0.646299779
0.000000000 0.163061216 0.603921413
0.017331202 0.162428826 0.604300976
0.128146946 0.166097283 0.610879183
0.227450818 0.180139080 0.616445363
0.319291472 0.197975829 0.626312375
0.412903398 0.218089536 0.631752014
0.510436058 0.246552989 0.643769801
0.610879123 0.277545840 0.657684863
0.000000000 0.216319010 0.610246539
0.012018109 0.220240191 0.614421487
0.122327521 0.221631989 0.615180612
0.219102085 0.234661832 0.619607866
0.315496385 0.247058824 0.629095674
0.416318625 0.267805070 0.635926425
0.513851762 0.291714013 0.646805882
0.621505618 0.319797814 0.662618279
0.000000000 0.290575653 0.630486965
0.000000000 0.292599827 0.625553370
0.092093743 0.298418790 0.631625295
0.211891651 0.307400644 0.636052966
0.318152815 0.321821451 0.641239405
0.426185787 0.336242616 0.650853872
0.529664934 0.361796290 0.661479831
0.637571156 0.386337608 0.679443598
0.001518192 0.399114549 0.645287633
0.000000000 0.395446181 0.649335802
0.049968556 0.390765369 0.644781768
0.196204826 0.396331459 0.649715424
0.320050567 0.405945718 0.657938182
0.432384789 0.423908830 0.669955492
0.544465125 0.443137169 0.680455327
0.648070633 0.467678815 0.685768425
0.030992912 0.519038498 0.672106206
0.072106160 0.515875936 0.674889207
0.150410920 0.516381681 0.676027834
0.239468366 0.515622795 0.676913321
0.331941456 0.512460709 0.678684592
0.443643451 0.524225175 0.692978919
0.560657799 0.542947054 0.700948775
0.675015748 0.564958692 0.714484334
0.228969008 0.647438288 0.709044755
0.240607545 0.648576975 0.714231312
0.277798772 0.644149363 0.715496540
0.335989892 0.648197353 0.717773318
0.411385387 0.650347769 0.723213196
0.500948846 0.652245522 0.729032576
0.601517975 0.663630962 0.739531815
0.715622723 0.686021268 0.755724132
0.378621221 0.763946772 0.749525607
0.372422129 0.770904243 0.747880816
0.399367571 0.770651400 0.758760571
0.448829800 0.770398378 0.760025024
0.505123317 0.775964439 0.760278404
0.581783414 0.786843717 0.772548854
0.676154494 0.798608601 0.789500475
0.774572730 0.818975568 0.803288579
