Assets/Shaders/EldamarStudio/100 Sci-Fi LUTs Pack/LUTs/cube/Bindy LUT.cube
LUT_3D_SIZE 5
DOMAIN_MIN 0.000000 0.000000 0.000000
DOMAIN_MAX 0.903226 0.903226 0.903226
0.176470995 0.129411995 0.137254998
0.197722718 0.137254998 0.149020001
0.233396411 0.160784006 0.167994574
0.294243991 0.217709988 0.203036129
0.430486917 0.281214654 0.273370981
0.188235000 0.175205410 0.160152003
0.199367434 0.181404278 0.167362422
0.239595279 0.203668699 0.194180995
0.310562998 0.246173546 0.226185843
0.439594805 0.323466092 0.290701926
0.193422005 0.283744812 0.222263992
0.208855286 0.299177676 0.232763991
0.249082565 0.313851982 0.253004402
0.324731141 0.344971538 0.282479405
0.480202615 0.422517627 0.358506948
0.226565123 0.464010119 0.336496145
0.252118707 0.476154417 0.347880840
0.310056835 0.483997405 0.363693953
0.391524106 0.511069059 0.389500141
0.548513651 0.575585246 0.467172623
0.438583255 0.715622544 0.566729724
0.466666400 0.732194841 0.571789742
0.513725162 0.737760603 0.582922161
0.596710563 0.753826439 0.615939260
0.698671758 0.775711417 0.654269576
0.176470995 0.136621997 0.153953284
0.189879715 0.141176000 0.161796287
0.231752113 0.172928706 0.187982276
0.293232292 0.224288404 0.231752127
0.424541771 0.291713804 0.291334689
0.184313998 0.175205410 0.177482694
0.197722703 0.185325697 0.184693262
0.232763991 0.217077985 0.208601981
0.299430579 0.252371818 0.246806130
0.426312268 0.329284936 0.312333822
0.199367419 0.286021680 0.244149283
0.212776691 0.295888662 0.250094682
0.251992255 0.312207252 0.271346986
0.324098527 0.343959391 0.299177676
0.470967770 0.421632081 0.366603523
0.233776286 0.452877671 0.349525303
0.258317411 0.471853524 0.359392703
0.304743975 0.480075806 0.371157557
0.390512258 0.501328111 0.401517987
0.545983493 0.576976657 0.477166533
0.436812043 0.713852048 0.568753719
0.452245593 0.727008045 0.574319780
0.508791685 0.735483766 0.587476611
0.590132773 0.749904931 0.615559757
0.697533429 0.778367579 0.656925976
0.176470995 0.145730585 0.224920988
0.193801284 0.152308583 0.226565704
0.229475409 0.182416409 0.236053407
0.288045734 0.232764408 0.267805278
0.416065782 0.297533393 0.339405388
0.188235000 0.192536280 0.228842407
0.196078002 0.200379297 0.236685410
0.230107829 0.224920988 0.252371997
0.294876575 0.262491852 0.289689988
0.432511181 0.331182688 0.358380556
0.192789420 0.289690405 0.279823005
0.213788569 0.303731680 0.292599678
0.256293803 0.332194805 0.324984401
0.332953632 0.357368708 0.345604271
0.474383175 0.426438808 0.413408965
0.229222119 0.464642972 0.391018242
0.255660981 0.471221119 0.401897132
0.306388557 0.482605994 0.413029522
0.391144842 0.512460530 0.437571406
0.552181959 0.580518782 0.514484525
0.426691771 0.712966621 0.592789412
0.446046889 0.722074330 0.594307363
0.497912347 0.730550170 0.604427576
0.586337447 0.750284612 0.641492903
0.704111218 0.781024396 0.687159717
0.165717870 0.158886999 0.316888124
0.189500004 0.174572989 0.317520529
0.228209987 0.199747130 0.327387959
0.299177855 0.243263990 0.347375274
0.425300449 0.307780117 0.414674252
0.180771708 0.215433121 0.324731141
0.196710587 0.224541694 0.327640980
0.237950996 0.243263990 0.341049671
0.304490715 0.276281118 0.360404998
0.439342052 0.341049701 0.429474920
0.194812998 0.316761702 0.372169375
0.207463712 0.324351400 0.371157527
0.256293803 0.342315108 0.388488263
0.326755136 0.369512826 0.411385387
0.485768527 0.433270067 0.483744532
0.228589132 0.469956130 0.460088402
0.253383696 0.481341004 0.460720956
0.314863682 0.497027248 0.485894859
0.418090254 0.539658248 0.520050287
0.575079083 0.588741064 0.578874052
0.422011435 0.713345706 0.637950599
0.438836277 0.724478006 0.641745567
0.492725730 0.732574165 0.651865900
0.590638876 0.755217910 0.679063559
0.714610696 0.789879858 0.724604547
0.114864022 0.209234998 0.532700598
0.159392864 0.217457101 0.535357416
0.250474393 0.245920137 0.543200433
0.374952644 0.287159979 0.560784578
0.509171546 0.348007798 0.583681285
0.120935917 0.258064687 0.545477271
0.167235836 0.264895648 0.541176438
0.256040514 0.287792653 0.550031483
0.374699950 0.328779370 0.567109346
0.517014563 0.383048683 0.601897418
0.114611223 0.366983056 0.562681556
0.169133589 0.369892508 0.563314378
0.265527993 0.386590362 0.577102721
0.392915696 0.423909217 0.597596526
0.548386753 0.473624617 0.628715992
0.232005119 0.548134208 0.638583243
0.250600964 0.546236455 0.634661555
0.322580636 0.551802933 0.634535074
0.446552932 0.568121493 0.659708858
0.606577933 0.618848741 0.689183891
0.437318414 0.747121692 0.727514386
0.461100429 0.743453443 0.730803549
0.510562599 0.750284135 0.740543723
0.616445363 0.778114915 0.765970707
0.760404527 0.822896600 0.820366621
