Assets/Shaders/EldamarStudio/100 Sci-Fi LUTs Pack/LUTs/cube/Bindy LUT.cube
LUT_3D_SIZE 8
DOMAIN_MIN 0.000000 0.000000 0.000000
DOMAIN_MAX 0.903226 0.903226 0.903226
0.176470995 0.129411995 0.137254998
0.184693456 0.125869542 0.137634456
0.200759098 0.138013899 0.149778903
0.217962995 0.155218005 0.159140006
0.249209374 0.173181191 0.179506987
0.284123749 0.203541979 0.200000003
0.341429293 0.238203704 0.228083566
0.430486917 0.281214654 0.273370981
0.180771545 0.134471551 0.141176000
0.184693456 0.139152557 0.138393551
0.200379550 0.154079556 0.153700009
0.217204094 0.171283737 0.169006541
0.244149342 0.186970353 0.183427989
0.284882754 0.214294747 0.205692738
0.341429293 0.250347823 0.236306459
0.423023134 0.293358535 0.277672529
0.189752996 0.187350005 0.166983098
0.191397905 0.192030102 0.174826086
0.204680905 0.192789182 0.178747892
0.224667639 0.208096355 0.191650733
0.254775256 0.227324277 0.204553992
0.294623911 0.249209091 0.225680083
0.352561265 0.285136193 0.256167173
0.444401890 0.334345073 0.294496983
0.194434002 0.248323992 0.204553992
0.194813550 0.248703539 0.199367538
0.210120097 0.256926090 0.211132541
0.230866641 0.269070625 0.223655641
0.264136970 0.281593651 0.240986645
0.299683630 0.301960647 0.256672621
0.361669540 0.334724903 0.284250557
0.457431972 0.384440243 0.330044299
0.199114382 0.329158783 0.245288000
0.212144449 0.328273177 0.261606187
0.219481081 0.338519990 0.258570194
0.244528994 0.341555983 0.269070625
0.277545989 0.354838580 0.278178185
0.321948171 0.375584722 0.299683511
0.390765160 0.408096284 0.325869381
0.488171995 0.457684785 0.372169375
0.221505255 0.440733731 0.323339760
0.231372803 0.442251921 0.327640802
0.253131092 0.445287824 0.334977716
0.276407450 0.454395980 0.336116374
0.321568727 0.459835261 0.351675987
0.368247986 0.479696721 0.366223723
0.433775991 0.506008983 0.393168986
0.536875486 0.552055538 0.445667267
0.280961543 0.557748258 0.407463282
0.292979002 0.570777833 0.419102013
0.312207282 0.574826181 0.422011465
0.348260552 0.576344311 0.432258010
0.381910443 0.588108540 0.441619456
0.437192023 0.595572054 0.459582269
0.504111230 0.609993875 0.479317278
0.589500248 0.643896341 0.525110602
0.438583255 0.715622544 0.566729724
0.450095028 0.728652775 0.572169304
0.471979827 0.728146672 0.573813677
0.499430537 0.736495733 0.579380095
0.531941772 0.744338751 0.590259373
0.583301425 0.752055407 0.612144351
0.635041356 0.761922598 0.627703905
0.698671758 0.775711417 0.654269576
0.176470995 0.129411995 0.137254998
0.173308000 0.126249000 0.134092003
0.201138541 0.145098001 0.146616101
0.219101638 0.161922649 0.163820088
0.242631435 0.179886445 0.182669193
0.284503281 0.209867194 0.211891443
0.335610539 0.242631257 0.239089280
0.416824788 0.285515517 0.278431535
0.181150988 0.142314553 0.146995559
0.187855557 0.143073559 0.143073544
0.197596103 0.158760458 0.162681654
0.214801013 0.175585002 0.171663284
0.240986541 0.192409545 0.190891743
0.283618182 0.218595803 0.215180352
0.341049850 0.256293565 0.245540529
0.431372344 0.300695717 0.285894990
0.189373553 0.188109010 0.170904189
0.186211452 0.190891638 0.172042638
0.197975650 0.196331546 0.179886445
0.221884996 0.212397084 0.192789197
0.249588832 0.228842273 0.213915095
0.287539393 0.248703346 0.235167801
0.343833089 0.282732487 0.257811457
0.437571317 0.329284906 0.305123419
0.194054455 0.244022638 0.210373446
0.197975650 0.250727266 0.211511999
0.210499644 0.255408078 0.218216643
0.232004985 0.265148640 0.230739623
0.258949816 0.283618003 0.243643180
0.298924744 0.302719742 0.260088295
0.364579648 0.338772655 0.291334271
0.461479962 0.388108701 0.334471881
0.200632200 0.325616628 0.254269540
0.207717001 0.325110286 0.263251185
0.219481081 0.332195073 0.264389634
0.242631450 0.341176540 0.268690974
0.276786894 0.351802170 0.284123719
0.319923908 0.371663421 0.303478926
0.391144902 0.404048175 0.333206743
0.488931000 0.461859554 0.384060830
0.224541545 0.431625485 0.321947992
0.229601279 0.431499094 0.320809722
0.246047080 0.437824249 0.332827270
0.272865504 0.446426362 0.337887526
0.312080830 0.459709257 0.352435052
0.360531002 0.472232640 0.368500918
0.431499183 0.496394753 0.397090465
0.533333063 0.548513412 0.444655329
0.279696703 0.553826988 0.410120279
0.285768569 0.559139848 0.417330861
0.306262046 0.561796069 0.417710304
0.338519931 0.570018768 0.429728270
0.383428246 0.581024647 0.442251742
0.437065095 0.595445991 0.460215271
0.504490852 0.619354546 0.492093712
0.594433784 0.654269338 0.531815052
0.435926408 0.716002107 0.562429011
0.453890055 0.726755023 0.574699342
0.465148538 0.727387547 0.575711310
0.491461039 0.730803192 0.579253614
0.532194972 0.736875296 0.588108897
0.582416236 0.743579984 0.606704414
0.630613565 0.758381069 0.631245792
0.700569093 0.773434162 0.653383851
0.177229896 0.141176000 0.163061097
0.181151092 0.138013899 0.163061097
0.193674996 0.142694190 0.171663180
0.221125901 0.162302092 0.183428094
0.243769795 0.184946194 0.198229194
0.279064089 0.217457250 0.229221731
0.334598005 0.251612991 0.260215074
0.418722600 0.292220056 0.292093635
0.181150988 0.146995544 0.159898996
0.175964534 0.151676446 0.167742103
0.200379550 0.159898996 0.175205544
0.217204094 0.182289541 0.194813550
0.242631435 0.203415543 0.209234998
0.278937459 0.229221925 0.230739906
0.335863471 0.265528113 0.267805278
0.429222077 0.311448246 0.304237634
0.186590895 0.188109100 0.187349990
0.189752996 0.191650644 0.192789078
0.203035995 0.198228985 0.200632185
0.218342632 0.216698453 0.209614545
0.247691199 0.234282091 0.229601189
0.283997715 0.260974109 0.250347733
0.343959361 0.291334450 0.281341106
0.431119680 0.337381065 0.320935994
0.201138645 0.251106650 0.232384637
0.201644719 0.254649103 0.228842288
0.211258546 0.259708732 0.234661639
0.229221642 0.269070625 0.246426627
0.255028576 0.285136074 0.256546557
0.296141982 0.303858280 0.278431624
0.362681866 0.343200177 0.308665276
0.461100310 0.388741195 0.352814704
0.201517999 0.329158783 0.271853179
0.215685993 0.327514082 0.279063910
0.220240176 0.335357308 0.278937280
0.243010789 0.343200177 0.289184213
0.275142193 0.353320390 0.295382977
0.319164813 0.375205368 0.314484537
0.393042266 0.409487784 0.350790650
0.489943057 0.462998092 0.395319372
0.226944730 0.431625396 0.341176629
0.229221731 0.432384491 0.339658529
0.248703733 0.442251742 0.349525452
0.280961543 0.445667356 0.355724186
0.316761613 0.455155075 0.366223812
0.357368827 0.470714539 0.381783724
0.428210169 0.497280359 0.408348858
0.533080280 0.546616077 0.460720897
0.280835062 0.554965556 0.422517359
0.283870816 0.558001101 0.419481516
0.307527184 0.560784459 0.427451074
0.341682613 0.570904374 0.439595222
0.382542670 0.581024647 0.455661178
0.439468741 0.594307303 0.475268841
0.504743636 0.620240450 0.498671681
0.602023780 0.656166792 0.550031722
0.431498677 0.711068690 0.569259644
0.441239595 0.718659103 0.572422624
0.460341513 0.725489795 0.575837731
0.483997583 0.727387547 0.583428264
0.526122808 0.734851301 0.592156827
0.574699283 0.741555750 0.607716382
0.630993128 0.759139955 0.633143485
0.697533369 0.778367579 0.663504243
0.173687637 0.149020001 0.200632289
0.178747997 0.147375003 0.200632289
0.197216645 0.149020001 0.201770633
0.216824636 0.166982993 0.208475992
0.242251992 0.191270992 0.227703735
0.280708283 0.219354987 0.248829737
0.331815332 0.255028635 0.279696584
0.422517776 0.296900988 0.327893823
0.179506883 0.157115638 0.197470099
0.186211452 0.162302107 0.203415647
0.194434002 0.173687547 0.204554096
0.212017640 0.184566647 0.213156104
0.244275540 0.205692530 0.235927001
0.277798831 0.228336543 0.253889889
0.336369634 0.265907645 0.287918925
0.425933123 0.313219458 0.332068175
0.196963996 0.193548203 0.218722090
0.192536458 0.201011732 0.221378639
0.204680905 0.210878998 0.228462636
0.221884996 0.220999196 0.240607187
0.248070747 0.240986645 0.255028665
0.286780387 0.268058002 0.276154548
0.343959570 0.301707983 0.304617375
0.431751788 0.344592154 0.346616089
0.198861361 0.252751648 0.247185647
0.197216645 0.261732996 0.246679276
0.215306550 0.270335197 0.268058091
0.232005000 0.283618003 0.276913643
0.257431746 0.296141982 0.285515606
0.295762241 0.317646652 0.301581383
0.367235988 0.346995562 0.335231006
0.459202766 0.394307405 0.378747612
0.203922004 0.330676973 0.295509011
0.209234893 0.334977835 0.303226084
0.224161983 0.344845176 0.307147175
0.249209195 0.353826553 0.317393959
0.278557748 0.360784560 0.324351192
0.324604720 0.385452181 0.346615702
0.394180834 0.414674103 0.373940617
0.493484914 0.465654641 0.421884835
0.228716254 0.434787989 0.367489100
0.239089087 0.438329935 0.369512737
0.249968186 0.442631304 0.369765997
0.278810978 0.453510374 0.375584811
0.322833389 0.464136720 0.392915815
0.368121475 0.477798969 0.405439734
0.435673743 0.504111707 0.431499094
0.536622405 0.551929295 0.478810728
0.281593978 0.559013546 0.443010837
0.292473018 0.565338492 0.450727612
0.308665723 0.563820481 0.453004628
0.348766625 0.574067295 0.463630557
0.386211187 0.584566832 0.473371208
0.440860093 0.596584439 0.494244188
0.508159161 0.618975222 0.519291639
0.602782905 0.656925976 0.561796367
0.430107564 0.714231610 0.580771387
0.443643600 0.724730730 0.583427906
0.458317280 0.725995958 0.589626908
0.489057571 0.727134585 0.595066428
0.525743365 0.732953846 0.603668392
0.573054969 0.744212210 0.624541461
0.635167599 0.760278463 0.641872406
0.708159387 0.779379964 0.671094179
0.171030805 0.152941003 0.243769795
0.178874195 0.150537804 0.245288000
0.192915902 0.159139901 0.246047094
0.217710346 0.172801733 0.245667547
0.247691199 0.196711183 0.264895976
0.277419388 0.222517371 0.283617973
0.335990071 0.256293476 0.309424460
0.423908770 0.299683630 0.359139800
0.174319834 0.170019194 0.239215821
0.192662656 0.168880552 0.247438446
0.195952088 0.179506898 0.249588817
0.218089893 0.198355198 0.255154818
0.245920360 0.209234804 0.271220803
0.278557926 0.237065345 0.285136104
0.338393450 0.272612095 0.319164842
0.433017135 0.318912268 0.364452690
0.199367613 0.206072196 0.262492180
0.189247459 0.212776735 0.258697212
0.207210809 0.216318995 0.258570164
0.223908648 0.229980722 0.271094084
0.250095010 0.248450279 0.282859087
0.290449440 0.268817097 0.308032990
0.339785159 0.301707804 0.336116195
0.438329935 0.346236557 0.383807659
0.192536443 0.261226922 0.281214386
0.201138556 0.267552525 0.287918717
0.209234804 0.272612154 0.291840523
0.232004985 0.291081458 0.305123627
0.259708732 0.298039615 0.316128820
0.305502892 0.324730903 0.340037882
0.366477102 0.359266341 0.369007170
0.469702601 0.397090465 0.409614176
0.205439806 0.329791397 0.321947962
0.215685993 0.340164363 0.332700640
0.223403081 0.347122073 0.340797096
0.247185439 0.363187760 0.350158155
0.291460991 0.382289559 0.369006991
0.333965927 0.396331370 0.383807361
0.398482263 0.418975264 0.407084167
0.493990928 0.469829381 0.449968338
0.229728192 0.444655746 0.396458179
0.236686006 0.442631483 0.395698994
0.254648983 0.450853914 0.402276903
0.283997536 0.459835261 0.417204529
0.323592484 0.474636257 0.427830279
0.371284187 0.487160176 0.434408516
0.446173280 0.514484227 0.463630646
0.542947352 0.557115734 0.505629361
0.284250557 0.563061535 0.472359478
0.289942861 0.568121135 0.479317069
0.311575294 0.573307991 0.484756291
0.339785278 0.578367949 0.489057690
0.387349665 0.592030346 0.502719700
0.443137258 0.603289008 0.520683229
0.514104664 0.624035597 0.545603752
0.603542209 0.661733150 0.584566891
0.421505570 0.716887772 0.600632429
0.428209841 0.722074568 0.600126266
0.449462354 0.726375699 0.607210577
0.479190111 0.729538023 0.611891031
0.522327542 0.739278793 0.620240450
0.572548985 0.746236503 0.638456941
0.633396566 0.762935042 0.664136350
0.708412349 0.784060419 0.691207528
0.166729748 0.154838741 0.299683720
0.173814073 0.157115549 0.296141773
0.194813356 0.169260085 0.302846313
0.218089998 0.188108996 0.302340090
0.244528800 0.207210541 0.309803933
0.286021471 0.231119469 0.325110465
0.338773012 0.264010012 0.355217814
0.425300449 0.306767732 0.400505722
0.174699262 0.181151003 0.295888752
0.178368255 0.183428198 0.302213550
0.192915902 0.194054455 0.300316334
0.218722090 0.206072092 0.304996848
0.246932089 0.222390994 0.316002548
0.286021471 0.249588728 0.333206922
0.341429293 0.276533991 0.359772325
0.434408307 0.321568519 0.412397087
0.184819639 0.219734341 0.309803843
0.190259457 0.224920914 0.309298187
0.205566004 0.233143628 0.314990461
0.225426733 0.242125183 0.323466182
0.251613200 0.258949727 0.334472001
0.288298368 0.280582070 0.344971627
0.347628176 0.310309827 0.375711650
0.439089060 0.350158095 0.429222167
0.191018358 0.280834764 0.330423445
0.195698649 0.279696286 0.334977835
0.210879087 0.287918836 0.339531720
0.229221642 0.300063372 0.343453735
0.264010072 0.312207431 0.363820612
0.307526737 0.331056625 0.381530374
0.370777905 0.357621640 0.406830907
0.476786703 0.404933453 0.459329724
0.193548188 0.349272370 0.369386733
0.209234908 0.351296663 0.369006872
0.224667728 0.357621938 0.379506618
0.247691184 0.368248165 0.387349814
0.284376979 0.387729377 0.404933453
0.337254703 0.402150631 0.424035430
0.409361273 0.430740088 0.455028266
0.506641269 0.471852988 0.497660011
0.221505255 0.440607220 0.428715736
0.231372997 0.447564721 0.432384282
0.247311831 0.451992482 0.436685711
0.281973392 0.463377625 0.452751487
0.331309378 0.478558153 0.469576001
0.383681446 0.501201451 0.483617753
0.458317727 0.525616527 0.511448205
0.554838538 0.560404778 0.548513651
0.281593978 0.563440800 0.506261706
0.287286371 0.566476822 0.513599277
0.311195642 0.571663320 0.517140865
0.341555923 0.583681166 0.532068312
0.393674731 0.597216845 0.545098007
0.455154806 0.617457330 0.560278296
0.527135015 0.635421038 0.580519021
0.624921083 0.671726942 0.626818419
0.420746475 0.710309565 0.624288380
0.429854333 0.720556498 0.629221976
0.441113383 0.721948147 0.630107582
0.472738832 0.731056213 0.637444496
0.514357865 0.738772810 0.642378032
0.574193597 0.750663698 0.667425632
0.635547101 0.768627226 0.685515165
0.713851810 0.789626777 0.717267275
0.158507302 0.177735567 0.383554548
0.166729733 0.181404456 0.387476563
0.189879894 0.188108698 0.386843562
0.218595996 0.206831291 0.391397566
0.256167203 0.227957085 0.403162539
0.305756032 0.253004283 0.414548010
0.357748270 0.277419299 0.428969264
0.436305791 0.317520529 0.460214972
0.162808269 0.204047844 0.392410278
0.177862272 0.203542262 0.388741314
0.192156807 0.214042008 0.395066559
0.219481185 0.226944730 0.397723287
0.261606246 0.243643090 0.401770920
0.312839836 0.268311530 0.426691979
0.369133711 0.294497281 0.438836128
0.446426332 0.332827061 0.473497629
0.164832100 0.245287791 0.400126547
0.176470995 0.245034784 0.395951569
0.198608711 0.251486093 0.400126576
0.229727998 0.262745023 0.406704545
0.265528202 0.278051883 0.416571677
0.313219279 0.297659993 0.430233896
0.372549266 0.322580576 0.451612830
0.449588805 0.358633757 0.477925181
0.178621352 0.302213967 0.419481277
0.186211109 0.302719921 0.414927542
0.201265261 0.308285624 0.419354916
0.230360553 0.314484358 0.422770262
0.275268823 0.334471881 0.437571228
0.329664677 0.350917011 0.456420273
0.394180954 0.375079006 0.473244905
0.479949415 0.413662195 0.513725400
0.181910187 0.377482384 0.451612651
0.194939747 0.377103001 0.450094849
0.215686187 0.379000545 0.457938075
0.246173292 0.386590809 0.464263141
0.292979181 0.401012003 0.472991645
0.350664169 0.421379179 0.488930792
0.420240253 0.441619456 0.508159578
0.510562837 0.480076075 0.550664186
0.211258546 0.468690693 0.496648014
0.221884802 0.469955564 0.508159280
0.240607381 0.472612292 0.501581013
0.276913643 0.479317069 0.510183454
0.326502383 0.491334707 0.522707045
0.391397476 0.509804010 0.543074012
0.466919690 0.535736740 0.563061476
0.563693941 0.568880439 0.598102212
0.286147982 0.577609122 0.563567281
0.293990970 0.576343954 0.562555254
0.312207282 0.580898583 0.564452648
0.349399209 0.592030585 0.576976538
0.400632471 0.611511648 0.587223589
0.470461726 0.632764280 0.612903297
0.554712117 0.663883567 0.644275606
0.641619086 0.687539518 0.668058395
0.418975413 0.718279421 0.666540325
0.425932854 0.721189201 0.660341263
0.439848244 0.723592579 0.668437779
0.474256933 0.731182814 0.672865272
0.522833347 0.743832886 0.685388982
0.581277847 0.763061285 0.712207079
0.646173120 0.778621018 0.724857867
0.730803251 0.796710730 0.759519041
0.114864022 0.209234998 0.532700598
0.127134576 0.210879281 0.530803442
0.172802016 0.220493242 0.539405465
0.220113799 0.232637465 0.537760973
0.279822797 0.255661011 0.547121704
0.351170450 0.281087995 0.554965377
0.428336382 0.310183287 0.567994595
0.509171546 0.348007798 0.583681285
0.116761178 0.230992973 0.537002027
0.124984026 0.230360672 0.531815171
0.168374270 0.240860239 0.546742260
0.224035472 0.255028546 0.545983493
0.287160188 0.272865504 0.552561581
0.356356889 0.301834524 0.566350400
0.433902770 0.329158843 0.578873873
0.516381621 0.363567173 0.591271162
0.119164951 0.272485971 0.544212580
0.139785111 0.274383247 0.543579876
0.176091254 0.280582011 0.543959320
0.225300640 0.293231994 0.548892975
0.290322632 0.309424192 0.554332316
0.360784441 0.330550075 0.570398450
0.437950820 0.362555265 0.584187210
0.519797444 0.395445973 0.606451511
0.120936193 0.331562102 0.555344582
0.140923455 0.332447708 0.558760166
0.174826175 0.339152455 0.558001518
0.234661832 0.353194475 0.565338433
0.299177796 0.367362469 0.574699223
0.372169614 0.385199457 0.586211562
0.452245504 0.413409472 0.600379407
0.541808724 0.443137258 0.621631801
0.136496201 0.415179998 0.581277430
0.149905205 0.416698456 0.581783235
0.180898368 0.412650377 0.583175123
0.232763797 0.419354796 0.586464167
0.310057163 0.434535384 0.595825434
0.384187251 0.455155015 0.609993517
0.469829351 0.477545738 0.625426650
0.559645355 0.506514609 0.639088988
0.203668728 0.518026531 0.625680208
0.211638018 0.518279254 0.617583752
0.235673577 0.517140806 0.622517169
0.277925581 0.519797444 0.623402834
0.332574069 0.519797444 0.623782575
0.409108341 0.538772523 0.640986562
0.500442684 0.562934577 0.656926274
0.593168676 0.592536509 0.673244596
0.313345939 0.636179507 0.668184876
0.323466241 0.636053383 0.673244834
0.343832642 0.634029090 0.671220899
0.376344204 0.636812150 0.678178310
0.421884775 0.648070812 0.685262322
0.484250247 0.656799555 0.694750071
0.566603482 0.674130261 0.713851810
0.663124382 0.697786212 0.732700825
0.437318414 0.747121692 0.727514386
0.449841738 0.745350897 0.725237131
0.461100549 0.746489346 0.729538441
0.493358403 0.749525189 0.736369193
0.532447755 0.759013236 0.744338751
0.595445812 0.774319589 0.759898782
0.666160762 0.792030454 0.780898333
0.760404527 0.822896600 0.820366621
