Assets/Shaders/EldamarStudio/100 Sci-Fi LUTs Pack/LUTs/cube/Bindy LUT.cube
DOMAIN_MIN 0 0 0
DOMAIN_MAX 1 1 1
LUT_3D_SIZE 32
0.176470995 0.129411995 0.137254998
0.173434600 0.126375601 0.134218603
0.179000765 0.125489995 0.135483772
0.184313998 0.125489995 0.137254998
0.184693456 0.125869542 0.137634456
0.187729061 0.128905937 0.140670061
0.193295002 0.134471998 0.146236643
0.197722718 0.137254998 0.149020001
0.200759098 0.138013899 0.149778903
0.203795493 0.141049519 0.152814522
0.209740996 0.146995738 0.152941003
0.213788733 0.151043743 0.154965267
0.217962995 0.155218005 0.159140006
0.224288031 0.160784006 0.164958969
0.233396411 0.160784006 0.167994574
0.240100995 0.165591002 0.173434600
0.249209374 0.173181191 0.179506987
0.260088980 0.181656986 0.185578987
0.266160995 0.187729001 0.191651016
0.275015652 0.191018358 0.197723001
0.284123749 0.203541979 0.200000003
0.294243991 0.217709988 0.203036129
0.306514502 0.223782018 0.212144479
0.321694911 0.229854807 0.221252099
0.341429293 0.238203704 0.228083566
0.359898657 0.247311667 0.236938983
0.376597136 0.256926000 0.249082997
0.400885880 0.269069999 0.261226982
0.430486917 0.281214654 0.273370981
0.462618560 0.298671722 0.289057404
0.496015549 0.317267209 0.305502981
0.529411972 0.329412013 0.317647010
0.179506615 0.126375601 0.128146604
0.182542995 0.126375601 0.137254998
0.179506615 0.123339772 0.134218618
0.183807597 0.123719230 0.135483772
0.187349617 0.125869542 0.137634456
0.187729061 0.128905937 0.140670061
0.188235000 0.137001678 0.141176000
0.190006003 0.140290618 0.142947227
0.192409605 0.141808808 0.145983413
0.197722718 0.147122294 0.155850917
0.206578106 0.150157899 0.153067529
0.212776601 0.156103626 0.156989008
0.217962995 0.159013003 0.161037266
0.223782033 0.161037043 0.164958969
0.227324411 0.163820401 0.167994574
0.238835990 0.166223586 0.173434600
0.246172994 0.173181191 0.177988797
0.255281359 0.181656986 0.183175176
0.266160995 0.187729016 0.191651002
0.275015652 0.196584359 0.194939643
0.284123749 0.202023998 0.200759083
0.296267986 0.212650135 0.205060393
0.312460005 0.220999360 0.212270990
0.324731320 0.232890427 0.224288493
0.339911669 0.241239905 0.235673383
0.359646052 0.250348061 0.243263602
0.379127473 0.259456336 0.251612663
0.400885880 0.269069999 0.261226982
0.430486917 0.286527634 0.276027828
0.464389324 0.301201701 0.290322572
0.498165756 0.319923580 0.309044957
0.529411972 0.338519633 0.329790980
0.180391997 0.123339772 0.129790992
0.176976621 0.125489995 0.132447615
0.184313998 0.125489995 0.137254998
0.177482456 0.122454382 0.132953778
0.179759309 0.124098778 0.133333459
0.190385774 0.128905937 0.136369064
0.188235000 0.139152452 0.139025778
0.191523999 0.140037775 0.143959478
0.193295091 0.139784679 0.146236449
0.197975770 0.144465417 0.154206201
0.204806879 0.149778903 0.158254132
0.211890996 0.156862512 0.157242000
0.216824636 0.161922649 0.161922649
0.222137809 0.163187742 0.165212005
0.228969187 0.166223645 0.170145348
0.234914765 0.171410739 0.173434600
0.247058779 0.175964534 0.179506987
0.255028337 0.184440181 0.184440181
0.265654951 0.192030013 0.193548203
0.275015652 0.196584359 0.199241191
0.284123749 0.205692738 0.202276811
0.295256138 0.214041770 0.210120216
0.312207252 0.224161983 0.218342736
0.326375812 0.232258007 0.224415004
0.340797275 0.244275510 0.232257992
0.358760655 0.251992553 0.244401976
0.379507005 0.261353910 0.253004134
0.399114639 0.273750514 0.263757199
0.424035698 0.290828645 0.271726817
0.459708869 0.301960975 0.288677931
0.494750202 0.319544315 0.306008816
0.525111020 0.343326777 0.329032004
0.180391997 0.125363842 0.135862991
0.176849991 0.127134606 0.133332998
0.179000765 0.129285157 0.135483772
0.184313983 0.129285157 0.137254998
0.173687309 0.127388000 0.132321447
0.186590880 0.133460000 0.135357052
0.190891847 0.139532000 0.138393313
0.192789167 0.146869004 0.143453538
0.197343171 0.142315000 0.150284842
0.199873492 0.144844681 0.152814522
0.204554170 0.149525732 0.157495171
0.211890996 0.157621726 0.163314000
0.216824636 0.165591285 0.163314000
0.220619991 0.168754131 0.166476905
0.230740249 0.171789736 0.172549158
0.236179993 0.175964594 0.176217645
0.244022831 0.180771828 0.180771828
0.255534410 0.187476411 0.187476411
0.264642805 0.196584210 0.196584210
0.275015652 0.201391354 0.200379550
0.284123749 0.208222732 0.207084432
0.294243991 0.216318995 0.212144032
0.309171319 0.227956980 0.223782018
0.324351758 0.236305997 0.227957070
0.342062116 0.245667160 0.233270168
0.358760655 0.256293356 0.242125139
0.379000932 0.263377994 0.253763229
0.396457821 0.277798712 0.265148908
0.422517478 0.293105483 0.274509996
0.451866090 0.309298128 0.286401093
0.488677949 0.318912119 0.303731740
0.519038677 0.345097989 0.324225157
0.180771545 0.134471551 0.141176000
0.181151003 0.134851098 0.136242554
0.182542771 0.137001768 0.136242777
0.184313998 0.138772994 0.137634456
0.184693456 0.139152557 0.138393551
0.184693456 0.145224556 0.141429156
0.190133005 0.146615997 0.144844875
0.195446000 0.149146006 0.148766547
0.200379550 0.154079556 0.153700009
0.200379550 0.154079556 0.153700009
0.203668877 0.157368869 0.156989321
0.209993735 0.163693830 0.163314283
0.217204094 0.171283737 0.169006541
0.220493510 0.177356452 0.169512540
0.232384533 0.180518582 0.175585285
0.238077268 0.184313804 0.179253742
0.244149342 0.186970353 0.183427989
0.253257096 0.190891579 0.189753026
0.262365520 0.199999988 0.198861420
0.273877025 0.206704572 0.200759009
0.284882754 0.214294747 0.205692738
0.294243991 0.222390994 0.214421406
0.306514502 0.228462994 0.223276019
0.321694911 0.240101010 0.229095712
0.341429293 0.250347823 0.236306459
0.360910773 0.259835660 0.244781986
0.379760027 0.269450009 0.257179081
0.394939631 0.281594008 0.266287446
0.423023134 0.293358535 0.277672529
0.453383803 0.309044838 0.290828615
0.484503508 0.327261537 0.307147592
0.514863551 0.345477551 0.322328001
0.183807939 0.143579930 0.141176000
0.186843559 0.146616325 0.144212395
0.185072780 0.149146095 0.143579930
0.184313998 0.150916994 0.142820835
0.184693456 0.151296556 0.141429156
0.187729061 0.154332936 0.147501931
0.195319384 0.157874614 0.153067872
0.198988006 0.158760011 0.155344933
0.200759098 0.160531104 0.157115847
0.203415945 0.163187936 0.159772009
0.209234953 0.169006929 0.165591002
0.212776735 0.172549263 0.169133320
0.217962995 0.176597223 0.172042936
0.223529115 0.180392057 0.172548935
0.229601890 0.186464056 0.178620934
0.239089131 0.194433808 0.182289869
0.247185260 0.197975993 0.185325742
0.256293505 0.199746922 0.189499989
0.265401900 0.206071988 0.195825040
0.274509579 0.215180367 0.204933420
0.287918717 0.221884921 0.208728746
0.299050987 0.228462994 0.213789001
0.306514502 0.234534994 0.220240414
0.321694911 0.240607008 0.223276034
0.341429293 0.252245575 0.235926405
0.359898657 0.263883889 0.246805727
0.377103209 0.275521994 0.257432073
0.401012421 0.287665993 0.272359431
0.426818669 0.297153831 0.281467825
0.456419826 0.312080860 0.291081667
0.488551229 0.330297261 0.305629253
0.523971915 0.348513931 0.328400016
0.186843678 0.160277992 0.151296645
0.187349617 0.160784066 0.151802719
0.190385774 0.163820446 0.154838547
0.189374000 0.165591314 0.153953165
0.189374000 0.165591314 0.151296645
0.190259382 0.166476935 0.153067872
0.193295002 0.169513315 0.156609684
0.199114397 0.172548920 0.161037400
0.200759098 0.174193412 0.162681907
0.203795493 0.177229807 0.165717512
0.212270662 0.178115323 0.169133320
0.216318935 0.182163060 0.173181579
0.221631959 0.185199320 0.177356318
0.229095638 0.188488320 0.180645317
0.235167831 0.194560319 0.186717317
0.241239995 0.203036129 0.187982321
0.250221521 0.209108129 0.192409992
0.259962291 0.210752577 0.197090313
0.270967960 0.214927331 0.203162327
0.277545989 0.223782688 0.204427361
0.294244051 0.230993316 0.215432987
0.308665454 0.238077179 0.222390801
0.316508621 0.245793492 0.229854509
0.329285234 0.254269332 0.232890740
0.349019617 0.262618601 0.240480334
0.367488980 0.273118645 0.253763348
0.384187311 0.284124315 0.264010251
0.408475578 0.296268314 0.275142103
0.435420454 0.310816139 0.287539810
0.466287255 0.323466063 0.300189704
0.498292208 0.341808587 0.314357579
0.533080280 0.361669689 0.337001681
0.188235000 0.175205410 0.160152003
0.186590716 0.173560694 0.160152003
0.185452074 0.175711468 0.160657942
0.191018462 0.178747535 0.164958715
0.192157000 0.179126993 0.163440987
0.192157000 0.179126993 0.163440987
0.193042397 0.180012599 0.162681669
0.199367434 0.181404278 0.167362422
0.203162715 0.185958087 0.170398608
0.207084492 0.190765485 0.173434213
0.212650120 0.192536697 0.176470563
0.219354540 0.192916155 0.179506540
0.222390920 0.195951775 0.182542920
0.230740279 0.198988035 0.188108996
0.239595279 0.203668699 0.194180995
0.245667279 0.212144092 0.195446000
0.253257483 0.218216479 0.198481992
0.261733264 0.221884683 0.203289002
0.271853298 0.225932971 0.207337007
0.281720698 0.232890636 0.212776706
0.292346746 0.240101278 0.217077702
0.310562998 0.246173546 0.226185843
0.320683271 0.254775405 0.234155700
0.335863292 0.265401602 0.241745904
0.351549596 0.274509996 0.249336109
0.374193609 0.285009682 0.258443743
0.391650975 0.294876993 0.269829363
0.415938973 0.307020992 0.278937250
0.439594805 0.323466092 0.290701926
0.470461577 0.338646412 0.306262165
0.503858566 0.353826284 0.323213011
0.537254989 0.373560697 0.344465435
0.189752996 0.187350005 0.166983098
0.186717376 0.185072690 0.167741999
0.183681220 0.185578778 0.166224003
0.183428064 0.189373940 0.169513091
0.191397905 0.192030102 0.174826086
0.191397905 0.192030087 0.174826086
0.193674996 0.191271201 0.172295764
0.197090700 0.192030102 0.173434407
0.204680905 0.192789182 0.178747892
0.210752904 0.201897576 0.181783512
0.214674130 0.205945864 0.185578763
0.219733983 0.206957996 0.188614830
0.224667639 0.208096355 0.191650733
0.228210032 0.211132035 0.194181055
0.239848092 0.214168414 0.198734999
0.247943997 0.222011372 0.202277094
0.254775256 0.227324277 0.204553992
0.265148491 0.231625497 0.211258575
0.271600008 0.237824008 0.211638108
0.283238709 0.243896201 0.218469456
0.294623911 0.249209091 0.225680083
0.306008995 0.256799161 0.230740026
0.318279505 0.262871921 0.234029397
0.335863084 0.273751110 0.245541006
0.352561265 0.285136193 0.256167173
0.371916294 0.295636058 0.265275419
0.395699054 0.307274014 0.273877114
0.419734061 0.319164991 0.282732427
0.444401890 0.334345073 0.294496983
0.471979558 0.351549178 0.310183406
0.505376577 0.366729587 0.327767581
0.538773000 0.381909996 0.349020004
0.195824996 0.199494019 0.176091477
0.192789376 0.199494004 0.179127097
0.189753219 0.199367508 0.175585002
0.187981993 0.202024013 0.176091164
0.188361511 0.207210511 0.183934480
0.188361511 0.207210481 0.183934480
0.195951834 0.204680830 0.181404158
0.201391712 0.205060273 0.181657195
0.204680905 0.207969606 0.184819892
0.207716510 0.211005986 0.187855512
0.213788509 0.217204496 0.193800986
0.219733983 0.219102010 0.197722778
0.224667639 0.220240369 0.200759128
0.228210032 0.223276049 0.203289449
0.237318411 0.226312429 0.200253069
0.246552676 0.234155804 0.207210809
0.254016370 0.238709971 0.212903291
0.262112886 0.240733907 0.217330575
0.277292550 0.249841511 0.226438969
0.289310724 0.256040692 0.229601845
0.299557269 0.260215223 0.234788477
0.308791667 0.266413480 0.239848346
0.318279505 0.278051525 0.243137017
0.333459914 0.284124315 0.252245426
0.351043463 0.297280192 0.263756990
0.371916294 0.310815841 0.274383187
0.395699054 0.322454393 0.282985508
0.416951418 0.331562012 0.289057493
0.448956251 0.340796828 0.300568998
0.480075866 0.355597436 0.316255420
0.511448562 0.372801602 0.333586603
0.544844985 0.387982011 0.349020004
0.190259010 0.211638004 0.182289988
0.193042383 0.208728880 0.182416484
0.192157000 0.215180099 0.181151092
0.192409709 0.217456996 0.182163149
0.194433540 0.219101548 0.190133005
0.196963876 0.216571867 0.190133005
0.199494198 0.221631870 0.187602669
0.204554155 0.223023713 0.187855721
0.207590222 0.226059645 0.190891892
0.210626394 0.229095489 0.193927526
0.219480991 0.229222000 0.196963876
0.223529249 0.233270258 0.201012135
0.227577507 0.235294223 0.204048231
0.230866864 0.238329902 0.206578165
0.237318411 0.241366282 0.203542456
0.241619200 0.244402051 0.205313072
0.251233369 0.250980496 0.216445327
0.261986375 0.255028844 0.225047454
0.277166039 0.261859775 0.229601845
0.286780357 0.268184751 0.235926881
0.300695837 0.274257004 0.239089251
0.311828017 0.280328989 0.245161250
0.321062863 0.290449202 0.252118856
0.333459914 0.299303949 0.258443892
0.350916982 0.305376142 0.262998283
0.367741644 0.315875649 0.273244858
0.388994187 0.327008188 0.284883082
0.419860542 0.340923399 0.298165858
0.449082732 0.352687836 0.304237843
0.476913393 0.365591168 0.315875828
0.508539200 0.383554459 0.334471703
0.548007846 0.402782857 0.357748121
0.190259263 0.227830499 0.192409992
0.193295136 0.228842378 0.194434255
0.194180742 0.228336483 0.194307730
0.192915902 0.232384413 0.188741341
0.194433719 0.232004970 0.192536458
0.197469682 0.232257932 0.194180742
0.200506061 0.234788254 0.195698932
0.205186740 0.237571254 0.195951968
0.208602101 0.240227893 0.198988155
0.211638495 0.243263513 0.202023774
0.216445118 0.245414257 0.205060124
0.225553259 0.247438505 0.208095998
0.228589639 0.250474602 0.208855391
0.232131958 0.253510296 0.210373268
0.239974737 0.256546676 0.212650418
0.249715701 0.259582460 0.220493451
0.254269511 0.264136255 0.222011253
0.264137000 0.269576311 0.232131571
0.275142312 0.274257004 0.235167980
0.286780357 0.280328989 0.243010744
0.293990999 0.286400974 0.245287731
0.309803993 0.292472988 0.250221133
0.322201461 0.300569236 0.259202987
0.336242735 0.309677362 0.265275031
0.354965001 0.322580516 0.279190511
0.373181343 0.328652501 0.279443562
0.391018301 0.338140309 0.289436996
0.421378672 0.353320688 0.306135148
0.452118874 0.365844220 0.317394257
0.484250396 0.379759431 0.330550194
0.511954546 0.394939840 0.344085842
0.551043749 0.413915247 0.366856247
0.194434002 0.248323992 0.204553992
0.196331263 0.250221252 0.206451744
0.198355287 0.252245277 0.208475992
0.197090164 0.250980169 0.206957832
0.194813550 0.248703539 0.199367538
0.197849348 0.251739353 0.202403352
0.199746966 0.253636956 0.204300955
0.203289002 0.256166995 0.207337067
0.210120097 0.256926090 0.211132541
0.213915497 0.259961784 0.214547813
0.216951132 0.262998134 0.217583865
0.222896889 0.264895916 0.219481379
0.230866641 0.269070625 0.223655641
0.234155998 0.271853268 0.220620036
0.242378220 0.274004042 0.224035636
0.252751589 0.278178483 0.232637629
0.264136970 0.281593651 0.240986645
0.270841569 0.287033230 0.240986645
0.277419657 0.290069610 0.243516967
0.289057672 0.295888662 0.250980288
0.299683630 0.301960647 0.256672621
0.307779610 0.309044778 0.259708762
0.325743347 0.315243274 0.268564165
0.341935366 0.323339522 0.273624271
0.361669540 0.334724903 0.284250557
0.381530344 0.348007649 0.299557298
0.401265055 0.355597705 0.299051136
0.428589404 0.370778054 0.316002280
0.457431972 0.384440243 0.330044299
0.489563763 0.398355454 0.344591945
0.524731219 0.415306866 0.365464807
0.558633626 0.430993289 0.381657273
0.199494004 0.271600068 0.216191992
0.200000003 0.271853030 0.216445029
0.202150777 0.274003804 0.218595803
0.202909872 0.274762899 0.218848825
0.200885549 0.272232562 0.217077538
0.203921944 0.275268942 0.220113933
0.203922004 0.276281029 0.220113993
0.206072286 0.277925313 0.222517312
0.209867060 0.280708104 0.225300148
0.218975440 0.283744514 0.231372923
0.222517118 0.286527842 0.234535158
0.227830470 0.287539959 0.235799998
0.233902961 0.289816946 0.238077000
0.239974961 0.295635998 0.243896037
0.246046960 0.295635998 0.240860417
0.254775822 0.300190002 0.245034993
0.265148938 0.304996878 0.250600994
0.276660532 0.308032602 0.255914003
0.285768956 0.311068982 0.255914003
0.297659993 0.316635013 0.261480004
0.309551001 0.322707027 0.267299026
0.322454035 0.329791158 0.274130166
0.334724516 0.338899493 0.283365011
0.352814823 0.345098019 0.286780864
0.373308241 0.353447288 0.292093962
0.393674970 0.363946974 0.301834315
0.413409114 0.376597077 0.316761136
0.440733463 0.391777426 0.328905910
0.468057841 0.406704843 0.343959779
0.498165548 0.422391206 0.358633786
0.533839583 0.438836545 0.377102822
0.573307991 0.460088968 0.404428005
0.193422005 0.283744812 0.222263992
0.199494004 0.286780417 0.225300387
0.202150777 0.289184183 0.227704182
0.203922004 0.290955395 0.226945087
0.204048425 0.290322810 0.223402545
0.209993944 0.290449321 0.232257932
0.205440000 0.296015412 0.227703989
0.208855286 0.299177676 0.232763991
0.214420989 0.301454395 0.238456413
0.215939060 0.301960468 0.234408543
0.222137585 0.302086979 0.237571448
0.229601249 0.302719563 0.240607157
0.236938581 0.304996550 0.244148999
0.243010581 0.310815573 0.249968022
0.249082565 0.313851982 0.253004402
0.259962171 0.316255778 0.257178992
0.269955784 0.321442395 0.260214984
0.279696137 0.326249242 0.262744963
0.288804561 0.329284936 0.268058002
0.300695598 0.332321316 0.273624003
0.310942322 0.337887406 0.277798742
0.324731141 0.344971538 0.282479405
0.343832880 0.354079872 0.289436996
0.359013319 0.363187522 0.301581025
0.379380256 0.371663243 0.307273567
0.402023971 0.382162929 0.314737201
0.425553173 0.394813031 0.326122463
0.452878237 0.409993410 0.341049880
0.480202615 0.422517627 0.358506948
0.505755723 0.440607578 0.370777756
0.538140357 0.458823770 0.385578603
0.582416415 0.475268543 0.410499990
0.194560200 0.307906777 0.233143598
0.203035995 0.303731591 0.238583192
0.204806998 0.304616988 0.235167801
0.207590371 0.307400346 0.239974827
0.207969993 0.309297979 0.240733325
0.205946013 0.313345969 0.245793730
0.213915184 0.311195791 0.247058794
0.211132184 0.317267805 0.242631078
0.217203990 0.320303619 0.248703092
0.220492989 0.320303619 0.247564808
0.228715792 0.322706789 0.250221670
0.232764065 0.320683062 0.251233786
0.239974812 0.320303619 0.253889948
0.246552810 0.323845595 0.258190781
0.256925792 0.329032212 0.259076416
0.265401602 0.332067996 0.264515996
0.272991806 0.335104376 0.269070178
0.281593561 0.340923548 0.271220773
0.294243962 0.347501636 0.277292788
0.303731799 0.350537330 0.283364803
0.315875798 0.357368737 0.287539512
0.329538137 0.363946766 0.293611795
0.350537479 0.371663481 0.302340269
0.365717918 0.380771697 0.307653010
0.383174986 0.389879882 0.315243572
0.405692518 0.398987919 0.325489908
0.430486888 0.410625875 0.337634057
0.457811534 0.425806224 0.352814406
0.485135972 0.440733641 0.361036956
0.514231563 0.456419915 0.381024152
0.547754526 0.475268751 0.396204561
0.596331775 0.490448803 0.418975204
0.199114382 0.329158783 0.245288000
0.206704587 0.329158783 0.251359999
0.209361196 0.327387571 0.254902005
0.209361196 0.326122403 0.253889978
0.212144449 0.328273177 0.261606187
0.209487796 0.332068175 0.263503909
0.213029861 0.333586514 0.259456187
0.218721986 0.333965987 0.260847509
0.219481081 0.338519990 0.258570194
0.224794179 0.338519990 0.260847479
0.233776063 0.339911312 0.263883859
0.240354255 0.343453228 0.267931998
0.244528994 0.341555983 0.269070625
0.250854045 0.341809005 0.271600366
0.261733174 0.346616209 0.270335197
0.269955784 0.348766595 0.273624361
0.277545989 0.354838580 0.278178185
0.283111751 0.357242376 0.281846970
0.298292160 0.363694161 0.287918985
0.307906151 0.368754029 0.290955007
0.321948171 0.375584722 0.299683511
0.335104316 0.383681238 0.302719951
0.355218172 0.389879853 0.313345969
0.371789902 0.398987889 0.320556253
0.390765160 0.408096284 0.325869381
0.408981502 0.417204648 0.333333433
0.433523268 0.427324444 0.347754180
0.460847616 0.442504823 0.361922413
0.488171995 0.457684785 0.372169375
0.523339510 0.473118126 0.385578334
0.552814722 0.491334379 0.408601731
0.599367797 0.507147372 0.431119174
0.203922004 0.346868724 0.258696973
0.208729014 0.350411206 0.264136553
0.212397426 0.352182418 0.269576162
0.213662416 0.352182388 0.275015593
0.212903410 0.350284547 0.279949129
0.215180054 0.350790530 0.279696167
0.218848735 0.352688283 0.274003893
0.221884862 0.355724424 0.271473855
0.225553080 0.358001143 0.274383157
0.228589475 0.358001143 0.274383157
0.237444863 0.358001143 0.277292848
0.244528979 0.360784143 0.281720579
0.250600994 0.365211546 0.285389066
0.256673008 0.365717530 0.288678408
0.265401840 0.369133383 0.286780566
0.273371577 0.369765967 0.287919223
0.280075967 0.372422606 0.290955365
0.286780566 0.380898565 0.293358564
0.301960975 0.380898565 0.299430549
0.312207222 0.386464566 0.301834136
0.326375455 0.394433796 0.307526559
0.344212562 0.401897252 0.317899704
0.359392911 0.407969981 0.320936054
0.377102971 0.416571677 0.331561983
0.397596240 0.426944852 0.341049552
0.419987291 0.436685622 0.348513216
0.439722031 0.446806014 0.359139562
0.467046380 0.461986393 0.371536553
0.494370759 0.477166265 0.383681208
0.527387738 0.492346317 0.400000066
0.567362547 0.507779777 0.418342710
0.594686985 0.525996566 0.445667148
0.203922018 0.374193966 0.276913017
0.203922018 0.368121177 0.279949427
0.210879236 0.367362112 0.283238769
0.217963040 0.368627280 0.286527812
0.222011045 0.371537030 0.289057553
0.215939045 0.377609015 0.286021918
0.220746011 0.378114969 0.285768956
0.224920765 0.380012721 0.286654294
0.228715971 0.382289976 0.289690107
0.234661505 0.382290006 0.292599946
0.243516892 0.382290006 0.295509070
0.250600994 0.382290006 0.298545271
0.256673008 0.383934349 0.299557358
0.262745023 0.386970013 0.297786057
0.268817008 0.393041998 0.303858042
0.279949665 0.394054055 0.304364026
0.290069789 0.394054055 0.306135267
0.298924595 0.396078229 0.308539003
0.308033019 0.402151018 0.308538973
0.320430040 0.407717019 0.317394346
0.334218711 0.415686280 0.321948200
0.350664020 0.422770143 0.327767134
0.368500561 0.426186055 0.336116493
0.383680969 0.432258040 0.339152098
0.403668284 0.445414305 0.352055281
0.429095328 0.458696961 0.363693655
0.457938075 0.471094102 0.374320000
0.485262394 0.486274451 0.392535985
0.512586772 0.501454830 0.404933661
0.539911091 0.516635180 0.422391146
0.571157217 0.531815588 0.441619545
0.606830955 0.547249019 0.457811981
0.215054005 0.412650406 0.306261748
0.215054005 0.412144333 0.306514770
0.217204228 0.412523896 0.309551150
0.223782331 0.411891282 0.311322361
0.229095712 0.411511749 0.312460721
0.227830708 0.412776738 0.311828285
0.229348391 0.411258399 0.311322361
0.236812055 0.412650079 0.312966645
0.242125273 0.415686488 0.316002458
0.246172994 0.417710751 0.319038868
0.255154878 0.423276722 0.316508502
0.258190989 0.423276722 0.317520380
0.265022010 0.422138095 0.319797665
0.274636030 0.422137767 0.320809722
0.283238351 0.428209752 0.326881707
0.296521157 0.429474741 0.328146726
0.306008995 0.430992931 0.329664528
0.315116942 0.432890505 0.332068026
0.328526378 0.436811954 0.332068026
0.343200713 0.442884743 0.340417385
0.353446990 0.448956758 0.343833029
0.365844280 0.456167072 0.348007530
0.380645216 0.461227268 0.357115895
0.401138633 0.469956100 0.365465164
0.423149705 0.476028085 0.375332057
0.446299702 0.488298714 0.387223363
0.472359449 0.500442743 0.396331638
0.495129764 0.513345778 0.407716364
0.527767122 0.528526187 0.428589165
0.558886468 0.543706536 0.442884207
0.590891540 0.559772372 0.462998211
0.627324343 0.576850057 0.483871371
0.221505255 0.440733731 0.323339760
0.225300729 0.436938733 0.325236976
0.227450952 0.442884535 0.325490028
0.226691738 0.444655746 0.327261239
0.231372803 0.442251921 0.327640802
0.238962993 0.440733731 0.329158992
0.237697676 0.445793867 0.331056237
0.244022697 0.442757487 0.332700938
0.253131092 0.445287824 0.334977716
0.258443981 0.448324203 0.336875498
0.263503850 0.448576987 0.335989863
0.274130464 0.454395980 0.334977716
0.276407450 0.454395980 0.336116374
0.286780447 0.452624738 0.339405745
0.295888394 0.457052469 0.345477730
0.307906538 0.458317459 0.348639995
0.321568727 0.459835261 0.351675987
0.329032302 0.463504106 0.354458749
0.341682762 0.467805237 0.354458749
0.354965359 0.473624438 0.362808079
0.368247986 0.479696721 0.366223723
0.379379869 0.484756589 0.367235869
0.392536491 0.489816517 0.374573201
0.410246909 0.495382905 0.383681148
0.433775991 0.506008983 0.393168986
