Assets/Shaders/EldamarStudio/100 Sci-Fi LUTs Pack/LUTs/cube/Celendine LUT.cube
LUT_3D_SIZE 8
DOMAIN_MIN 0.000000 0.000000 0.000000
DOMAIN_MAX 0.903226 0.903226 0.903226
0.082353003 0.121569000 0.117647000
0.079949096 0.117647000 0.114104547
0.142568097 0.120809905 0.119164996
0.231498629 0.109803997 0.125489995
0.331309199 0.104996994 0.124604993
0.461986452 0.100063264 0.115876265
0.674003839 0.064136438 0.115369715
0.900189579 0.003922000 0.095382847
0.073371455 0.130929992 0.129032448
0.087413445 0.134851098 0.117267452
0.155977100 0.138772994 0.123971999
0.222011641 0.138772994 0.120809905
0.325489730 0.141808987 0.114231452
0.471853197 0.145856813 0.106640995
0.668690562 0.127640545 0.101455003
0.894243658 0.075015850 0.088931151
0.033016905 0.200632200 0.123212904
0.074383087 0.199114084 0.113725096
0.139405191 0.196711004 0.109803997
0.227198079 0.203415558 0.111827642
0.325743258 0.210752904 0.101075187
0.474762827 0.214548096 0.104364000
0.677798569 0.218722194 0.099810198
0.904870331 0.217457265 0.084630176
0.002783356 0.277419299 0.107527003
0.047438454 0.277419299 0.103478901
0.136243090 0.274636626 0.109424450
0.220366627 0.275774986 0.107020639
0.328020364 0.291460991 0.113851808
0.486780345 0.302340358 0.100822359
0.698797822 0.326248914 0.086780354
0.921948016 0.339405626 0.057685211
0.000000000 0.372042984 0.097406812
0.011005905 0.377862006 0.099684000
0.135483995 0.382289559 0.105123095
0.243769631 0.379886389 0.104743645
0.356103539 0.385325581 0.102846004
0.511701465 0.407589942 0.095888808
0.737254918 0.438456774 0.043263830
0.936369240 0.466287196 0.005060025
0.002024260 0.530423701 0.059582539
0.011638094 0.531941891 0.046046823
0.178494915 0.539405406 0.045034893
0.316761464 0.541808665 0.041366287
0.456419885 0.541682661 0.028336540
0.602529943 0.548134446 0.026186276
0.777229846 0.570904255 0.000000000
0.955344677 0.603415608 0.002024260
0.060214818 0.724351823 0.006831284
0.155344799 0.731815279 0.005186744
0.292220354 0.727387607 0.003162904
0.431878537 0.728905797 0.000000000
0.572928667 0.732194841 0.000000000
0.709677279 0.729664981 0.000000000
0.838709831 0.728273273 0.000000000
0.963946581 0.742567778 0.000000000
0.278937578 0.897279739 0.003795180
0.324604452 0.906768024 0.000379548
0.413029611 0.903099537 0.000000000
0.517520249 0.903858542 0.001138644
0.641492665 0.906388581 0.005060350
0.763440669 0.904364347 0.006452012
0.874130130 0.903478980 0.000379544
0.982036650 0.909044743 0.000000000
0.081214458 0.129411995 0.130550444
0.079190098 0.125489995 0.119164996
0.146109641 0.125489995 0.132068545
0.217710182 0.122707352 0.134471551
0.312460363 0.122327998 0.137887090
0.450347990 0.121569000 0.142441556
0.655534565 0.077925280 0.151802748
0.898039162 0.000000000 0.141303003
0.080835007 0.127387553 0.134091988
0.091713995 0.131689012 0.127387539
0.141429558 0.140291005 0.130930007
0.213789091 0.146995544 0.135610193
0.310942382 0.151676357 0.139911339
0.447311699 0.153700292 0.142694101
0.649083018 0.134724557 0.143453091
0.890575171 0.055155307 0.134219006
0.045034546 0.194434091 0.135610089
0.081973545 0.188488558 0.135230646
0.141050085 0.189247549 0.132447988
0.211891532 0.197090447 0.135230646
0.312334180 0.209614545 0.143073648
0.454775572 0.217077896 0.140417099
0.668311119 0.217457548 0.139531806
0.906641603 0.204553902 0.130550444
0.016698007 0.265148640 0.141049996
0.062365446 0.269196719 0.135989636
0.129538536 0.267173082 0.137128100
0.214547992 0.265148640 0.139531910
0.320177197 0.279949635 0.138013899
0.472359091 0.301581293 0.138013899
0.689816356 0.317520708 0.124730900
0.910309970 0.332827479 0.110309742
0.000379548 0.370777816 0.136622190
0.013788549 0.372042984 0.138899192
0.137381449 0.374446392 0.141176105
0.241492838 0.373561174 0.141555637
0.350917011 0.377103031 0.135736808
0.502340257 0.401391625 0.127893910
0.724225104 0.431372464 0.104617201
0.934345543 0.465528011 0.077166721
0.001897740 0.521315455 0.106894299
0.007716996 0.523339748 0.109298013
0.166350171 0.527640641 0.106894009
0.309297830 0.531562388 0.101960652
0.445414275 0.535862982 0.095382720
0.590511918 0.540164411 0.074130625
0.778494596 0.563946724 0.033396795
0.952182174 0.602150619 0.005566106
0.018216273 0.718912065 0.001897740
0.125616834 0.722707510 0.001644712
0.268310994 0.714610934 0.001644712
0.411891222 0.719924152 0.000000000
0.551802576 0.717646837 0.000000000
0.698671699 0.719924271 0.000000000
0.832637608 0.722960055 0.000000000
0.957874596 0.733206987 0.001644716
0.260214835 0.896773994 0.000000000
0.312333971 0.898038864 0.003036284
0.394939989 0.893738270 0.000379548
0.511195362 0.892726183 0.001138644
0.633143663 0.898797989 0.000000000
0.751423180 0.901960790 0.007590269
0.872865319 0.902846158 0.002530012
0.984819591 0.901581287 0.006831273
0.047944002 0.130170897 0.178621188
0.079569645 0.125489995 0.184566647
0.144971088 0.125489995 0.185705096
0.227703646 0.118785642 0.187350005
0.311701179 0.127767086 0.191903993
0.438077211 0.125743002 0.199240819
0.636938691 0.056673348 0.206957996
0.887159705 0.001897737 0.211638093
0.063124545 0.142694101 0.179506898
0.088931441 0.145477563 0.177103087
0.146616101 0.140670538 0.183807552
0.211512089 0.154838547 0.189373553
0.309424281 0.160025209 0.190891758
0.439215660 0.154838651 0.195825085
0.642378032 0.117014557 0.207590282
0.888551474 0.004554085 0.220746532
0.047817901 0.184946179 0.179506987
0.086654358 0.190891638 0.179127455
0.137887195 0.196711004 0.177102983
0.207210541 0.200632185 0.184566647
0.302214086 0.209234893 0.190385997
0.448956102 0.211638108 0.198608443
0.653257847 0.207843006 0.205313101
0.900316238 0.173055172 0.205313101
0.024035357 0.264895886 0.180518642
0.073371455 0.266414106 0.186464101
0.140670553 0.265654981 0.190891638
0.212271094 0.268817186 0.190512195
0.316761553 0.276533991 0.201138571
0.458191216 0.296900988 0.193801448
0.681973159 0.311448455 0.196331456
0.914104700 0.314737558 0.193674907
0.006325195 0.366603196 0.197596192
0.014168098 0.364200175 0.189626902
0.135483995 0.367362291 0.193548098
0.229727924 0.370018721 0.190006450
0.346742362 0.372169286 0.196710989
0.496774346 0.391524374 0.184187189
0.726249039 0.423529297 0.181151092
0.936622381 0.452245533 0.173560932
0.004048005 0.524857700 0.185199097
0.000000000 0.525869846 0.182289734
0.157242090 0.525237441 0.174825996
0.298798174 0.526881695 0.183681116
0.443137199 0.528399467 0.172675624
0.583934307 0.535989821 0.165844366
0.775205672 0.560531378 0.158127755
0.960531533 0.599114418 0.149525464
0.001517998 0.716508448 0.124857813
0.055787362 0.719797432 0.124857709
0.250094831 0.718912244 0.131182626
0.406957537 0.717647076 0.122833550
0.550284684 0.724478364 0.120177105
0.698545337 0.720050693 0.110689200
0.833396792 0.724478364 0.102972716
0.961669981 0.735863268 0.103225932
0.258317292 0.899683714 0.118912131
0.301707745 0.902972698 0.117394336
0.390638739 0.902340353 0.119670898
0.513598859 0.901707530 0.123466089
0.636053145 0.900948405 0.130423889
0.759266317 0.899683595 0.128905892
0.873877347 0.901581287 0.136748523
0.983301759 0.903605223 0.147374868
0.000000000 0.128273353 0.261226922
0.061100900 0.121948354 0.262871653
0.148007289 0.120809905 0.256546557
0.220872998 0.119923994 0.249968290
0.312460363 0.130550355 0.257685095
0.442631215 0.122454099 0.268184632
0.644402504 0.036938813 0.285894990
0.890069544 0.002656833 0.302972972
0.052245356 0.141429648 0.249968186
0.080328546 0.151676357 0.246299624
0.151170194 0.148513556 0.248703539
0.211005643 0.150031641 0.245161191
0.307779968 0.159139991 0.257431716
0.434282452 0.151802644 0.265907735
0.638709724 0.100189798 0.288931191
0.886906862 0.004427749 0.300190002
0.047185101 0.200632200 0.245920286
0.083491445 0.199367538 0.249968186
0.150917366 0.204174459 0.245920286
0.212650552 0.202529639 0.246806085
0.301707745 0.209994003 0.255787641
0.442125261 0.212017745 0.266287267
0.655155182 0.180771828 0.284250289
0.896014929 0.095382847 0.292093486
0.030107720 0.261226922 0.246552646
0.074509904 0.261226922 0.241999090
0.142188549 0.266793638 0.244402274
0.218722641 0.278557628 0.255028635
0.321695268 0.278431445 0.258064657
0.461606562 0.284376889 0.264769375
0.682099819 0.288677931 0.274130255
0.911195636 0.283364981 0.284629822
0.000000000 0.363440990 0.265022099
0.020619908 0.364200175 0.258949816
0.132700637 0.367362291 0.261353642
0.233902469 0.365338624 0.260467827
0.341935366 0.368374646 0.257811278
0.505755901 0.393169075 0.263251185
0.726248920 0.411891282 0.268437922
0.937760890 0.435041010 0.281593829
0.004933640 0.513978601 0.267046362
0.000000000 0.516255796 0.259329259
0.107526831 0.517394364 0.266540289
0.285009623 0.520936191 0.268058270
0.433649451 0.524984062 0.260341704
0.581277728 0.529538095 0.263124377
0.779632807 0.554712057 0.264516354
0.958380759 0.592409849 0.272612095
0.001138644 0.712080896 0.253510565
0.001138644 0.714863837 0.254902005
0.182795554 0.712207258 0.249968275
0.370904475 0.710436225 0.248956278
0.539658368 0.714484274 0.250347823
0.687412679 0.716508567 0.249083087
0.830233872 0.716002464 0.246046990
0.967362165 0.730170906 0.257938117
0.238709643 0.900063097 0.281214625
0.287792385 0.896521032 0.282479286
0.381910056 0.897279739 0.280075908
0.503858268 0.898797989 0.279822946
0.630233824 0.896267951 0.286148041
0.759519160 0.898165584 0.291714162
0.873624384 0.898544908 0.299430639
0.979885757 0.902466655 0.303605258
0.000000000 0.123972192 0.354838580
0.065275542 0.119671263 0.364326388
0.152561486 0.122327901 0.355597466
0.245035082 0.124351643 0.347754270
0.334345162 0.127893806 0.343959183
0.454396099 0.120176814 0.353194177
0.660467982 0.025300737 0.383807391
0.900442600 0.003795183 0.423529536
0.018721998 0.150917456 0.343706369
0.079190098 0.152435347 0.344971567
0.158633739 0.158381000 0.349019557
0.246426553 0.151169986 0.346236289
0.329158813 0.167109102 0.338772744
0.451233208 0.151802644 0.348513395
0.662365377 0.079443641 0.384566545
0.898039043 0.002783356 0.414041728
0.023023717 0.214041904 0.344971269
0.074889548 0.215180546 0.344465524
0.147248194 0.213156283 0.339152187
0.233396292 0.215560094 0.337634295
0.321695179 0.214801013 0.334472090
0.455534667 0.212903470 0.349272549
0.675900817 0.169006929 0.380518556
0.912966371 0.047817692 0.409234732
0.003162807 0.283618003 0.335736752
0.051106904 0.284376979 0.338772833
0.141302839 0.283997536 0.336369544
0.235547185 0.283618003 0.339531839
0.336116195 0.283618003 0.327640623
0.483870924 0.282479644 0.353699923
0.698418438 0.270082355 0.373181432
0.917141199 0.245667264 0.396837473
0.004807003 0.360278368 0.342441380
0.020872552 0.368247986 0.336875200
0.141808987 0.366603196 0.337508082
0.250600994 0.378241360 0.350537598
0.388994396 0.393169165 0.358128011
0.532321393 0.392030448 0.360278368
0.748133898 0.398734897 0.373560995
0.942820609 0.417204171 0.395319372
0.000758999 0.521695197 0.360278368
0.002276998 0.515622973 0.365591347
0.086527653 0.518279552 0.368121296
0.270208836 0.528526485 0.363314301
0.435167283 0.526502192 0.360657930
0.602024019 0.530803263 0.364959002
0.790891767 0.555977345 0.374067187
0.960025132 0.584187388 0.399494082
0.001518192 0.710309744 0.373561174
0.001138644 0.712713540 0.385452390
0.124351725 0.711954236 0.383681118
0.343580008 0.715369999 0.377482384
0.528273463 0.713345706 0.379886389
0.684376657 0.713851810 0.376976788
0.828589559 0.715749502 0.375079185
0.968247831 0.735357344 0.402277261
0.272358984 0.895761907 0.424414963
0.319797307 0.895256162 0.429474741
0.401011854 0.896521270 0.427071333
0.520050585 0.895002902 0.431245983
0.641619205 0.894623578 0.431499183
0.758127809 0.896014929 0.439974457
0.876787007 0.897027075 0.447058976
0.979126751 0.899936557 0.451486349
0.005819256 0.117647000 0.504870474
0.082226098 0.123466253 0.497532994
0.194940090 0.119671263 0.494750351
0.295382708 0.120556362 0.488298595
0.415433377 0.108918272 0.485768527
0.531941950 0.081214279 0.479569733
0.691334546 0.011764754 0.494750470
0.923719347 0.000000000 0.539784670
0.000000000 0.157621816 0.490955174
0.081214286 0.159140006 0.473118186
0.181404293 0.156736284 0.485642016
0.289816618 0.156483263 0.483871073
0.396837205 0.147881269 0.473497570
0.526502252 0.129411370 0.472485930
0.674256563 0.045920357 0.486400992
0.912334025 0.003542452 0.537254632
0.003542258 0.226185739 0.488551468
0.040607262 0.222390890 0.478557825
0.171537101 0.218216449 0.478557825
0.284883171 0.217837006 0.471599996
0.403162301 0.212903470 0.473244697
0.524098456 0.200885728 0.461353838
0.701834083 0.155977264 0.493105739
0.931435704 0.036938518 0.532068193
0.002276998 0.308918536 0.478178352
0.000758999 0.303731859 0.470461547
0.141555652 0.299178004 0.476027578
0.270461619 0.299178004 0.467678726
0.394054562 0.296142012 0.469702631
0.538520157 0.282732397 0.467172533
0.720809400 0.266160637 0.487666190
0.932194531 0.246046811 0.529158473
0.000379548 0.414547920 0.478431255
0.003036191 0.409867108 0.474762708
0.115369909 0.408349037 0.475142449
0.264389396 0.402530193 0.471853346
0.416951358 0.402782917 0.476786494
0.570651174 0.393928200 0.473876983
0.767615259 0.395066440 0.507906675
0.952308834 0.416824609 0.531688929
0.000000000 0.528526425 0.467805177
0.000000000 0.525237501 0.478304654
0.100569449 0.526628435 0.483238220
0.288172007 0.530297220 0.485009700
0.462997854 0.539405465 0.487033278
0.647438169 0.557874739 0.508918464
0.817457199 0.560277998 0.521695018
0.967362463 0.586590648 0.549019396
0.001897740 0.714990258 0.520050466
0.011006000 0.712460399 0.517140925
0.168374479 0.713219345 0.520050824
0.368753731 0.712840021 0.514990747
0.539911211 0.714610994 0.523339927
0.702340424 0.715876222 0.526375711
0.833649278 0.713219285 0.523592770
0.961670101 0.738772929 0.550537527
0.344212323 0.891840756 0.565970719
0.381151140 0.891840518 0.571790278
0.457179219 0.887792230 0.576723635
0.563314259 0.891461015 0.574826181
0.663124263 0.892093599 0.581403792
0.770145416 0.891334534 0.582416475
0.879317105 0.892979205 0.589626670
0.974825978 0.900442660 0.600126505
0.011385280 0.123213291 0.677925289
0.117900275 0.124857999 0.678937554
0.248956189 0.114610814 0.675015569
0.372422576 0.093991362 0.673497856
0.521189153 0.033143543 0.674256861
0.651486278 0.006072285 0.666034281
0.801391840 0.001644712 0.670082271
0.941176593 0.001265167 0.669323564
0.005439708 0.162681550 0.674256563
0.110309802 0.161037251 0.672865272
0.238077193 0.154459000 0.670841098
0.372802198 0.139658198 0.664642751
0.509297729 0.104743727 0.665654600
0.655281425 0.031878993 0.660594702
0.795192838 0.000379548 0.659962118
0.931056082 0.003162907 0.662112594
0.004933716 0.229601383 0.673371434
0.028589543 0.233902737 0.671853364
0.213535473 0.229601189 0.671853244
0.359645724 0.221378833 0.665907741
0.503858626 0.202403635 0.662112713
0.653131068 0.166350290 0.662239134
0.797596514 0.106388435 0.662238836
0.939531803 0.023782473 0.662112772
0.004427649 0.326375574 0.666666865
0.004048100 0.324225098 0.661480129
0.145350888 0.322580487 0.660720944
0.334851533 0.315622985 0.659329534
0.494623661 0.306767821 0.658949971
0.649588823 0.287918925 0.654775500
0.797343194 0.260720968 0.650474548
0.941429317 0.245667264 0.660468221
0.000759096 0.448830098 0.664010286
0.001518095 0.452625155 0.660847664
0.107906356 0.446426272 0.662239015
0.312586665 0.438583285 0.657811344
0.489689827 0.429981172 0.657558739
0.660214961 0.415686369 0.656040549
0.812649906 0.405566156 0.658697307
0.957747936 0.420999646 0.671726823
0.001644712 0.586843729 0.662112832
0.003415545 0.586590588 0.671220958
0.146489829 0.586084723 0.663883507
0.352308631 0.580645025 0.667552352
0.525110364 0.573434472 0.665528238
0.691208065 0.573055029 0.670715094
0.830487311 0.572675526 0.667552114
0.968880177 0.600885570 0.687160015
0.005566292 0.722707570 0.666540504
0.022770174 0.720176816 0.659076512
0.224794298 0.718153000 0.662492454
0.402909458 0.715369880 0.660468221
0.562681854 0.719924152 0.662365556
0.724731445 0.721821547 0.674004018
0.853130817 0.737128556 0.686780572
0.960530877 0.749019325 0.704237998
0.383174747 0.892093599 0.699557304
0.409867227 0.892220199 0.705123246
0.481467396 0.887286663 0.710562825
0.574952543 0.889816344 0.708412409
0.689816594 0.888298571 0.723086894
0.787223577 0.890575588 0.730044365
0.876913309 0.891081512 0.732194662
0.975458801 0.898544908 0.739911556
0.099557124 0.132194966 0.863250911
0.179127067 0.129411995 0.861100197
0.301834345 0.116381831 0.869323492
0.439974636 0.080835000 0.863377452
0.580518484 0.008729003 0.860594392
0.729538202 0.000000000 0.856293321
0.869829416 0.002656833 0.855534434
0.986084759 0.006578155 0.856925726
0.073118053 0.171916530 0.857052445
0.176850155 0.168880254 0.862112582
0.294117630 0.160657719 0.863377452
0.430487156 0.138772815 0.864516199
0.584946334 0.090828888 0.856546283
0.726881504 0.003036090 0.854775310
0.861480236 0.003922000 0.850221395
0.978494525 0.003542452 0.851612747
0.000000001 0.253763080 0.858317614
0.124604419 0.249082804 0.855787575
0.278937221 0.242125094 0.861479640
0.428083450 0.230613634 0.859708786
0.582036674 0.207842916 0.860973954
0.726755381 0.176850170 0.854269385
0.865654826 0.132194892 0.855660915
0.987349629 0.083238505 0.854269564
0.003035990 0.359266251 0.857685208
0.057052657 0.354965001 0.858823538
0.253763437 0.354585558 0.853004396
0.414674044 0.348639905 0.858443975
0.575837791 0.337254941 0.854016542
0.725363612 0.321442127 0.851992488
0.863124847 0.306514740 0.851865768
0.984819591 0.293991089 0.848829389
0.004301164 0.490069538 0.860847414
0.098798253 0.492220014 0.857305288
0.272611976 0.484883010 0.853889883
0.434788197 0.483238280 0.855155170
0.587602973 0.478557795 0.848829746
0.736622572 0.471853137 0.854016244
0.867172718 0.467299163 0.852118731
0.986084759 0.467172652 0.852877617
0.149525359 0.627577364 0.858317554
0.230233699 0.627324343 0.856040418
0.352434963 0.627577364 0.855407774
0.491966963 0.625553429 0.859835505
0.633902609 0.628715813 0.857558489
0.756989002 0.627071440 0.854775310
0.875774562 0.629475117 0.857685030
0.978114963 0.630866408 0.856799424
0.299051076 0.764326274 0.860721290
0.346109867 0.763567507 0.861986101
0.434788048 0.765591204 0.855028450
0.543073773 0.762302220 0.856799245
0.658317447 0.760657847 0.859076262
0.770271659 0.763440609 0.854522169
0.877292991 0.762808561 0.856420040
0.969386280 0.770398259 0.857179046
0.437697202 0.898544967 0.865907788
0.467931360 0.902087033 0.869196653
0.522200704 0.897279799 0.862112582
0.604680359 0.898797929 0.862239361
0.690702140 0.894497097 0.866034269
0.793801308 0.893864512 0.860214829
0.875268698 0.899177611 0.864010334
0.967615783 0.910309613 0.876407623
