Assets/Shaders/EldamarStudio/100 Sci-Fi LUTs Pack/LUTs/cube/Celendine LUT.cube
DOMAIN_MIN 0 0 0
DOMAIN_MAX 1 1 1
LUT_3D_SIZE 32
0.082353003 0.121569000 0.117647000
0.079316616 0.118532613 0.114610612
0.076280773 0.119797774 0.113724999
0.075774841 0.120303839 0.113724999
0.079949096 0.117647000 0.114104547
0.092093870 0.117647000 0.117140934
0.109297998 0.122706994 0.120177321
0.125869706 0.123845711 0.119924292
0.142568097 0.120809905 0.119164996
0.163820505 0.117773518 0.125236988
0.187981993 0.117647000 0.122580871
0.210246250 0.113599002 0.123592734
0.231498629 0.109803997 0.125489995
0.252751023 0.109297998 0.125237033
0.274003386 0.103226006 0.122201420
0.302466601 0.101961002 0.121569000
0.331309199 0.104996994 0.124604993
0.360531121 0.109171420 0.128779426
0.396963984 0.106135018 0.125743032
0.427830726 0.103099354 0.122707352
0.461986452 0.100063264 0.115876265
0.504491210 0.096015006 0.110815868
0.559392989 0.089943007 0.113851510
0.620113850 0.083871000 0.116887905
0.674003839 0.064136438 0.115369715
0.725616574 0.037065051 0.109550692
0.778747261 0.010753001 0.101454936
0.839468718 0.004681007 0.098418556
0.900189579 0.003922000 0.095382847
0.955597520 0.002150783 0.092346780
0.993927956 0.000000000 0.091081604
1.000000000 0.000000000 0.094117999
0.076281004 0.121569000 0.114610612
0.079316616 0.124604613 0.123718992
0.082732551 0.119417995 0.122833386
0.081088066 0.118532613 0.119038224
0.079569548 0.118405998 0.113724999
0.089057483 0.123718992 0.114104547
0.101201609 0.121189326 0.117140934
0.126628727 0.119164973 0.121821605
0.148640305 0.115496226 0.122960091
0.160784110 0.114737131 0.122201383
0.187855482 0.117520481 0.125363514
0.208222508 0.117647000 0.122580871
0.229601368 0.115875997 0.122454390
0.252751023 0.115622967 0.122454390
0.274003386 0.112333618 0.122201420
0.297659576 0.111068614 0.119165197
0.326755375 0.111068614 0.117014423
0.356862932 0.112839609 0.117267221
0.390891999 0.112207033 0.116634652
0.427324742 0.117520712 0.119164973
0.461986452 0.113345906 0.112839878
0.503479123 0.108159006 0.106767610
0.556230128 0.102213517 0.107905991
0.614041865 0.099051386 0.113851517
0.677039862 0.083870821 0.112333901
0.733080208 0.056925766 0.106514730
0.787349522 0.025933003 0.098418683
0.845540702 0.004681007 0.095382944
0.903605402 0.001265167 0.092346556
0.956862688 0.000885613 0.094623595
0.993042350 0.000000000 0.097153604
0.996963620 0.000000000 0.100189999
0.076660231 0.119418226 0.113724999
0.079696387 0.122454390 0.122833386
0.080581784 0.123339772 0.121188998
0.084124222 0.119797774 0.123718992
0.082099773 0.119797774 0.119038224
0.092978939 0.122327775 0.113724999
0.106767774 0.120809548 0.111954316
0.122200765 0.122707218 0.114990287
0.150031552 0.119417869 0.120556414
0.164705530 0.118026547 0.121695481
0.186969876 0.120935865 0.120177127
0.208222508 0.121947996 0.121188998
0.227577627 0.121947996 0.119418226
0.250853777 0.121695027 0.119671255
0.274003386 0.118659131 0.121569000
0.301960588 0.118026547 0.119165197
0.327767193 0.119544350 0.119165190
0.356230378 0.120809346 0.116761394
0.385073036 0.122327551 0.113724999
0.423402965 0.121441938 0.112207353
0.471220672 0.121821970 0.117140993
0.509171486 0.117014416 0.110309772
0.555091500 0.112207264 0.107779779
0.608728707 0.109171130 0.105755776
0.668817043 0.096900977 0.107147291
0.732574165 0.077292904 0.102720007
0.790006161 0.048450422 0.095382705
0.847691298 0.024162026 0.092346683
0.901075423 0.001265167 0.091461167
0.956989288 0.000000000 0.097279958
0.993042350 0.000885608 0.097912632
0.996078014 0.002150774 0.093359001
0.077166162 0.121442162 0.118785322
0.076407388 0.124478221 0.117773391
0.077293001 0.125363842 0.118658997
0.083618164 0.125363842 0.117647000
0.084756613 0.125363842 0.122580446
0.096014999 0.125363842 0.115243062
0.113219321 0.124098673 0.112460159
0.131309152 0.124731153 0.115243450
0.148766249 0.129285157 0.116002165
0.169006661 0.126755476 0.120050810
0.187729031 0.128273278 0.121189132
0.205692515 0.129285157 0.118912160
0.227324635 0.129285157 0.118912160
0.248830035 0.129285157 0.118406095
0.272106141 0.127261415 0.118406095
0.301201433 0.126628995 0.119165197
0.327514052 0.129411966 0.115370028
0.358000964 0.131815150 0.117773838
0.386084855 0.134218961 0.112966217
0.425553381 0.132953793 0.109677188
0.465654612 0.129917577 0.109803833
0.515243292 0.126881972 0.112839967
0.552941024 0.123845652 0.107526988
0.607969582 0.120809257 0.106008999
0.666413665 0.109930299 0.099431001
0.725996137 0.097027354 0.100442849
0.788741231 0.075774938 0.093864903
0.846426129 0.052245282 0.089310713
0.897533059 0.032890696 0.090195999
0.953447282 0.013915158 0.094749957
0.993042350 0.013915158 0.103351995
0.996078014 0.016571997 0.090069838
0.073371455 0.130929992 0.129032448
0.067299455 0.134724706 0.115370154
0.067805447 0.134471551 0.110942543
0.072612613 0.134851098 0.113092996
0.087413445 0.134851098 0.117267452
0.096521065 0.134851098 0.114231065
0.115369864 0.134851098 0.114104547
0.135863140 0.136495709 0.117899701
0.155977100 0.138772994 0.123971999
0.171157509 0.138772994 0.117900006
0.187096864 0.138772994 0.122707002
0.203415707 0.138772994 0.122707166
0.222011641 0.138772994 0.120809905
0.249336034 0.138772994 0.121062934
0.270841390 0.138772994 0.115369715
0.298544973 0.139532000 0.115369804
0.325489730 0.141808987 0.114231452
0.349651664 0.146615997 0.109424450
0.392156541 0.146615997 0.109424442
0.433522731 0.146995544 0.107020639
0.471853197 0.145856813 0.106640995
0.507653713 0.142441139 0.104870126
0.547881007 0.139405519 0.101961002
0.608348846 0.136369184 0.107527003
0.668690562 0.127640545 0.101455003
0.728399932 0.116887882 0.095888868
0.786085069 0.107273579 0.097659513
0.843769372 0.086021215 0.088551909
0.894243658 0.075015850 0.088931151
0.948386729 0.062112689 0.091840439
0.992662907 0.049209088 0.096521005
0.995698571 0.049209088 0.096521005
0.064263061 0.143074006 0.125996053
0.058191065 0.152182400 0.122960456
0.069323063 0.147375107 0.120050937
0.078178227 0.144845098 0.121315777
0.084377065 0.146995872 0.123339452
0.096521065 0.146995872 0.114231065
0.113219641 0.146995872 0.116255321
0.130297214 0.148640156 0.117140934
0.147248268 0.150916994 0.118658997
0.165085509 0.150916994 0.117899999
0.186084867 0.150916994 0.117647000
0.208348989 0.150916994 0.116634741
0.228842348 0.150916994 0.114737131
0.249336034 0.150916994 0.114990160
0.276660413 0.150916994 0.118026547
0.300568998 0.155723989 0.112333938
0.328905374 0.157747999 0.109297812
0.357748061 0.158760011 0.106388062
0.389120907 0.158760011 0.106388062
0.423276335 0.161543369 0.106388062
0.465781182 0.164073184 0.109676994
0.508286238 0.163060933 0.109677136
0.550917387 0.157621518 0.101961002
0.608601868 0.154585898 0.101961002
0.666792810 0.151549593 0.102972999
0.726375639 0.144212276 0.100949004
0.786085069 0.135104001 0.100948870
0.843769372 0.125490367 0.097659528
0.898798227 0.112207144 0.091208078
0.948893189 0.104111008 0.084882803
0.987096965 0.097785860 0.081846677
0.992662907 0.097785860 0.084377006
0.050094679 0.160277992 0.120430000
0.054142676 0.161796063 0.122454390
0.058823448 0.166603446 0.119418226
0.074636161 0.164073482 0.121568680
0.083871000 0.165971220 0.125110537
0.096014999 0.161669672 0.120303705
0.110689320 0.164199993 0.118785642
0.128905669 0.164199993 0.116887905
0.146489099 0.166350409 0.116634868
0.166476652 0.168121636 0.120177321
0.185072869 0.170651317 0.120177321
0.208348989 0.168627575 0.116128810
0.231498629 0.168121636 0.113724999
0.251865774 0.168374598 0.113724999
0.279190719 0.170651317 0.114484094
0.306515098 0.173055127 0.112713486
0.330929637 0.175964639 0.109803997
0.360531121 0.175964639 0.107147329
0.394686967 0.175964639 0.103352323
0.430360705 0.178747356 0.103352323
0.471347064 0.179885998 0.105249576
0.516888082 0.181277320 0.107653126
0.561416984 0.178367838 0.101961002
0.616698205 0.175332218 0.101961002
0.672105849 0.172296032 0.099683717
0.732320964 0.166476652 0.098039359
0.793168962 0.158380374 0.096901000
0.848830044 0.153320789 0.095888875
0.903858244 0.149145991 0.087666020
0.951423347 0.142314881 0.085136004
0.987856030 0.140543953 0.080075718
0.997217000 0.143832967 0.079822682
0.039848004 0.180138692 0.120935991
0.044275716 0.178494409 0.115749680
0.055787485 0.180644765 0.116129227
0.064895548 0.182415992 0.115622841
0.078937389 0.184693277 0.120176837
0.091081709 0.181150824 0.117141224
0.117267311 0.179380015 0.119924292
0.124224991 0.180771694 0.116635293
0.142441198 0.180771694 0.112080708
0.162808210 0.182922482 0.116382264
0.184440032 0.185958117 0.118279584
0.206704706 0.188235253 0.117520489
0.228715703 0.185199350 0.110309646
0.250221074 0.185199335 0.109297715
0.278937519 0.189626992 0.112080708
0.302973062 0.191018507 0.106388107
0.333333462 0.194054499 0.106388487
0.359898537 0.194813564 0.106515005
0.395319313 0.195825696 0.102467000
0.433396757 0.193675056 0.103605285
0.475521743 0.198102415 0.103858255
0.523086369 0.199114278 0.106894128
0.570019007 0.199746698 0.105123483
0.621631861 0.198228881 0.103605285
0.676280558 0.193548411 0.098039426
0.733712614 0.193295375 0.095003039
0.796710789 0.186717108 0.092979357
0.853636980 0.184819862 0.094117999
0.903352618 0.181783572 0.086148180
0.955850601 0.182036638 0.080708295
0.985958278 0.180771783 0.076280929
0.995066285 0.186084688 0.070208721
0.033016905 0.200632200 0.123212904
0.038330387 0.198355481 0.113345996
0.047691677 0.198102310 0.107526906
0.064895928 0.199873090 0.111827932
0.074383087 0.199114084 0.113725096
0.086527765 0.198355094 0.110309936
0.112839900 0.198102325 0.114863999
0.134092093 0.196711004 0.114358000
0.139405191 0.196711004 0.109803997
0.157621980 0.196711004 0.109803997
0.180898100 0.198861212 0.112713128
0.203668401 0.201138258 0.112207003
0.227198079 0.203415558 0.111827642
0.245920092 0.200885162 0.103478998
0.275268734 0.206451744 0.108538993
0.299177796 0.208476007 0.104111195
0.325743258 0.210752904 0.101075187
0.361669600 0.212523684 0.102214009
0.395572096 0.215307057 0.101961009
0.433017015 0.213030085 0.104743645
0.474762827 0.214548096 0.104364000
0.522327304 0.218849063 0.103858136
0.574066937 0.221884668 0.106894486
0.623908877 0.222517088 0.105123095
0.677798569 0.218722194 0.099810198
0.735230625 0.216065779 0.093485422
0.795446157 0.219102040 0.090955094
0.855913877 0.219355002 0.093738444
0.904870331 0.217457265 0.084630176
0.952435136 0.217963308 0.079063788
0.990512073 0.220999673 0.074762538
0.990512073 0.224035278 0.059582900
0.023908513 0.218848974 0.114104517
0.036053285 0.218848974 0.111068904
0.043516994 0.216571718 0.103352226
0.058823667 0.215053499 0.104743682
0.083491474 0.214294493 0.116761476
0.095635474 0.208222508 0.110689476
0.107779510 0.212523490 0.114863992
0.124224924 0.214927003 0.114358000
0.142441586 0.214927003 0.109803997
0.163693979 0.214927003 0.109803997
0.184819862 0.214927003 0.112713128
0.204174474 0.215053499 0.109677002
0.224920794 0.216318652 0.107273638
0.248956487 0.219101936 0.109550998
0.273244441 0.222137555 0.109550998
0.297786087 0.225300342 0.107400194
0.324984372 0.229727998 0.107147187
0.358633995 0.233776078 0.108286008
0.404174477 0.230740473 0.102214009
0.438076884 0.236306518 0.104743645
0.475521713 0.241872489 0.102087006
0.519291580 0.245920509 0.097280130
0.571030557 0.246173471 0.094750486
0.625680149 0.249209061 0.097786099
0.682352722 0.247564793 0.098292001
0.741302550 0.245793983 0.096521199
0.801518142 0.246426433 0.093991481
0.859203219 0.249462038 0.093991473
0.911701143 0.249715015 0.080835186
0.959519029 0.251359731 0.072991781
0.993801415 0.254396141 0.069070004
0.999620497 0.257432461 0.062618509
0.017710000 0.234155864 0.113724999
0.024035035 0.237065002 0.107779518
0.031878807 0.234914780 0.113345906
0.046806160 0.233143747 0.110056870
0.072991997 0.233902752 0.111448452
0.090195999 0.237950742 0.107906125
0.102339998 0.234408423 0.109424450
0.121062413 0.236052871 0.113472290
0.142568097 0.235293970 0.112713128
0.163820505 0.233143747 0.112713128
0.179253876 0.233143747 0.109803997
0.202529997 0.233143747 0.108791612
0.223655641 0.234282106 0.107020639
0.246426165 0.237318039 0.109550968
0.273370981 0.240354329 0.106894128
0.297659576 0.240986735 0.106894128
0.328020364 0.248070851 0.108917996
0.361163974 0.255028456 0.112080716
0.395319134 0.251992822 0.108285993
0.440860212 0.257305890 0.107779995
0.480455339 0.261480123 0.103099130
0.524984360 0.265528142 0.099051133
0.576470733 0.267552346 0.099684007
0.625553608 0.270587981 0.094370969
0.687033832 0.273624152 0.095129870
0.743200302 0.273244888 0.093738198
0.799367428 0.273750931 0.089184135
0.859456241 0.276787162 0.079570130
0.911827683 0.277166605 0.074257143
0.959898531 0.280708581 0.068691000
0.993042350 0.283112139 0.064136662
0.997090161 0.282099992 0.054016128
0.009614265 0.255407989 0.111701258
0.011638269 0.254396141 0.103605002
0.025806291 0.255155027 0.102213524
0.035673905 0.254649103 0.108791910
0.058444295 0.255028546 0.106135458
0.075015999 0.256167263 0.106388062
0.098292261 0.256673187 0.108412318
0.115369961 0.255281508 0.109803997
0.138520092 0.255281508 0.110942163
0.159772515 0.253510743 0.109677002
0.179253876 0.253384262 0.108791612
0.196457982 0.253384262 0.107779741
0.220746279 0.253384262 0.105881996
0.243390292 0.255281508 0.107779741
0.270714670 0.256546676 0.106514581
0.297659576 0.265275240 0.111954249
0.328020364 0.265275240 0.110436060
0.364453107 0.272865266 0.111827590
0.397596568 0.271220952 0.106008977
0.437824100 0.276533961 0.105756000
0.483364701 0.280708730 0.105756000
0.528020203 0.284756511 0.099051125
0.578874409 0.289057732 0.099683754
0.633143544 0.295888335 0.093611740
0.689057529 0.296900272 0.092093743
0.751423299 0.301328361 0.083744772
0.805439651 0.302593499 0.078557938
0.863124728 0.304111689 0.074003756
0.915875673 0.308539242 0.069197014
0.960404515 0.310310006 0.061353799
0.993042350 0.315243572 0.059709139
0.996078014 0.314484507 0.050980002
0.002783356 0.277419299 0.107527003
0.005060354 0.274383396 0.101834252
0.014548000 0.273497999 0.100315996
0.030360518 0.274763137 0.100442514
0.047438454 0.277419299 0.103478901
0.066413932 0.275142550 0.106514707
0.089437321 0.274636626 0.108412318
0.113472700 0.274636626 0.108665355
0.136243090 0.274636626 0.109424450
0.158254504 0.274636626 0.107147157
0.178368226 0.275774986 0.107020639
0.201011986 0.275774986 0.109297641
0.220366627 0.275774986 0.107020639
0.244655415 0.275774986 0.106514640
0.271094412 0.275774986 0.104743645
0.300695777 0.281973630 0.109677151
0.328020364 0.291460991 0.113851808
0.364453107 0.291460991 0.110815585
0.400885999 0.291460991 0.102719970
0.440101385 0.298165649 0.104237996
0.486780345 0.302340358 0.100822359
0.532320976 0.308412611 0.100822359
0.581151485 0.314611137 0.097659528
0.638836205 0.321695030 0.090575643
0.698797822 0.326248914 0.086780354
0.756735921 0.327893347 0.081847027
0.816445589 0.333460063 0.065148935
0.871094465 0.334092647 0.065654546
0.921948016 0.339405626 0.057685211
0.965337932 0.344845057 0.054522805
0.993295372 0.348766267 0.048956387
0.996078014 0.352055639 0.046426006
0.000505999 0.295889020 0.102213971
0.005566000 0.293358624 0.101961002
0.013535742 0.292220056 0.104617223
0.024667999 0.293232203 0.106387995
0.038077097 0.296395034 0.106008515
0.068437874 0.296395034 0.109044902
0.091967292 0.295889020 0.109550968
0.113725670 0.296395034 0.109171353
0.136243090 0.296141982 0.106388062
0.163567513 0.296141982 0.109424450
0.182668999 0.299304128 0.110056967
0.206198275 0.300063044 0.112839997
0.231751665 0.300063044 0.115369998
0.253257066 0.300063044 0.109803997
0.277545840 0.300063044 0.103732005
0.308538824 0.302466810 0.104617216
0.337887347 0.308032870 0.106135026
0.364706069 0.315749049 0.106008552
0.401138961 0.315749049 0.102972947
0.440607399 0.324098408 0.106515005
0.489057451 0.329917759 0.103858292
0.541429281 0.334978014 0.097027004
0.587602913 0.346869022 0.096900493
0.645414710 0.350031942 0.088045835
0.707400262 0.355850995 0.080961458
0.768373966 0.360784382 0.072991662
0.825300217 0.363567084 0.063377902
0.879949749 0.366603464 0.054269526
0.929285586 0.372549057 0.038456973
0.970524907 0.378115028 0.030360937
0.996331036 0.384693056 0.030993354
0.996331036 0.390765071 0.034028970
0.006577994 0.317141384 0.105249576
0.000505994 0.320176989 0.102213971
0.005566006 0.317647159 0.108412229
0.018595748 0.316508800 0.112459995
0.037571095 0.317900389 0.111700997
0.056293882 0.323719412 0.106008515
0.086654007 0.318659395 0.106514581
0.113472283 0.320430398 0.113092996
0.138772771 0.322960317 0.116002634
0.163567513 0.320429981 0.106388070
0.187981993 0.326248974 0.112333581
0.206957504 0.325616658 0.107020847
0.230487049 0.324351817 0.106768012
0.256293476 0.324351817 0.109803997
0.280582219 0.324351817 0.109803997
0.307274193 0.326754987 0.108538993
0.337381423 0.329791158 0.109171413
0.367741674 0.334724814 0.109803826
0.404174566 0.340037793 0.112080522
0.446173310 0.348387152 0.097912915
0.491840422 0.357495070 0.096648008
0.543706238 0.362301975 0.091714293
0.596710503 0.365085006 0.084756508
0.657432139 0.371157795 0.081720114
0.717520475 0.381151378 0.072865464
0.777482390 0.389247388 0.061606776
0.834155619 0.393674821 0.047691535
0.886021793 0.393927842 0.033017159
0.935357571 0.402277231 0.029221769
0.975079119 0.405439824 0.021252187
0.999367416 0.410246789 0.018216174
0.999367416 0.421125829 0.018848596
0.003036004 0.343200773 0.103478812
0.001771000 0.346236378 0.102846384
0.002150774 0.349272549 0.106261998
0.007969809 0.346742630 0.108791806
0.024288557 0.346362978 0.106894262
0.048577070 0.352434993 0.106894001
0.076913811 0.350790799 0.105881996
0.108918503 0.349652082 0.105881996
0.137760893 0.351928979 0.111954391
0.163693994 0.347248286 0.106388025
0.190385804 0.350537598 0.106894001
0.212650061 0.352561593 0.108918004
0.235800266 0.351043791 0.104364187
0.264136791 0.350790769 0.107400194
0.288424999 0.348639995 0.107400194
0.315116972 0.353446990 0.107400194
0.342441380 0.356482983 0.107400194
0.373181105 0.359519362 0.107400194
0.409613967 0.363820583 0.108665019
0.454016536 0.372675329 0.104617335
0.504111290 0.381783724 0.091334999
0.553700030 0.388867706 0.086274877
0.605945230 0.390638858 0.077419497
0.668943644 0.398987800 0.074383102
0.725110531 0.409614563 0.059962019
0.784186959 0.418975562 0.046299882
0.840354085 0.424541503 0.031625405
0.890069485 0.426438779 0.022137767
0.936622560 0.434408605 0.010373181
0.976344109 0.441745758 0.010879232
1.000000000 0.445667386 0.010246806
1.000000000 0.456293613 0.013282809
0.000000000 0.372042984 0.097406812
0.001518192 0.375078976 0.098925002
0.000632582 0.378115147 0.103226006
0.002403808 0.379886389 0.104238003
0.011005905 0.377862006 0.099684000
0.039468937 0.382795393 0.103858262
0.075395636 0.379759520 0.104364194
0.102846496 0.380012840 0.105881996
0.135483995 0.382289559 0.105123095
0.163567513 0.377735555 0.104364194
0.192410067 0.378874242 0.104364194
0.220240250 0.379886389 0.105881996
0.243769631 0.379886389 0.104743645
0.273497820 0.380392402 0.103858195
0.299050957 0.381151140 0.101328194
0.327260971 0.380771369 0.102846004
0.356103539 0.385325581 0.102846004
0.384692907 0.388361782 0.102846004
0.420240164 0.391397983 0.102845989
0.458949924 0.398481846 0.097027354
0.511701465 0.407589942 0.095888808
0.566350281 0.415686190 0.082732677
0.616444945 0.419481486 0.072106324
0.678810894 0.428589493 0.060720913
0.737254918 0.438456774 0.043263830
0.789120615 0.449209481 0.030613828
0.844908297 0.455914050 0.015433137
0.893485010 0.460973918 0.010373013
0.936369240 0.466287196 0.005060025
0.974825919 0.473624349 0.000253025
0.999367416 0.481467366 0.003289416
1.000000000 0.491208196 0.008729003
0.000000001 0.403668106 0.088931009
0.003036387 0.407336920 0.093864799
0.001771226 0.409108311 0.098418996
0.000000001 0.410879523 0.099430993
0.004554093 0.411258966 0.094117992
0.035420857 0.414294600 0.099684007
0.074636638 0.410373122 0.100696005
0.109171554 0.408602238 0.101075299
0.135610163 0.411511958 0.103858098
0.165970966 0.411511958 0.100822486
0.196331725 0.411511958 0.100063428
0.226059556 0.412144512 0.101454750
0.255913794 0.412144512 0.102213658
0.283997148 0.412144512 0.099937014
0.312459946 0.417457521 0.095382996
0.343453139 0.416951299 0.093358628
0.372548938 0.416951299 0.095509015
0.402909666 0.419355124 0.095509015
0.436306149 0.422390759 0.095509000
0.470967501 0.427577138 0.088425189
0.517646730 0.433649302 0.084377274
0.573687434 0.443643123 0.081340902
0.628336132 0.449968100 0.065654546
0.688045621 0.459582418 0.043390125
0.745224833 0.468058258 0.023023449
0.800000250 0.477166414 0.008349434
0.848071039 0.486274183 0.003795488
0.896521270 0.495382547 0.001012128
0.937128365 0.500442803 0.000000001
0.972422123 0.505250096 0.000000000
0.996331036 0.511828125 0.000253032
0.999367416 0.523972154 0.003289424
0.000000003 0.440100968 0.082859002
0.003036388 0.446173012 0.095002986
0.001771226 0.445540786 0.099936783
0.000000002 0.444276035 0.099430971
0.004554098 0.444655478 0.094117969
0.040986866 0.447691113 0.094117969
0.076913640 0.445667356 0.094623968
0.112207703 0.444023013 0.092979260
0.144845068 0.445034951 0.091967069
0.178115010 0.447944075 0.094750457
0.208475769 0.447944075 0.091714107
0.236812279 0.449968338 0.090955012
0.265528262 0.451613009 0.090069622
0.296141952 0.451613009 0.087792978
0.332573950 0.451613009 0.093864962
0.368247598 0.452119023 0.084503375
0.398102403 0.453384161 0.081214204
0.424162120 0.455788016 0.083364978
0.454523027 0.455788016 0.083364964
0.493485391 0.458823621 0.080581613
0.538140476 0.460215002 0.073244780
0.588488340 0.466034174 0.063124843
0.640480876 0.480328977 0.047438495
0.695129752 0.492473006 0.020114075
0.748007894 0.499810040 0.006957710
0.801518321 0.507526755 0.000759033
0.854143083 0.516635060 0.000759099
0.899683416 0.525743365 0.003795481
0.940164447 0.534851134 0.001012138
0.974319875 0.541682482 0.000000002
0.996078014 0.547754943 0.000000000
0.996331036 0.554333031 0.000253032
0.002783357 0.484883100 0.082353003
0.003036388 0.485389084 0.083364993
0.001771226 0.489310324 0.082605988
0.002529999 0.487539560 0.078684464
0.009361098 0.486021727 0.072232820
0.040986866 0.486654162 0.074636623
0.082479641 0.492220104 0.074636623
0.122707404 0.491587758 0.074636623
0.160278559 0.491587758 0.075774878
0.195699230 0.492599636 0.082858756
0.228969112 0.492726117 0.074510112
0.261353612 0.494749844 0.075521722
0.292472988 0.497786045 0.076280631
0.324731082 0.498924732 0.074889310
0.358634025 0.493864745 0.073371619
0.392662853 0.493864745 0.067425832
0.427197903 0.495382547 0.060214795
0.457811505 0.497786015 0.058823287
0.492473394 0.497786015 0.054522272
0.531182766 0.503352761 0.057305627
0.572548866 0.500695586 0.048576996
0.615306675 0.503984511 0.038583498
0.658064485 0.518911898 0.026945131
0.710057199 0.528399765 0.010246725
0.771537185 0.538267016 0.003415639
0.822390974 0.547628045 0.001391672
0.870335221 0.557115793 0.002783357
0.911322117 0.561670125 0.003542449
0.948892653 0.570777893 0.003922000
0.979380012 0.576343954 0.001012141
0.997090399 0.582289994 0.000000000
0.993295372 0.590259731 0.000000000
0.002024260 0.530423701 0.059582539
0.002024260 0.538014174 0.055787541
0.003668966 0.532574415 0.057179280
0.000632579 0.534345210 0.052372120
0.011638094 0.531941891 0.046046823
0.057178855 0.530423701 0.049083211
0.097659625 0.533586502 0.047691531
0.135231093 0.539658487 0.046046823
0.178494915 0.539405406 0.045034893
0.219481722 0.538266718 0.049588803
0.247311860 0.540164471 0.048829667
0.284503698 0.542188644 0.044023022
0.316761464 0.541808665 0.041366287
0.349904835 0.542820752 0.038836289
0.386590958 0.543327153 0.040733960
0.419987500 0.540164471 0.032890741
0.456419885 0.541682661 0.028336540
0.492472857 0.544085920 0.026312282
0.531435668 0.544085920 0.022770284
0.563061118 0.545857131 0.028842632
0.602529943 0.548134446 0.026186276
0.645034730 0.544085920 0.017078143
0.683491409 0.554459214 0.010120267
0.729791462 0.561796367 0.003795093
0.777229846 0.570904255 0.000000000
