Assets/Shaders/EldamarStudio/100 Sci-Fi LUTs Pack/LUTs/cube/Celendine LUT.cube
LUT_3D_SIZE 5
DOMAIN_MIN 0.000000 0.000000 0.000000
DOMAIN_MAX 0.903226 0.903226 0.903226
0.082353003 0.121569000 0.117647000
0.125869706 0.123845711 0.119924292
0.274003386 0.103226006 0.122201420
0.504491210 0.096015006 0.110815868
0.900189579 0.003922000 0.095382847
0.039848004 0.180138692 0.120935991
0.124224991 0.180771694 0.116635293
0.278937519 0.189626992 0.112080708
0.523086369 0.199114278 0.106894128
0.903352618 0.181783572 0.086148180
0.006577994 0.317141384 0.105249576
0.113472283 0.320430398 0.113092996
0.280582219 0.324351817 0.109803997
0.543706238 0.362301975 0.091714293
0.935357571 0.402277231 0.029221769
0.002023998 0.576976240 0.026185879
0.163567096 0.583175361 0.019734297
0.413662195 0.589374065 0.007463868
0.669323266 0.593675077 0.002909872
0.959645927 0.639341950 0.001265167
0.278937578 0.897279739 0.003795180
0.385199159 0.902846456 0.000000000
0.579506636 0.905123591 0.001265006
0.791524291 0.906388581 0.001644704
0.982036650 0.909044743 0.000000000
0.066919304 0.129411995 0.165717706
0.122959986 0.123213284 0.162175983
0.257684976 0.127134711 0.170651406
0.478558123 0.118912160 0.190891996
0.887159705 0.002909875 0.192915827
0.049335714 0.171283990 0.160531700
0.126502275 0.178494424 0.165717706
0.257685423 0.189626992 0.177861974
0.486148208 0.196457699 0.183428124
0.895256162 0.149272725 0.181783408
0.005439727 0.309044689 0.174193293
0.119038403 0.310309708 0.181783825
0.270461649 0.313219428 0.178747281
0.532320976 0.349272579 0.180012703
0.922580421 0.391777217 0.165338412
0.001012128 0.570398271 0.158380702
0.130170524 0.570778072 0.145730570
0.399873197 0.576090991 0.142947406
0.657558560 0.581530631 0.133965567
0.959013343 0.638077319 0.101960734
0.258570284 0.897912562 0.053889956
0.361037165 0.903099179 0.050347917
0.571663141 0.895635664 0.054269496
0.784060776 0.901201785 0.060341470
0.984313607 0.904111385 0.080328673
0.000000000 0.128779411 0.306008965
0.125616401 0.122201420 0.305376381
0.269449830 0.128779411 0.292978942
0.495256245 0.111321718 0.316255540
0.901454628 0.003289417 0.369513243
0.041746013 0.191904113 0.292346388
0.132068411 0.189247280 0.292979389
0.258317381 0.195825696 0.287792802
0.492726058 0.187855870 0.313598961
0.906641006 0.007843000 0.354585797
0.004554423 0.309297532 0.284503371
0.115749419 0.308665395 0.288678110
0.291081399 0.330929816 0.300821990
0.542820930 0.337760687 0.312586993
0.928147018 0.352561384 0.334092408
0.001897590 0.561290264 0.318659276
0.005692575 0.562555254 0.312207431
0.370777935 0.568753958 0.312586993
0.660215259 0.570019007 0.310183257
0.964579642 0.623023510 0.333965659
0.227451012 0.893991172 0.354585797
0.347501278 0.891967237 0.350663960
0.568501234 0.891334355 0.359266192
0.786337793 0.895003080 0.362302333
0.980771661 0.899177372 0.382289588
0.007843000 0.118659131 0.548387110
0.173687696 0.119924292 0.544844806
0.377609223 0.107400291 0.527260840
0.599747360 0.040733755 0.522074223
0.927008390 0.001265167 0.573940516
0.004554003 0.209234565 0.520936131
0.146489412 0.207590118 0.520303369
0.366223931 0.196457699 0.523719132
0.592915535 0.165211588 0.515496612
0.932953894 0.001012124 0.571790099
0.003542294 0.365338534 0.519924283
0.055787284 0.361416519 0.517267406
0.346869230 0.353826791 0.517773390
0.617710054 0.336115986 0.519038379
0.950284541 0.334724933 0.567109406
0.001012128 0.576091349 0.513346076
0.030992970 0.579253376 0.526501834
0.394939929 0.579886138 0.530550241
0.715243399 0.603415430 0.553447247
0.968374491 0.633902371 0.588994086
0.356356472 0.890069604 0.604680538
0.450853944 0.891334772 0.606324792
0.623149872 0.890069366 0.615939081
0.802024066 0.894370615 0.621125937
0.978114963 0.899177730 0.634282112
0.099557124 0.132194966 0.863250911
0.268690467 0.119924292 0.866287351
0.512207210 0.043769747 0.865401804
0.762934804 0.001012128 0.856546283
0.986084759 0.006578155 0.856925726
0.012144201 0.228968799 0.858823597
0.244781792 0.222390816 0.857178688
0.505882263 0.195572391 0.858064413
0.765970945 0.125743374 0.855534434
0.986337543 0.037191927 0.855281413
0.008602404 0.419987619 0.857558131
0.209993482 0.417710513 0.862112582
0.508538961 0.410246372 0.855534554
0.766223848 0.395572305 0.853889823
0.984692812 0.386211425 0.852877617
0.190259188 0.664768934 0.857811451
0.338266730 0.666540265 0.856166780
0.574952602 0.661986232 0.857558131
0.793674767 0.662998080 0.851992249
0.978114903 0.668311059 0.856799424
0.437697202 0.898544967 0.865907788
0.505755663 0.899556994 0.865654707
0.650980175 0.900569201 0.866034269
0.818089664 0.894623578 0.860720634
0.967615783 0.910309613 0.876407623
