Assets/Shaders/EldamarStudio/100 Sci-Fi LUTs Pack/LUTs/cube/Ceolrith LUT.cube
LUT_3D_SIZE 5
DOMAIN_MIN 0.000000 0.000000 0.000000
DOMAIN_MAX 0.903226 0.903226 0.903226
0.000000000 0.003922000 0.000000000
0.155344695 0.001644708 0.015686000
0.384566784 0.000000000 0.000000000
0.669070244 0.000000000 0.000000000
0.969133615 0.000000000 0.000000000
0.013409289 0.162808403 0.001644708
0.174952701 0.163820684 0.003288997
0.383934200 0.184439987 0.001644708
0.670082092 0.209993824 0.007463875
0.972169280 0.208602399 0.000000000
0.102086976 0.372801781 0.000000000
0.224035531 0.373434365 0.003288997
0.410752773 0.373434365 0.000000000
0.694623709 0.408728808 0.003542295
0.974319756 0.425680220 0.005312988
0.267805129 0.632764101 0.001012128
0.357368678 0.641998768 0.001012128
0.536622107 0.641239703 0.000000000
0.748513401 0.648450375 0.000000000
0.989879608 0.665781081 0.000000000
0.358506948 0.927260756 0.039848421
0.433396637 0.931309581 0.058823500
0.589120567 0.930550158 0.072358929
0.795445919 0.932827473 0.087539166
0.991144776 0.927260756 0.122833170
0.000000000 0.014674295 0.136369705
0.153067395 0.003922000 0.134092405
0.351549536 0.018975416 0.154712111
0.632510841 0.002909872 0.166729987
0.952561319 0.002277292 0.184440240
0.031119701 0.150410980 0.123972110
0.164832413 0.155977115 0.139658689
0.359772205 0.178241268 0.150790274
0.650853872 0.192283556 0.164199978
0.961669683 0.191903844 0.183807567
0.107273564 0.355471075 0.146109700
0.219101816 0.359392673 0.148766682
0.402276784 0.362302005 0.152688116
0.681214571 0.395319521 0.159645811
0.970777869 0.417836398 0.180265680
0.251866013 0.630486846 0.143579692
0.337254524 0.630234122 0.149145976
0.528779328 0.632131338 0.145224810
0.746868849 0.634408653 0.142947689
0.985072672 0.659582317 0.189500093
0.378368109 0.925110638 0.222390890
0.447311640 0.928020179 0.228589356
0.595699012 0.928652763 0.240733728
0.796078086 0.928273201 0.250221610
0.991397858 0.927260756 0.269322991
0.045161411 0.011132416 0.332827389
0.189626992 0.013409289 0.328272969
0.361669391 0.030740418 0.311954409
0.642378271 0.003922000 0.358760267
0.954838634 0.000632584 0.391777217
0.075521708 0.180138692 0.311574697
0.192915976 0.177861989 0.310942680
0.364579111 0.177861989 0.310310096
0.645540833 0.171663538 0.353447080
0.950158179 0.170145392 0.387222946
0.123592407 0.354458958 0.309929997
0.233523384 0.355091810 0.323719382
0.422517806 0.370145828 0.334850967
0.684123874 0.389120370 0.350537807
0.969766021 0.414041370 0.398355216
0.245034710 0.620367110 0.359772384
0.340417713 0.618342996 0.362934798
0.524478376 0.622011662 0.369892657
0.747248411 0.628842354 0.372169375
0.986084759 0.660214961 0.419355214
0.428463221 0.915496647 0.446806043
0.481340796 0.917141020 0.447059065
0.615938962 0.918152750 0.453384221
0.802024126 0.921062589 0.466413796
0.989247203 0.918026805 0.475015610
0.142315120 0.033397000 0.595446110
0.280202687 0.023529001 0.602024138
0.476786643 0.001644712 0.584060431
0.690828502 0.002909872 0.573055208
0.971410334 0.000000000 0.605945528
0.131435588 0.211258397 0.581024528
0.267425835 0.208981544 0.579127014
0.473244965 0.197469980 0.578494549
0.696900547 0.169006705 0.570651531
0.968880296 0.184946075 0.605313003
0.157621995 0.411384970 0.570018947
0.274762839 0.408728808 0.572169363
0.488931090 0.402529955 0.572295845
0.712966681 0.392409652 0.573307991
0.970145285 0.435673356 0.616192043
0.276787013 0.625933230 0.572043121
0.371790081 0.630107343 0.575584829
0.552688122 0.633396506 0.589879811
0.761163950 0.645541251 0.605313122
0.983680964 0.677293122 0.645920396
0.517141104 0.909044743 0.666792929
0.567109585 0.919418156 0.679190516
0.669955909 0.918785334 0.681846917
0.810879230 0.919165075 0.675394952
0.982289672 0.924098611 0.692472875
0.218342826 0.120556794 0.881593764
0.337507635 0.114990510 0.889816284
0.542062223 0.093231767 0.884123743
0.774699330 0.046805695 0.883997321
0.991144776 0.023908783 0.882985473
0.225679979 0.263377488 0.891081512
0.338519692 0.258823663 0.886527479
0.545097888 0.253889799 0.881973326
0.771789968 0.241872057 0.879949450
0.988867521 0.236812308 0.879063725
0.320809752 0.471600384 0.880328715
0.410373151 0.478811204 0.879696131
0.586084783 0.477545768 0.876407444
0.792030096 0.478937626 0.877798557
0.991777360 0.477040023 0.871220708
0.431119621 0.697912633 0.875142574
0.493738145 0.698165774 0.881467402
0.636053085 0.702466667 0.880075872
0.811258733 0.707020938 0.879696608
0.988234937 0.711701393 0.880328596
0.512966394 0.932574451 0.869829476
0.559645474 0.927387536 0.883238494
0.672232807 0.925995946 0.884250581
0.826818287 0.924730778 0.888804615
0.972801924 0.931182802 0.906514764
