Assets/Shaders/EldamarStudio/100 Sci-Fi LUTs Pack/LUTs/cube/Ceolrith LUT.cube
DOMAIN_MIN 0 0 0
DOMAIN_MAX 1 1 1
LUT_3D_SIZE 32
0.000000000 0.003922000 0.000000000
0.000000000 0.000885613 0.000000000
0.019354772 0.002150774 0.002150774
0.046679158 0.002656839 0.003922000
0.074003547 0.000379548 0.005060451
0.101327926 0.003415935 0.014168063
0.126122639 0.001391678 0.015686000
0.155344695 0.001644708 0.015686000
0.187223092 0.003162904 0.016445095
0.214547515 0.000126516 0.019481475
0.253510624 0.000000000 0.005060132
0.282858968 0.000000000 0.000000000
0.311701268 0.000000000 0.000000000
0.348134041 0.000000000 0.000000000
0.384566784 0.000000000 0.000000000
0.420999587 0.002403804 0.000000000
0.458950162 0.003922000 0.001518192
0.499051094 0.004554415 0.003289424
0.541556001 0.007590032 0.000253032
0.578494728 0.007843000 0.000000000
0.622517467 0.004048004 0.000000000
0.669070244 0.000000000 0.000000000
0.711574972 0.000126512 0.000252992
0.754079819 0.003162904 0.006325001
0.796584547 0.001644712 0.003289004
0.841872275 0.000000000 0.000000000
0.889437139 0.000000000 0.000000000
0.931941867 0.000000000 0.000000000
0.969133615 0.000000000 0.000000000
0.991397977 0.001771217 0.007083963
0.998229027 0.003922000 0.019228207
0.992156982 0.003922000 0.031373002
0.006072000 0.000885613 0.003036387
0.000000000 0.000885613 0.006072000
0.017204547 0.004300999 0.006072000
0.043643545 0.008222774 0.006957613
0.070588388 0.009487838 0.007337160
0.095255926 0.012523547 0.011132451
0.125110641 0.018089611 0.010120065
0.153700396 0.018215999 0.011258708
0.186464369 0.016824711 0.011132389
0.220619500 0.009234905 0.007337484
0.253763616 0.012017515 0.010373128
0.282858968 0.016191997 0.002024004
0.310562640 0.019354643 0.000000000
0.345350713 0.021252386 0.000000000
0.384566784 0.021252386 0.000000000
0.416192591 0.021252386 0.000000000
0.455914170 0.025173996 0.000000000
0.497786105 0.029474990 0.000885613
0.535484016 0.034914423 0.000253032
0.577988803 0.037950743 0.000000000
0.616824687 0.034408778 0.000000000
0.664009869 0.029348645 0.001012128
0.714610577 0.027071394 0.003036387
0.757115424 0.021378903 0.003289389
0.799620211 0.017584004 0.002530099
0.842124939 0.012397397 0.000000000
0.885894835 0.007590324 0.000000000
0.925869882 0.000000000 0.000000000
0.968374670 0.000000000 0.002656833
0.989626765 0.000000000 0.004807152
0.997849226 0.000885613 0.016698189
0.998228967 0.000885613 0.037445001
0.003542000 0.019354772 0.003922000
0.008222774 0.017204547 0.006957613
0.019354772 0.019354772 0.003542000
0.041113548 0.025426771 0.003542000
0.066919997 0.028589547 0.004300999
0.098291993 0.028083611 0.009108162
0.125489861 0.033649549 0.009234678
0.155850619 0.036432549 0.006198711
0.186211407 0.037950546 0.008222902
0.219860792 0.035800256 0.006325225
0.251233608 0.036179673 0.004680903
0.284630239 0.039215799 0.003668518
0.312713385 0.045161318 0.001138644
0.346109807 0.048703510 0.001897742
0.381783426 0.046805769 0.000000000
0.420493573 0.048956543 0.000000000
0.453890353 0.051992543 0.000000000
0.496268272 0.056799546 0.000000000
0.534218967 0.059835553 0.000000000
0.576217771 0.063124359 0.000000000
0.620619714 0.064263001 0.000000000
0.660594344 0.058697000 0.000000000
0.709297717 0.054648772 0.001771226
0.755850554 0.052624770 0.001771226
0.800505519 0.048703551 0.001644712
0.843010306 0.042631559 0.000000000
0.884503126 0.037571546 0.000506064
0.922327518 0.033396877 0.002150774
0.966603637 0.025806546 0.000506059
0.991397977 0.022264564 0.014168387
0.998228788 0.019734558 0.020366762
1.000000000 0.017204547 0.037065227
0.000000000 0.046679158 0.002656839
0.007843226 0.046173546 0.005692774
0.024668001 0.044908386 0.004807162
0.049209159 0.047944319 0.001265161
0.067425929 0.053257320 0.001265161
0.098545149 0.051107094 0.005566161
0.128652319 0.055661160 0.005313001
0.158886567 0.059709318 0.004933550
0.189247161 0.059709318 0.002656839
0.219607815 0.064769320 0.005186515
0.247438580 0.066287160 0.003668710
0.279823065 0.068311416 0.001897744
0.315496773 0.071347512 0.000000000
0.349146187 0.077040024 0.002656839
0.382542551 0.076027900 0.000632584
0.418216228 0.077798799 0.000000000
0.457432359 0.079822995 0.000000000
0.495129943 0.085262574 0.000632576
0.535230875 0.085895166 0.001265161
0.578747749 0.089942969 0.001265161
0.620619714 0.091081321 0.000000000
0.665148258 0.090069190 0.000000000
0.705249846 0.084629670 0.000000000
0.753826618 0.085768320 0.000000000
0.800126433 0.083491288 0.000000000
0.840480328 0.079064004 0.000000000
0.882985175 0.074003994 0.000000000
0.920935869 0.074003994 0.002277287
0.965338469 0.068564497 0.001265167
0.991397977 0.062492177 0.008602002
1.000000000 0.056420166 0.027198046
1.000000000 0.050348155 0.034029163
0.000000000 0.074762546 0.000379548
0.007969546 0.076660387 0.002656839
0.024414772 0.076533772 0.003922000
0.049968254 0.075648159 0.003542452
0.081846543 0.077925548 0.003542452
0.100063317 0.077925548 0.003542452
0.127640545 0.082985550 0.001771226
0.158886567 0.086654164 0.000000000
0.191144988 0.089310996 0.000000000
0.221505001 0.089310996 0.000000000
0.247185290 0.092220224 0.000379548
0.277545810 0.095256254 0.000000000
0.312080830 0.098292448 0.000000000
0.351043999 0.101328067 0.000000000
0.384440362 0.104364417 0.000000000
0.418216348 0.107779734 0.000379548
0.454269469 0.109297544 0.000379548
0.494750500 0.110309668 0.000253028
0.537254632 0.113346070 0.003289420
0.582163095 0.118785553 0.003542452
0.623908699 0.121062547 0.002024260
0.664389253 0.120429963 0.000000000
0.707147002 0.117520094 0.000000000
0.755723834 0.120303452 0.000000000
0.801264822 0.119544357 0.000000000
0.843137205 0.115116648 0.000000000
0.878051698 0.110056639 0.000000000
0.920556426 0.110056639 0.000000000
0.964958906 0.107020840 0.000000000
0.991018414 0.104364328 0.005565965
1.000000000 0.101201557 0.019228207
1.000000000 0.095129542 0.031373002
0.000000000 0.108158931 0.003415935
0.021252386 0.102086931 0.000379548
0.037823930 0.106134996 0.002656839
0.060341481 0.108158931 0.002656839
0.087919317 0.108285546 0.000506065
0.109170929 0.105249926 0.000506065
0.132447705 0.110309929 0.003036387
0.159392640 0.111448221 0.001771227
0.187729150 0.110942155 0.000000000
0.215433002 0.113598995 0.000000002
0.248703584 0.116508864 0.002909870
0.280582160 0.119544603 0.001391679
0.312839925 0.122580633 0.000000000
0.344971210 0.125616834 0.000000000
0.378368348 0.128652453 0.000000000
0.414168596 0.134091988 0.002403804
0.450094908 0.136621937 0.003415935
0.488930792 0.137887090 0.002783359
0.534218967 0.143706843 0.000253033
0.576723695 0.146742523 0.000506065
0.617836714 0.148386940 0.000506065
0.658317268 0.148386940 0.000000000
0.701075017 0.147880867 0.000000000
0.749651849 0.147880867 0.000000000
0.791397870 0.150664225 0.000000000
0.836053252 0.148513809 0.000000000
0.881088078 0.143453807 0.000000000
0.923592806 0.143453807 0.000000000
0.963440716 0.138140142 0.000000000
0.987981975 0.136115998 0.000000000
0.997469664 0.135609925 0.009108190
1.000000000 0.134597927 0.031373002
0.007590321 0.139025643 0.001391678
0.023782710 0.140543967 0.003415935
0.047185320 0.140923187 0.004680548
0.068690643 0.141555637 0.003921677
0.094370998 0.138646185 0.000000000
0.117773376 0.135610580 0.000000000
0.141555965 0.135104641 0.000000000
0.170778021 0.139531940 0.003036386
0.199114516 0.140543640 0.002530323
0.224668130 0.145350799 0.002530324
0.250221282 0.148387194 0.005439547
0.281594187 0.149399325 0.006451677
0.313345999 0.150790647 0.002783001
0.344465107 0.152435288 0.000000000
0.382416219 0.155470893 0.000000000
0.420619756 0.158507124 0.002403804
0.457179040 0.165970832 0.003922000
0.495508999 0.169639379 0.003922000
0.541050255 0.173813939 0.002783354
0.581277788 0.179632962 0.002530322
0.623782456 0.178874061 0.006325319
0.666919529 0.179253504 0.004554195
0.712586820 0.180897832 0.000000000
0.758760512 0.183301643 0.000000000
0.805059910 0.181024358 0.000000000
0.843643308 0.180771679 0.002782990
0.886148036 0.176850319 0.004048000
0.926628530 0.176850319 0.000000000
0.969006777 0.176597297 0.000000000
0.988994002 0.170524985 0.008855180
0.996078014 0.170777947 0.018848902
0.997469664 0.174066961 0.041492999
0.013409289 0.162808403 0.001644708
0.033523381 0.169133380 0.001391679
0.050221704 0.172169626 0.002783229
0.073244862 0.172675237 0.004554003
0.096774548 0.167362243 0.000000000
0.119797707 0.164326638 0.000000000
0.144085929 0.165464982 0.001644708
0.174952701 0.163820684 0.003288997
0.205313101 0.166097403 0.004807387
0.228716269 0.170398399 0.003922001
0.254648983 0.175205573 0.005186840
0.282985508 0.177861989 0.004554003
0.313345999 0.179000631 0.004554003
0.344465107 0.180012703 0.000253032
0.383934200 0.184439987 0.001644708
0.418469489 0.185831502 0.000759096
0.462492079 0.190385684 0.003795484
0.499430656 0.198734969 0.003922000
0.541935563 0.202782750 0.003921999
0.585199416 0.208602130 0.002277292
0.626565456 0.208981439 0.004427999
0.670082092 0.209993824 0.007463875
0.717899799 0.214041606 0.000000000
0.763441026 0.214041606 0.000000000
0.807337284 0.214168116 0.000000000
0.852877975 0.212523401 0.000000000
0.890575826 0.209740758 0.004554003
0.930044115 0.208602399 0.000759007
0.972169280 0.208602399 0.000000000
0.991777003 0.206704721 0.003921475
0.996963620 0.203289300 0.020872876
0.997722745 0.208602399 0.042125296
0.018722191 0.184060991 0.003922001
0.040733680 0.193168804 0.000885613
0.060088675 0.197216868 0.000759096
0.077799052 0.198482022 0.000759096
0.099051446 0.195445642 0.000759096
0.120303832 0.192409933 0.000759096
0.144086093 0.192156777 0.002530322
0.170398310 0.193421811 0.004048291
0.204554006 0.191145092 0.006325001
0.225806400 0.191145092 0.003289388
0.254395962 0.196964100 0.003162904
0.282985508 0.200252935 0.001897744
0.314864188 0.203288838 0.000000000
0.345477223 0.206325158 0.000000000
0.383934200 0.211891100 0.002530320
0.417710602 0.214674100 0.001518197
0.454902261 0.217710093 0.001518192
0.503479004 0.223782241 0.003922000
0.540417135 0.229854301 0.003921998
0.584440112 0.235926807 0.001897739
0.628083467 0.237824351 0.001897740
0.670082092 0.236559123 0.002909872
0.715748966 0.245288000 0.000126513
0.761922836 0.242884189 0.000759096
0.804427505 0.242125094 0.000000000
0.847564876 0.242884189 0.000000000
0.892093956 0.242884189 0.000000000
0.931562304 0.240101546 0.000000000
0.972169518 0.239722088 0.000759096
0.994686842 0.237191975 0.005059979
0.996204555 0.236685693 0.014800675
0.999240935 0.239722088 0.036053095
0.030866973 0.214421004 0.003922002
0.046046585 0.223529398 0.000885613
0.065907300 0.226185977 0.002150775
0.086906686 0.226312488 0.003795485
0.108159065 0.225806430 0.003795482
0.129411444 0.222770035 0.003795482
0.153194159 0.217204005 0.003795482
0.174193487 0.216445208 0.002277292
0.195445627 0.218469501 0.000253003
0.222770005 0.218469501 0.000253000
0.255661130 0.224288493 0.000126516
0.284756750 0.226312488 0.000126516
0.315623283 0.227577627 0.000000001
0.351550013 0.230613947 0.000000002
0.384946346 0.233649567 0.000000000
0.420999587 0.239215493 0.000126518
0.458697170 0.245034486 0.001518194
0.500442624 0.251106650 0.003921999
0.549019516 0.257179439 0.003922000
0.591524243 0.263251483 0.003922000
0.634155452 0.267425776 0.003795483
0.675648093 0.269196510 0.002909871
0.715748966 0.269576043 0.000126514
0.764326632 0.269576043 0.003162904
0.805945754 0.269449532 0.001518197
0.846932292 0.270841181 0.000000002
0.889057577 0.273245007 0.000000002
0.928525925 0.273245007 0.000000000
0.965338111 0.273118496 0.002656831
0.989626706 0.269576550 0.009108227
0.998987854 0.267172992 0.020746194
0.996204555 0.273118496 0.039089482
0.037192002 0.241871864 0.006831129
0.052372351 0.242251381 0.000885613
0.071853518 0.251359761 0.004300999
0.091840737 0.251106858 0.004301129
0.111448415 0.248576865 0.001012129
0.132700801 0.253130794 0.001012129
0.156482860 0.247564748 0.001012129
0.185705245 0.246426433 0.004301126
0.210246742 0.247944638 0.004301000
0.231119379 0.245793864 0.000000000
0.258443743 0.245793864 0.000000000
0.285768628 0.249842122 0.000000000
0.315623283 0.253004730 0.001138644
0.351803035 0.258064866 0.002656839
0.385199368 0.263757318 0.000000000
0.420999587 0.269196749 0.004806995
0.461986154 0.273750931 0.002783002
0.504870117 0.278431594 0.001644706
0.548893034 0.284503788 0.003922000
0.589121103 0.290575862 0.003922000
0.633396566 0.294750124 0.002024260
0.676913261 0.295762002 0.002024258
0.718532383 0.294117749 0.002909871
0.764326632 0.299683750 0.003162904
0.810626268 0.301960468 0.003922000
0.848576665 0.302592874 0.002909871
0.888045371 0.302592993 0.002403806
0.937128246 0.297785997 0.000000000
0.968627512 0.303098977 0.000000000
0.990385830 0.301834226 0.002783346
1.000000000 0.299557269 0.014041836
0.998987854 0.303604990 0.036306128
0.049336247 0.273244739 0.005819260
0.068564631 0.275268495 0.003795256
0.086021759 0.275648028 0.000253004
0.103478983 0.280961245 0.005060165
0.120556533 0.277166247 0.001644708
0.141808927 0.279949248 0.000000000
0.165591508 0.277925491 0.000000000
0.188235208 0.275142491 0.000000000
0.218596101 0.277040243 0.003795004
0.240607262 0.275269002 0.000253000
0.265527874 0.275142491 0.000000000
0.290828496 0.277166247 0.000000000
0.317394286 0.279063970 0.000000000
0.351803035 0.283111989 0.002150776
0.385199368 0.287413239 0.002656840
0.427071333 0.295508981 0.000758999
0.463504106 0.301581383 0.003795004
0.506261706 0.304491252 0.000000000
0.547375262 0.307780266 0.001644712
0.589121103 0.313852251 0.001897744
0.632384717 0.316129267 0.003795484
0.676913261 0.319038361 0.001012128
0.719544530 0.318405986 0.001897744
0.765085757 0.324478000 0.001897744
0.806578279 0.328273207 0.005945740
0.850727320 0.332700491 0.004554423
0.887539387 0.333459586 0.004427935
0.934598267 0.328905761 0.004427548
0.969639361 0.329411745 0.002024256
0.991144896 0.330170542 0.000253040
1.000000000 0.327134639 0.008096324
1.000000000 0.327893257 0.031246003
0.065654993 0.305502981 0.002783356
0.083491735 0.306261867 0.002783356
0.101454996 0.308285624 0.001771226
0.117140993 0.309424281 0.001265161
0.130423546 0.309424281 0.003922000
0.151675940 0.309424281 0.001644709
0.176596984 0.308032960 0.000000000
0.202656686 0.304364622 0.000000000
0.224668190 0.305882633 0.000000000
0.251613140 0.306641638 0.000000000
0.276027620 0.306641638 0.000000000
0.299177498 0.307527006 0.000000000
0.325743288 0.309424281 0.000000000
0.356357038 0.309677243 0.000000000
0.389753371 0.312713414 0.002150772
0.431625426 0.319418132 0.001518196
0.470335007 0.327008009 0.000000000
0.508032739 0.333080620 0.000000001
0.548007965 0.334092647 0.000000002
0.592536747 0.339658618 0.002276998
0.634661734 0.344212651 0.003036094
0.680202365 0.345224798 0.004048484
0.722960114 0.348260403 0.001012132
0.768501103 0.353320271 0.000000000
0.809487879 0.355976939 0.002276998
0.850347936 0.360404611 0.005313038
0.891840637 0.365464628 0.002783356
0.933080196 0.363061428 0.005186547
0.968753755 0.363820642 0.004048201
0.989247143 0.362049431 0.007843424
1.000000000 0.359898627 0.011005612
1.000000000 0.357115269 0.032004993
0.083871000 0.336369038 0.000000000
0.096268035 0.333333433 0.000000000
0.110309772 0.334345311 0.000000000
0.125237063 0.337128222 0.001012129
0.138013616 0.339785069 0.003668968
0.159266010 0.339785069 0.003668968
0.184060380 0.340038031 0.001897677
0.213788435 0.337255031 0.000000000
0.242125154 0.333713025 0.000000000
0.266413987 0.339785039 0.000000000
0.290954977 0.339532018 0.000000000
0.313725322 0.340038031 0.000000000
0.337887287 0.340038031 0.000000000
0.368248075 0.340038031 0.000000000
0.401644409 0.343073636 0.000000000
0.441492587 0.348260641 0.000000000
0.478937387 0.354333013 0.000000000
0.511322081 0.360404998 0.000506000
0.553826988 0.366477013 0.000506006
0.602150738 0.372549027 0.005313036
0.645034730 0.378368050 0.007590032
0.686274350 0.383681148 0.006578098
0.731562495 0.386591017 0.003668968
0.776849926 0.389500141 0.000759096
0.818342805 0.390512019 0.000000000
0.858950257 0.393295079 0.000000000
0.900696039 0.398355097 0.000000000
0.937128007 0.398355097 0.000000000
0.973054588 0.400758892 0.000505999
0.993295193 0.400758862 0.007590149
1.000000000 0.398355097 0.025426973
1.000000000 0.398355097 0.043642998
0.102086976 0.372801781 0.000000000
0.117267363 0.369766176 0.000000000
0.129664391 0.368880808 0.000000000
0.147501305 0.369513243 0.000000000
0.168121338 0.370145828 0.000632584
0.183554754 0.370145828 0.000632584
0.194687143 0.372675478 0.005692583
0.224035531 0.373434365 0.003288997
0.256293416 0.372169375 0.000000000
0.275521576 0.373181373 0.000000000
0.302719444 0.367615372 0.000000000
0.329411745 0.370904386 0.000000000
0.354332805 0.373434365 0.000000000
0.380392045 0.373434365 0.000000000
0.410752773 0.373434365 0.000000000
0.444149196 0.376470625 0.000000000
0.483997375 0.381657392 0.000000000
0.522707105 0.387729377 0.001264991
0.559899032 0.393801391 0.006577991
0.610753119 0.399873406 0.003795348
0.654143155 0.404048145 0.004554423
0.694623709 0.408728808 0.003542295
0.737634480 0.413915396 0.000632584
0.777102947 0.413915396 0.000632584
0.822390854 0.416824520 0.000000000
0.863883615 0.420619756 0.000000000
0.903984785 0.425680220 0.000000000
0.943200827 0.425680220 0.000000000
0.974319756 0.425680220 0.005312988
0.991777003 0.428083569 0.003036012
0.997596204 0.428083420 0.014674151
1.000000000 0.425680220 0.049714994
0.125110596 0.409234583 0.000000000
0.128273189 0.406198353 0.000000000
0.154206350 0.401012003 0.004300999
0.169133246 0.404301137 0.006072157
0.187729076 0.407337219 0.006072253
0.196837738 0.405312985 0.000000000
0.221379101 0.407843262 0.000253004
0.238709778 0.407589883 0.004680713
0.271347106 0.406071872 0.001644708
0.294496804 0.404427588 0.000000000
0.319038481 0.405818760 0.000000000
0.344338596 0.401771039 0.000000000
0.372422457 0.404427588 0.000000000
0.399240822 0.404680550 0.000253032
0.425300598 0.406830788 0.002403804
0.455660760 0.406830788 0.000000000
0.487539351 0.408348978 0.000000000
0.527767122 0.412650138 0.000000001
0.571283996 0.418722600 0.002530009
0.612018108 0.429601610 0.007463544
0.659835696 0.433775842 0.004427935
0.700316131 0.436812103 0.003922000
0.741555691 0.441366285 0.002530284
0.785578728 0.443643600 0.004806995
0.825047076 0.445920318 0.002530288
0.867552221 0.450347573 0.002403804
0.906514943 0.455407977 0.002403804
0.944086313 0.455407977 0.002403804
0.982795715 0.455407977 0.000505992
0.993674576 0.460721165 0.004807221
0.996078014 0.462365597 0.010373375
0.997596204 0.457811803 0.043769814
0.149398983 0.441113204 0.000000000
0.153953180 0.444149166 0.000000000
0.163314357 0.438962579 0.001265002
0.189879969 0.436685413 0.004807003
0.205945283 0.443769753 0.007210811
0.216572046 0.440733641 0.001518066
0.237318501 0.441239715 0.000000000
0.261480361 0.440986693 0.000126516
0.286527485 0.439468473 0.002403808
0.313851893 0.437950850 0.000126516
0.335230738 0.437697500 0.000000000
0.365591377 0.441239446 0.003035997
0.388741046 0.437065184 0.000758999
0.418216228 0.436812162 0.000000000
0.446299791 0.441112936 0.001771224
0.475395352 0.440227568 0.003036388
0.502719343 0.440227568 0.000000000
0.534977734 0.441492558 0.000632576
0.580898225 0.447565138 0.001518195
0.621125877 0.456167191 0.002530007
0.662871718 0.462618798 0.004427552
0.706388354 0.466666549 0.002403808
0.745983362 0.470208853 0.002530320
0.790132940 0.473244905 0.005566293
0.832637668 0.476281106 0.005566292
0.867931306 0.477925390 0.002530328
0.907526970 0.483744383 0.002403808
0.945983648 0.485768378 0.002403808
0.982036591 0.487286180 0.001265167
0.999746978 0.489563376 0.000253025
0.997596204 0.495129585 0.011258988
0.997596204 0.489689976 0.039216001
0.173054546 0.470967531 0.000000000
0.182795525 0.478178352 0.000000000
0.189753130 0.478431553 0.000000000
0.200885311 0.475521952 0.001264991
0.221758142 0.478178114 0.001264990
0.239974856 0.475395471 0.001264990
0.260721296 0.474256963 0.000632576
0.281341106 0.473244816 0.000000000
0.304744065 0.471094072 0.000632577
0.332068473 0.474130452 0.000632577
0.351929128 0.471979648 0.000000002
0.379759490 0.473750532 0.003415581
0.412397206 0.477166116 0.005566002
0.434661597 0.471853137 0.000253032
0.468057930 0.477545679 0.000632576
0.497786164 0.477039903 0.001771228
0.526375532 0.474889547 0.002403809
0.551928699 0.474889517 0.000000000
0.591397941 0.480961531 0.003036389
0.630233943 0.486401141 0.001138643
0.669702470 0.490575701 0.000632576
0.711827755 0.494623959 0.000000000
0.751170397 0.500569463 0.000000000
0.792663217 0.503605187 0.002530328
0.834535360 0.506641209 0.003289424
0.874636531 0.508918524 0.002530330
0.905502617 0.509930551 0.000000001
0.947627842 0.516002536 0.000000001
0.981530368 0.519417882 0.000000000
0.997849226 0.522453725 0.000000001
1.000000000 0.524351537 0.007590193
1.000000000 0.521315098 0.037951015
0.194306999 0.510435998 0.000000000
0.206451774 0.510435998 0.000000000
0.214041963 0.513345838 0.000000000
0.223909125 0.514358044 0.002529998
0.239974976 0.514611006 0.007336996
0.258190960 0.514611006 0.007336994
0.278937340 0.511827707 0.004807319
0.298545003 0.510689020 0.002024258
0.320050269 0.510435998 0.000759097
0.350284547 0.510562539 0.003668973
0.374699771 0.510689020 0.000759107
0.398481965 0.510435998 0.002024261
0.426059306 0.512080669 0.003036325
0.455914021 0.514358044 0.000253035
0.489310384 0.517394423 0.003289413
0.515496612 0.518279970 0.001265165
0.543326974 0.516508818 0.000253035
0.573181093 0.514358044 0.000000003
0.603541970 0.514358044 0.000000000
0.640227675 0.517647386 0.000253032
0.675015688 0.520936251 0.001897738
0.712207258 0.524984062 0.002656837
0.754206061 0.530929565 0.000000000
0.790638864 0.533965945 0.000000000
0.829854310 0.537001729 0.000253032
0.872358978 0.540037751 0.000253037
0.914611042 0.543327034 0.000000013
0.948007405 0.549399018 0.000000007
0.979506612 0.552814841 0.000000002
0.995951951 0.555850685 0.000000002
1.000000000 0.558001041 0.007084199
1.000000000 0.557747960 0.031879030
0.218342721 0.555471063 0.000000000
0.230486795 0.555471063 0.000000000
0.242631570 0.553320289 0.000000000
0.253763556 0.555091560 0.001265161
0.267805129 0.556230187 0.004680805
0.276407719 0.553826392 0.002276997
0.299683720 0.556356728 0.002276996
0.319544375 0.553826332 0.001138643
0.338519484 0.554964840 0.001517999
0.362808049 0.561037123 0.006578133
0.395699143 0.558254421 0.009361491
0.422011644 0.556230187 0.004301365
0.448197365 0.556609690 0.003922000
0.476660430 0.559140086 0.002530325
0.504996777 0.557115793 0.000506060
0.538393140 0.560152173 0.003542447
0.565338135 0.560531735 0.002783357
0.594433486 0.558760524 0.002150781
0.624794364 0.556609750 0.000000000
0.660721064 0.556609750 0.000000000
0.695256054 0.561543405 0.000000000
0.730676770 0.565464914 0.001138643
0.771157682 0.569639564 0.000000000
0.807589829 0.572675347 0.000000000
0.846299827 0.577988386 0.000000000
0.885768294 0.580138743 0.005565980
0.925996125 0.581277370 0.010120009
0.957115769 0.582795382 0.005566005
0.985199153 0.591524184 0.000253017
0.997722983 0.594813585 0.001771217
1.000000000 0.596078515 0.016065899
1.000000000 0.594180703 0.053637017
0.244528726 0.595319450 0.000000000
0.247185469 0.593421698 0.000000000
0.266919523 0.598861396 0.000000000
0.274003983 0.595825016 0.003795161
0.285641760 0.597596288 0.006578449
0.294750124 0.597596228 0.000506065
0.319797724 0.597722828 0.000000000
0.339152426 0.597469747 0.000000000
0.357874572 0.595951557 0.000000000
0.379126996 0.602782965 0.003795005
0.408222616 0.604048371 0.005060134
0.437571257 0.601012230 0.005819264
0.463757277 0.600253105 0.002024260
0.491081744 0.602783442 0.002024260
0.523339391 0.599747062 0.000632584
0.553573549 0.597722769 0.002403804
0.586969912 0.602277339 0.005439805
0.616318464 0.602403879 0.005186841
0.647944450 0.599367499 0.002150772
0.678178430 0.601012170 0.001897740
0.707020760 0.602909505 0.000000000
0.741429269 0.605945647 0.000000000
0.779759705 0.607210934 0.000000000
0.814420998 0.610246599 0.000000000
0.853130817 0.615559459 0.000000000
