Assets/Shaders/EldamarStudio/100 Sci-Fi LUTs Pack/LUTs/cube/Ceolrith LUT.cube
LUT_3D_SIZE 8
DOMAIN_MIN 0.000000 0.000000 0.000000
DOMAIN_MAX 0.903226 0.903226 0.903226
0.000000000 0.003922000 0.000000000
0.074003547 0.000379548 0.005060451
0.187223092 0.003162904 0.016445095
0.311701268 0.000000000 0.000000000
0.458950162 0.003922000 0.001518192
0.622517467 0.004048004 0.000000000
0.796584547 0.001644712 0.003289004
0.969133615 0.000000000 0.000000000
0.000000000 0.074762546 0.000379548
0.081846543 0.077925548 0.003542452
0.191144988 0.089310996 0.000000000
0.312080830 0.098292448 0.000000000
0.454269469 0.109297544 0.000379548
0.623908699 0.121062547 0.002024260
0.801264822 0.119544357 0.000000000
0.964958906 0.107020840 0.000000000
0.018722191 0.184060991 0.003922001
0.099051446 0.195445642 0.000759096
0.204554006 0.191145092 0.006325001
0.314864188 0.203288838 0.000000000
0.454902261 0.217710093 0.001518192
0.628083467 0.237824351 0.001897740
0.804427505 0.242125094 0.000000000
0.972169518 0.239722088 0.000759096
0.065654993 0.305502981 0.002783356
0.130423546 0.309424281 0.003922000
0.224668190 0.305882633 0.000000000
0.325743288 0.309424281 0.000000000
0.470335007 0.327008009 0.000000000
0.634661734 0.344212651 0.003036094
0.809487879 0.355976939 0.002276998
0.968753755 0.363820642 0.004048201
0.149398983 0.441113204 0.000000000
0.205945283 0.443769753 0.007210811
0.286527485 0.439468473 0.002403808
0.388741046 0.437065184 0.000758999
0.502719343 0.440227568 0.000000000
0.662871718 0.462618798 0.004427552
0.832637668 0.476281106 0.005566292
0.982036591 0.487286180 0.001265167
0.244528726 0.595319450 0.000000000
0.285641760 0.597596288 0.006578449
0.357874572 0.595951557 0.000000000
0.463757277 0.600253105 0.002024260
0.586969912 0.602277339 0.005439805
0.707020760 0.602909505 0.000000000
0.853130817 0.615559459 0.000000000
0.988614798 0.626818240 0.002530012
0.306514978 0.766223848 0.000000000
0.331182361 0.768880129 0.000379548
0.407463670 0.768247724 0.000000000
0.506641626 0.770271897 0.001644712
0.618216157 0.767615318 0.000000000
0.745730698 0.768754005 0.001897740
0.874383569 0.771410227 0.000000000
0.989500046 0.772042990 0.000000000
0.358506948 0.927260756 0.039848421
0.394940078 0.935736775 0.059709381
0.454649001 0.933080494 0.055787388
0.542567790 0.932700992 0.068690352
0.651865959 0.933839619 0.074762344
0.769892693 0.933080494 0.083491154
0.879317284 0.931182742 0.105123006
0.991144776 0.927260756 0.122833170
0.000000000 0.012903451 0.062239543
0.062618993 0.003542452 0.065022089
0.176217183 0.008602096 0.074003644
0.290954918 0.014800901 0.074003637
0.425553799 0.019987451 0.082605645
0.596584618 0.018595554 0.095382802
0.788362026 0.000000000 0.089437097
0.963061154 0.003542452 0.108032703
0.008602000 0.066540092 0.065401547
0.077545993 0.070841536 0.072485551
0.167994648 0.082985193 0.070082448
0.288677812 0.094750188 0.077546000
0.421252370 0.110436186 0.083112001
0.597975791 0.117140643 0.088172354
0.773307979 0.113219544 0.084503382
0.950284600 0.099810250 0.100316100
0.037950546 0.169892296 0.071220994
0.098292448 0.179759637 0.070841447
0.177735180 0.176217288 0.070841543
0.292472839 0.195445642 0.070841447
0.435800046 0.210626185 0.080708198
0.611638367 0.230739832 0.084250547
0.791018248 0.235041082 0.086400732
0.961670041 0.233016923 0.092346996
0.076660186 0.290069640 0.077925548
0.135104537 0.295635730 0.077925548
0.216066092 0.298798531 0.072738893
0.319418192 0.296015292 0.071980000
0.457685024 0.316761732 0.069576092
0.624035537 0.338772744 0.074762642
0.801518142 0.353320360 0.066413894
0.966603339 0.354458839 0.087792717
0.149525195 0.431245953 0.066919737
0.194560736 0.430360824 0.068690449
0.278304935 0.432764024 0.072359540
0.380897909 0.433902472 0.071347103
0.497280180 0.429981381 0.064389713
0.656293631 0.456673145 0.061226904
0.823908627 0.475522190 0.050727282
0.978367567 0.484503537 0.086401023
0.231372535 0.586590648 0.038077164
0.272486001 0.588108480 0.029221905
0.354079396 0.588867486 0.028969172
0.455028445 0.589247108 0.026439261
0.573054969 0.595192492 0.021378910
0.697912455 0.593168736 0.008096350
0.848197401 0.609740734 0.017836800
0.987096608 0.623529196 0.076533698
0.297406733 0.760151863 0.006831090
0.331309259 0.763314247 0.009234802
0.401517928 0.756609738 0.007590186
0.503099382 0.759266198 0.008349283
0.616318822 0.760025263 0.007210638
0.739531755 0.761037111 0.006831090
0.866793156 0.766856313 0.007590090
0.980645001 0.770777822 0.059329711
0.359519362 0.925110340 0.123212963
0.383554816 0.926375508 0.118405864
0.449715465 0.921568632 0.121568374
0.542062044 0.924731016 0.128020212
0.648576856 0.928273201 0.138393223
0.760151982 0.925869405 0.154206127
0.883238375 0.926375508 0.170524925
0.989879608 0.924984038 0.193801090
0.000000000 0.008602095 0.162935004
0.084630005 0.003922000 0.158633649
0.184946194 0.007716899 0.160658091
0.295003444 0.012903354 0.165591449
0.433143467 0.018975198 0.184060991
0.587729156 0.002656642 0.187982187
0.776850045 0.000000000 0.195572376
0.955597699 0.001265167 0.206957921
0.022264548 0.085009545 0.140923187
0.099177651 0.086148001 0.152814910
0.174699187 0.089310996 0.150790647
0.291461170 0.101075090 0.166476652
0.422138244 0.104617544 0.173434645
0.591777146 0.100822262 0.185705200
0.776597202 0.085136250 0.196963832
0.957748234 0.056546427 0.210879028
0.047059000 0.174699187 0.156609997
0.115243092 0.184946090 0.162176102
0.198229000 0.183302090 0.168501094
0.296015173 0.194686741 0.162935004
0.434661478 0.210752904 0.177862093
0.602277398 0.218596101 0.186464190
0.786970377 0.222517088 0.200505897
0.961163580 0.223276183 0.213409260
0.080582090 0.298924625 0.170398548
0.139025643 0.296901077 0.177862093
0.221252546 0.297280639 0.173940092
0.320303380 0.296521634 0.173181191
0.453763723 0.314484537 0.173814192
0.621252179 0.332194865 0.185958356
0.798355162 0.344718277 0.190638825
0.965338171 0.352561563 0.205819085
0.151802182 0.425300270 0.180265903
0.192536369 0.431245953 0.178621083
0.278052092 0.431625277 0.182542995
0.376597285 0.428083658 0.177735373
0.494244158 0.426945210 0.173940286
0.647944331 0.447564840 0.184440345
0.821758270 0.470714569 0.184693187
0.981403887 0.483997285 0.214168459
0.233902633 0.590512395 0.181783706
0.274256885 0.591650963 0.181277633
0.351676077 0.586970031 0.187602833
0.457052588 0.588994384 0.178494468
0.576217830 0.591650724 0.177355826
0.700316370 0.594433606 0.176850080
0.846046686 0.609108210 0.184946015
0.986590564 0.623149931 0.221379071
0.295256078 0.756736577 0.191903993
0.333333224 0.759772539 0.193421900
0.409108192 0.759772539 0.194180891
0.505755901 0.760910869 0.192536280
0.618975282 0.762175739 0.192789197
0.742062092 0.764452696 0.193295375
0.866413713 0.762049437 0.186843753
0.986463904 0.769639373 0.226818264
0.386717051 0.926375687 0.261606812
0.413409024 0.925616503 0.267552167
0.474636257 0.927767396 0.269070178
0.557748377 0.928526103 0.271220624
0.656420290 0.930423677 0.276154190
0.768753946 0.930297375 0.281594068
0.884882987 0.931056261 0.292346537
0.990385711 0.928019822 0.300695628
0.018595994 0.005060354 0.273624629
0.099683538 0.005819450 0.269702643
0.200758830 0.015306549 0.261480272
0.294876635 0.019101642 0.257305622
0.427198023 0.018089809 0.282858998
0.587223470 0.001138644 0.292726278
0.774826169 0.000000000 0.317900270
0.955977261 0.000000000 0.326502264
0.038709641 0.096647643 0.249335736
0.108792000 0.099431001 0.252119184
0.192915827 0.099810451 0.256419808
0.288931191 0.100189902 0.256419808
0.425806463 0.107400194 0.273624420
0.586843848 0.088678107 0.292472839
0.769006789 0.025426911 0.306261986
0.945603848 0.010373542 0.323466003
0.062618896 0.193042442 0.254522383
0.124098644 0.192536384 0.249589175
0.203162745 0.200126648 0.253257722
0.300189823 0.196584195 0.252498716
0.436432838 0.207210645 0.268943846
0.599746764 0.203668192 0.290449381
0.783428252 0.199747190 0.305376172
0.961163878 0.205945283 0.327640623
0.099810347 0.285388917 0.256799281
0.145224646 0.289310634 0.259962171
0.229854643 0.298798621 0.267425627
0.334724933 0.303858280 0.265780926
0.461859345 0.314105093 0.280708432
0.615559995 0.323086530 0.288551629
0.791018546 0.333080202 0.307273626
0.958254278 0.344592065 0.327134252
0.136243090 0.424920827 0.281341106
0.184693277 0.425679803 0.280708551
0.274763107 0.424035698 0.279949635
0.377735615 0.422897160 0.277166247
0.490196377 0.424415261 0.277166247
0.649968565 0.444022655 0.293231905
0.818595827 0.462491900 0.309297889
0.976849794 0.476913452 0.336495757
0.215939268 0.579886258 0.297027111
0.256673187 0.580645025 0.291967183
0.339278936 0.579127133 0.295888394
0.445540637 0.581783414 0.296774358
0.569386363 0.584187210 0.298419088
0.693105459 0.585325718 0.295509011
0.841998696 0.605439723 0.314611167
0.985325694 0.620619714 0.348893255
0.301201552 0.754585862 0.320809275
0.338140368 0.754206359 0.323972076
0.402023911 0.751423061 0.319670916
0.506261885 0.754585981 0.325236917
0.617710054 0.752182066 0.323972106
0.741049528 0.757368565 0.327893436
0.862112641 0.758507192 0.334218562
0.985199153 0.762175739 0.362428665
0.410373241 0.920556366 0.389121056
0.435800225 0.923465908 0.385325998
0.490449190 0.920809746 0.386590779
0.568247914 0.924730778 0.394054204
0.658697188 0.924731016 0.398608416
0.771916330 0.921948075 0.405819029
0.882859111 0.924730778 0.408601999
0.988740981 0.928778946 0.416824698
0.076660380 0.017204192 0.408222377
0.140923291 0.016824644 0.403541982
0.241998985 0.016445097 0.394813269
0.342694640 0.019987451 0.390892208
0.451107174 0.015053810 0.392536372
0.605565965 0.004427552 0.408728570
0.791018248 0.002403808 0.434535205
0.958760619 0.000000000 0.455407798
0.074383095 0.112333640 0.379759371
0.139025539 0.117520191 0.385831743
0.238583446 0.114357896 0.390891999
0.339152157 0.111701444 0.385072649
0.436558932 0.107400194 0.375584811
0.599114358 0.083997712 0.403289288
0.784060597 0.018595651 0.429601669
0.951043427 0.007590090 0.443010837
0.087666094 0.216951191 0.375838280
0.142567992 0.217078015 0.385958433
0.242125094 0.213156298 0.382416070
0.337508082 0.208349094 0.375205457
0.444022447 0.206831098 0.376850009
0.613535821 0.202909291 0.400885254
0.792536378 0.195825189 0.427704126
0.955344617 0.214674011 0.454522520
0.116381831 0.316887826 0.379886389
0.161290079 0.318405926 0.380645186
0.254142821 0.317267269 0.379886180
0.359898627 0.314864069 0.381783813
0.478178531 0.312460244 0.379380018
0.629981101 0.321441919 0.402150720
0.802403271 0.332447648 0.429854393
0.958760262 0.356103480 0.460088640
0.159012988 0.427577555 0.388614982
0.202909291 0.427704185 0.392915815
0.287413090 0.430866390 0.392410100
0.398102641 0.439848006 0.400632650
0.522327363 0.445667386 0.404933572
0.666540265 0.448450625 0.415180385
0.822517574 0.463630646 0.437065095
0.969512761 0.486274362 0.466540217
0.232004717 0.583934009 0.417963624
0.271979719 0.579886019 0.415559739
0.349146277 0.582289696 0.413029909
0.457052618 0.583807945 0.424161822
0.576090872 0.585452199 0.424035609
0.699430704 0.589373708 0.426692367
0.844528794 0.608981729 0.448703170
0.985072374 0.627324343 0.478810996
0.348260343 0.750537276 0.455914170
0.373814106 0.748766482 0.456293523
0.429095566 0.751170278 0.455787659
0.513852060 0.751929343 0.453384072
0.622770190 0.755850792 0.459709078
0.742694259 0.755850792 0.457179189
0.861733377 0.756483376 0.458697170
0.984060764 0.772422552 0.492852420
0.450347781 0.917773724 0.521315336
0.473244756 0.918912113 0.516002476
0.513345838 0.921694756 0.514484167
0.589753211 0.919291556 0.516635001
0.680708349 0.920682907 0.522453964
0.780771732 0.925995946 0.526755452
0.884250402 0.923592567 0.529032409
0.989626586 0.927134573 0.533965588
0.129158989 0.027324481 0.553953171
0.189373896 0.025047192 0.553826749
0.288804591 0.024794357 0.550664067
0.401138723 0.009993747 0.544085920
0.520683408 0.003542452 0.538772702
0.638203442 0.001897740 0.532574475
0.799367070 0.002277288 0.551676154
0.963314474 0.001265167 0.573307931
0.118152983 0.124857537 0.539784908
0.187096983 0.126502350 0.541176200
0.283365279 0.121062547 0.541049540
0.398482174 0.113598906 0.535863221
0.511068642 0.096774355 0.528779030
0.630233943 0.074383363 0.526502192
0.789627016 0.015812907 0.543453276
0.958507240 0.009487729 0.567868292
0.115496732 0.235041186 0.540543795
0.184187010 0.233396366 0.538646460
0.279063821 0.225932822 0.534345210
0.392283350 0.224035278 0.529664814
0.514358342 0.217837006 0.527261019
0.641239583 0.204933554 0.528905690
0.797975779 0.199746996 0.543073714
0.965844512 0.222137973 0.573434293
0.122201018 0.345351189 0.534345210
0.184313625 0.340923607 0.530550003
0.276154280 0.340164721 0.522960246
0.395572007 0.333965659 0.521695077
0.522074461 0.327261269 0.521315634
0.645920515 0.325363517 0.520936191
0.809740543 0.332321107 0.548134148
0.969386339 0.362175733 0.582542539
0.178494468 0.456546545 0.533712685
0.223402828 0.459329635 0.533459783
0.312207252 0.457305461 0.528020203
0.425553620 0.453004628 0.531562448
0.552814543 0.454269379 0.535862982
0.680834889 0.457811803 0.543453455
0.828842342 0.475268751 0.561543465
0.967995107 0.504237652 0.593042195
0.242378458 0.583428502 0.530550182
0.287919104 0.581783712 0.536369324
0.366223663 0.590385556 0.541935503
0.472485632 0.592409849 0.545351088
0.596078396 0.599114478 0.556483030
0.720683455 0.603036463 0.563820481
0.853004277 0.617204189 0.580898464
0.983933866 0.639342189 0.607969701
0.362554997 0.747627795 0.574067175
0.389879793 0.747880876 0.573940575
0.453510195 0.748766482 0.573687613
0.542567730 0.752182126 0.586843848
0.645161092 0.754585683 0.592536151
0.747375131 0.754712284 0.590006232
0.857179284 0.761163592 0.596584499
0.978494465 0.777356029 0.624920666
0.514610887 0.911068678 0.642251730
0.532700837 0.916887939 0.640733778
0.573434472 0.915116727 0.649335802
0.627704144 0.916761220 0.647817791
0.696268260 0.917014658 0.641619027
0.787096739 0.918152928 0.643263757
0.883617818 0.924351335 0.649082839
0.984819770 0.922074616 0.661859334
0.181024998 0.061733283 0.729285538
0.236938834 0.049968284 0.723719239
0.338519812 0.041366186 0.719797254
0.449082911 0.015180352 0.715876222
0.577103317 0.001644712 0.716508269
0.710436463 0.001897740 0.712460756
0.838709772 0.001644712 0.704743862
0.971030772 0.002656833 0.705502868
0.172169283 0.140543550 0.709930062
0.232637376 0.140037552 0.709550500
0.328652680 0.132700637 0.712839961
0.452498436 0.122959994 0.716002464
0.568880200 0.102087252 0.708412111
0.702214003 0.065781094 0.701960981
0.836306095 0.006831090 0.698798120
0.965211749 0.024414869 0.698924363
0.165211901 0.251486301 0.710309744
0.218342990 0.254775286 0.711574793
0.321062386 0.250601083 0.707273483
0.444402188 0.242251724 0.705502629
0.575711608 0.232511088 0.705755770
0.706894040 0.217204541 0.701328158
0.837191820 0.198735073 0.696015239
0.970018923 0.221632019 0.703605413
0.174067274 0.371663630 0.700316131
0.229980990 0.371284097 0.701075256
0.327514231 0.367615700 0.700189829
0.455787569 0.361669570 0.702466846
0.581277728 0.359392554 0.700316191
0.712840140 0.353193998 0.700063467
0.840354264 0.343706578 0.698545218
0.971030772 0.371284097 0.705502868
0.238709569 0.492599666 0.697153449
0.288424999 0.493105739 0.702087283
0.371031076 0.492726177 0.704111218
0.475901365 0.491840482 0.698545575
0.596710801 0.485641867 0.690575421
0.720556617 0.482352883 0.698671639
0.847691476 0.480708182 0.697912335
0.973434150 0.514737785 0.718153238
0.306894481 0.625300229 0.707779825
0.345856965 0.621631801 0.709930122
0.416065812 0.622770429 0.702466547
0.515749693 0.623149991 0.702972889
0.629728198 0.623402536 0.709171116
0.744845033 0.623781979 0.708032846
0.858064532 0.631625950 0.714990258
0.977862179 0.662492156 0.735230505
0.366223842 0.766856253 0.693990946
0.398355305 0.761290550 0.701075315
0.461353570 0.757368565 0.704743862
0.548260570 0.753447592 0.707526922
0.658064604 0.758127630 0.711322248
0.765718162 0.766223848 0.723339736
0.872106314 0.773054540 0.735483885
0.977482617 0.788235366 0.753447592
0.529538035 0.912081003 0.752182364
0.536622345 0.916508317 0.744338810
0.580392241 0.912586868 0.753826678
0.644528449 0.915749431 0.758760333
0.724604428 0.918152928 0.764452815
0.807084143 0.917773426 0.773813605
0.886654079 0.923086464 0.778241754
0.981024563 0.925995886 0.774699509
0.218342826 0.120556794 0.881593764
0.270714551 0.120177247 0.889436781
0.363061339 0.113472700 0.890322447
0.479443282 0.102339782 0.884376824
0.610246599 0.081340797 0.887033224
0.738013804 0.054648921 0.883744359
0.870841146 0.034661751 0.880328596
0.991144776 0.023908783 0.882985473
0.218595698 0.184693173 0.890955031
0.266919374 0.183681041 0.880328596
0.360784560 0.176217496 0.879063725
0.478557885 0.167995051 0.878810763
0.604807377 0.162428334 0.881973326
0.742567480 0.148513779 0.881973326
0.869829357 0.134092242 0.878051877
0.988741219 0.121821210 0.880834758
0.229981050 0.290701926 0.886274457
0.271853209 0.294244349 0.881593883
0.367868245 0.286906928 0.884250402
0.488424897 0.284883171 0.879949152
0.608602226 0.280961186 0.877166510
0.743453443 0.277292818 0.877672434
0.874003768 0.274003893 0.878178358
0.993674815 0.271473885 0.881087720
0.286400884 0.411511421 0.879822969
0.325489938 0.414041460 0.882479131
0.402403563 0.416318744 0.878937483
0.508032918 0.412650049 0.878684640
0.627956808 0.410752416 0.877545953
0.753826737 0.408096194 0.874256849
0.876154363 0.404933602 0.871600389
0.988740981 0.403162062 0.872865438
0.349525392 0.535862982 0.874636352
0.384693116 0.534345210 0.880075932
0.453636706 0.539531648 0.876533568
0.551423073 0.539405406 0.879822969
0.657179356 0.539658129 0.873877585
0.764958739 0.540164411 0.878684282
0.882985592 0.540037990 0.875901163
0.991144836 0.539658189 0.874130130
0.415939391 0.662998199 0.873371482
0.437571257 0.666413546 0.878051639
0.501834035 0.666034281 0.879190445
0.582163095 0.667931557 0.879190445
0.677166283 0.676154196 0.877166510
0.783175349 0.673371494 0.879443467
0.887033284 0.673750937 0.876407623
0.987222791 0.679316819 0.881087720
0.463504225 0.794433951 0.875016034
0.484250307 0.797849238 0.884250522
0.537254870 0.797723055 0.885135949
0.610752404 0.797723055 0.882605910
0.696900606 0.795698702 0.881593764
0.789626837 0.799999833 0.880708158
0.883238256 0.803288758 0.884376943
0.979379773 0.814421535 0.886147797
0.512966394 0.932574451 0.869829476
0.530803025 0.928652763 0.885894895
0.571536720 0.929158509 0.880961478
0.637191772 0.924730718 0.885515451
0.719544530 0.923592389 0.885768414
0.804300725 0.923465908 0.885515451
0.889563560 0.922074616 0.899177670
0.972801924 0.931182802 0.906514764
