Assets/Shaders/EldamarStudio/100 Sci-Fi LUTs Pack/LUTs/cube/Chelsea LUT.cube
DOMAIN_MIN 0 0 0
DOMAIN_MAX 1 1 1
LUT_3D_SIZE 32
0.000000000 0.003922000 0.086274996
0.000000000 0.003922000 0.086274996
0.000000000 0.003922000 0.086274996
0.000000000 0.006452000 0.087539837
0.000000000 0.012903451 0.090954997
0.000000000 0.022011064 0.097027004
0.002530322 0.028589645 0.103098996
0.008855285 0.033017289 0.107526705
0.019481098 0.037571095 0.112081088
0.034661509 0.046679489 0.121189475
0.073118605 0.052878000 0.115749255
0.104491241 0.065022245 0.121821508
0.135230988 0.079063997 0.131688997
0.170651063 0.090701997 0.138014033
0.194939822 0.096773997 0.147122413
0.224035591 0.107652992 0.153826997
0.257432371 0.119797379 0.159898996
0.291967541 0.131941974 0.165970996
0.319292009 0.144086018 0.172043011
0.346616358 0.159013376 0.183681011
0.375837982 0.170398742 0.188235000
0.404174238 0.180518985 0.191271126
0.428968996 0.192915976 0.200758979
0.465401828 0.211132005 0.218975008
0.497279972 0.224794567 0.230360284
0.530423284 0.239721969 0.239468664
0.566350162 0.257937998 0.249082997
0.599747300 0.276153982 0.261226982
0.638456762 0.297026813 0.281340778
0.677925110 0.321821153 0.304364383
0.716508210 0.348260194 0.326881975
0.752941012 0.372548997 0.345097989
0.000000000 0.000885613 0.083238617
0.000000000 0.006957613 0.092346996
0.002150774 0.011258611 0.090196222
0.001771226 0.015559612 0.091840610
0.000000000 0.021631710 0.097026996
0.000000000 0.028083839 0.103099003
0.000000000 0.034661774 0.111701325
0.004174610 0.044022992 0.111701384
0.019481283 0.050474390 0.109803997
0.052878276 0.052751493 0.112081096
0.076786771 0.067678869 0.127008468
0.111574844 0.076154634 0.127893507
0.143200532 0.087033734 0.135863259
0.176723763 0.096773997 0.143580034
0.201011822 0.102845997 0.147122413
0.230107591 0.111321792 0.151423201
0.260468394 0.121315576 0.158380806
0.291334987 0.132574558 0.166603580
0.316255659 0.147122413 0.175079405
0.351929367 0.159266412 0.181151405
0.378114969 0.172295988 0.192789376
0.407210380 0.184566736 0.202403516
0.437824339 0.198861495 0.215433374
0.468437433 0.214168400 0.222011402
0.500316203 0.227830380 0.233396679
0.533459723 0.242757931 0.242504701
0.569386482 0.260974377 0.252118737
0.602782905 0.279190391 0.264263391
0.636179388 0.297406375 0.281720370
0.676659942 0.323592365 0.295509189
0.716508210 0.350410968 0.316129178
0.752941012 0.372548997 0.345097989
0.000000000 0.017204547 0.090955004
0.002150774 0.018975548 0.097912617
0.004300999 0.022896774 0.100569226
0.003542226 0.028968774 0.098797999
0.000758999 0.034281772 0.102719545
0.004300999 0.036812097 0.107020773
0.000000000 0.045034997 0.111321546
0.013156408 0.051106993 0.115496226
0.027577642 0.061480094 0.114231318
0.061480470 0.065654784 0.118405998
0.095002994 0.073750876 0.126502097
0.119291499 0.082859002 0.135610208
0.151170045 0.092979223 0.139911279
0.183049023 0.103099033 0.148007736
0.209234744 0.111068770 0.154838651
0.236179590 0.121694796 0.157874972
0.263504386 0.129284993 0.162428766
0.292599946 0.139025792 0.169639587
0.319924057 0.154206216 0.175711975
0.348892987 0.168754011 0.186337993
0.379632950 0.179000735 0.196204990
0.407210380 0.189879894 0.205313131
0.440607458 0.202783242 0.215939492
0.472991765 0.217963129 0.228083774
0.503352344 0.230866760 0.236432508
0.536495745 0.245793745 0.245540887
0.571916401 0.264516294 0.256166756
0.603668392 0.284376979 0.271600127
0.641366303 0.304743767 0.282605976
0.674762666 0.326502174 0.300821930
0.714357972 0.355218321 0.317267418
0.750790775 0.379000783 0.349399000
0.001265161 0.038962997 0.104364157
0.001771226 0.040228158 0.105376162
0.003542226 0.041113548 0.109677158
0.006578162 0.047944319 0.108411998
0.000885613 0.053257320 0.109550543
0.004300999 0.053257320 0.114357926
0.011638161 0.059582479 0.113598838
0.020746404 0.068311319 0.120050162
0.045035191 0.073624223 0.120050162
0.071853667 0.081720486 0.127640471
0.105376154 0.086654156 0.133838996
0.136242658 0.093990996 0.139911309
0.161669791 0.101201639 0.143706322
0.191651031 0.112966195 0.149778962
0.218975380 0.122074574 0.158886582
0.243769780 0.132321298 0.164452657
0.272106379 0.142694145 0.166476831
0.296394944 0.149398729 0.174446389
0.325490028 0.163314149 0.180012807
0.353067368 0.177229360 0.188867852
0.380392045 0.188614726 0.199746996
0.409740448 0.199747115 0.209867001
0.443010986 0.209487990 0.213662341
0.475269079 0.223529264 0.228842750
0.507653534 0.236432403 0.238203704
0.538266957 0.251360118 0.249841660
0.573687136 0.268564135 0.258950084
0.604047835 0.287539423 0.274889141
0.642378449 0.311321825 0.288930833
0.679570019 0.333080232 0.302087098
0.714737654 0.358254403 0.322074354
0.751549959 0.385578841 0.351676166
0.003922000 0.057558544 0.117647000
0.000885613 0.060594931 0.113472544
0.000000000 0.061480545 0.115243547
0.001265161 0.066540547 0.117899932
0.006198998 0.077166550 0.114863545
0.003162611 0.077166550 0.123971932
0.020746414 0.082226545 0.122706994
0.042757794 0.089184150 0.124604538
0.064010188 0.096394897 0.133712545
0.088298984 0.099430516 0.133712545
0.117647089 0.102846414 0.139911085
0.147628039 0.110309824 0.145603970
0.176850185 0.118279189 0.149779007
0.203668579 0.127387583 0.150285006
0.230739936 0.136495963 0.159266129
0.254016340 0.145983800 0.165211558
0.279063821 0.155471355 0.170145094
0.308159500 0.164199576 0.172169104
0.332447559 0.173307970 0.187349528
0.359898478 0.185199112 0.194560111
0.387223214 0.195825279 0.202529728
0.416192651 0.206198677 0.211005554
0.449336022 0.221126020 0.217077538
0.479443818 0.233017012 0.231498897
0.511701703 0.245920092 0.240986556
0.542947471 0.260467857 0.250094652
0.573307693 0.278810978 0.264642507
0.603668392 0.290954977 0.273750871
0.641239882 0.314863801 0.290448964
0.679696441 0.338646173 0.307273716
0.716255248 0.361290097 0.324731201
0.755724430 0.388614535 0.349020004
0.003922000 0.078810938 0.117647000
0.000885613 0.081847318 0.126755387
0.000000000 0.082732931 0.126881927
0.001265161 0.087792926 0.127893925
0.006198998 0.098418936 0.127008319
0.024414998 0.098418936 0.123971932
0.044149574 0.103478931 0.135609999
0.069576561 0.107906222 0.136495709
0.093611866 0.111195058 0.136748940
0.112586975 0.111574523 0.136748940
0.136875734 0.117520742 0.145477816
0.164200112 0.127134934 0.150031611
0.192030564 0.134218872 0.153573707
0.218848959 0.136495963 0.156357005
0.240101337 0.145604342 0.162429005
0.267172724 0.157115921 0.164199948
0.291966915 0.168753982 0.172802135
0.317267209 0.179126918 0.183554858
0.341555953 0.185451984 0.190385923
0.371410668 0.197343707 0.200000301
0.399367571 0.209487855 0.208602116
0.427704245 0.220114052 0.217710122
0.458444417 0.230234399 0.226185918
0.485768855 0.239342034 0.232257932
0.515875936 0.255787581 0.246679276
0.543959379 0.271600515 0.256166935
0.570272088 0.288298845 0.264768988
0.600632787 0.309170991 0.276786506
0.633649707 0.323971808 0.291207880
0.673371375 0.344718158 0.308665395
0.712207496 0.366856188 0.327261508
0.746616066 0.391650915 0.349020004
0.001391678 0.102592997 0.130297318
0.005945612 0.108159706 0.136875391
0.009360999 0.111195542 0.137381226
0.020240318 0.112840153 0.139532000
0.034408860 0.119291767 0.142062321
0.054775637 0.117140993 0.141176701
0.075521961 0.127260998 0.140670642
0.098166011 0.131688699 0.149525642
0.121442318 0.135483637 0.150664225
0.139658332 0.139025643 0.152435005
0.166223735 0.139784738 0.156103879
0.188488245 0.143833250 0.161163732
0.213662282 0.153320670 0.164199635
0.238836318 0.158001050 0.167236030
0.257811397 0.164832726 0.171031311
0.283870786 0.173940510 0.179506510
0.311195195 0.184440196 0.184440196
0.336495459 0.194939896 0.195066586
0.360784292 0.202909663 0.199241340
0.385579050 0.212017387 0.213156030
0.414042026 0.224162146 0.218469411
0.439342439 0.235294178 0.226312444
0.465148956 0.244528681 0.235547304
0.494876623 0.256040752 0.246426329
0.522200942 0.269702911 0.252498299
0.555091321 0.289057612 0.266919643
0.584946156 0.307020813 0.276913404
0.615306854 0.326249182 0.287033617
0.648323774 0.342188448 0.301833808
0.681720138 0.360910803 0.320556164
0.722833455 0.385705203 0.343073845
0.762808323 0.414927334 0.369259983
0.024668105 0.121947698 0.142188698
0.032384396 0.131309479 0.146615997
0.036812104 0.138519928 0.147880927
0.047944106 0.139025852 0.143579707
0.070335239 0.141682699 0.148513839
0.089057624 0.142441466 0.152309000
0.107021019 0.143832698 0.153953284
0.129917681 0.152687699 0.153953284
0.148893178 0.157242075 0.160784379
0.165338412 0.164199695 0.165591225
0.187349573 0.167741701 0.168627575
0.212270662 0.171410248 0.174952433
0.232384399 0.172169626 0.175711334
0.255914032 0.179253444 0.178241655
0.278304666 0.186717525 0.184060693
0.300442487 0.191903889 0.188614890
0.327766895 0.202529684 0.196204692
0.354458839 0.212397128 0.205186576
0.378747672 0.222517684 0.210246965
0.403035998 0.229981065 0.219481364
0.425933003 0.239342168 0.230360433
0.452245533 0.251486689 0.233396560
0.474509984 0.261353374 0.241366297
0.504870415 0.273497790 0.253510714
0.532953680 0.286274552 0.261100680
0.561669350 0.302846611 0.271347344
0.597596109 0.323339403 0.287033707
0.630233824 0.341555893 0.299557418
0.663251162 0.360404789 0.315622807
0.696647584 0.379127145 0.331055880
0.729158342 0.402150542 0.352308303
0.770904243 0.434028983 0.380391985
0.069449991 0.141682282 0.152056009
0.077798903 0.152308866 0.155850708
0.081846967 0.160784334 0.155218095
0.091208182 0.166350260 0.156483203
0.109044738 0.163314551 0.151549652
0.124225125 0.168248013 0.159898922
0.137128413 0.168247879 0.162428871
0.155724078 0.170145184 0.164579093
0.179253191 0.176976278 0.166856200
0.191397980 0.186084673 0.175964579
0.209361196 0.192283183 0.177735776
0.230107501 0.196837202 0.182542726
0.252878070 0.201011643 0.189373538
0.271347106 0.198482037 0.186843932
0.297659487 0.206578419 0.194939673
0.320935965 0.212397397 0.199999809
0.342947274 0.218469188 0.203795090
0.370904207 0.229980752 0.212397069
0.395446062 0.241999030 0.221884966
0.417457223 0.249336004 0.228210002
0.441365927 0.258064836 0.234661728
0.462871343 0.267425984 0.242504954
0.487286568 0.279569983 0.245920077
0.517014861 0.291714013 0.258064687
0.545098305 0.303858191 0.265654892
0.573814154 0.318785340 0.275901556
0.603668213 0.337002158 0.291081965
0.639341950 0.355218172 0.309044987
0.674636364 0.375331879 0.328020066
0.705756128 0.397343338 0.345224172
0.742821157 0.418089658 0.360657603
0.773181200 0.445414096 0.381909996
0.111954033 0.175079465 0.164200023
0.118026800 0.181151465 0.170272008
0.119924486 0.185325712 0.167615488
0.127640992 0.188614666 0.168121651
0.145477533 0.190638959 0.175838426
0.160657942 0.187602550 0.178874031
0.168247998 0.190006331 0.177103326
0.181277514 0.194433987 0.177609265
0.200505599 0.201265082 0.182036594
0.221757993 0.210373476 0.191144973
0.239721745 0.216571987 0.188614637
0.257937998 0.218595982 0.187855527
0.277545661 0.219987333 0.190512016
0.298671514 0.222770050 0.195951551
0.319923878 0.225806430 0.198987931
0.343833059 0.233902812 0.204680502
0.364958942 0.241239980 0.209108204
0.386084586 0.248197541 0.215433478
0.416445434 0.257305920 0.233649507
0.432637841 0.266540140 0.240354016
0.455787688 0.277419478 0.244528741
0.480835110 0.288425356 0.248829991
0.502466977 0.297785968 0.255028486
0.529791415 0.309929997 0.267172515
0.557242274 0.322074562 0.274762511
0.585958302 0.337001950 0.285009176
0.615813017 0.355218142 0.300189584
0.643137395 0.373434901 0.315369964
0.681467235 0.391650945 0.335989803
0.711827874 0.413535863 0.355344445
0.743580163 0.435926944 0.372548580
0.791397989 0.454522491 0.387982011
0.157368600 0.205565989 0.179253876
0.151802644 0.205818981 0.176596999
0.166476861 0.209740758 0.176217765
0.165970862 0.210246563 0.175964862
0.169639409 0.209993541 0.182669461
0.199999794 0.212017789 0.185705066
0.205060184 0.214041412 0.188741326
0.217330724 0.218722403 0.189753279
0.234787822 0.224035636 0.192029998
0.251739204 0.228842482 0.194686621
0.267172635 0.235041007 0.200885877
0.285388887 0.241112992 0.201897487
0.302466512 0.244022638 0.202782869
0.319923937 0.247311741 0.205059916
0.338520139 0.253004283 0.208096296
0.359772533 0.258443862 0.218342870
0.383554846 0.267046213 0.226945072
0.404554009 0.274509877 0.232764289
0.425806820 0.281340957 0.239595026
0.445034862 0.287665993 0.246679008
0.467931688 0.296647608 0.252751470
0.493232131 0.307779968 0.258823752
0.514611065 0.318911850 0.266793013
0.539152741 0.331055880 0.273371011
0.564199865 0.343200445 0.283238292
0.592283309 0.358127832 0.294117510
0.623150051 0.375837922 0.308791846
0.655281425 0.391650885 0.321568429
0.685262620 0.409866959 0.342061788
0.716887951 0.433396578 0.363314152
0.744971573 0.456167251 0.383554459
0.783428133 0.472358972 0.402782857
0.192789495 0.237950742 0.194434255
0.194813490 0.233902231 0.191397861
0.197849497 0.234028757 0.192410022
0.208475500 0.235799968 0.190639243
0.202403486 0.234661326 0.194434255
0.224288180 0.239342436 0.195825577
0.238456815 0.242378175 0.198861316
0.246426493 0.245414212 0.203541979
0.263124585 0.250348151 0.206198245
0.278304964 0.253383756 0.206198245
0.293484867 0.259329259 0.209993720
0.310689509 0.265401751 0.214041740
0.328905493 0.271473736 0.218216270
0.344971269 0.275142491 0.220493510
0.361416817 0.277672470 0.225300670
0.384061038 0.283744484 0.231499255
0.400759250 0.291334301 0.239089057
0.422390819 0.298545003 0.245287731
0.441998959 0.301834017 0.246932030
0.462239265 0.311954528 0.254775256
0.480455250 0.318026513 0.260847241
0.506388247 0.328020245 0.267931879
0.528652728 0.340037763 0.276913255
0.551043868 0.350284517 0.282985240
0.577356279 0.364452839 0.293358266
0.605818868 0.375205547 0.306641340
0.636305988 0.392030060 0.322960258
0.666666389 0.410246432 0.338140249
0.693358600 0.426059216 0.352181792
0.723719299 0.446046412 0.368121386
0.752182245 0.472865313 0.390385807
0.784439981 0.492599249 0.413915247
0.228842631 0.270208985 0.210752994
0.233776271 0.264136493 0.207716599
0.239848271 0.263503909 0.208981767
0.246805906 0.264642268 0.210752994
0.246805906 0.264642268 0.210752994
0.255913913 0.269196868 0.210752994
0.264642626 0.273877323 0.211005673
0.277925640 0.275774688 0.215686277
0.292346746 0.279570013 0.221758276
0.308286101 0.282985151 0.222517282
0.320050418 0.288930923 0.226565510
0.336116135 0.292726159 0.228463024
0.354332626 0.298798621 0.231498629
0.372548699 0.304870605 0.237318382
0.388614684 0.306641638 0.242504999
0.408728570 0.311448604 0.249715641
0.426945269 0.316761732 0.253131092
0.441619247 0.324604332 0.256799281
0.463377625 0.325110316 0.257811278
0.482353032 0.336242735 0.265021980
0.505123258 0.344592303 0.275648266
0.523339272 0.352688283 0.281720281
0.547501504 0.364705771 0.290702134
0.570778191 0.373814166 0.297786266
0.595445931 0.386337906 0.308412284
0.622137904 0.401012212 0.321062326
0.654016256 0.411637902 0.338266999
0.680708051 0.432257712 0.355217993
0.708791614 0.450474083 0.370398283
0.737760961 0.469196439 0.388235062
0.765465200 0.491334468 0.401265234
0.795066297 0.518405914 0.427577645
0.273624063 0.300316006 0.227450997
0.275395423 0.294750035 0.226185635
0.281088024 0.294623822 0.227450803
0.288678169 0.297659844 0.228210032
0.296395034 0.300569057 0.229222029
0.296395034 0.300569057 0.229222029
0.299430698 0.305123061 0.226944745
0.309550732 0.307906061 0.228336409
0.324731141 0.309677094 0.233902991
0.345983505 0.315749109 0.239974990
0.353447080 0.321315765 0.246046990
0.365591317 0.323592991 0.248071000
0.381910056 0.326123029 0.249462381
0.399620056 0.332195044 0.252751023
0.417836815 0.338267028 0.255787432
0.436053038 0.344339013 0.263377815
0.451233387 0.348640174 0.267932028
0.465401947 0.352435440 0.269197017
0.489690006 0.355471104 0.275269002
0.505882382 0.366350144 0.281087995
0.527640760 0.374699503 0.292093694
0.552182078 0.382290035 0.304744035
0.570777595 0.394560516 0.311069012
0.598102689 0.403921902 0.320303887
0.623403072 0.415560067 0.332195014
0.647944331 0.429095656 0.344339043
0.672233045 0.444276035 0.356989056
0.696521044 0.462492049 0.369133055
0.728272855 0.482858807 0.386084646
0.760657549 0.504617214 0.409361154
0.791018546 0.526502252 0.434408665
0.812270999 0.550791025 0.449589074
0.310056806 0.327640384 0.227450997
0.297912806 0.327640384 0.245666996
0.306135386 0.324225157 0.248703182
0.317014396 0.324984252 0.245414406
0.326628506 0.328019947 0.238836408
0.323719412 0.330929816 0.250474393
0.331309080 0.330929816 0.250474393
0.345730096 0.332194805 0.249841809
0.361163497 0.334471911 0.251106977
0.367235869 0.343074232 0.252118975
0.382669240 0.343327224 0.258190989
0.395952076 0.346616119 0.260214984
0.412270814 0.351296633 0.262491971
0.429980814 0.359519422 0.267931432
0.442124814 0.365591407 0.274003386
0.460341603 0.371663392 0.279443592
0.475521803 0.374699384 0.283112407
0.488930941 0.377861947 0.284377396
0.507905960 0.388867408 0.290449381
0.526628733 0.394687086 0.293738037
0.542315125 0.402024209 0.299303979
0.562049568 0.408096403 0.309297830
0.582922339 0.415812880 0.320177376
0.610246718 0.430993289 0.332321405
0.637571216 0.444908679 0.348386973
0.664263070 0.459456116 0.362555295
0.690449059 0.474130094 0.375711828
0.714737773 0.486780792 0.393421799
0.741682589 0.502339959 0.405565798
0.766730011 0.525869548 0.426059365
0.792283535 0.550158381 0.452751577
0.818342984 0.572043359 0.479949802
0.339278787 0.352561593 0.246679589
0.336748779 0.354964793 0.252877802
0.333206773 0.354964793 0.262491792
0.345603943 0.354712158 0.264515996
0.357368588 0.357368588 0.257684976
0.356356710 0.358380705 0.257685006
0.365844280 0.358886778 0.262112796
0.374952316 0.360531479 0.265401781
0.388614684 0.362808615 0.266160697
0.391651064 0.370272279 0.264515996
0.403921634 0.375458777 0.270334989
0.415054023 0.377482504 0.274383247
0.430613786 0.380518436 0.278178453
0.448323786 0.386590809 0.285009593
0.460467786 0.390512586 0.286780596
0.479822606 0.398987800 0.297659606
0.495002985 0.403541982 0.300695986
0.509044528 0.405060023 0.301328391
0.529031813 0.411890805 0.305629194
0.544844687 0.423276484 0.313725412
0.566856444 0.433143765 0.320556521
0.585578918 0.441239923 0.329158574
0.606451750 0.448703587 0.340923488
0.622390866 0.457052708 0.346236795
0.645161211 0.467679054 0.358380795
0.673624277 0.483997762 0.374952435
0.701454759 0.500695586 0.389627039
0.725743055 0.516634881 0.409740776
0.743074000 0.531435728 0.420240581
0.777482748 0.551928997 0.446552485
0.802530348 0.575079381 0.476913154
0.826818764 0.593295813 0.510309935
0.371157378 0.378368199 0.270967990
0.368121386 0.384440184 0.274003983
0.374193370 0.382289559 0.271600187
0.372928530 0.386084408 0.278937340
0.385452390 0.389247179 0.279696375
0.387729377 0.389247179 0.275901377
0.394813389 0.389247179 0.275901496
0.406830907 0.392409682 0.280582190
0.415180176 0.394686997 0.284377098
0.418975472 0.399241000 0.281340688
0.427704006 0.403795183 0.285515398
0.440860242 0.409361094 0.292599231
0.449968636 0.412396997 0.296774268
0.466793209 0.415433347 0.304744184
0.480202377 0.418469399 0.304744184
0.496521175 0.423276573 0.311322182
0.514737189 0.433902383 0.318911970
0.528146327 0.436938763 0.320809543
0.548513353 0.439974606 0.325616419
0.565717578 0.448323905 0.331182748
0.582036436 0.460468173 0.338772923
0.604301274 0.471600324 0.348893166
0.624921203 0.480708659 0.361037165
0.639848173 0.488171965 0.368247896
0.660341620 0.496521264 0.376597196
0.681593657 0.508412600 0.390132844
0.709550917 0.526502192 0.404807180
0.731815159 0.544718146 0.423023403
0.757242024 0.560277998 0.442757815
0.775964558 0.576217413 0.461733282
0.812776983 0.600506186 0.497279942
0.835926771 0.617584169 0.533080161
0.404427558 0.406957537 0.291460991
0.401518106 0.416065931 0.297027349
0.404554129 0.415686518 0.291461200
0.414168119 0.414041966 0.290575713
0.412271053 0.422390699 0.298166007
0.418343127 0.422643721 0.297912955
0.423150122 0.422643721 0.297912955
0.430613548 0.425300121 0.300569564
0.442504525 0.431119114 0.304997057
0.448576540 0.431119114 0.301960647
0.454016149 0.432763994 0.304111421
0.466792792 0.437824130 0.311195284
0.480328768 0.443390161 0.319797248
0.489690125 0.446426541 0.325616986
0.504490972 0.449462265 0.325996548
0.519038737 0.453763336 0.331435949
0.532953978 0.459456116 0.335357368
0.548133731 0.469702572 0.339025527
0.566350520 0.472738951 0.348133922
0.585199177 0.479190528 0.352308899
0.600885272 0.487792552 0.357874960
0.617710233 0.498924673 0.364705950
0.635926962 0.508033037 0.376849979
0.654142976 0.517140806 0.388994157
0.675648510 0.526248813 0.399493843
0.698545456 0.538140178 0.410120219
0.719291151 0.552814543 0.425300628
0.737507820 0.570777535 0.437571138
0.767109334 0.586337388 0.461100340
0.791650772 0.602150321 0.486653805
0.811511993 0.618722141 0.512334168
0.841872036 0.643010974 0.545730591
0.425680041 0.440354019 0.297533035
0.434788406 0.449462414 0.312713414
0.431878984 0.452119023 0.309677273
0.436179817 0.451613009 0.309424371
0.448703140 0.452751547 0.319418460
0.454775929 0.455787927 0.316382080
0.455787987 0.456040978 0.316129029
0.457938284 0.457685262 0.317773730
0.464010030 0.461732984 0.320304006
0.475901008 0.467552006 0.320177466
0.479063869 0.464642882 0.320050985
0.492473006 0.468185008 0.326375723
0.508159339 0.474256992 0.335483640
0.520051003 0.479823053 0.343833029
0.532194972 0.482859433 0.346869439
0.544592023 0.490702152 0.354459196
0.555471301 0.496268213 0.358760029
0.566350579 0.500063419 0.360278010
0.581530869 0.503099084 0.366349995
0.602530301 0.511701465 0.372675747
0.617836952 0.518658996 0.380392253
0.633270085 0.526249170 0.388235033
0.654142976 0.535357535 0.395066023
0.672358990 0.544465959 0.407210827
0.690575540 0.553573668 0.419354975
0.710689664 0.565464675 0.429854661
0.731435955 0.580139041 0.440481067
0.749651909 0.592283010 0.455661476
0.773181617 0.607589841 0.473244965
0.794686913 0.624541402 0.495761931
0.813788652 0.642504990 0.520935893
0.835799992 0.661227047 0.548767030
0.466413736 0.490449101 0.334219098
0.469956130 0.493990779 0.338266760
0.474762976 0.498798192 0.344845146
0.474383533 0.498165607 0.342062086
0.481594086 0.496647358 0.346616358
0.482859254 0.497279942 0.345983803
0.486401051 0.500316381 0.348007411
0.491587728 0.500569403 0.349905074
0.497659773 0.502466857 0.352182388
0.505755782 0.506515086 0.352182388
0.517520249 0.509424269 0.357748389
0.524604619 0.508412361 0.355724126
0.538266718 0.511828005 0.360657662
0.550158024 0.516255736 0.367868721
0.559772372 0.521821797 0.373434782
0.574320138 0.527261376 0.381277561
0.586843729 0.534471750 0.390385538
0.598481953 0.538773000 0.394180745
0.613662302 0.541809142 0.395951718
0.623276711 0.547628105 0.396457732
0.642631352 0.556736469 0.406325012
0.657558501 0.562681913 0.416318506
0.675142348 0.568374395 0.424414724
0.693358362 0.580138922 0.436558813
0.711574912 0.591524601 0.450980276
0.731182992 0.602530062 0.465022027
0.750917375 0.615812719 0.478431374
0.764579356 0.627956688 0.495888442
0.788109004 0.642757535 0.513725698
0.807084084 0.656166673 0.533712924
0.826059222 0.674130201 0.556989074
0.849209368 0.696141720 0.582415998
0.497532964 0.528779447 0.360404998
0.496774375 0.531815112 0.367236078
0.507400692 0.534851193 0.368374527
0.510436296 0.535357296 0.373940587
0.511574984 0.534218490 0.375078976
0.505502999 0.540290475 0.372042984
0.521315873 0.537128031 0.374573141
0.524351537 0.540164471 0.377608746
0.531435788 0.540417492 0.382163078
0.536369443 0.542315185 0.385578722
0.544465482 0.545350850 0.385705471
0.556483030 0.548260450 0.391397953
0.564452767 0.549399078 0.390638590
0.575078845 0.552688420 0.396205038
0.585831881 0.558760464 0.403921753
0.595951736 0.561037421 0.408602417
0.614168167 0.568627238 0.416192204
0.626818299 0.574446321 0.424288452
0.639468670 0.577482700 0.426818460
0.649083078 0.583301723 0.430613458
0.661986470 0.589373767 0.432511210
0.679190338 0.596458137 0.442631215
0.694370508 0.599746943 0.450980455
0.710815728 0.610120237 0.463124484
0.725236833 0.622264326 0.479443014
