Assets/Shaders/EldamarStudio/100 Sci-Fi LUTs Pack/LUTs/cube/Chelsea LUT.cube
LUT_3D_SIZE 5
DOMAIN_MIN 0.000000 0.000000 0.000000
DOMAIN_MAX 0.903226 0.903226 0.903226
0.000000000 0.003922000 0.086274996
0.008855285 0.033017289 0.107526705
0.194939822 0.096773997 0.147122413
0.404174238 0.180518985 0.191271126
0.638456762 0.297026813 0.281340778
0.024668105 0.121947698 0.142188698
0.129917681 0.152687699 0.153953284
0.278304666 0.186717525 0.184060693
0.452245533 0.251486689 0.233396560
0.663251162 0.360404789 0.315622807
0.310056806 0.327640384 0.227450997
0.345730096 0.332194805 0.249841809
0.442124814 0.365591407 0.274003386
0.562049568 0.408096403 0.309297830
0.741682589 0.502339959 0.405565798
0.526881397 0.562176108 0.385705113
0.559772432 0.575584829 0.405945510
0.610499978 0.594181120 0.435673654
0.695383072 0.627830267 0.471980125
0.815685928 0.694876969 0.574320078
0.758506954 0.810878932 0.667299449
0.760910749 0.823655725 0.680202484
0.791271627 0.830486953 0.694623768
0.845793784 0.847185493 0.725616515
0.894496799 0.869702637 0.775837541
0.004554003 0.013409289 0.124857992
0.011511698 0.049715411 0.137634695
0.221758395 0.119671412 0.179759577
0.421505123 0.202782840 0.233143702
0.639342010 0.311701655 0.309424400
0.049209390 0.138646409 0.166097403
0.154079676 0.159898683 0.185325712
0.297280073 0.200126395 0.213156402
0.462365836 0.263503820 0.262492120
0.666793346 0.365338355 0.340796798
0.324098676 0.325363696 0.261227131
0.356103688 0.337760687 0.267425805
0.441113085 0.371157497 0.295256078
0.565717816 0.413662136 0.336116254
0.734471977 0.511195481 0.428209901
0.526122510 0.567362547 0.405819118
0.553952813 0.576217234 0.419608116
0.609487832 0.592536449 0.447438419
0.690828502 0.626185954 0.488931119
0.807842910 0.694876969 0.579506814
0.761796057 0.816192567 0.678937435
0.768374622 0.817710519 0.680202484
0.794433832 0.829854369 0.702846289
0.843136907 0.841872096 0.728272915
0.895508826 0.870714664 0.775331736
0.000000000 0.049714994 0.186337575
0.053763393 0.075901404 0.200758994
0.239468798 0.134724990 0.232763991
0.430992812 0.211890996 0.282226533
0.652119040 0.322454244 0.366856396
0.129285097 0.155977115 0.229854688
0.180898115 0.173940420 0.236053407
0.312966079 0.211258814 0.264136821
0.473497808 0.272992134 0.311574697
0.676913619 0.377102941 0.396710962
0.334218383 0.332194805 0.313851982
0.374699801 0.346616209 0.324983954
0.459076792 0.381277382 0.353826404
0.584946156 0.427704215 0.395698637
0.742315054 0.514104784 0.481467634
0.539152145 0.569639683 0.457179248
0.562049508 0.578241706 0.472106397
0.614294708 0.595825672 0.489816397
0.696394980 0.628462791 0.532068551
0.809740424 0.699177682 0.614168227
0.755344331 0.811511338 0.679570079
0.762428761 0.817457199 0.702466726
0.793169200 0.826565623 0.717520177
0.839595199 0.844908178 0.745730162
0.899809778 0.868437767 0.778241754
0.078684248 0.087413125 0.290448993
0.161669821 0.112840123 0.302213967
0.300948799 0.157621995 0.322453976
0.462112397 0.233522981 0.372802019
0.656419754 0.331688643 0.451992244
0.206072241 0.186970562 0.323718846
0.249209553 0.200758830 0.329285532
0.361037254 0.233522817 0.355724424
0.505249679 0.286780685 0.400885433
0.681846738 0.385958225 0.482858956
0.369512796 0.345224828 0.402656376
0.402150393 0.360025108 0.411385238
0.476786792 0.386211246 0.433396935
0.590133131 0.435547382 0.476154238
0.741302907 0.514737189 0.554964900
0.548260152 0.575838149 0.532827377
0.572802007 0.582036376 0.551043510
0.623149931 0.601644635 0.570651352
0.706135273 0.636685431 0.607210338
0.817709923 0.696141779 0.660594821
0.751422942 0.812270582 0.735483766
0.756230175 0.819607913 0.739405334
0.777482390 0.827198207 0.750790358
0.835040987 0.844275653 0.773054838
0.896394789 0.872738957 0.810373008
0.246046796 0.141302824 0.518279433
0.299936503 0.157368690 0.511701584
0.412143946 0.198861822 0.534598172
0.562808096 0.269197136 0.577355921
0.716887772 0.372928798 0.617583573
0.293358684 0.222643852 0.530297279
0.337507814 0.230866402 0.541429460
0.442757785 0.266413718 0.559645891
0.581404269 0.324731141 0.593295217
0.727260768 0.418722212 0.639089286
0.391017973 0.372043252 0.588741601
0.417710423 0.377609253 0.599241018
0.504743814 0.404807210 0.611638188
0.627830327 0.457178801 0.638077080
0.760531187 0.532447755 0.677040040
0.569892108 0.609866977 0.686147749
0.585705221 0.616824627 0.688804805
0.625427127 0.622264564 0.695888340
0.695129812 0.638583124 0.704743743
0.817709923 0.698797941 0.752814591
0.754711747 0.817457438 0.808222771
0.761163771 0.826818705 0.808349073
0.785325348 0.839089215 0.820746183
0.836305797 0.849082768 0.835673809
0.906261742 0.884123802 0.868564606
