Assets/Shaders/EldamarStudio/100 Sci-Fi LUTs Pack/LUTs/cube/Chelsea LUT.cube
LUT_3D_SIZE 8
DOMAIN_MIN 0.000000 0.000000 0.000000
DOMAIN_MAX 0.903226 0.903226 0.903226
0.000000000 0.003922000 0.086274996
0.000000000 0.012903451 0.090954997
0.019481098 0.037571095 0.112081088
0.135230988 0.079063997 0.131688997
0.257432371 0.119797379 0.159898996
0.375837982 0.170398742 0.188235000
0.497279972 0.224794567 0.230360284
0.638456762 0.297026813 0.281340778
0.003922000 0.057558544 0.117647000
0.006198998 0.077166550 0.114863545
0.064010188 0.096394897 0.133712545
0.176850185 0.118279189 0.149779007
0.279063821 0.155471355 0.170145094
0.387223214 0.195825279 0.202529728
0.511701703 0.245920092 0.240986556
0.641239882 0.314863801 0.290448964
0.069449991 0.141682282 0.152056009
0.109044738 0.163314551 0.151549652
0.179253191 0.176976278 0.166856200
0.252878070 0.201011643 0.189373538
0.342947274 0.218469188 0.203795090
0.441365927 0.258064836 0.234661728
0.545098305 0.303858191 0.265654892
0.674636364 0.375331879 0.328020066
0.228842631 0.270208985 0.210752994
0.246805906 0.264642268 0.210752994
0.292346746 0.279570013 0.221758276
0.354332626 0.298798621 0.231498629
0.426945269 0.316761732 0.253131092
0.505123258 0.344592303 0.275648266
0.595445931 0.386337906 0.308412284
0.708791614 0.450474083 0.370398283
0.371157378 0.378368199 0.270967990
0.385452390 0.389247179 0.279696375
0.415180176 0.394686997 0.284377098
0.449968636 0.412396997 0.296774268
0.514737189 0.433902383 0.318911970
0.582036436 0.460468173 0.338772923
0.660341620 0.496521264 0.376597196
0.757242024 0.560277998 0.442757815
0.497532964 0.528779447 0.360404998
0.511574984 0.534218490 0.375078976
0.531435788 0.540417492 0.382163078
0.564452767 0.549399078 0.390638590
0.614168167 0.568627238 0.416192204
0.661986470 0.589373767 0.432511210
0.725236833 0.622264326 0.479443014
0.803288877 0.671600282 0.546742380
0.620493293 0.680581808 0.502466559
0.632763803 0.676407278 0.505882561
0.649335504 0.687665999 0.515749574
0.672106564 0.695635259 0.528779209
0.702719748 0.703352332 0.539911330
0.744592309 0.716508508 0.569639266
0.787476540 0.734851301 0.599873543
0.833902359 0.761164069 0.643896341
0.758506954 0.810878932 0.667299449
0.764200091 0.823782384 0.672738910
0.765970826 0.822137833 0.675901353
0.787223399 0.826438844 0.687792420
0.808854997 0.834787786 0.702593088
0.836685658 0.842125416 0.719291747
0.863630652 0.857558489 0.743959308
0.894496799 0.869702637 0.775837541
0.000000000 0.003922000 0.103099450
0.000000000 0.019987453 0.107020542
0.020999195 0.050854094 0.125364006
0.156862736 0.093991093 0.158380911
0.268943727 0.135483995 0.175205633
0.383934021 0.184440449 0.212017551
0.499683350 0.233396575 0.244529009
0.639215767 0.302972972 0.293864787
0.000000000 0.065781087 0.116381541
0.008475996 0.074003547 0.134851098
0.077293091 0.102213539 0.150917456
0.184693292 0.131182641 0.167362452
0.292093396 0.162175998 0.186084747
0.397090435 0.206072107 0.218595803
0.498418510 0.252119243 0.247564793
0.622517347 0.313219368 0.298165351
0.090195738 0.159392655 0.171283633
0.114105187 0.171157554 0.168121547
0.180391744 0.180139095 0.184187084
0.259962112 0.200126648 0.192789197
0.346869171 0.228716075 0.215433180
0.440606952 0.263251096 0.241239995
0.547880828 0.309677333 0.278178126
0.671094537 0.377988636 0.336622238
0.239468470 0.259962171 0.209867284
0.258696824 0.267046273 0.218596101
0.292346627 0.278431565 0.224414721
0.352308363 0.293231934 0.239215747
0.422897071 0.316382289 0.261606455
0.494876385 0.339405537 0.279696286
0.591144562 0.382669359 0.320936084
0.690955043 0.444528729 0.366223931
0.369259745 0.384566396 0.283364832
0.379000574 0.383428007 0.283238620
0.414421380 0.393169105 0.291081637
0.455155283 0.408096373 0.301960737
0.514737189 0.432384580 0.323466152
0.575711548 0.455028474 0.348133713
0.658443809 0.493737996 0.388867825
0.753699899 0.551802695 0.442124903
0.500189722 0.524984062 0.369259924
0.509930432 0.527514219 0.376723468
0.526375413 0.537634015 0.382795691
0.562808037 0.549399078 0.397343636
0.603921592 0.569006801 0.416065812
0.656925857 0.590891898 0.441113204
0.723719001 0.618342698 0.482353181
0.799999952 0.669576585 0.546742260
0.623529553 0.670714557 0.497153372
0.629348755 0.680328846 0.508159220
0.646299779 0.684250712 0.516381800
0.667425454 0.690955043 0.524478257
0.699051201 0.701834559 0.545224190
0.739405453 0.713346004 0.566856325
0.776470542 0.725490093 0.590512276
0.831625521 0.755091608 0.636179805
0.756230235 0.813535750 0.661606610
0.760278165 0.820999265 0.674636543
0.769133687 0.817836881 0.679190338
0.787476182 0.823782265 0.687792361
0.806831121 0.834282100 0.705882251
0.831246138 0.844655395 0.725490034
0.860468030 0.853637040 0.741176307
0.895761967 0.862618566 0.766224027
0.000000000 0.016445097 0.132447988
0.003921903 0.028589547 0.132447988
0.035800096 0.062618896 0.154333085
0.165085182 0.099430896 0.173181176
0.281088114 0.146489292 0.202277094
0.389626712 0.195445731 0.229348347
0.509804249 0.252245575 0.270335197
0.639341831 0.313472718 0.315496653
0.006325002 0.077166446 0.150790632
0.007210639 0.086148098 0.158001453
0.085895188 0.106894545 0.168501005
0.194433719 0.138266638 0.184566632
0.304617196 0.177482530 0.214041904
0.408475518 0.216571540 0.243010804
0.511827767 0.260341734 0.267931819
0.633902788 0.328905553 0.314863980
0.101581283 0.163694099 0.188868001
0.137254730 0.174319640 0.188868105
0.201138288 0.187982187 0.199747175
0.276027739 0.207969740 0.218216434
0.357874393 0.238962993 0.235041171
0.452751368 0.274889201 0.266793340
0.552055478 0.316255569 0.300822377
0.673624635 0.382036746 0.355471075
0.252751291 0.267425627 0.236179739
0.267678380 0.274509639 0.236179620
0.307653397 0.286654085 0.248703524
0.363693923 0.303478718 0.262492090
0.430740178 0.321441919 0.274509728
0.505376101 0.347248614 0.302213997
0.596457958 0.389879644 0.338140368
0.702466786 0.452371657 0.388994247
0.387856066 0.384566486 0.297659874
0.391651094 0.388867736 0.300822079
0.419861108 0.400253087 0.314990163
0.460215032 0.411637902 0.321948171
0.517900050 0.431625485 0.340670168
0.580139160 0.459076345 0.364959091
0.660467982 0.499810487 0.402530164
0.749525547 0.557242036 0.460341632
0.507400751 0.532194734 0.395192742
0.512207448 0.532447457 0.390638679
0.532700539 0.541555822 0.407716841
0.565591395 0.550664246 0.412650257
0.605566382 0.565844238 0.434281915
0.658444047 0.586211085 0.458823562
0.723465979 0.621505260 0.497406811
0.801517963 0.670841157 0.561796308
0.622770369 0.672232747 0.503478825
0.629728317 0.674383581 0.519418061
0.649462283 0.683744371 0.522960186
0.670714617 0.688425303 0.533586264
0.702087343 0.700316370 0.550411165
0.737381279 0.711322308 0.575837970
0.779759407 0.724730968 0.603162348
0.830360711 0.757115901 0.648956120
0.757241786 0.816698372 0.677419543
0.758633673 0.815559626 0.672992051
0.767868638 0.820240617 0.683238447
0.783934057 0.825806320 0.693485081
0.805059969 0.830739975 0.708665490
0.834787846 0.838329911 0.725490034
0.861986220 0.852371871 0.750410974
0.892978787 0.868943572 0.777608693
0.000000000 0.032004993 0.170904279
0.000000000 0.045034640 0.167615294
0.065528184 0.076028004 0.190891638
0.172169283 0.104870290 0.205692649
0.292093188 0.153573811 0.227703735
0.399367452 0.199746996 0.254648983
0.514737606 0.250601262 0.296014994
0.648829758 0.321948171 0.349652022
0.006578449 0.093232095 0.184946194
0.033016734 0.099430896 0.185705096
0.116508275 0.118658736 0.201011732
0.210499465 0.144086093 0.218216643
0.311195642 0.179000735 0.239721999
0.413535655 0.223276377 0.266413897
0.522453964 0.272612095 0.301201642
0.647311747 0.334724605 0.356989443
0.130170733 0.177103102 0.215053737
0.158001289 0.179759651 0.218596086
0.212903187 0.195445642 0.231878281
0.284629732 0.212650448 0.248070627
0.369766086 0.244402200 0.262871653
0.457811803 0.276786745 0.288931072
0.563314319 0.326628655 0.332194895
0.683744550 0.393548429 0.386463910
0.259076267 0.278051972 0.263503909
0.282606184 0.281214178 0.261985928
0.323086739 0.289436728 0.278811097
0.383427918 0.311701268 0.298165619
0.445287824 0.330929637 0.313725442
0.522707045 0.362175733 0.339531630
0.606072247 0.400885552 0.374572903
0.711448073 0.458317399 0.423023105
0.395698994 0.394307554 0.335104346
0.401897401 0.396331161 0.331435978
0.433270186 0.407337368 0.340417534
0.473877370 0.420240641 0.357115388
0.525237024 0.440607011 0.372042954
0.592030644 0.466539919 0.402024180
0.663124919 0.502973139 0.436306387
0.756989181 0.561543107 0.490828425
0.511321723 0.534977436 0.422264278
0.519797623 0.534218431 0.424541384
0.542567849 0.543959737 0.433017075
0.574573040 0.553320825 0.447564721
0.614294529 0.572169602 0.464136839
0.665275335 0.592536092 0.491081387
0.727134585 0.624161541 0.527767479
0.800632477 0.672865450 0.585705578
0.627704263 0.673750520 0.534724891
0.631752014 0.678304851 0.541935325
0.646299779 0.683238268 0.547880769
0.671473503 0.689437270 0.561163902
0.707906544 0.698798180 0.575458586
0.738519907 0.714990675 0.595192552
0.780645251 0.730929852 0.614927530
0.835420430 0.761290312 0.658823311
0.752055645 0.813915312 0.690575361
0.761163712 0.813661993 0.687286377
0.767615497 0.819354713 0.702087045
0.788740993 0.822643638 0.708665550
0.803795218 0.832005143 0.717267334
0.827703834 0.839089036 0.735610366
0.862112463 0.853637040 0.759519458
0.896014988 0.873497844 0.778747380
0.001518192 0.055534188 0.221758381
0.009108088 0.068943799 0.214674085
0.110183179 0.085389197 0.227957085
0.206704468 0.120176740 0.244402379
0.305376381 0.162934989 0.264009982
0.408349097 0.207083926 0.294117719
0.520809531 0.260088563 0.336875468
0.654016614 0.326881588 0.391776979
0.054775532 0.109677181 0.222643822
0.092472926 0.118658833 0.235041186
0.154079482 0.132447988 0.242125079
0.237191364 0.157495096 0.259835660
0.326881707 0.185199350 0.278178185
0.424035698 0.229854733 0.302719712
0.529032111 0.275774926 0.337634474
0.648323596 0.335863173 0.388741195
0.172928378 0.191144899 0.253890097
0.204806834 0.196331456 0.262492090
0.236432284 0.205313087 0.267805278
0.300695986 0.223276287 0.286400825
0.381404191 0.247565091 0.303099275
0.462112546 0.284377098 0.328146368
0.566223621 0.330550075 0.370398283
0.685768843 0.393421710 0.427197814
0.285768479 0.276913643 0.302340180
0.306261986 0.285136074 0.307147175
0.338772833 0.296774179 0.315369815
0.385199457 0.316761643 0.328525811
0.450727612 0.334724814 0.348513335
0.523592591 0.362934619 0.369133800
0.609740674 0.404300898 0.408349097
0.710183501 0.461100459 0.458317608
0.397090167 0.399493992 0.368121386
0.412144184 0.400505811 0.371284187
0.438709348 0.412017465 0.380645275
0.483364969 0.426439017 0.396331161
0.541303158 0.448071182 0.418216377
0.600000381 0.476281196 0.438962936
0.671473384 0.511574924 0.473371357
0.761163771 0.565084994 0.527134895
0.517900169 0.531562209 0.455155164
0.526375473 0.537760794 0.458696812
0.542567968 0.545098066 0.466287106
0.578621030 0.561290085 0.481340736
0.618848622 0.576850116 0.501075149
0.667805254 0.595698893 0.521062672
0.730803013 0.632131577 0.558760285
0.803415716 0.678810716 0.604174614
0.628463209 0.676027596 0.565591276
0.634155750 0.678684115 0.569006860
0.653637111 0.686274290 0.576470494
0.670714796 0.692093730 0.586590528
0.706009209 0.704364479 0.599114478
0.740164518 0.718026698 0.617583930
0.782036364 0.738013744 0.640860379
0.840986669 0.769386530 0.682858706
0.752055645 0.812270582 0.704617083
0.753573418 0.815180182 0.707400322
0.762302458 0.820746243 0.711321712
0.777735531 0.826186061 0.716888011
0.804300785 0.830866814 0.731941819
0.829095483 0.842757702 0.745603800
0.859202802 0.854016602 0.768121421
0.895382762 0.874256849 0.794180810
0.052371725 0.080328740 0.270208985
0.093611270 0.087286539 0.274509907
0.167488992 0.110056832 0.286780387
0.238962620 0.138646379 0.296900868
0.335357100 0.175078928 0.315243751
0.426691979 0.215306982 0.344465494
0.528146982 0.267425537 0.384566575
0.655407608 0.327640712 0.437317908
0.121441826 0.125237271 0.286780477
0.148892835 0.136748746 0.281341195
0.197849274 0.147627920 0.298039436
0.271979630 0.167615175 0.305502892
0.351043701 0.195319548 0.321062475
0.441239744 0.237697735 0.354458749
0.537634313 0.276787013 0.381783545
0.654016614 0.341302961 0.439595193
0.214421079 0.206451744 0.315623105
0.233649835 0.204806834 0.315496236
0.266919553 0.219734445 0.319923908
0.326502174 0.232257918 0.331941575
0.401771188 0.262112617 0.354712188
0.485262722 0.292599738 0.381657213
0.570524871 0.333079904 0.408981740
0.685388982 0.395319432 0.471726894
0.306261718 0.287539721 0.347754627
0.323339492 0.295635730 0.356989175
0.354712397 0.304996729 0.366350353
0.401391536 0.317900181 0.377482384
0.464769006 0.337761045 0.394054115
0.532447755 0.365970999 0.422011465
0.606072128 0.404301018 0.449715078
0.710183442 0.458191067 0.503605187
0.415180385 0.401265115 0.422896981
0.428336352 0.408349037 0.427704155
0.449715286 0.417457193 0.431878835
0.487665832 0.429981291 0.443643004
0.538140178 0.451486617 0.462365925
0.598861754 0.472232670 0.485135704
0.669323146 0.506009161 0.511322200
0.756736100 0.556862712 0.563946843
0.522959769 0.540417492 0.499430716
0.527387261 0.541176498 0.503731966
0.549272418 0.547375381 0.516887963
0.577356339 0.562428474 0.527134478
0.623782277 0.578874350 0.543579996
0.675774693 0.599240959 0.567741454
0.732574224 0.632005453 0.590765297
0.805818915 0.672106564 0.635547161
0.623908818 0.673624575 0.597849011
0.630866587 0.682732701 0.597216606
0.649841845 0.682985425 0.612776816
0.671726704 0.692852616 0.622011304
0.701328456 0.703857958 0.633017004
0.740544200 0.716508508 0.649335563
0.787349582 0.736369610 0.670841336
0.843517005 0.767994821 0.708538592
0.749904871 0.813535750 0.732953727
0.747627854 0.814421117 0.732447863
0.763061345 0.816824853 0.733586371
0.775331974 0.825806499 0.743832767
0.796458066 0.831625819 0.749652267
0.828969002 0.842251658 0.762934566
0.857432246 0.855534315 0.787476122
0.899936736 0.874762833 0.803035975
0.153194278 0.112713285 0.361669868
0.181530371 0.120176829 0.365211815
0.231499359 0.135483995 0.376470476
0.303352654 0.158127710 0.384693176
0.386717469 0.193422198 0.401518077
0.473244727 0.227956995 0.427956790
0.566856265 0.280328989 0.464263260
0.662871480 0.333585978 0.500189662
0.183428124 0.146869019 0.358253837
0.211638108 0.149652287 0.374952585
0.253890008 0.166983008 0.376091033
0.317773461 0.186590910 0.390385807
0.393674761 0.212650552 0.406704634
0.480455637 0.251486480 0.431372374
0.565844238 0.290954798 0.460468292
0.656419992 0.341682792 0.499050885
0.250600904 0.220367104 0.396205008
0.271726906 0.220999092 0.400885373
0.309424102 0.235041380 0.400000304
0.362934619 0.249462545 0.421252370
0.438583493 0.272612274 0.435926646
0.515622795 0.305503070 0.462745160
0.598355293 0.347754270 0.492472976
0.692472994 0.396331459 0.528399706
0.328020275 0.301707923 0.437950641
0.341303200 0.307020903 0.437697470
0.375964284 0.316382080 0.443390101
0.426059276 0.332447946 0.457558602
0.486780822 0.350917190 0.476407230
0.551675916 0.375458628 0.491334707
0.628463209 0.409866929 0.516508520
0.706388414 0.457558602 0.555344701
0.425426960 0.412776560 0.488298565
0.434029281 0.422770470 0.497406483
0.456040293 0.425300270 0.502593279
0.491334468 0.436053127 0.512207270
0.542947233 0.448956162 0.520809591
0.607210636 0.476660639 0.547880828
0.673877239 0.508412361 0.570904553
0.751169801 0.551043749 0.605818987
0.535483778 0.549525440 0.579001009
0.539785206 0.560278058 0.576470375
0.558254063 0.563061297 0.583428383
0.585704982 0.572549164 0.592030466
0.621378958 0.583554506 0.599620700
0.671220720 0.594180763 0.613029957
0.734345496 0.625553787 0.640101492
0.798482239 0.663377702 0.675395131
0.628969252 0.678304553 0.641366303
0.629474819 0.678052008 0.646046817
0.646426439 0.680708349 0.649335682
0.671473503 0.690069556 0.662618577
0.700695693 0.699557304 0.673624396
0.737001717 0.714863777 0.687666297
0.785199285 0.738772810 0.711954236
0.844908297 0.768374264 0.742567599
0.741808653 0.810878932 0.752308488
0.747374952 0.815939307 0.758886814
0.751929224 0.815053761 0.762934923
0.770904601 0.822011471 0.769006610
0.796457827 0.831246257 0.777735353
0.824288487 0.841492534 0.787349582
0.855787635 0.858191073 0.811385512
0.900695503 0.875395179 0.829601347
0.246046796 0.141302824 0.518279433
0.265780926 0.144591838 0.509044766
0.312334061 0.162934899 0.514484406
0.374446809 0.184060991 0.528399765
0.455154777 0.217583969 0.545730472
0.536242545 0.255534708 0.566476583
0.626565218 0.307906717 0.592916071
0.716887772 0.372928798 0.617583573
0.261859804 0.171536982 0.504490793
0.282732666 0.174193829 0.501960754
0.319418252 0.185705274 0.518279433
0.383301914 0.207590282 0.532574236
0.458823442 0.236812025 0.548386991
0.542694449 0.276027918 0.565844476
0.624161601 0.321442008 0.590132713
0.709044695 0.378873974 0.615939260
0.304491073 0.234029055 0.537381470
0.327134818 0.240733922 0.534345269
0.356483191 0.253890097 0.546489358
0.416571438 0.268690884 0.557115614
0.483617902 0.293358713 0.568627238
0.565970778 0.330550075 0.593295515
0.647817731 0.373181522 0.614168227
0.731815040 0.431372523 0.645920515
0.350917190 0.315623283 0.560784042
0.369133174 0.322580278 0.568374455
0.401517749 0.333713084 0.569386303
0.449209630 0.350917280 0.578368127
0.517773449 0.367362291 0.595952034
0.587476373 0.396584630 0.606831074
0.665148437 0.436053067 0.629728079
0.740923643 0.486401260 0.653004587
0.428842187 0.434535027 0.605566144
0.435926735 0.437191576 0.610373199
0.459203184 0.435547262 0.612776995
0.497280329 0.444149375 0.621252239
0.560025394 0.460594356 0.630866826
0.623276472 0.490322471 0.647564530
0.697533071 0.527514100 0.664136767
0.776090980 0.571663141 0.687539637
0.545097768 0.577229500 0.674509764
0.552561641 0.583934128 0.675901413
0.564958930 0.581910491 0.677419424
0.587349594 0.583048701 0.680455506
0.615559638 0.586969972 0.684503317
0.670841575 0.606451631 0.691587627
0.739405513 0.632511020 0.709930360
0.807842970 0.671473742 0.737381220
0.639468253 0.701075256 0.727640629
0.654901981 0.705882549 0.736875057
0.664642751 0.708538771 0.730676889
0.679190457 0.711574912 0.734724700
0.703858256 0.719165266 0.744085610
0.738519907 0.724984109 0.749778271
0.786211371 0.739405274 0.766856492
0.850474358 0.774320006 0.793927610
0.754711747 0.817457438 0.808222771
0.760025203 0.819607794 0.808348954
0.764452875 0.826059282 0.801264644
0.777988374 0.829601586 0.812397122
0.794054270 0.834661543 0.814674377
0.826185763 0.846552670 0.830866694
0.861353338 0.856293261 0.847185194
0.906261742 0.884123802 0.868564606
