Assets/Shaders/EldamarStudio/100 Sci-Fi LUTs Pack/LUTs/cube/Cicada LUT.cube
DOMAIN_MIN 0 0 0
DOMAIN_MAX 1 1 1
LUT_3D_SIZE 32
0.000000000 0.000000000 0.078431003
0.000000000 0.000000000 0.078431003
0.000000000 0.000000000 0.074129999
0.001265161 0.000000000 0.070588000
0.005439999 0.000000000 0.071346998
0.017583998 0.000000000 0.077418998
0.034787998 0.005059999 0.086021319
0.053004406 0.007843000 0.090195999
0.071980089 0.007843002 0.090195999
0.093232490 0.007843007 0.090196006
0.108665124 0.019481000 0.098924875
0.125869498 0.023529001 0.101961002
0.145224631 0.026944643 0.104237996
0.166477039 0.036053032 0.110309996
0.187729403 0.045161411 0.116381995
0.213788778 0.054269798 0.122453995
0.241113171 0.064895995 0.130044192
0.267805129 0.075774990 0.137254998
0.292093962 0.081847012 0.137255013
0.319165379 0.087919004 0.145604357
0.342694730 0.097785987 0.154712260
0.369007230 0.107905999 0.163820133
0.405566454 0.114104502 0.172928497
0.445034921 0.123212904 0.182036906
0.482226551 0.134597987 0.188868001
0.522833586 0.143959343 0.197722986
0.568374157 0.150537938 0.209867001
0.613915265 0.159645543 0.222010985
0.667425513 0.171410650 0.239468634
0.722074270 0.181783751 0.257684946
0.777608752 0.191777214 0.271473616
0.835294008 0.203922004 0.274509996
0.000000000 0.000000000 0.078431003
0.000000000 0.003036387 0.084503770
0.000000000 0.005186613 0.078051999
0.002529999 0.004807161 0.073624387
0.009614158 0.003036387 0.074762933
0.029727997 0.003036387 0.083491765
0.036812000 0.010626063 0.079443127
0.054648697 0.015559708 0.084377035
0.074256800 0.016951388 0.088678390
0.093232498 0.016951391 0.093232393
0.111575000 0.022770386 0.101960510
0.128905386 0.030613383 0.107020870
0.148260251 0.036053028 0.108033001
0.169512644 0.045414384 0.110815994
0.190765023 0.057305411 0.122453988
0.214421213 0.061606802 0.126122802
0.239595369 0.069449805 0.128526390
0.264769346 0.079443179 0.134345561
0.289057583 0.087919012 0.146363407
0.316128969 0.099557005 0.151929408
0.345351070 0.106134996 0.160784245
0.375079244 0.113978252 0.167868122
0.411385477 0.120177247 0.173054978
0.445034921 0.129284903 0.185072526
0.482226551 0.140670568 0.191903621
0.522833586 0.151423082 0.202150270
0.569386184 0.159139618 0.215939119
0.619987249 0.165717527 0.228083760
0.665528417 0.174825817 0.242883891
0.717267454 0.186590582 0.253637046
0.771536708 0.197849214 0.265907764
0.829222023 0.209994003 0.277545601
0.000000000 0.006451774 0.078431003
0.000000000 0.011638386 0.078051999
0.000000000 0.008223000 0.081973456
0.001265161 0.011258612 0.080455393
0.007210773 0.011511772 0.082732551
0.023149936 0.016824998 0.084756933
0.044654999 0.015812676 0.089816898
0.057305407 0.023276417 0.087033547
0.076533869 0.027577775 0.092852898
0.093358979 0.030360777 0.100316226
0.111575000 0.036179774 0.100695901
0.131815240 0.044276025 0.107779771
0.151296407 0.049335897 0.112080999
0.172548801 0.055914029 0.114358030
0.193801165 0.062365759 0.120809764
0.217457369 0.073750801 0.130044028
0.240227953 0.076787189 0.133080408
0.263883948 0.085894950 0.134977981
0.288172036 0.098038971 0.145604208
0.315243363 0.105629012 0.158887014
0.342567712 0.112080738 0.163061246
0.372675478 0.119923770 0.170651257
0.406957686 0.128399730 0.175332233
0.444402128 0.137507871 0.189500004
0.480075777 0.148892805 0.201391548
0.520683169 0.155471236 0.206071854
0.567741871 0.162808135 0.219228059
0.620999277 0.172169536 0.236306116
0.662997901 0.183048591 0.236053124
0.720936179 0.193927735 0.254775167
0.771789968 0.205186367 0.267172813
0.823149979 0.216066003 0.284882784
0.001265161 0.021884998 0.082226165
0.000000000 0.024162158 0.079190552
0.000000000 0.022896999 0.081720553
0.005059999 0.020620160 0.083491325
0.009234933 0.024035322 0.091461159
0.021379158 0.032258093 0.089310937
0.043643158 0.032511000 0.093865000
0.063377410 0.035673574 0.097912833
0.081593998 0.040228158 0.097912833
0.097280331 0.045288164 0.105502516
0.114105001 0.050094996 0.106767707
0.134345233 0.058191251 0.109804153
0.154459283 0.066160999 0.117014512
0.175838158 0.069576159 0.122454025
0.198102400 0.073624410 0.123466417
0.217963427 0.081340991 0.131309181
0.243264019 0.090196028 0.136116028
0.265781373 0.094497405 0.141049981
0.290702045 0.108412199 0.148387179
0.316508532 0.116508327 0.159013376
0.342567712 0.121947899 0.167868420
0.372928232 0.128020152 0.172928289
0.404047996 0.139784664 0.179380462
0.442378104 0.146616071 0.192283094
0.479569733 0.155471161 0.201391414
0.517646790 0.165844321 0.214421481
0.563693941 0.166856319 0.216951162
0.616824687 0.177482873 0.232890427
0.660720944 0.190892130 0.242884010
0.712333679 0.201770961 0.247691154
0.773814142 0.213915214 0.266286969
0.817077994 0.223403156 0.286400855
0.003542452 0.045034546 0.090575546
0.001644612 0.042378385 0.088298835
0.000758999 0.039721772 0.090955451
0.005059999 0.039595157 0.095256448
0.018342545 0.042251997 0.094876997
0.030487321 0.048323996 0.094876997
0.051992543 0.050094996 0.100316450
0.070967704 0.053890154 0.103984833
0.086906999 0.061480545 0.106640995
0.105123006 0.061480548 0.106641002
0.120809413 0.064389676 0.112460092
0.140037790 0.071094245 0.118152961
0.160531297 0.078684546 0.124604903
0.178495035 0.084503517 0.132953539
0.202403516 0.090448990 0.130044416
0.220999345 0.096900538 0.136622190
0.241872177 0.102972537 0.142314553
0.268437535 0.108918115 0.143706143
0.295762002 0.118026525 0.155850947
0.321062744 0.127514347 0.162808448
0.345730513 0.135104537 0.169259995
0.372928232 0.142062008 0.176344126
0.409234464 0.154079512 0.185199484
0.445414275 0.157621905 0.193801105
0.481847018 0.162935004 0.199114293
0.520050645 0.170019120 0.206957653
0.561037123 0.179000989 0.221505538
0.609613836 0.185072988 0.221505538
0.655913889 0.197976261 0.240480497
0.707400441 0.209993750 0.256672740
0.761670053 0.219987214 0.267046064
0.810246944 0.232132003 0.279190093
0.000506065 0.060214929 0.093611933
0.006578065 0.060214929 0.096647546
0.006830999 0.059708998 0.096521065
0.009360999 0.061732933 0.100063063
0.018342545 0.066539995 0.103984609
0.039594933 0.066539995 0.100949004
0.056799702 0.072612002 0.108538672
0.072738931 0.074382998 0.110562772
0.086906999 0.077419251 0.110056832
0.105123013 0.082732931 0.112713009
0.123339735 0.085642062 0.118532747
0.143074185 0.090701930 0.122580603
0.164326578 0.096141636 0.126122698
0.184567034 0.099683903 0.129917935
0.199747413 0.102719508 0.129917935
0.226059720 0.111068793 0.136622190
0.249841928 0.118152924 0.145730197
0.274003565 0.123592503 0.152055517
0.295762002 0.127134904 0.155850947
0.325869739 0.139025941 0.165211648
0.353320718 0.148766726 0.173813790
0.380139053 0.155344799 0.182416126
0.409234464 0.160151511 0.191271484
0.442630917 0.169259906 0.194307104
0.478810638 0.175079003 0.202909291
0.518026352 0.181150988 0.211005673
0.561037123 0.188235134 0.222138062
0.609613836 0.197216988 0.236685932
0.658190548 0.203289002 0.241998926
0.706261396 0.214421019 0.256420135
0.754585326 0.226059213 0.270588517
0.798102140 0.238204002 0.285262883
0.002530322 0.085515320 0.106767677
0.008602322 0.082985640 0.107273608
0.012523548 0.085135870 0.106008768
0.016698159 0.085515320 0.106894158
0.025173867 0.088677868 0.110941999
0.042125255 0.090828642 0.110056609
0.060847316 0.095888637 0.112080999
0.080708377 0.100315928 0.119544312
0.097027190 0.102719508 0.120683089
0.115243658 0.108792290 0.123719163
0.133459732 0.109424770 0.124604739
0.153700247 0.112460375 0.132700741
0.173813984 0.118026316 0.136748642
0.193674713 0.122454025 0.139785036
0.213409081 0.125490218 0.142062321
0.238204077 0.130929634 0.151676312
0.264010310 0.138393313 0.160910830
0.288298458 0.144465312 0.169386625
0.311448634 0.149398983 0.174320295
0.335989743 0.155724004 0.180392295
0.368247718 0.165970728 0.187602639
0.396837384 0.174066991 0.195066318
0.424415112 0.178747311 0.202403516
0.457811564 0.185451910 0.205439746
0.495761901 0.194560289 0.217583925
0.535230637 0.202276990 0.225806624
0.578747451 0.209993705 0.233270317
0.627324164 0.219102085 0.242378429
0.678431213 0.228083313 0.252119303
0.730549932 0.237697735 0.263504058
0.781530380 0.252498537 0.281340867
0.828969002 0.269576639 0.301454991
0.003922000 0.107906409 0.117014416
0.014927286 0.104870379 0.115369707
0.018848930 0.107779928 0.126375467
0.026944865 0.109550700 0.119544692
0.036432702 0.109550700 0.119923860
0.047817927 0.111321926 0.118658699
0.070461698 0.116887987 0.126122311
0.088677689 0.119670987 0.129158691
0.108412087 0.123465694 0.132194698
0.125743270 0.129538253 0.132574484
0.142315000 0.131435990 0.137634695
0.159266248 0.133460149 0.138773143
0.181657284 0.137634411 0.146742418
0.201391414 0.143706411 0.150537699
0.224035099 0.148134112 0.154965416
0.246805668 0.151928976 0.160278276
0.274130464 0.156483173 0.169386670
0.298545122 0.163693681 0.178368405
0.322833985 0.171789706 0.185452297
0.345477730 0.176217422 0.191524297
0.375458419 0.184187144 0.199240997
0.408854812 0.193295270 0.204301134
0.437824249 0.199999690 0.209740713
0.472738922 0.206071705 0.214294910
0.509045005 0.212776691 0.223150283
0.551296294 0.221884713 0.234155983
0.595572174 0.230993062 0.240733936
0.645287514 0.240101442 0.247944281
0.693232119 0.249209553 0.259962112
0.744971275 0.256799400 0.274257153
0.796078146 0.271600574 0.286780417
0.845414281 0.292852998 0.306515008
0.008475997 0.126882091 0.128400087
0.020619806 0.124604806 0.123086609
0.027197776 0.127261087 0.132700771
0.036812160 0.132321090 0.143074006
0.051233549 0.131562099 0.132827550
0.057685092 0.130803093 0.130550250
0.077672318 0.136622190 0.137128189
0.100062989 0.138646096 0.144338712
0.117520094 0.140164092 0.147375092
0.132700503 0.146236092 0.141303092
0.149398863 0.150916964 0.149019867
0.165338337 0.154712260 0.152814895
0.183934182 0.156610101 0.154332995
0.207969934 0.162429065 0.160152033
0.231751963 0.167995006 0.165718094
0.254395902 0.173181385 0.170145378
0.277166277 0.176217377 0.173940271
0.305123031 0.179253608 0.180645466
0.329664886 0.191018105 0.189753130
0.352688462 0.196331456 0.196837202
0.380771726 0.202403739 0.202529833
0.411891222 0.211512059 0.209614038
0.445414066 0.220493183 0.212903410
0.481846899 0.226565197 0.219607994
0.519038558 0.233396649 0.227198184
0.560404658 0.239342391 0.235673979
0.605945230 0.248956084 0.242252052
0.657052338 0.258317441 0.251359731
0.701834381 0.268184930 0.266539931
0.751676083 0.277040064 0.280455291
0.803668380 0.286780566 0.299684078
0.846173227 0.308032990 0.305756092
0.026692007 0.148134500 0.155724496
0.029728398 0.148134500 0.143579721
0.033270206 0.150158212 0.142567784
0.043896172 0.154585496 0.145098016
0.063377552 0.158886507 0.144971564
0.072485939 0.152814507 0.148007944
0.083997488 0.159645826 0.148260981
0.100062996 0.162049279 0.150411263
0.117520101 0.161416501 0.153447106
0.132700503 0.167488486 0.156483501
0.153699875 0.176470369 0.162049502
0.172675505 0.183301479 0.166223750
0.193042487 0.185831651 0.169133171
0.217077538 0.183681458 0.172296032
0.238329902 0.186717078 0.175332412
0.262112588 0.194686815 0.180898473
0.284756690 0.200506181 0.185325786
0.308159441 0.203542411 0.189753100
0.338519514 0.206578046 0.198861495
0.365844607 0.215559870 0.207969844
0.394813478 0.222517490 0.211258978
0.423276246 0.229728132 0.212650374
0.448450476 0.238709971 0.215939015
0.484883308 0.244781986 0.225047424
0.523592770 0.253131270 0.231751993
0.567109227 0.259329796 0.239342183
0.615053654 0.264136463 0.248324066
0.660594761 0.276280463 0.257432431
0.701075196 0.288298637 0.274509937
0.749651849 0.300316423 0.285515487
0.804174364 0.313978463 0.297406703
0.858317971 0.332320988 0.320936471
0.039088998 0.172295988 0.156863004
0.045034513 0.172295988 0.153447106
0.052371901 0.174446762 0.154205874
0.058190867 0.176217735 0.159265995
0.070082091 0.179000750 0.161416546
0.081720807 0.183048740 0.154332936
0.095888548 0.184566423 0.164958984
0.108412415 0.187981993 0.166476995
0.125616744 0.188488066 0.168247968
0.147248372 0.194560602 0.171284348
0.159518868 0.197722748 0.171410859
0.182795510 0.202783138 0.177482873
0.203921631 0.206831098 0.179127097
0.226185903 0.207843035 0.178621024
0.247438267 0.210879311 0.181657404
0.268690646 0.216318727 0.187096983
0.295509398 0.221885055 0.196204990
0.321568817 0.225553855 0.204047859
0.347374886 0.230866790 0.210878968
0.372169584 0.239468381 0.211638004
0.401264995 0.244781733 0.220366865
0.432637393 0.248830006 0.223403007
0.462871820 0.254143327 0.224794373
0.493737966 0.262998015 0.233902782
0.530170679 0.269069999 0.240733877
0.569006979 0.277545780 0.249588847
0.612017989 0.285135865 0.260215074
0.655155301 0.297279865 0.269323409
0.703352571 0.301454693 0.278431833
0.750663936 0.314611197 0.292346835
0.802403152 0.329664856 0.305123448
0.853004277 0.347880870 0.327388018
0.055281505 0.196584508 0.169006988
0.061353505 0.198608235 0.165971115
0.065527767 0.198734760 0.171410248
0.075901315 0.200505972 0.173687413
0.083870955 0.201264977 0.176723510
0.094370604 0.207336992 0.172549188
0.109044924 0.210879177 0.177103251
0.124224953 0.212270498 0.182669252
0.137508079 0.213029593 0.182669252
0.158001274 0.217837214 0.184440479
0.176723510 0.223023623 0.188614994
0.190891758 0.226059258 0.184566975
0.214041889 0.229095638 0.189500362
0.235294282 0.232637540 0.189247027
0.256546646 0.239215910 0.195825413
0.279822767 0.240607485 0.199241251
0.302593380 0.246679500 0.203795061
0.330676973 0.249589249 0.212523580
0.354965031 0.252878249 0.217204258
0.379253715 0.259709150 0.223782510
0.407337457 0.266919494 0.227577507
0.437697530 0.271094263 0.233523250
0.470208704 0.275268972 0.233776242
0.504364312 0.282479346 0.240986913
0.535230815 0.289310277 0.249842256
0.575837851 0.296773911 0.255914241
0.616571963 0.305882335 0.266287178
0.657558858 0.316508502 0.275395155
0.703352273 0.324730814 0.284503549
0.748387039 0.333080381 0.295382679
0.798355162 0.348893225 0.310183316
0.846931994 0.367109239 0.331435740
0.076913632 0.227704287 0.189500287
0.080708638 0.229601532 0.187603012
0.089184150 0.231625274 0.189753518
0.096014962 0.231625274 0.196078151
0.107021078 0.231245816 0.192662999
0.114610694 0.235040933 0.191144988
0.126501948 0.239721596 0.195066646
0.141682327 0.242251635 0.197849646
0.156862736 0.243010730 0.197849646
0.172043130 0.246047124 0.197849646
0.193042502 0.250854284 0.204806983
0.212523893 0.254902005 0.206198633
0.229981273 0.256799281 0.201264992
0.250727654 0.260088623 0.204300672
0.270209014 0.268311411 0.211638048
0.296141624 0.272485971 0.215939447
0.320430011 0.275521964 0.220114097
0.343453616 0.280961573 0.221252292
0.366729677 0.281467646 0.222770616
0.393295348 0.285895288 0.230234355
0.424794436 0.291967273 0.239721999
0.455155253 0.297027141 0.245793998
0.485515267 0.302972615 0.246046990
0.519924104 0.309044659 0.250095010
0.555218160 0.316255271 0.260721266
0.590259552 0.321441919 0.267299622
0.635293961 0.331056267 0.273877561
0.675395250 0.340797067 0.282985181
0.720176995 0.352182060 0.294370472
0.763946593 0.363061041 0.304111242
0.806451440 0.376091212 0.321568251
0.854522288 0.394054264 0.343579620
0.103732035 0.268185019 0.212271005
0.103732035 0.268691003 0.212523967
0.113219775 0.270588279 0.212523967
0.127134994 0.273118079 0.214041904
0.138899490 0.272991598 0.216192022
0.141935095 0.269955963 0.210120037
0.150537357 0.274004012 0.211385325
0.162934735 0.278431296 0.213283002
0.177862093 0.281214088 0.213030040
0.193042502 0.284250498 0.213030040
0.213282898 0.287286878 0.221252158
0.234535277 0.290069759 0.226059258
0.256040633 0.292473018 0.227577388
0.277293026 0.292726040 0.225047067
0.292473406 0.298798025 0.228083447
0.318911999 0.304870039 0.230866805
0.346742392 0.310689032 0.235420987
0.369765997 0.316381633 0.239722043
0.387982041 0.319418043 0.233650044
0.417583764 0.322707385 0.238457009
0.452624798 0.327387989 0.247817993
0.489310294 0.332447916 0.257432014
0.519797504 0.335736543 0.263503999
0.550284863 0.341935098 0.263756990
0.587476313 0.349778324 0.274636269
0.627197981 0.356862694 0.284756690
0.667173088 0.361417055 0.289057940
0.709676981 0.373561054 0.298165560
0.754332423 0.387855798 0.312333822
0.798355341 0.401517957 0.324731231
0.840860128 0.414547592 0.339279026
0.883365035 0.429728031 0.369639069
0.124984398 0.286400974 0.218342990
0.124984398 0.292472959 0.221378610
0.124984398 0.292978972 0.221631572
0.133206978 0.297406524 0.224161893
0.145350993 0.303478807 0.228463277
0.157115474 0.303352296 0.225300401
0.170271724 0.302846372 0.224288404
0.184187099 0.305755675 0.228209987
0.198608398 0.308032393 0.230740085
0.211258486 0.308538467 0.228210405
0.223529726 0.311574847 0.231119528
0.243643656 0.312586993 0.233396411
0.266034395 0.315496385 0.236305997
0.289437026 0.320050418 0.240227446
0.310689390 0.323086798 0.243263826
0.330676764 0.329158813 0.243896410
0.358380765 0.333712608 0.247564986
0.384946376 0.338013530 0.253004551
0.403162420 0.343706787 0.254902393
0.435293794 0.349525809 0.257179022
0.464263171 0.353067636 0.262744963
0.496141940 0.356736124 0.268058002
0.528905869 0.360025316 0.269575983
0.562302291 0.369133711 0.275647968
0.599620223 0.373054922 0.282732278
0.640480220 0.381530344 0.293105662
0.682352662 0.391777098 0.301454991
0.724857330 0.403921813 0.313345969
0.764705777 0.413408965 0.325110376
0.808981538 0.427324146 0.341429383
0.853004158 0.441871971 0.358633965
0.895509005 0.457052410 0.381783843
0.143832982 0.316634774 0.226818800
0.141429797 0.320303589 0.234661415
0.145730793 0.322074592 0.226944789
0.148766786 0.323339432 0.233522803
0.159392804 0.329411507 0.242631182
0.175584793 0.331435770 0.237571046
0.183048308 0.331435770 0.239468798
0.196584404 0.331435770 0.241113082
0.212523907 0.333712667 0.246426180
0.229601607 0.335357398 0.248324260
0.244149521 0.338266641 0.243896112
0.258317530 0.341303051 0.244907990
0.278810829 0.342820942 0.247185275
0.301581025 0.347627789 0.253004551
0.322833359 0.352814406 0.256040394
0.344085783 0.355850786 0.254269809
0.366856366 0.360404968 0.255787611
0.396078527 0.363440812 0.261606574
0.423149794 0.367741913 0.268184960
0.450474173 0.373813987 0.273624450
0.476280540 0.377988696 0.272865057
0.505629420 0.382036567 0.277419269
0.540543973 0.386590779 0.280582070
0.576217711 0.393421888 0.288930774
0.614167988 0.402530283 0.295002788
0.652245104 0.409993559 0.303984642
0.691713870 0.421125591 0.313093066
0.730423629 0.429474890 0.323339790
0.775078595 0.438962728 0.337887585
0.814547718 0.453383505 0.351802319
0.857937992 0.468310982 0.368500769
0.900442839 0.481973588 0.386717200
0.165085375 0.343959183 0.246552989
0.163567558 0.351549774 0.246552989
0.162428990 0.350917190 0.246679366
0.173561320 0.350917190 0.240860209
0.179886371 0.353699952 0.256293178
0.191271380 0.356736302 0.254775196
0.203921184 0.360278368 0.253257513
0.213282600 0.358760178 0.256293476
0.226186275 0.360278189 0.259329289
0.245920673 0.364073485 0.264642954
0.262871861 0.364073515 0.260594457
0.278052121 0.368627459 0.261606187
0.295509040 0.371663541 0.259329200
0.316761434 0.374699205 0.263630807
0.338013768 0.379506379 0.266666740
0.359266162 0.383175194 0.267931581
0.383554578 0.386211157 0.266413778
0.407843143 0.389879972 0.270082116
0.438582987 0.393801212 0.278305143
0.466413736 0.399620175 0.284630179
0.492979139 0.405313104 0.288045436
0.518279493 0.408349246 0.288045168
0.553953171 0.413915187 0.294244289
0.587603033 0.419987172 0.303352296
0.624794245 0.428336471 0.310183167
0.661480010 0.436053187 0.317646831
0.698292196 0.447944194 0.325743109
0.735736847 0.456040174 0.332827240
0.774066746 0.464769006 0.345730811
0.819101572 0.476154119 0.365464926
0.858570576 0.495255768 0.379759401
0.900442839 0.509297967 0.394307375
0.188108981 0.368374109 0.273118168
0.188741565 0.378621310 0.265275359
0.188488349 0.380645365 0.263251543
0.193042293 0.380139112 0.263883978
0.209361523 0.380518556 0.266160607
0.209614560 0.383554906 0.271473587
0.220999226 0.387855977 0.270588309
0.234534979 0.389626831 0.270841449
0.248071060 0.387602538 0.273244679
0.263251454 0.393674552 0.276281059
0.280075967 0.391650856 0.273497701
0.297533214 0.394054532 0.275901169
0.315623194 0.398988068 0.279316574
0.336622566 0.402529687 0.274509609
0.357495368 0.406324953 0.278304964
0.378747761 0.409361333 0.280708343
0.401771158 0.412397325 0.282858551
0.427198112 0.414800525 0.282226115
0.451486200 0.420872539 0.288298905
0.479190499 0.426944733 0.294370979
0.507780254 0.432384461 0.297912806
0.535863698 0.438077420 0.301327974
0.569260061 0.441239536 0.307526499
0.600126803 0.447311521 0.316634893
0.633776128 0.455660820 0.324098587
0.668816984 0.463377535 0.331562221
0.702720106 0.470461547 0.341682494
0.742061973 0.482605517 0.345224112
0.776849926 0.490828365 0.355597615
0.815432966 0.503605068 0.373561084
0.857305586 0.515243173 0.394939631
0.896773994 0.536495566 0.407084405
0.206325084 0.404807031 0.285262972
0.209361464 0.407843411 0.282226592
0.214295030 0.409488052 0.282985806
0.222137988 0.411765039 0.284503996
0.233649611 0.416951478 0.284377426
0.236685991 0.419987082 0.281341046
0.244528696 0.420493066 0.281594008
0.255787432 0.420999050 0.282985747
0.269450009 0.420746028 0.285262972
0.287539542 0.420999050 0.285389483
0.299810052 0.421252042 0.282606155
0.318532288 0.423023343 0.283618271
0.340417325 0.426312655 0.286907315
0.363947034 0.429854929 0.289690048
0.382162988 0.438962519 0.298798412
0.403035849 0.442757845 0.300190002
0.424288243 0.445793837 0.301960766
0.445414186 0.448197037 0.303478599
0.463631034 0.448197007 0.300442964
0.493485034 0.454269737 0.306515038
0.525490344 0.458444208 0.308792025
0.556357145 0.462745070 0.310056865
0.584440470 0.468564004 0.313598543
0.617836952 0.474635988 0.322706938
0.648703575 0.482985288 0.331815302
0.680961609 0.490702003 0.340670645
0.714864135 0.497786015 0.350790918
0.751296878 0.509930015 0.365970552
0.787982583 0.514104903 0.374825835
0.824161828 0.528273225 0.389500439
0.859582245 0.544339001 0.407337368
0.890702009 0.551676035 0.422264099
0.263504475 0.469070464 0.311322361
0.263757497 0.469323516 0.311069340
0.264643103 0.470209122 0.305882186
0.269450098 0.471473962 0.307020813
0.277799100 0.474889308 0.308539033
0.283238679 0.473118544 0.307906449
0.288804740 0.473624468 0.309930682
0.300948799 0.475268751 0.310183734
0.313472658 0.477166206 0.312840372
0.325616390 0.479190469 0.316888392
0.340796709 0.479190469 0.316761881
0.359012991 0.479190469 0.315749764
0.379127026 0.480329096 0.316888392
0.399620771 0.481467754 0.318026751
0.417836726 0.482985675 0.319544792
0.443263531 0.487286299 0.326249391
0.463757128 0.488804400 0.327008367
0.484377056 0.490575343 0.327514142
0.506894350 0.492726117 0.324477971
0.536243141 0.495508730 0.329791039
0.560910821 0.499683768 0.335863501
0.588741541 0.505755782 0.340670615
0.616192400 0.515243232 0.347121745
0.646932662 0.518659055 0.348260283
0.682605684 0.524731100 0.359645933
0.716761291 0.531941772 0.369260043
0.750537455 0.538519859 0.379380077
0.780138910 0.548387110 0.394560248
0.811258674 0.560531080 0.412397385
0.847438335 0.571030915 0.425426811
0.881214321 0.588488340 0.443516612
0.909677386 0.600253105 0.462491721
0.297659993 0.507400751 0.325363994
0.295762241 0.503605247 0.327261239
0.299557239 0.514990747 0.324857920
0.303352386 0.512460709 0.327640623
0.310815990 0.513219476 0.332068384
0.319923997 0.511701643 0.329032004
0.325996459 0.511195719 0.327767313
0.337001741 0.516129017 0.334092706
0.351423204 0.518911719 0.332574636
0.361669719 0.520809472 0.332954019
0.372801572 0.520936012 0.335104257
0.392029971 0.520936012 0.337001979
0.412144005 0.520936012 0.337001979
0.430360734 0.521442056 0.337761045
0.448576689 0.524731457 0.342694730
0.470208526 0.523339629 0.343706727
0.494496912 0.526375651 0.348260522
0.513093114 0.528020203 0.349272579
0.534851551 0.532321453 0.348766476
0.562808454 0.535357118 0.350284457
0.591271460 0.538393199 0.356356472
0.613535702 0.540417492 0.360404998
0.640227497 0.548766434 0.366982728
0.672359586 0.553573668 0.374066740
0.707273722 0.558886766 0.385072529
