Assets/Shaders/EldamarStudio/100 Sci-Fi LUTs Pack/LUTs/cube/Cicada LUT.cube
LUT_3D_SIZE 5
DOMAIN_MIN 0.000000 0.000000 0.000000
DOMAIN_MAX 0.903226 0.903226 0.903226
0.000000000 0.000000000 0.078431003
0.053004406 0.007843000 0.090195999
0.187729403 0.045161411 0.116381995
0.369007230 0.107905999 0.163820133
0.667425513 0.171410650 0.239468634
0.003922000 0.107906409 0.117014416
0.088677689 0.119670987 0.129158691
0.224035099 0.148134112 0.154965416
0.408854812 0.193295270 0.204301134
0.693232119 0.249209553 0.259962112
0.124984398 0.286400974 0.218342990
0.184187099 0.305755675 0.228209987
0.310689390 0.323086798 0.243263826
0.496141940 0.356736124 0.268058002
0.764705777 0.413408965 0.325110376
0.324984103 0.532701135 0.336496145
0.368374676 0.544465542 0.348260701
0.478937238 0.557874799 0.362049520
0.636812329 0.575838149 0.381657124
0.841619074 0.624920905 0.452624798
0.656925738 0.790006459 0.582542539
0.687792420 0.805439413 0.598228693
0.737760782 0.810246348 0.609108031
0.818342924 0.821378767 0.626059592
0.914231658 0.840986788 0.671220720
0.006198711 0.005566289 0.127134711
0.044528987 0.015053997 0.139278978
0.194939822 0.063124701 0.171283990
0.380012661 0.123592995 0.229474828
0.664389551 0.169386402 0.277545869
0.008855285 0.103984989 0.160531685
0.083111979 0.125236690 0.181783408
0.221758381 0.153699979 0.203036115
0.402276844 0.195825279 0.236052826
0.688298404 0.242631391 0.300189823
0.128526121 0.288678110 0.254016697
0.172928706 0.298545122 0.255913675
0.308412105 0.320429951 0.274636418
0.490322948 0.350537807 0.299177527
0.755217791 0.407210499 0.359392673
0.312460393 0.524224997 0.364579529
0.362808377 0.535357118 0.383934230
0.471094221 0.546110034 0.385199428
0.628589272 0.565085411 0.406451553
0.834535182 0.615433276 0.464136779
0.652624846 0.788994074 0.588108778
0.681340694 0.796204746 0.603794694
0.729917586 0.803668320 0.612903178
0.812523484 0.815180480 0.633143485
0.907653391 0.837444663 0.671853483
0.000632584 0.022896579 0.217710406
0.034408279 0.038962699 0.230487108
0.187729403 0.075900987 0.262239397
0.380138814 0.127513990 0.309677541
0.666034400 0.155597836 0.376091212
0.018722277 0.128146991 0.259329677
0.087033398 0.136369273 0.263503969
0.220746517 0.162555113 0.291967094
0.402656496 0.195572406 0.325996101
0.688551307 0.226565689 0.386590809
0.139278576 0.282479823 0.308539003
0.192663103 0.296900809 0.332194358
0.311321795 0.323719382 0.359013408
0.495509088 0.346616387 0.383554518
0.760151565 0.393801630 0.436306208
0.331815392 0.520935893 0.437444806
0.375838101 0.525490165 0.449588686
0.468437672 0.542820871 0.451233387
0.628210008 0.566730142 0.476786822
0.836559057 0.614800632 0.529917777
0.644402146 0.788741469 0.617457390
0.672106266 0.796331525 0.633523047
0.728020191 0.801770747 0.651486635
0.805565834 0.811637998 0.664642632
0.903604984 0.835799873 0.703858614
0.000000000 0.066792995 0.369007230
0.063883692 0.074256703 0.374193251
0.225426942 0.102719992 0.402276814
0.404427260 0.126502126 0.436559141
0.677545846 0.154964998 0.506009102
0.020366827 0.158886984 0.388109148
0.110183269 0.164452702 0.398608536
0.251865804 0.179506540 0.419860840
0.438709378 0.193548560 0.458823532
0.704364240 0.226185828 0.521188855
0.163820282 0.315875977 0.441113561
0.216824949 0.329031974 0.457938075
0.335230649 0.334471524 0.471220970
0.514104843 0.344971687 0.501961112
0.766350269 0.380644977 0.560531259
0.360152125 0.515117168 0.535737276
0.398608714 0.528779149 0.539152086
0.493485093 0.537634254 0.559772313
0.635800242 0.567995131 0.581783354
0.841872096 0.604680419 0.627198279
0.655281782 0.775711417 0.702213943
0.679949462 0.786970139 0.709297657
0.716508448 0.797596276 0.710562706
0.797849655 0.812017918 0.725237072
0.906641304 0.840354204 0.751170099
0.005312988 0.115116984 0.633269548
0.142061800 0.117773816 0.636179507
0.323339581 0.122959986 0.656799555
0.531941593 0.113724999 0.678684294
0.758886397 0.135989830 0.706388593
0.017710153 0.192662835 0.642504573
0.161037371 0.197849691 0.651865721
0.338266790 0.201138258 0.659708858
0.542061925 0.198481843 0.686527252
0.765717864 0.220113844 0.714990556
0.125363857 0.351928949 0.671094477
0.214168280 0.352182090 0.674130440
0.376849800 0.357115805 0.691460967
0.578368068 0.359013230 0.706388414
0.803921163 0.379379958 0.742441118
0.421252340 0.576217234 0.717773616
0.454522371 0.580265760 0.720809758
0.533206820 0.579506636 0.728273332
0.654649079 0.572928250 0.744844973
0.846299767 0.599114418 0.774699509
0.684250534 0.784946442 0.793927789
0.691207826 0.790385902 0.801517725
0.738519967 0.797217011 0.806451142
0.806957781 0.812017918 0.822770476
0.912839949 0.845034659 0.850221395
