Assets/Shaders/EldamarStudio/100 Sci-Fi LUTs Pack/LUTs/cube/Cicada LUT.cube
LUT_3D_SIZE 8
DOMAIN_MIN 0.000000 0.000000 0.000000
DOMAIN_MAX 0.903226 0.903226 0.903226
0.000000000 0.000000000 0.078431003
0.005439999 0.000000000 0.071346998
0.071980089 0.007843002 0.090195999
0.145224631 0.026944643 0.104237996
0.241113171 0.064895995 0.130044192
0.342694730 0.097785987 0.154712260
0.482226551 0.134597987 0.188868001
0.667425513 0.171410650 0.239468634
0.003542452 0.045034546 0.090575546
0.018342545 0.042251997 0.094876997
0.086906999 0.061480545 0.106640995
0.160531297 0.078684546 0.124604903
0.241872177 0.102972537 0.142314553
0.345730513 0.135104537 0.169259995
0.481847018 0.162935004 0.199114293
0.655913889 0.197976261 0.240480497
0.008475997 0.126882091 0.128400087
0.051233549 0.131562099 0.132827550
0.117520094 0.140164092 0.147375092
0.183934182 0.156610101 0.154332995
0.277166277 0.176217377 0.173940271
0.380771726 0.202403739 0.202529833
0.519038558 0.233396649 0.227198184
0.701834381 0.268184930 0.266539931
0.076913632 0.227704287 0.189500287
0.107021078 0.231245816 0.192662999
0.156862736 0.243010730 0.197849646
0.229981273 0.256799281 0.201264992
0.320430011 0.275521964 0.220114097
0.424794436 0.291967273 0.239721999
0.555218160 0.316255271 0.260721266
0.720176995 0.352182060 0.294370472
0.165085375 0.343959183 0.246552989
0.179886371 0.353699952 0.256293178
0.226186275 0.360278189 0.259329289
0.295509040 0.371663541 0.259329200
0.383554578 0.386211157 0.266413778
0.492979139 0.405313104 0.288045436
0.624794245 0.428336471 0.310183167
0.774066746 0.464769006 0.345730811
0.297659993 0.507400751 0.325363994
0.310815990 0.513219476 0.332068384
0.351423204 0.518911719 0.332574636
0.412144005 0.520936012 0.337001979
0.494496912 0.526375651 0.348260522
0.591271460 0.538393199 0.356356472
0.707273722 0.558886766 0.385072529
0.830233634 0.594307423 0.435167640
0.444275558 0.646932542 0.412650287
0.453636646 0.654395998 0.417077839
0.495256364 0.654016316 0.432131559
0.545603812 0.660341263 0.436812282
0.608095765 0.661100388 0.442504674
0.682099700 0.672106266 0.457305551
0.764579535 0.678304553 0.482226551
0.863251209 0.701707959 0.521694839
0.656925738 0.790006459 0.582542539
0.679190516 0.804933727 0.594307303
0.691081762 0.805186450 0.592662573
0.720050752 0.809867144 0.599999964
0.762301922 0.809613764 0.615433455
0.802656770 0.818089843 0.621252477
0.855154753 0.827577174 0.643010795
0.914231658 0.840986788 0.671220720
0.000000000 0.003922000 0.094876997
0.001517999 0.003542452 0.088172443
0.074383192 0.017963096 0.116002090
0.150284365 0.045793545 0.133206889
0.237318084 0.077925548 0.159898907
0.340796918 0.110309988 0.182542995
0.470968008 0.142188549 0.217836991
0.651106596 0.170398533 0.252245367
0.003542452 0.041492999 0.108159088
0.021505548 0.049715545 0.119164996
0.079822995 0.062239449 0.128146634
0.157369003 0.084629998 0.146995559
0.243517190 0.109677181 0.168121353
0.338646531 0.139025539 0.192030296
0.465022266 0.163314566 0.220113799
0.634028673 0.188614964 0.258064508
0.019481191 0.126882002 0.152055904
0.046932094 0.129159093 0.152435437
0.108412541 0.146868750 0.154712543
0.182795614 0.157369107 0.171537101
0.271726996 0.180518642 0.191145077
0.369765908 0.200885549 0.211891338
0.506388366 0.225553185 0.241998985
0.681720257 0.260973990 0.279317260
0.080075733 0.223402932 0.196837544
0.103985086 0.230107278 0.202403545
0.149651930 0.237950265 0.202024087
0.224920928 0.251233280 0.216571644
0.312966466 0.265654653 0.231878281
0.408349365 0.286527187 0.245920181
0.536369205 0.309550911 0.271347523
0.699303865 0.342315108 0.304111421
0.151802376 0.343074083 0.247691184
0.175332099 0.342947274 0.261353731
0.219987169 0.352435291 0.269576192
0.289310515 0.363820642 0.271473736
0.379759371 0.375838369 0.282100171
0.482732713 0.391524285 0.292219996
0.609993696 0.418975472 0.315749496
0.754838526 0.456546336 0.357115537
0.284883171 0.490322471 0.334851533
0.299683452 0.497659922 0.334977537
0.338899583 0.503858209 0.336749196
0.402656734 0.510942578 0.342315018
0.484503657 0.520809472 0.349272460
0.578115225 0.531435728 0.366856754
0.694876909 0.553320885 0.386843771
0.826438785 0.588614643 0.437065303
0.428969085 0.630360365 0.419860989
0.448323876 0.641492844 0.422643840
0.479190081 0.643896461 0.426312804
0.534598470 0.648070991 0.438456476
0.594560087 0.655534565 0.444908291
0.675268829 0.657558858 0.460594743
0.759392798 0.671220541 0.476786852
0.847944081 0.692093313 0.514737487
0.652371764 0.787223339 0.569766104
0.671852946 0.797849476 0.582163155
0.685515106 0.798987925 0.588741362
0.717267573 0.804047942 0.599493682
0.751929283 0.806324959 0.613409162
0.807463765 0.815559626 0.622517645
0.849335611 0.820999324 0.637571156
0.914358258 0.834282339 0.663124323
0.003162904 0.009360999 0.133965999
0.001138547 0.008602097 0.133586556
0.065780997 0.021885097 0.156736091
0.148007184 0.049715545 0.175205633
0.242758080 0.081467383 0.198228985
0.348387003 0.115496732 0.226691723
0.475142479 0.142568097 0.257052362
0.660594583 0.165338084 0.288171977
0.000000000 0.050094999 0.134725094
0.011258641 0.051613092 0.151170090
0.079443552 0.070082545 0.165717646
0.155344725 0.089690439 0.181783900
0.246805996 0.117520280 0.206578255
0.344085902 0.145350933 0.227577731
0.474004000 0.163314462 0.254269540
0.640100956 0.191271290 0.290828705
0.020240191 0.124478094 0.182542980
0.055913743 0.131941631 0.186084643
0.111954190 0.148007289 0.204553992
0.182795718 0.162935004 0.216319010
0.274130285 0.183302090 0.230360284
0.379253745 0.206451744 0.250727087
0.508032799 0.229475275 0.272485793
0.688804448 0.260341913 0.312839836
0.088298187 0.227324724 0.228209719
0.114990279 0.230107278 0.230993181
0.160404995 0.242251724 0.241239980
0.223782271 0.256040365 0.249082983
0.315370262 0.268564284 0.266413897
0.410373092 0.286527395 0.279190451
0.544591844 0.310056984 0.301834434
0.702592969 0.344339073 0.332700461
0.167489186 0.340797067 0.288298279
0.184819892 0.350917190 0.288425088
0.227071270 0.356483281 0.288298249
0.284124166 0.362682194 0.294876724
0.372802079 0.375964344 0.305629164
0.483491510 0.392789543 0.318153083
0.609234512 0.418343067 0.341555983
0.763567388 0.454522401 0.378114909
0.287159979 0.493611455 0.354965091
0.301328093 0.495762378 0.358507544
0.344339073 0.498165578 0.362175703
0.402403355 0.502340078 0.371030837
0.482605904 0.517267644 0.374825895
0.575458467 0.526375473 0.386464119
0.694876730 0.550537705 0.410626143
0.821884871 0.588614941 0.455787361
0.421884745 0.627324581 0.429222077
0.451359659 0.635294080 0.443896443
0.482099861 0.640733838 0.451992393
0.530929923 0.645414531 0.456925809
0.593295574 0.650980413 0.467299253
0.671347141 0.658317506 0.478684187
0.757368505 0.668943703 0.491714120
0.855028272 0.693485081 0.527008116
0.649841785 0.784692764 0.590638757
0.666666508 0.794181049 0.599999785
0.680075645 0.795951724 0.602782667
0.712966144 0.801012039 0.612144172
0.752814651 0.806071937 0.620366752
0.800885320 0.814674437 0.629601479
0.850347936 0.819481492 0.646299839
0.910183787 0.837697625 0.672865391
0.003922000 0.016824644 0.196711004
0.000000000 0.017583644 0.196711004
0.061859805 0.034408901 0.210373446
0.148007289 0.054395642 0.228083283
0.245920181 0.089690447 0.253890008
0.347248644 0.119417734 0.277293086
0.479949564 0.141809002 0.306008637
0.673877597 0.158380806 0.346615642
0.000759096 0.065401636 0.206578359
0.009361095 0.075268902 0.200506091
0.073497988 0.081087641 0.219860643
0.160910636 0.094750091 0.237065345
0.245414644 0.119038180 0.253510654
0.350031376 0.145603999 0.279443532
0.484250516 0.167362362 0.305502892
0.654269457 0.181530729 0.339531809
0.031246096 0.142188549 0.231878370
0.062998451 0.150411084 0.240607083
0.114231281 0.160278559 0.242757976
0.186717540 0.170398459 0.256926090
0.282352835 0.184060991 0.278178275
0.378494829 0.209234908 0.292093396
0.519417763 0.229221836 0.323971927
0.700316191 0.244781643 0.361163884
0.109930634 0.226565629 0.268564284
0.133080274 0.231752276 0.277672648
0.167868644 0.247438177 0.282352626
0.233902276 0.263503909 0.298798651
0.318153024 0.272486001 0.311448425
0.424161732 0.286906928 0.325110286
0.555218220 0.310056984 0.346489638
0.718912184 0.339405626 0.381150961
0.181910023 0.345097840 0.329411834
0.203668281 0.348133802 0.330550283
0.241239890 0.357242286 0.338520110
0.293105841 0.364579558 0.338393182
0.375458807 0.380139023 0.348639995
0.492219836 0.393928200 0.368374288
0.618975222 0.419861168 0.390259266
0.772548735 0.454649031 0.425174117
0.289563477 0.488551646 0.397976011
0.315243632 0.495508820 0.406704456
0.353826374 0.499810249 0.408096284
0.409487486 0.507147670 0.413282633
0.491334796 0.518152893 0.422643811
0.583428502 0.529538333 0.430486798
0.699430645 0.545857131 0.450727522
0.821505547 0.590512455 0.493864715
0.435800254 0.627324224 0.475395560
0.459456265 0.639089227 0.479317158
0.488425165 0.639215589 0.488045275
0.536116600 0.645793915 0.492219955
0.599747062 0.652877867 0.499557167
0.676660240 0.656420290 0.510183632
0.758507192 0.673244953 0.527008235
0.856926024 0.697786272 0.562428832
0.651612759 0.793168962 0.621758580
0.664389729 0.792283356 0.623023391
0.682732344 0.795572460 0.629728258
0.711448252 0.799367249 0.632763863
0.748260319 0.802150309 0.637318373
0.793421745 0.810752392 0.651865900
0.855407774 0.819354892 0.667299211
0.909677327 0.837064743 0.694623172
0.004807003 0.030486997 0.254649192
0.000379548 0.037191644 0.257178724
0.068058290 0.054016192 0.275016069
0.152688086 0.065780997 0.291840643
0.248956189 0.093231998 0.307780176
0.354079276 0.123339735 0.332827181
0.486148000 0.148134202 0.368880272
0.674130201 0.159519166 0.410499662
0.007084194 0.081846736 0.268311322
0.015559996 0.084629998 0.269955546
0.080834731 0.093485437 0.280075818
0.161164075 0.104996897 0.293358535
0.252498627 0.118658826 0.309803814
0.350284636 0.150411204 0.337254733
0.487286657 0.166476548 0.363314390
0.656419635 0.184313804 0.404174179
0.043896291 0.154965088 0.284377068
0.074762739 0.167235658 0.297280371
0.122074291 0.170018911 0.307147175
0.198102280 0.174193740 0.318026394
0.283365190 0.187982202 0.340797096
0.380392373 0.209108278 0.352435172
0.523592770 0.228842288 0.384566665
0.698924780 0.245540932 0.426565170
0.116635084 0.244276077 0.322327822
0.138772622 0.247817636 0.333333433
0.176723376 0.257937908 0.337634176
0.237444609 0.264642268 0.350031465
0.317647278 0.270461649 0.364579439
0.423276365 0.291334450 0.383681267
0.563061178 0.304617167 0.407210469
0.724098384 0.325236797 0.442757785
0.194940180 0.343074203 0.375332177
0.222896829 0.347374707 0.375332177
0.257685214 0.358760148 0.385452271
0.312460184 0.369766176 0.396078557
0.393169165 0.386211187 0.411258340
0.495635450 0.396331370 0.426186174
0.627197802 0.415939480 0.445920169
0.777988434 0.444908381 0.479822814
0.317140967 0.486147940 0.447817713
0.340164632 0.489057511 0.453636974
0.369513065 0.497786015 0.459835351
0.420493364 0.509930253 0.470968187
0.494117439 0.514990687 0.471979916
0.589753270 0.529158890 0.489690185
0.704491019 0.552182257 0.511195481
0.829348385 0.585325658 0.541556060
0.450980455 0.629728198 0.527387559
0.472612530 0.635294080 0.531688690
0.497786254 0.638456345 0.536622286
0.537887514 0.645540893 0.537634313
0.604554474 0.652498305 0.546742558
0.679063678 0.661100388 0.554459393
0.763567269 0.675142527 0.567741811
0.862492144 0.702340245 0.605186522
0.646173239 0.788614810 0.648956239
0.663883567 0.792789400 0.647311568
0.676913381 0.793548405 0.658697069
0.708285987 0.800126135 0.659709036
0.747754574 0.800632417 0.662492156
0.794054151 0.814294875 0.680328786
0.853889585 0.819734156 0.693737924
0.907779932 0.840860248 0.721315444
0.002024260 0.058696993 0.338646710
0.001517999 0.065022185 0.335610747
0.085641831 0.071220897 0.353194088
0.170524895 0.084503479 0.365338624
0.263250917 0.101454541 0.389120668
0.365970731 0.117393985 0.405186743
0.487918794 0.147627831 0.429981172
0.673750579 0.154459000 0.480708450
0.000000000 0.097786278 0.342567712
0.010373348 0.104237996 0.340290755
0.091461085 0.110436179 0.355976850
0.174825937 0.122959986 0.368500918
0.261606842 0.128399804 0.384819716
0.366603196 0.149652004 0.405566275
0.488678008 0.162935004 0.427957028
0.656040311 0.178494662 0.476786762
0.041366190 0.175078735 0.370651633
0.073750541 0.179632932 0.368247896
0.129411742 0.181657091 0.376597196
0.203794718 0.187223196 0.393548548
0.293864757 0.194180980 0.409487456
0.400000095 0.208476007 0.430739969
0.522833467 0.224541441 0.452245533
0.705629349 0.243137449 0.501707613
0.120556727 0.256926090 0.399114370
0.141935647 0.262998074 0.407589912
0.183427930 0.264895797 0.400759339
0.245161012 0.271220654 0.420113742
0.330423802 0.277545810 0.432131529
0.437191635 0.288551629 0.451360017
0.561290324 0.296647638 0.476786673
0.719544768 0.320809275 0.512334108
0.206957728 0.360530943 0.442125112
0.225806564 0.361037374 0.443010628
0.266540110 0.373561054 0.451486647
0.320556641 0.377102941 0.457684994
0.396964192 0.385705113 0.476154447
0.501328170 0.393169194 0.497786105
0.630613327 0.407210678 0.514484286
0.778114796 0.433776289 0.544844985
0.326755226 0.483744711 0.501328468
0.346110195 0.486400992 0.507652998
0.380392373 0.492599398 0.512839973
0.429728270 0.499683440 0.522074580
0.498671442 0.512966454 0.529411495
0.589247167 0.528526485 0.544338942
0.710436285 0.543073714 0.566856265
0.828209877 0.574066877 0.595572293
0.464263290 0.617710233 0.568374693
0.482479542 0.624920845 0.582795739
0.511321843 0.629601240 0.582289994
0.546362817 0.634661913 0.592409730
0.604680419 0.645667136 0.601897657
0.677798748 0.660215259 0.610879302
0.763567269 0.676154256 0.620620072
0.863630831 0.701960683 0.652245224
0.651739419 0.776976585 0.692346513
0.666034222 0.785578668 0.686906934
0.679443598 0.783934295 0.694117785
0.702846169 0.791397750 0.696647584
0.739784956 0.802530050 0.700569272
0.787223399 0.809487760 0.711321950
0.849209487 0.824794352 0.730044305
0.908159554 0.840354502 0.742314637
0.003289004 0.083617993 0.459329545
0.012397286 0.088551708 0.452498257
0.114104800 0.095509090 0.464263082
0.206957921 0.106514707 0.485009611
0.305882245 0.108918190 0.495635271
0.415180296 0.114104547 0.516761541
0.543959260 0.129411995 0.534851253
0.679443121 0.155977294 0.564832389
0.000000000 0.119418025 0.443263829
0.023529097 0.123466447 0.463630259
0.115243442 0.127640992 0.467299461
0.207210571 0.133206800 0.478431553
0.307527065 0.136622354 0.494370818
0.420240462 0.140670359 0.515622973
0.539911270 0.154459000 0.531309307
0.666413724 0.172548801 0.554459035
0.018595900 0.189627096 0.471853465
0.075142287 0.191144899 0.480076253
0.147880986 0.192662895 0.492473155
0.235167816 0.197722733 0.499177635
0.330170572 0.205186576 0.517520368
0.441239655 0.204933554 0.531309187
0.569639444 0.217710286 0.555977225
0.707653582 0.236938730 0.583428264
0.107147276 0.271473557 0.504111290
0.126881704 0.276281059 0.505123079
0.187096909 0.277166367 0.511701643
0.262491941 0.280834913 0.519291580
0.358760267 0.288172007 0.534724474
0.465148807 0.288551539 0.550031781
0.592789471 0.296015292 0.571410537
0.725742996 0.313472688 0.589879692
0.210879192 0.384440362 0.527893484
0.239215821 0.384946018 0.537128448
0.272359103 0.389247388 0.547375023
0.327766925 0.387349844 0.552055657
0.408602178 0.387729377 0.570777655
0.515117168 0.395951927 0.585705519
0.638962626 0.404174477 0.606957436
0.778114736 0.424161702 0.624288261
0.351676226 0.506388426 0.584819734
0.364705771 0.512586772 0.594560266
0.397343814 0.512840033 0.599493861
0.444781631 0.518785596 0.601770818
0.512334108 0.525869668 0.612523615
0.591903448 0.529031992 0.627451241
0.706767738 0.538519740 0.647438288
0.827071488 0.562175512 0.671600282
0.472738862 0.617836833 0.644655228
0.483364850 0.623529553 0.637444854
0.514990449 0.627197683 0.639848471
0.558507144 0.631878614 0.653130829
0.609867394 0.639089584 0.657179177
0.681720316 0.653130829 0.674889326
0.756736577 0.678304553 0.686148047
0.866413653 0.694117725 0.711068630
0.663124681 0.772422552 0.739152193
0.668690443 0.779759467 0.736748576
0.688551426 0.776849806 0.736875236
0.709297836 0.783554733 0.740037680
0.748893142 0.793042183 0.750031710
0.790006042 0.805692732 0.757242560
0.843390346 0.820999384 0.772801757
0.906641364 0.839721620 0.786337852
0.005312988 0.115116984 0.633269548
0.064389341 0.118405998 0.631625295
0.169133410 0.117773816 0.637950718
0.271979451 0.120303832 0.651359797
0.382542849 0.123086803 0.661985755
0.497533411 0.116508350 0.674130499
0.626944661 0.105881996 0.689057291
0.758886397 0.135989830 0.706388593
0.003795180 0.146995544 0.618216276
0.065401644 0.145098105 0.624415040
0.161669448 0.146742821 0.635546923
0.269576132 0.149904922 0.642884195
0.377355963 0.152182296 0.650094926
0.499177724 0.152055711 0.669576406
0.623276174 0.136875257 0.685135901
0.748386562 0.164326057 0.699557006
0.019734144 0.209108084 0.640986562
0.094623700 0.214041635 0.641366482
0.187855989 0.214548096 0.655407608
0.288678259 0.217710182 0.658696830
0.392662734 0.216192186 0.664263010
0.512713313 0.220240191 0.682226300
0.640607357 0.214421272 0.701707661
0.772042632 0.236559078 0.718026519
0.064895816 0.293991297 0.649841905
0.122960009 0.295888752 0.659202814
0.203289181 0.298419088 0.660594463
0.307400465 0.304237813 0.673118591
0.411132276 0.304996908 0.679569602
0.527261317 0.302593619 0.691208065
0.650980353 0.298039436 0.702846289
0.778874040 0.321315438 0.719038248
0.205945596 0.407210559 0.671726763
0.226059273 0.412776560 0.679822922
0.266540021 0.408728361 0.683364987
0.340544075 0.402656376 0.687666178
0.441492647 0.408475727 0.697027147
0.554965198 0.408475727 0.707020640
0.678178549 0.410879225 0.724857748
0.810878932 0.428210169 0.738013685
0.394939721 0.548639774 0.711701751
0.408728808 0.550537527 0.708412468
0.429981023 0.551676154 0.713725269
0.478557825 0.546995640 0.723212957
0.527767062 0.540796936 0.722960114
0.611132264 0.537760615 0.734977782
0.727514267 0.545097888 0.753447235
0.842504680 0.564199805 0.768121362
0.532321036 0.658949792 0.748766422
0.542694390 0.668943822 0.743833065
0.566982806 0.665654778 0.745477617
0.595066309 0.672485709 0.750664175
0.643643260 0.672359049 0.755091548
0.702719688 0.677039742 0.762934506
0.774699271 0.680581808 0.773181379
0.874510050 0.699304521 0.802909613
0.684250534 0.784946442 0.793927789
0.680835128 0.789121032 0.800505638
0.699556828 0.791397750 0.799999833
0.720176876 0.794180810 0.800379395
0.758001149 0.796584606 0.805945456
0.796331465 0.807463467 0.822011352
0.845161200 0.822011471 0.830613494
0.912839949 0.845034659 0.850221395
