Assets/Shaders/EldamarStudio/100 Sci-Fi LUTs Pack/LUTs/cube/Colou LUT.cube
LUT_3D_SIZE 5
DOMAIN_MIN 0.000000 0.000000 0.000000
DOMAIN_MAX 0.903226 0.903226 0.903226
0.000000000 0.000000000 0.007843000
0.102340281 0.021252289 0.002277292
0.253763795 0.053636990 0.000000000
0.494497240 0.050980002 0.002023998
0.781024456 0.026185833 0.000000000
0.002277292 0.163820699 0.001644708
0.060847413 0.172295704 0.002277292
0.261606812 0.186717525 0.001644708
0.503352106 0.197849691 0.000000000
0.787223458 0.212903276 0.001644708
0.000000000 0.382542402 0.000000000
0.000000000 0.386843652 0.003288997
0.297026813 0.385831803 0.000000000
0.535357535 0.393042237 0.001644712
0.802529991 0.430360794 0.024288403
0.008728874 0.629854262 0.034535121
0.001264999 0.635294139 0.058064699
0.327513933 0.637318134 0.079063699
0.572928250 0.636685371 0.110056996
0.824035585 0.658570230 0.162175953
0.098291963 0.868437767 0.251612753
0.256166935 0.880455554 0.264263034
0.452245146 0.874889433 0.281593591
0.651107132 0.875268936 0.303351939
0.846299767 0.881467640 0.342947453
0.016319003 0.001644708 0.142567992
0.125869706 0.026818417 0.143579692
0.269829094 0.068943709 0.145603687
0.495509118 0.071853422 0.185578704
0.785578787 0.000000000 0.223402679
0.000000000 0.177861989 0.143579692
0.063124701 0.175584689 0.149778411
0.270841390 0.189626992 0.172422528
0.518279135 0.180139273 0.197849274
0.786211610 0.155344695 0.217836812
0.000632584 0.379253805 0.191903695
0.002277292 0.377988815 0.198228806
0.289563507 0.383807421 0.196584105
0.535357296 0.386843503 0.212903112
0.802529991 0.412017792 0.241745517
0.000000000 0.620240569 0.264895827
0.003922000 0.626818359 0.257178962
0.303984940 0.624541640 0.261353523
0.572928190 0.628463209 0.277039677
0.820619822 0.654016614 0.304870397
0.139152259 0.868690550 0.363440484
0.279316783 0.875268936 0.367615223
0.464642584 0.870335221 0.375838101
0.651739240 0.874383152 0.388867944
0.843643606 0.878304780 0.420113623
0.000632584 0.003922000 0.429728210
0.107905999 0.009108006 0.430993199
0.342188388 0.013662430 0.444149226
0.539911151 0.021758312 0.435293943
0.781657040 0.000632584 0.480708212
0.000000000 0.173307985 0.447058916
0.010499573 0.175585121 0.441492796
0.322453976 0.178494409 0.451233387
0.536369383 0.177482292 0.447691113
0.793674707 0.160784572 0.480329067
0.001897590 0.390385360 0.459709227
0.000000000 0.391397685 0.463630825
0.283870816 0.379886419 0.470840961
0.552055299 0.376976669 0.477672666
0.815053642 0.402277231 0.495761961
0.000000000 0.618342698 0.497659802
0.000000000 0.619608104 0.500569224
0.314231604 0.623909295 0.501328111
0.574952185 0.626818419 0.510436118
0.819481552 0.655661106 0.523845792
0.071726345 0.865780830 0.519797385
0.265401661 0.875648201 0.525616527
0.492093623 0.864389658 0.547375202
0.674383223 0.867805183 0.554206133
0.851486444 0.879570067 0.575584829
0.001012128 0.000000000 0.694497287
0.148640245 0.001644708 0.702972829
0.374699384 0.001012128 0.697407126
0.587476134 0.000000000 0.705250144
0.793927550 0.001012128 0.719038486
0.007463875 0.169386402 0.701202154
0.059709389 0.169639692 0.699431121
0.361922681 0.165464982 0.703605413
0.577482283 0.163187698 0.699304581
0.794560611 0.170778245 0.726249099
0.000000000 0.381530523 0.702214003
0.002656836 0.380898267 0.714357972
0.335610241 0.379633278 0.708159268
0.569007277 0.383933961 0.714105248
0.802782834 0.396078527 0.729790986
0.005819002 0.604301274 0.719924271
0.062871620 0.615939260 0.720809698
0.371030807 0.617963254 0.725869715
0.600506246 0.625933290 0.723845243
0.835167766 0.647185564 0.738520145
0.032384485 0.862618744 0.770398259
0.213409305 0.862997890 0.762808383
0.417836756 0.869070351 0.743074000
0.671853065 0.872106433 0.740291059
0.870208740 0.875268936 0.752434909
0.002530012 0.000000000 0.934977651
0.171663702 0.001265167 0.932068050
0.379253805 0.000000000 0.937128186
0.571031153 0.005692700 0.936875403
0.758506954 0.094749749 0.940290630
0.001012124 0.170398533 0.936369658
0.145351216 0.170398533 0.938393593
0.371030688 0.169512808 0.932447791
0.567868352 0.191777229 0.939152598
0.760151684 0.229474917 0.944212615
0.004554423 0.384566635 0.938393176
0.143579841 0.386843681 0.937760592
0.372169375 0.391144812 0.945603788
0.576343715 0.411764503 0.940670311
0.765718043 0.438962370 0.946236193
0.290448993 0.630739927 0.947248280
0.349399298 0.632511079 0.942820907
0.491840422 0.641619265 0.941935480
0.635800064 0.647185564 0.952435076
0.815559566 0.665148854 0.952814758
0.434788406 0.825300455 0.950790763
0.465148509 0.828589380 0.951170087
0.572548985 0.838456750 0.955976903
0.722833574 0.863250911 0.955217779
0.898544908 0.897279739 0.951928794
