Assets/Shaders/EldamarStudio/100 Sci-Fi LUTs Pack/LUTs/cube/Colou LUT.cube
LUT_3D_SIZE 8
DOMAIN_MIN 0.000000 0.000000 0.000000
DOMAIN_MAX 0.903226 0.903226 0.903226
0.000000000 0.000000000 0.007843000
0.056040544 0.000758999 0.000000000
0.119038090 0.024288097 0.000759096
0.202403635 0.038709641 0.000000000
0.314737171 0.056420192 0.000000000
0.454016477 0.050980002 0.000000000
0.609993815 0.034662005 0.004553996
0.781024456 0.026185833 0.000000000
0.007084001 0.085768551 0.000000000
0.019228453 0.093232095 0.000000000
0.104490645 0.101075090 0.000379548
0.198481634 0.108538546 0.000000000
0.313093156 0.118785359 0.000000000
0.448703289 0.121821731 0.001518192
0.603794992 0.114863835 0.000000000
0.768627405 0.121568814 0.004553989
0.000000000 0.190385997 0.003162905
0.000000000 0.198608547 0.000000000
0.082099997 0.195825189 0.001517998
0.207463369 0.203668386 0.000758999
0.325743288 0.213915199 0.006325195
0.466666549 0.215812743 0.000000000
0.627197623 0.230360284 0.001644712
0.787476420 0.244275987 0.001897736
0.002783356 0.311195612 0.000000000
0.000758999 0.318785280 0.000000000
0.014041735 0.320303380 0.001517998
0.200885266 0.322327644 0.000000000
0.338899493 0.325869471 0.000379548
0.481720090 0.328525931 0.001138644
0.630233824 0.337001950 0.002277288
0.786970377 0.363946736 0.015432985
0.007843000 0.437191576 0.000000000
0.007463549 0.445794195 0.002276998
0.000759106 0.447312087 0.013535812
0.210626081 0.451107264 0.000000000
0.362428367 0.450474381 0.000000000
0.507400453 0.452751189 0.009993995
0.647564530 0.467678577 0.024920898
0.800505579 0.492599547 0.052498341
0.005692737 0.599493980 0.023402996
0.000758999 0.604427695 0.030234184
0.002277009 0.602150619 0.035041012
0.223782018 0.601391733 0.046426464
0.396710724 0.600000083 0.061859537
0.542567730 0.599240959 0.081720464
0.674256563 0.607843459 0.104491174
0.822011352 0.624161661 0.140923619
0.000000000 0.732574522 0.123086266
0.000000000 0.740417540 0.124098562
0.027451083 0.740290642 0.131815076
0.277166188 0.736495554 0.147627980
0.427197635 0.736369491 0.146742374
0.564325988 0.736116111 0.169386268
0.690069556 0.739405274 0.193674847
0.827197671 0.749905109 0.224667907
0.098291963 0.868437767 0.251612753
0.181909993 0.876660347 0.265780926
0.282479376 0.879443407 0.267552048
0.395698816 0.876027822 0.275901616
0.507147133 0.876027822 0.288298398
0.623276412 0.876280785 0.300316036
0.732700706 0.876280785 0.319038302
0.846299767 0.881467640 0.342947453
0.005060451 0.003542452 0.054775096
0.060341999 0.004301452 0.057558544
0.119417638 0.036812000 0.047691092
0.205186278 0.057558544 0.060594637
0.313219279 0.065022185 0.074762546
0.457558721 0.053131070 0.086654082
0.609993815 0.002403711 0.087539569
0.775205612 0.000000000 0.100695938
0.000000000 0.097912997 0.046552546
0.021126000 0.093991093 0.046552543
0.102846541 0.098671995 0.052371997
0.202783182 0.110056631 0.065781094
0.314357936 0.117647000 0.070841543
0.448956221 0.108665556 0.080961354
0.616445065 0.088298552 0.091081545
0.780644953 0.083364829 0.107400388
0.000379548 0.190765545 0.061100904
0.006325001 0.197470009 0.067046456
0.076660089 0.198988095 0.062998548
0.207083836 0.202909291 0.067678638
0.325237036 0.211891443 0.073118538
0.465401918 0.211511910 0.079696283
0.618975282 0.212776840 0.092220284
0.778620839 0.219228089 0.110436320
0.008728907 0.306135267 0.079316832
0.001517999 0.311321735 0.071473733
0.009487644 0.310816288 0.069450080
0.198228925 0.317900270 0.078557737
0.343200803 0.315623075 0.089943089
0.480581552 0.325110286 0.094244540
0.638203859 0.336875290 0.108285829
0.800126255 0.358254284 0.126375824
0.000379548 0.429222196 0.095129736
0.000379548 0.435926825 0.100695640
0.001518005 0.441872299 0.095509186
0.196078718 0.441872299 0.106515095
0.364199966 0.442124933 0.112713091
0.502340198 0.446553081 0.118912183
0.649209499 0.464389443 0.135736629
0.804680228 0.484756470 0.156356469
0.002403808 0.588741004 0.144338831
0.003035997 0.594560266 0.140670374
0.002277005 0.595698893 0.141302824
0.206198543 0.592156470 0.150664017
0.393548638 0.593295097 0.153320566
0.531815290 0.595698893 0.170018807
0.669323266 0.599999964 0.181909814
0.816445172 0.622264385 0.205312908
0.003289004 0.728399813 0.191903815
0.005692737 0.724351823 0.194433630
0.023529373 0.728526354 0.201897562
0.261227101 0.729411602 0.203162447
0.423529476 0.730803370 0.217077732
0.561290443 0.729032099 0.232131571
0.694497406 0.740670085 0.255661100
0.831625283 0.756736457 0.285642087
0.109297782 0.868184388 0.290955037
0.183807746 0.874383628 0.299557030
0.288930833 0.871094584 0.309171170
0.388488233 0.875015616 0.307400167
0.502340198 0.875522017 0.324478209
0.620493293 0.875268877 0.331688434
0.728905797 0.872738898 0.343832880
0.844402611 0.882099569 0.371031165
0.010247001 0.003922000 0.171410188
0.058317639 0.012144452 0.176596731
0.143326998 0.032131903 0.180771366
0.225932732 0.059203353 0.174952537
0.331309378 0.076027997 0.184693187
0.464389563 0.073371358 0.214674205
0.615686417 0.039721817 0.245920375
0.779506445 0.000000000 0.260341346
0.001517998 0.087666094 0.173814192
0.018469453 0.094370641 0.177735284
0.130423546 0.101834089 0.177355722
0.216824993 0.118785553 0.176091090
0.323719025 0.128905639 0.183048382
0.460847825 0.129032537 0.214168638
0.619228363 0.106767997 0.245794088
0.787476361 0.057431925 0.262112647
0.000000000 0.203668192 0.179253176
0.003162905 0.203288749 0.189879730
0.079063997 0.204427287 0.185452268
0.215686634 0.207969740 0.197217077
0.339911282 0.214674100 0.211385086
0.472991586 0.211258844 0.228716180
0.624035597 0.201391488 0.241872281
0.788741589 0.191018179 0.264642745
0.005566002 0.308539063 0.202276736
0.000000000 0.311701268 0.209740371
0.014548190 0.316002637 0.209234729
0.204553828 0.313978285 0.214421287
0.347121835 0.320050508 0.226945087
0.491587460 0.316382170 0.232763916
0.647185028 0.320430070 0.247312188
0.802909553 0.339026093 0.265401661
0.006325002 0.428463191 0.241872281
0.001897546 0.433649719 0.243390277
0.000000008 0.439468443 0.245034993
0.178368077 0.440606922 0.244402081
0.354585528 0.442631394 0.245034993
0.508538723 0.445667386 0.258317381
0.655407727 0.459582567 0.268311352
0.808728755 0.484630257 0.288551539
0.000000001 0.587602437 0.291461200
0.000759096 0.587476373 0.293738306
0.003162912 0.588108540 0.286527574
0.171789989 0.592662811 0.290828645
0.386084497 0.588994384 0.290195853
0.526881456 0.589500189 0.292219818
0.671094477 0.600000024 0.302466869
0.813029647 0.620872736 0.321821570
0.001644712 0.725363553 0.317520559
0.001518192 0.723845363 0.308791906
0.022011280 0.726249158 0.318153113
0.254142761 0.725363493 0.321821272
0.424667925 0.728526294 0.331182659
0.568754077 0.731941819 0.341935366
0.697027385 0.737128556 0.359898448
0.833902657 0.757116020 0.379633248
0.153320506 0.867678702 0.387476057
0.227830172 0.866919577 0.385578901
0.309171379 0.872232735 0.391397744
0.404174715 0.871600389 0.388740927
0.520809770 0.868564010 0.402909726
0.624667585 0.870841324 0.405059963
0.732068419 0.874130607 0.422517508
0.845667362 0.876280785 0.442884117
0.001138644 0.003922000 0.344212651
0.027577810 0.003415642 0.341049939
0.147627741 0.018849000 0.342188358
0.258444279 0.031878360 0.349272281
0.373940825 0.048071004 0.353573710
0.481467366 0.058950096 0.357621640
0.623908937 0.025553722 0.376723558
0.786590755 0.000000000 0.413788795
0.000000000 0.096774548 0.336242914
0.000759096 0.100316197 0.336369514
0.129664645 0.097912990 0.342188388
0.249841988 0.112080991 0.351169884
0.363567024 0.117647007 0.351169914
0.477292895 0.121189356 0.353194177
0.626312256 0.106767997 0.385958195
0.786717176 0.066160738 0.415053666
0.003162905 0.205692545 0.353194177
0.000759000 0.204047740 0.359012932
0.046806093 0.211258650 0.361796260
0.239215732 0.210373551 0.363693923
0.364452809 0.209234998 0.366982728
0.489816517 0.212776646 0.373561174
0.637444854 0.206957623 0.395572454
0.791777611 0.201644540 0.417836815
0.006198998 0.324604630 0.370651633
0.003162904 0.325363725 0.371410728
0.000000010 0.329791188 0.378620923
0.200885281 0.326248914 0.375711560
0.359645844 0.316382289 0.386084497
0.497153372 0.319291532 0.391144812
0.646426201 0.325110286 0.409234613
0.805692732 0.330044121 0.419228286
0.000000000 0.447817832 0.386084497
0.000758999 0.449715286 0.389626831
0.002403813 0.448576808 0.403162658
0.195319533 0.445414633 0.404174447
0.362048924 0.443643004 0.403794914
0.515243471 0.450853735 0.414421082
0.660215378 0.459582478 0.420746505
0.809234500 0.484124184 0.435546994
0.000759096 0.583681464 0.434155405
0.000759096 0.589247406 0.426691949
0.002783363 0.589500010 0.435800195
0.197596356 0.592283368 0.431752175
0.389120549 0.593801260 0.433649719
0.534977436 0.593421757 0.437824398
0.676280916 0.599620402 0.441998839
0.819354713 0.621505260 0.455028355
0.002277288 0.726502180 0.434408635
0.003036094 0.728526473 0.445920289
0.026186109 0.725363553 0.442757815
0.273371279 0.726501942 0.447311997
0.441366255 0.725616992 0.456925929
0.575711548 0.734471798 0.463124901
0.704237878 0.738266885 0.476027548
0.830613136 0.755850494 0.487919301
0.128652453 0.869702637 0.474762797
0.221251905 0.867678642 0.479696274
0.330676675 0.870714664 0.485389054
0.438709587 0.868943810 0.494117826
0.534598112 0.865907729 0.500695944
0.641239643 0.869196832 0.504111648
0.744465351 0.874256909 0.514358044
0.856799543 0.877672434 0.533586144
0.000000000 0.000000000 0.513852179
0.005060451 0.000000000 0.516635001
0.155091807 0.002277094 0.511322260
0.287665814 0.000379548 0.522960007
0.419734180 0.002403808 0.531941354
0.543326974 0.003542452 0.525237143
0.647944450 0.003162904 0.525616586
0.793168604 0.000000000 0.554459155
0.001138644 0.095635995 0.514737368
0.001518192 0.099557199 0.514611244
0.125869289 0.097153999 0.517647207
0.266539901 0.097659551 0.526248872
0.409867018 0.091461167 0.527134538
0.530929446 0.085515805 0.524351597
0.651612759 0.080835104 0.530297339
0.796204984 0.048577290 0.559013069
0.002403808 0.203668386 0.526375473
0.000758999 0.207716808 0.522833765
0.037824377 0.203668386 0.536749005
0.256040365 0.205692649 0.530676782
0.401012182 0.203795105 0.535104275
0.530676901 0.196204737 0.529538274
0.655661166 0.198229000 0.537254632
0.802023590 0.192409933 0.560657680
0.000000000 0.324730933 0.530170560
0.001138644 0.327514201 0.535356998
0.004807013 0.322327614 0.542062283
0.218595818 0.318026483 0.541303277
0.385958374 0.313598901 0.529664993
0.519924343 0.321189284 0.543580174
0.664642870 0.322707295 0.557115376
0.813662589 0.325489819 0.565718174
0.000000000 0.451359987 0.550031543
0.000000000 0.454395980 0.543706357
0.001518200 0.452878177 0.554838359
0.198861614 0.451612741 0.550917149
0.371790171 0.447438389 0.549146175
0.527767479 0.449588984 0.553826571
0.670461774 0.454269469 0.558760345
0.819101751 0.468184561 0.563946605
0.002024260 0.594054282 0.569386661
0.003162904 0.589626729 0.571157396
0.001897557 0.593927979 0.567362189
0.221632004 0.593421698 0.573561192
0.398228914 0.590385675 0.567615449
0.539152205 0.594180703 0.571030736
0.683744371 0.603541970 0.573561132
0.820872903 0.622770309 0.579759479
0.000000000 0.729285538 0.571790397
0.001644712 0.728146911 0.575205326
0.008349099 0.730170786 0.570651233
0.255787313 0.730423927 0.569513083
0.435673475 0.732447684 0.574952483
0.582669199 0.731182814 0.581910193
0.710056543 0.738646567 0.592283368
0.839342058 0.753826857 0.598228931
0.002530012 0.869576395 0.566856503
0.063124672 0.869702637 0.570018768
0.256546468 0.870967805 0.578620911
0.413156003 0.871979594 0.582669079
0.542694211 0.865780950 0.595446169
0.659582555 0.870082200 0.606071949
0.754965365 0.873371303 0.613282800
0.857052624 0.875015616 0.626312733
0.002024260 0.000000000 0.660088718
0.005692640 0.000379548 0.658823490
0.166856438 0.005186648 0.667805195
0.310436606 0.000000000 0.666793406
0.436685622 0.000379548 0.664769173
0.560151517 0.000000000 0.667805195
0.667931795 0.001897740 0.672485709
0.799746692 0.000759092 0.690954924
0.007084001 0.079569645 0.665148616
0.006072264 0.079949290 0.651992500
0.147374719 0.078684546 0.661100626
0.293105721 0.080076002 0.665148616
0.427197933 0.061859898 0.667931736
0.558127701 0.057558354 0.669449925
0.668564320 0.058949925 0.678937554
0.805439413 0.047564898 0.702972949
0.001897740 0.200252742 0.669070363
0.004427552 0.200505912 0.669449925
0.089563474 0.199747190 0.670335114
0.272232443 0.199873388 0.667046189
0.424288541 0.194940090 0.673877478
0.544591963 0.193801448 0.676533759
0.663124621 0.201011926 0.681214750
0.795825541 0.197596446 0.691587508
0.004048004 0.316761643 0.678937733
0.002277095 0.317646831 0.665401816
0.013662190 0.316002727 0.671726882
0.251613021 0.315623283 0.669449806
0.403289378 0.318405926 0.678431273
0.538140476 0.321189284 0.681720436
0.666034043 0.327514112 0.683997273
0.813915074 0.334471792 0.711448610
0.001897740 0.446046919 0.682732761
0.000000000 0.446046829 0.677039981
0.021252451 0.444528729 0.680961490
0.229474947 0.448324084 0.686147928
0.404427618 0.447691649 0.681594014
0.534092247 0.453004807 0.683238268
0.677166104 0.457432359 0.690575421
0.825300157 0.465528011 0.709044933
0.003794996 0.577988744 0.689563453
0.001518192 0.580265522 0.693738043
0.064136460 0.585578740 0.688425362
0.275395215 0.581277311 0.691208005
0.420620114 0.583681464 0.689942896
0.553953171 0.591524482 0.689436972
0.693485081 0.603415847 0.693611920
0.829854369 0.609740615 0.699557483
0.002277288 0.708538830 0.705629230
0.004553996 0.713346004 0.705123484
0.128020197 0.710436583 0.705376327
0.301707655 0.715876162 0.705755651
0.449715286 0.721821666 0.702466726
0.591903508 0.729664981 0.707527220
0.724351823 0.741176546 0.714484453
0.846932530 0.759772301 0.717393994
0.000000000 0.863377571 0.723845661
0.078937486 0.868817270 0.722580552
0.223023236 0.867299080 0.716255486
0.350917011 0.871220827 0.705250025
0.494497240 0.868817329 0.695129335
0.645540774 0.870335519 0.706641495
0.769386351 0.871979892 0.721821725
0.868437767 0.876280785 0.728905618
0.001644712 0.001644712 0.795319557
0.042884111 0.000000000 0.795951545
0.197216898 0.000000000 0.801391542
0.320682943 0.000000000 0.800379634
0.442757905 0.000000000 0.800885260
0.554458737 0.001897740 0.805059791
0.665274978 0.000000000 0.803794980
0.775332034 0.009107991 0.812776983
0.004933716 0.067931987 0.795445800
0.006198805 0.066919543 0.797596276
0.185705289 0.065401837 0.804427683
0.318152875 0.062618896 0.806325018
0.442251652 0.058949925 0.804174542
0.558254182 0.065907821 0.810120285
0.665654540 0.082985818 0.812144101
0.776976764 0.109803967 0.815180421
0.001644712 0.196584284 0.806325078
0.007084000 0.192663088 0.807083964
0.147628367 0.194180891 0.795951724
0.300189942 0.196963832 0.804933608
0.432384402 0.194939986 0.806957483
0.546742260 0.201897472 0.806198359
0.661227107 0.209614098 0.809993804
0.773434401 0.225174084 0.817457318
0.001644712 0.315116912 0.812144220
0.003162807 0.316761732 0.808095932
0.090575561 0.318532437 0.805439293
0.282099634 0.320050627 0.808728278
0.427324563 0.323971927 0.810120344
0.545224369 0.327008009 0.816065907
0.660341561 0.340290606 0.819481254
0.784819782 0.353446901 0.829854488
0.003795093 0.451866090 0.807716727
0.004933640 0.450474471 0.811764538
0.139278829 0.449462473 0.810752749
0.295635402 0.452625364 0.816065848
0.428969264 0.452625155 0.813915491
0.550284684 0.461606830 0.818342805
0.670461774 0.472106278 0.819354653
0.792030394 0.484124005 0.831245959
0.027324459 0.578494787 0.810879409
0.074256554 0.576597095 0.817330837
0.208728731 0.581657171 0.815686226
0.336495996 0.581657171 0.815812647
0.460847646 0.592789292 0.815433443
0.580518901 0.599620402 0.818722546
0.690448761 0.608096004 0.824667811
0.814927280 0.617457211 0.831625462
0.186211377 0.700568974 0.822770536
0.212397352 0.697912574 0.817204237
0.292725652 0.704996645 0.824288547
0.396204829 0.704617143 0.827956557
0.509297848 0.716129065 0.832890272
0.617963254 0.729158580 0.832258284
0.740037858 0.745603561 0.831246018
0.850348055 0.760025382 0.839089572
0.263757050 0.842757881 0.860468090
0.295129657 0.839848042 0.851992190
0.344339073 0.844402611 0.852751136
0.433523268 0.847438276 0.851992071
0.525996208 0.856925905 0.854648650
0.641492903 0.865274847 0.843643248
0.765970528 0.871094584 0.844275713
0.877292871 0.880202472 0.841998637
0.002530012 0.000000000 0.934977651
0.066667005 0.000000000 0.935357213
0.200506091 0.000000000 0.931308985
0.321062446 0.000000000 0.935104489
0.438456744 0.000000000 0.937254608
0.543959618 0.001897740 0.932574153
0.648197591 0.037950896 0.939911187
0.758506954 0.094749749 0.940290630
0.005819156 0.072485842 0.929664493
0.036811914 0.066034243 0.938520074
0.191777468 0.066413790 0.934598505
0.319164634 0.072485872 0.935357451
0.435293853 0.084124349 0.937507987
0.544212520 0.101581179 0.939531684
0.648703754 0.131308898 0.945857227
0.758506954 0.163187429 0.948133945
0.001265167 0.197217181 0.933333337
0.004174545 0.196584195 0.933206856
0.181530654 0.197217181 0.933839619
0.312207639 0.202023894 0.938266754
0.427577347 0.206578180 0.933965623
0.543074012 0.215559825 0.942188382
0.651359856 0.235926718 0.945730627
0.761922896 0.258823633 0.943706334
0.000000000 0.325363636 0.930423975
0.009235092 0.322580278 0.941302836
0.177229732 0.325869381 0.940037966
0.312333763 0.329285294 0.937887430
0.431751996 0.333206624 0.940797031
0.538646579 0.343326896 0.944212437
0.655534685 0.361669749 0.947375119
0.764705658 0.381910205 0.949398816
0.137381300 0.475142151 0.928778946
0.178620994 0.468184561 0.943580151
0.238456607 0.458823442 0.941555798
0.334851444 0.459582567 0.944212317
0.448197007 0.465528011 0.941808820
0.560657442 0.478304654 0.947628081
0.668690681 0.488045514 0.948513806
0.775711417 0.506134987 0.944085836
0.261859208 0.598861516 0.942947626
0.288930953 0.598355234 0.945856988
0.347375154 0.601138651 0.946615994
0.432764053 0.608475626 0.940670252
0.504870355 0.606072128 0.948766530
0.601391554 0.606451690 0.954458952
0.707021058 0.620366573 0.949652255
0.801391602 0.632005453 0.948766530
0.366350412 0.714357972 0.950663745
0.384187162 0.714863837 0.944465160
0.419860601 0.717900097 0.946489453
0.493864536 0.722960114 0.949778438
0.576344192 0.730044484 0.950284600
0.668184638 0.745983064 0.949652255
0.759645820 0.755091846 0.955217957
0.850094855 0.763693810 0.951676011
0.434788406 0.825300455 0.950790763
0.442757428 0.829980791 0.955217898
0.475774735 0.830613434 0.949398756
0.534218609 0.831878603 0.947754800
0.607210815 0.847564578 0.954711795
0.697280169 0.859961689 0.955218017
0.794686854 0.875269055 0.950663984
0.898544908 0.897279739 0.951928794
