Assets/Shaders/EldamarStudio/100 Sci-Fi LUTs Pack/LUTs/cube/Colou LUT.cube
DOMAIN_MIN 0 0 0
DOMAIN_MAX 1 1 1
LUT_3D_SIZE 32
0.000000000 0.000000000 0.007843000
0.000000000 0.000000000 0.001771000
0.017204547 0.000000000 0.000000000
0.038962997 0.000000000 0.000000000
0.056040544 0.000758999 0.000000000
0.065148935 0.006830999 0.000000000
0.084377319 0.015433321 0.002530322
0.102340281 0.021252289 0.002277292
0.119038090 0.024288097 0.000759096
0.140290499 0.027324487 0.003795482
0.158633739 0.033269998 0.001012129
0.178874254 0.035294000 0.000000000
0.202403635 0.038709641 0.000000000
0.229475066 0.047564998 0.000000000
0.253763795 0.053636990 0.000000000
0.282858968 0.054901998 0.000000000
0.314737171 0.056420192 0.000000000
0.348133713 0.058823999 0.000000000
0.381530941 0.058823992 0.000000000
0.414927393 0.053257287 0.000000000
0.454016477 0.050980002 0.000000000
0.494497240 0.050980002 0.002023998
0.531056464 0.050600529 0.007590008
0.570524931 0.041492902 0.001517999
0.609993815 0.034662005 0.004553996
0.650854290 0.028589657 0.006451682
0.693359017 0.023529001 0.003415936
0.735862970 0.023529001 0.000379552
0.781024456 0.026185833 0.000000000
0.824794352 0.030992981 0.003541982
0.867299199 0.040607199 0.006072009
0.909803987 0.058823999 0.000000000
0.000000000 0.018215999 0.001771000
0.003036387 0.018215999 0.007843000
0.011638386 0.020366773 0.001771000
0.028589774 0.021252386 0.002529999
0.045414545 0.021631934 0.006451548
0.065148935 0.025047775 0.009108387
0.079317316 0.028589452 0.001518066
0.099557281 0.035040997 0.000885613
0.118279189 0.040227387 0.000000000
0.137254879 0.045540489 0.000759097
0.155597389 0.051486738 0.000885613
0.175837860 0.057558767 0.000000000
0.198228881 0.059582770 0.000000000
0.223909065 0.062239386 0.000000000
0.253763795 0.062745377 0.000000000
0.282858968 0.064010382 0.000000000
0.313219368 0.067046382 0.000000000
0.345097929 0.071600415 0.000000000
0.378494531 0.074003614 0.000000000
0.411890984 0.074003614 0.000000000
0.445287794 0.068437390 0.000000000
0.485389113 0.065148517 0.000000000
0.528146565 0.063124776 0.001771000
0.570524931 0.062745288 0.001517999
0.612270594 0.053637102 0.000000000
0.653889894 0.049589001 0.001771000
0.696394742 0.047817774 0.000885613
0.738899350 0.047817774 0.000379552
0.776090980 0.047817774 0.005312988
0.820493102 0.055787351 0.002530018
0.864262760 0.066160589 0.001771000
0.906767607 0.080076382 0.000000000
0.000000000 0.040733546 0.000000000
0.000885613 0.040733546 0.003921774
0.006072226 0.042884320 0.003542000
0.019481385 0.044655547 0.002529999
0.035420772 0.044655547 0.007463549
0.056673158 0.045920707 0.006957936
0.075015768 0.051107224 0.004174679
0.091840856 0.054142836 0.000000000
0.111827768 0.058949865 0.000000000
0.130044207 0.063630551 0.000000001
0.156862780 0.065401740 0.002150774
0.185199022 0.069449738 0.002150774
0.203541771 0.075395510 0.003289128
0.224288285 0.077419773 0.004048032
0.254649043 0.077419773 0.002150774
0.280708730 0.083871000 0.004300999
0.311068743 0.080835000 0.001265002
0.341429353 0.083112001 0.000000000
0.373308003 0.084629811 0.000000000
0.411005378 0.087033547 0.000000000
0.450094461 0.085135810 0.000000000
0.485262454 0.080328904 0.000000000
0.527260959 0.077419773 0.000000000
0.569765806 0.077419773 0.000000000
0.612270594 0.077040255 0.000000000
0.651992321 0.072106540 0.000000000
0.692473054 0.072106540 0.000000000
0.733333051 0.072106540 0.000000000
0.779126823 0.072106540 0.003162762
0.817330778 0.079190508 0.003921558
0.860341311 0.090448916 0.003541982
0.901580989 0.101328224 0.008601999
0.002529999 0.063757159 0.000000000
0.000000000 0.065022320 0.001771226
0.001771000 0.067172773 0.001771226
0.011638160 0.068944000 0.000000000
0.026818547 0.068564549 0.005313001
0.046299931 0.067679159 0.003162775
0.067551993 0.072739154 0.001391678
0.087033249 0.077166446 0.000000000
0.108286031 0.079443157 0.000000000
0.128526166 0.081973486 0.000000001
0.149525732 0.084629998 0.001644709
0.180645093 0.085388899 0.002656839
0.211764485 0.087286159 0.002656839
0.225806087 0.093105830 0.005313001
0.255154967 0.095129833 0.003289261
0.281973571 0.099810347 0.003795191
0.313093126 0.102592997 0.004807003
0.343453258 0.097785994 0.000000000
0.373814136 0.097786002 0.000000000
0.409993559 0.100569353 0.000000000
0.447564453 0.102340579 0.001265161
0.490069211 0.099304184 0.001265161
0.527134478 0.096268483 0.001138649
0.568500936 0.095129833 0.000000000
0.608475447 0.093864992 0.000000000
0.650727153 0.096394993 0.000000000
0.688171983 0.095382996 0.000000000
0.728399396 0.093864992 0.000000000
0.772042751 0.097660154 0.003921671
0.816571593 0.103478961 0.003415945
0.856926203 0.113851987 0.000379553
0.896774173 0.122580156 0.010626001
0.007084001 0.085768551 0.000000000
0.001771000 0.088804930 0.000000000
0.001138547 0.091081776 0.000000000
0.004807162 0.093611546 0.000379548
0.019228453 0.093232095 0.000000000
0.034408841 0.090196483 0.000000000
0.058697000 0.094750546 0.000379548
0.082099698 0.098418832 0.000000000
0.104490645 0.101075090 0.000379548
0.134851411 0.101075098 0.000379548
0.147122324 0.105755538 0.000379548
0.170778081 0.108159088 0.000379548
0.198481634 0.108538546 0.000000000
0.225300029 0.109044544 0.000000000
0.252372116 0.115116544 0.000000000
0.280835211 0.118405797 0.000000000
0.313093156 0.118785359 0.000000000
0.351043552 0.116761096 0.000000000
0.381404400 0.116761103 0.000000000
0.414547831 0.119923905 0.000000000
0.448703289 0.121821731 0.001518192
0.484756231 0.123592965 0.003542452
0.527134478 0.120683096 0.003542452
0.566603720 0.117899738 0.000759096
0.603794992 0.114863835 0.000000000
0.643389821 0.115623087 0.000000000
0.685515106 0.120430097 0.000000000
0.728019834 0.114358097 0.000000000
0.768627405 0.121568814 0.004553989
0.810246766 0.129917845 0.005692687
0.851992607 0.137760535 0.003795391
0.894497454 0.143832549 0.000758999
0.001012001 0.113092929 0.000000000
0.001012001 0.116129316 0.000000000
0.006451774 0.114864156 0.000000000
0.007716935 0.116634935 0.001265161
0.007084453 0.120556474 0.003036387
0.016192067 0.117520869 0.000000000
0.049082767 0.122074924 0.002530322
0.078557700 0.123213217 0.001771227
0.103352092 0.122707024 0.000759096
0.125743046 0.125363857 0.003415935
0.153193936 0.122453995 0.003415935
0.181530818 0.124984182 0.003415935
0.207590222 0.127514213 0.002277291
0.225300029 0.130296931 0.000000000
0.246552393 0.136368930 0.000000000
0.280834705 0.137633935 0.000000000
0.312713444 0.138139993 0.000000000
0.345224530 0.138266504 0.000000000
0.378368020 0.141049877 0.000000000
0.411511451 0.146615878 0.000000000
0.448703289 0.144591942 0.000000000
0.487160057 0.143074125 0.000506065
0.527134478 0.144971862 0.000506065
0.566603720 0.144971862 0.000506065
0.603794992 0.142188519 0.000000000
0.644401968 0.141935602 0.000000000
0.688425004 0.144971862 0.000000000
0.728019834 0.144718871 0.000000000
0.773181438 0.151929021 0.000000000
0.817710042 0.157495216 0.001012001
0.860088229 0.161543250 0.002277056
0.897533059 0.165084928 0.006830999
0.002530322 0.137887642 0.000000000
0.000000000 0.143453702 0.000000000
0.000000000 0.146489546 0.002150774
0.004174679 0.145477325 0.002530322
0.002150677 0.147880867 0.003922000
0.009108065 0.144845247 0.003036387
0.038456321 0.146869004 0.002530322
0.069955796 0.148007721 0.002277292
0.097280420 0.147248641 0.000000000
0.122074820 0.152055815 0.001265163
0.146615863 0.149272457 0.003922000
0.177988246 0.150284588 0.007969996
0.210246637 0.153320670 0.005566358
0.233143389 0.156609371 0.000253032
0.256673038 0.162681952 0.002530322
0.285135627 0.163946956 0.000126518
0.319797575 0.165464759 0.001518192
0.351802856 0.166476637 0.001897746
0.385199338 0.167615280 0.000000002
0.423655689 0.168374315 0.002530322
0.458949775 0.172549054 0.000632582
0.497786105 0.170398638 0.000000000
0.537254512 0.171663806 0.000000000
0.576723754 0.169259995 0.000000000
0.618469596 0.171537280 0.000000000
0.658190906 0.173181623 0.000000000
0.701075435 0.176850319 0.000000000
0.738520026 0.176850319 0.000000000
0.783301473 0.179759458 0.000000000
0.821758151 0.185325533 0.000000000
0.864262760 0.192789286 0.003541982
0.905629277 0.204047635 0.012902999
0.002277292 0.163820699 0.001644708
0.000885613 0.166603699 0.001644708
0.000000000 0.170524925 0.000506066
0.000000000 0.173560873 0.002277292
0.000000000 0.173560858 0.002277292
0.003542002 0.170524925 0.002277292
0.025806325 0.172549084 0.002277292
0.060847413 0.172295704 0.002277292
0.088172391 0.171536982 0.000759096
0.115496799 0.177608982 0.001644708
0.148133993 0.174952537 0.001265162
0.175205246 0.175964251 0.003036291
0.205186278 0.180139273 0.009108294
0.234535068 0.183428109 0.002782997
0.261606812 0.186717525 0.001644708
0.292346686 0.189626992 0.004807193
0.322707087 0.189626992 0.001771192
0.357875109 0.191903695 0.003289424
0.394307703 0.191903695 0.000253034
0.428336382 0.191903695 0.001138649
0.465907454 0.193801433 0.002024260
0.503352106 0.197849691 0.000000000
0.542946994 0.199241176 0.000126512
0.583934009 0.199240789 0.001644708
0.625679851 0.199114263 0.000000000
0.665401578 0.200758979 0.000000000
0.707400382 0.206325114 0.000000000
0.746110141 0.208602399 0.000000000
0.787223458 0.212903276 0.001644708
0.827324152 0.214294612 0.000000000
0.864262760 0.220872983 0.003541982
0.909803987 0.238330111 0.015686000
0.000000000 0.190385997 0.003162905
0.000000000 0.191903993 0.003922001
0.000000000 0.193295315 0.001771227
0.000000000 0.195572168 0.000000000
0.000000000 0.198608547 0.000000000
0.000000000 0.196331248 0.000000000
0.014674321 0.196837321 0.000000001
0.043390304 0.197343379 0.000759096
0.082099997 0.195825189 0.001517998
0.109424405 0.201897189 0.004554384
0.146109864 0.201517969 0.001771225
0.175964251 0.201770931 0.000000000
0.207463369 0.203668386 0.000758999
0.232005119 0.209994063 0.006325001
0.261859834 0.211511999 0.001265006
0.293864697 0.211638302 0.003288997
0.325743288 0.213915199 0.006325195
0.357369035 0.214547619 0.003289424
0.399620861 0.214674100 0.000253032
0.431751996 0.215433195 0.000000000
0.466666549 0.215812743 0.000000000
0.503352106 0.219861001 0.000759096
0.543200016 0.225679994 0.000759096
0.586969972 0.228083193 0.003162903
0.627197623 0.230360284 0.001644712
0.668437362 0.230360284 0.000000000
0.704870164 0.231372282 0.000506064
0.746868968 0.237444982 0.000759096
0.787476420 0.244275987 0.001897736
0.826692045 0.248324186 0.002150784
0.863503695 0.249715582 0.002783080
0.909044921 0.264896005 0.014927099
0.000000000 0.214674011 0.000126521
0.000000001 0.220746011 0.003162905
0.000000001 0.222264007 0.001771229
0.000000001 0.222390503 0.000000002
0.000000002 0.222896561 0.000000000
0.000000000 0.225932956 0.000000000
0.007590319 0.223655656 0.000000004
0.030360684 0.222517014 0.001644711
0.066919588 0.223149598 0.004554386
0.112460017 0.226185977 0.007589997
0.142694250 0.232257977 0.004807386
0.167362258 0.233902499 0.001771228
0.197975919 0.232890621 0.000000001
0.241113499 0.231246457 0.000253000
0.268437862 0.240354076 0.000253002
0.298291981 0.237065017 0.000000002
0.328778893 0.235926688 0.001771193
0.360404640 0.238836408 0.003289422
0.396837503 0.241872028 0.000253032
0.430739880 0.244781852 0.000000000
0.467805207 0.243896246 0.000000001
0.506135464 0.244149014 0.001012129
0.543200016 0.249968022 0.003795482
0.591777623 0.249968022 0.003795482
0.628716290 0.254649073 0.001644711
0.666666746 0.257685483 0.000000000
0.707906544 0.258697480 0.000506064
0.744339287 0.264769495 0.003542447
0.786338091 0.273497671 0.001138651
0.828716338 0.280708462 0.000126518
0.869196951 0.285642385 0.002656604
0.906008542 0.289184034 0.011891488
0.000000000 0.247691602 0.008728870
0.002909870 0.247944593 0.005945517
0.000759097 0.249715596 0.006831129
0.001265161 0.249715596 0.003288999
0.002530323 0.250854045 0.000000000
0.000000000 0.258949816 0.000000000
0.002530322 0.254395843 0.007590321
0.014168283 0.254269451 0.005439873
0.044528544 0.255534619 0.003922000
0.094370514 0.256420225 0.004807386
0.137001753 0.250727743 0.002024001
0.171410501 0.260847718 0.003036386
0.198228866 0.262112737 0.001771227
0.230360344 0.257811844 0.000253032
0.262998402 0.261606455 0.002909870
0.297532976 0.265907675 0.002909871
0.330423564 0.265907526 0.001391678
0.362808406 0.268943578 0.002277119
0.396964014 0.271979779 0.006072024
0.433396757 0.272232741 0.000252996
0.470714569 0.275142610 0.001897740
0.509171367 0.275142610 0.001897743
0.545603871 0.277166605 0.001012129
0.583048761 0.277166605 0.001012129
0.624794364 0.279443324 0.001012129
0.662239134 0.283491671 0.000000000
0.701202035 0.286021858 0.000000000
0.732827127 0.292093873 0.000632578
0.782542706 0.298165858 0.001012129
0.825806499 0.305249721 0.005313199
0.868311346 0.310436606 0.010499861
0.908791840 0.313472748 0.017584000
0.002024256 0.277040243 0.005692748
0.001012131 0.277040243 0.004680617
0.001771226 0.277040243 0.003795004
0.000000000 0.280835092 0.003795004
0.001897744 0.281973541 0.000000000
0.000506065 0.281214565 0.000000000
0.006578319 0.285768509 0.005566065
0.003036291 0.284629792 0.006451747
0.027324293 0.286906987 0.002656840
0.083997481 0.286906987 0.003921998
0.120809488 0.291208237 0.001012129
0.163314238 0.285136223 0.000000000
0.202024028 0.292726249 0.001897744
0.231878281 0.288678229 0.000000000
0.261732966 0.288171828 0.001265160
0.297533244 0.293231785 0.001897744
0.332447439 0.293232173 0.003415936
0.365211844 0.294623494 0.001391680
0.397217035 0.296268225 0.003289001
0.435420483 0.298545003 0.002276996
0.471853197 0.298545003 0.000000000
0.510183275 0.300442725 0.001897744
0.546742499 0.300569236 0.000000000
0.585072517 0.302466989 0.000000000
0.621758223 0.306767970 0.002024256
0.661226988 0.311195254 0.000632584
0.701202154 0.315369964 0.001011999
0.737634480 0.321441978 0.004047996
0.778494418 0.329538226 0.008095992
0.828336298 0.335610211 0.009867209
0.867805183 0.341682255 0.018469596
0.905755997 0.345856994 0.025680253
0.002783356 0.311195612 0.000000000
0.000885613 0.311195612 0.000000000
0.000000000 0.311195612 0.000000000
0.000000000 0.311575115 0.000000000
0.000758999 0.318785280 0.000000000
0.002276998 0.310436577 0.000000000
0.004174680 0.312840283 0.002783001
0.007969939 0.317267567 0.004554003
0.014041735 0.320303380 0.001517998
0.076280832 0.320682913 0.004933835
0.117773503 0.327134490 0.001012129
0.156103492 0.327261269 0.000000000
0.200885266 0.322327644 0.000000000
0.242631078 0.322327644 0.000000000
0.271726698 0.320176870 0.000000000
0.305123240 0.323212922 0.000000000
0.338899493 0.325869471 0.000379548
0.372928262 0.323466271 0.002783356
0.404300988 0.323466271 0.000253033
0.443010688 0.325110555 0.001138644
0.481720090 0.328525931 0.001138644
0.519164979 0.329537809 0.002150514
0.555597723 0.329537809 0.002024006
0.593042195 0.330550194 0.000000000
0.630233824 0.337001950 0.002277288
0.666919351 0.343073934 0.002530328
0.705882490 0.349145919 0.002023998
0.747122169 0.355217904 0.009360990
0.786970377 0.363946736 0.015432985
0.827197969 0.371283919 0.022011213
0.876660168 0.376470327 0.032131568
0.908792019 0.382289290 0.042757992
0.000000000 0.355218023 0.000000000
0.000000000 0.354965061 0.000000000
0.000000000 0.354965061 0.000000000
0.000505999 0.354965061 0.000253032
0.000506032 0.354965031 0.000000000
0.006578031 0.348893017 0.000000000
0.002783001 0.350411355 0.000000000
0.001391676 0.353447318 0.000505999
0.014548061 0.356483132 0.001011999
0.066160485 0.359519511 0.007083997
0.119544610 0.361543149 0.002024001
0.163820267 0.360784262 0.000000000
0.206198305 0.358507395 0.000000000
0.254522055 0.355471075 0.000000000
0.287919194 0.355471075 0.000000000
0.321315825 0.357874811 0.000253032
0.352435380 0.359393001 0.000000000
0.384567052 0.359393001 0.000000000
0.420999140 0.359393001 0.000000003
0.460215092 0.359393001 0.002530325
0.498924762 0.362681985 0.003668968
0.538393319 0.367994994 0.004680902
0.577735960 0.371157110 0.007590032
0.611258864 0.368500978 0.001771030
0.646932542 0.373814315 0.002277288
0.683364928 0.381783992 0.003289359
0.720556080 0.387856066 0.002277030
0.756988823 0.393928051 0.014421018
0.795825422 0.402403831 0.021252019
0.833776295 0.409740984 0.030613231
0.872612476 0.415433496 0.043769568
0.924224973 0.418469101 0.071093999
0.000000000 0.382542402 0.000000000
0.000000000 0.379506797 0.000000000
0.000000000 0.379253805 0.000000000
0.002529999 0.379253805 0.001265161
0.006198543 0.379633248 0.002909868
0.003542422 0.382289380 0.000000000
0.002024100 0.383807689 0.000000000
0.000000000 0.386843652 0.003288997
0.007463682 0.389879465 0.005059995
0.038836136 0.392915875 0.001012006
0.110816076 0.384313524 0.001265006
0.163061485 0.383807391 0.000000000
0.207463697 0.385451972 0.000000000
0.251486450 0.388867408 0.000000000
0.297026813 0.385831803 0.000000000
0.330423981 0.388235003 0.002403804
0.357748598 0.389752954 0.001771224
0.385326117 0.389752954 0.000000000
0.427071899 0.389752954 0.000000000
0.466287225 0.389752954 0.000000001
0.500063479 0.389752954 0.000632584
0.535357535 0.393042237 0.001644712
0.574699581 0.398482203 0.004554423
0.611132383 0.404554218 0.004554423
0.646932542 0.404174805 0.003289416
0.683364928 0.410246700 0.006704990
0.721315145 0.418216079 0.010879409
0.766097248 0.424288809 0.017457403
0.802529991 0.430360794 0.024288403
0.841366112 0.437065363 0.042757560
0.876660109 0.444023013 0.061859377
0.909044623 0.451866239 0.077165999
0.004806995 0.409866780 0.000000000
0.000000000 0.409234375 0.000000000
0.002150774 0.410499752 0.000000000
0.003668643 0.412017971 0.000000000
0.007084001 0.412777066 0.002277195
0.002024132 0.411764681 0.005313060
0.003795482 0.414800912 0.007210800
0.000759096 0.416192591 0.010499797
0.000000010 0.417710394 0.011258706
0.012523748 0.419102073 0.000253000
0.093105681 0.417710543 0.000000000
0.163946927 0.414674401 0.000000000
0.209487632 0.414674401 0.000000000
0.248450294 0.417963356 0.000000000
0.293991178 0.419228226 0.000000000
0.327513784 0.418595791 0.000000000
0.363946944 0.417077601 0.001518196
0.393042505 0.415939182 0.000632576
0.430234194 0.417710394 0.002403804
0.467552394 0.420113593 0.002403804
0.501328468 0.423908591 0.002403804
0.535737276 0.424920589 0.004427802
0.576217771 0.428209960 0.008981988
0.608096004 0.434281975 0.013535991
0.649082720 0.435799986 0.011258703
0.684376776 0.441366315 0.013915177
0.720809102 0.450474322 0.020999314
0.764452457 0.454648882 0.030866787
0.802023768 0.460720956 0.034534976
0.840227723 0.470335394 0.053004134
0.879696369 0.476787001 0.073244601
0.913092792 0.482858986 0.080834806
0.007843000 0.437191576 0.000000000
0.003289192 0.440227568 0.000000000
0.000632582 0.442377955 0.001518192
0.004933808 0.442884356 0.002783031
0.007463549 0.445794195 0.002276998
0.002530193 0.446173459 0.003795002
0.001012130 0.446679503 0.005819133
0.003795484 0.446552992 0.010499807
0.000759106 0.447312087 0.013535812
0.000000050 0.448071182 0.000632516
0.079949282 0.448071182 0.001518192
0.148766533 0.446552992 0.000000000
0.210626081 0.451107264 0.000000000
0.246679068 0.451613307 0.000000000
0.290955037 0.448323756 0.000000000
0.333586156 0.448956192 0.001518192
0.362428367 0.450474381 0.000000000
0.401264906 0.445667386 0.001264992
0.435547024 0.447818160 0.005186775
0.470208943 0.450853825 0.006957998
0.507400453 0.452751189 0.009993995
0.538773119 0.457811326 0.012017991
0.579506814 0.458570361 0.018089985
0.612650216 0.464642376 0.024161996
0.647564530 0.467678577 0.024920898
0.687286317 0.470461577 0.027450848
0.721315265 0.481341183 0.033649378
0.761796057 0.485388935 0.043769881
0.800505579 0.492599547 0.052498341
0.837191343 0.499177575 0.057558339
0.877545953 0.508665562 0.083997160
0.917647004 0.511701167 0.091460988
0.006578009 0.467046529 0.000000003
0.005439801 0.472485960 0.002529983
0.001771227 0.474509776 0.001518199
0.001265008 0.476913124 0.003921850
0.007337008 0.474256963 0.007337010
0.005060350 0.479822963 0.002276994
0.002024254 0.481467545 0.001264994
0.001644708 0.479190439 0.002656584
0.003162916 0.478937209 0.006325005
0.000126567 0.481973618 0.000253005
0.076027617 0.480202556 0.002277298
0.146236300 0.480075866 0.001897748
0.200505853 0.480834812 0.000000006
0.248576641 0.491714507 0.000506005
0.291081369 0.480708301 0.001264997
0.335863173 0.478178114 0.004301215
0.375711352 0.479063720 0.004933797
0.404933095 0.480834961 0.003794980
0.441365957 0.480834961 0.009866992
0.475016057 0.483617753 0.013788921
0.511575103 0.484756112 0.018722560
0.547754705 0.485768259 0.024161987
0.581151068 0.488804609 0.030107502
0.617077827 0.494370520 0.035673574
0.651865900 0.498165816 0.039089140
0.687918901 0.504491091 0.042631228
0.724857628 0.510057032 0.051739499
0.761416852 0.516002536 0.057937976
0.799873352 0.524098754 0.068690538
0.837570906 0.530803502 0.078051768
0.875142157 0.537255049 0.086021513
0.917647004 0.540290713 0.110309549
0.000506000 0.506515026 0.000000017
0.006577994 0.509550631 0.012144006
0.003289032 0.506388068 0.006072009
0.000000002 0.506135046 0.000253045
0.001264999 0.510689020 0.001265016
0.007336993 0.510689020 0.007337010
0.005060353 0.513725400 0.007337013
0.003668966 0.511575043 0.005692724
0.003162913 0.509551108 0.003415884
0.000126577 0.518406510 0.000253019
0.066919640 0.509804130 0.000000021
0.143832996 0.511575043 0.000253055
0.209614247 0.515749633 0.000000028
0.257685035 0.519039035 0.000506034
0.300189763 0.516002655 0.006578025
0.337887585 0.514611006 0.012144025
0.375332355 0.514611006 0.014927064
0.411005914 0.514231443 0.015939029
0.447438002 0.511195064 0.022011038
0.481088102 0.513978422 0.028083745
0.516381979 0.515117049 0.033902999
0.550031424 0.516129136 0.038962871
0.578115404 0.519165516 0.042251550
0.611511827 0.522201061 0.045287941
0.647438526 0.525490284 0.053131290
0.686401248 0.534092665 0.060088962
0.727894008 0.546489894 0.066919938
0.767362356 0.549525559 0.076027550
0.803921580 0.555471003 0.084882863
0.840607285 0.560025275 0.097786196
0.877925515 0.565085649 0.112839982
0.917647004 0.573687911 0.131561995
0.000000000 0.562682092 0.013915366
0.000505997 0.562935054 0.014927360
0.004427770 0.563820422 0.014168357
0.001518196 0.561543465 0.010879361
0.000000000 0.564199865 0.013915366
0.001264996 0.566603124 0.015180362
0.004807318 0.566603124 0.018722039
0.002277292 0.566097438 0.015686013
0.001138655 0.562682092 0.013029748
0.000126578 0.565718234 0.014041883
0.097532973 0.565718234 0.016698014
0.153193861 0.562682092 0.018722270
0.215433210 0.564959109 0.022897013
0.267552376 0.566097736 0.028083699
0.317646772 0.565591693 0.031625368
0.355344594 0.560152113 0.035294179
0.393295556 0.559393108 0.042504914
0.430360913 0.559393108 0.045667514
0.464642793 0.558507442 0.045287736
0.503858089 0.558254480 0.051359728
0.529664755 0.561290383 0.059329756
0.561669648 0.562175751 0.067299500
0.594560504 0.563440919 0.073751085
0.627956867 0.566477180 0.074130632
0.663630545 0.571790099 0.081720434
0.701454639 0.573940754 0.090828687
0.741555750 0.580139339 0.098798439
0.778747380 0.583174944 0.107906625
0.815559566 0.588868082 0.117014229
0.855534315 0.598482072 0.133206546
0.890449226 0.605439723 0.147754371
0.920430362 0.612650394 0.158380374
0.005692737 0.599493980 0.023402996
0.000000000 0.601391733 0.017710259
0.002150774 0.601391733 0.026691990
0.002656839 0.603921711 0.024415150
0.000758999 0.604427695 0.030234184
0.003794996 0.602909565 0.034787986
0.000632582 0.607210457 0.033523150
0.005313257 0.603921473 0.039848179
0.002277009 0.602150619 0.035041012
0.000000058 0.603289008 0.034661472
0.091334485 0.603289008 0.039595339
0.175205216 0.601391733 0.044528723
0.223782018 0.601391733 0.046426464
0.275901318 0.601897717 0.052751694
0.322580367 0.605186701 0.055787306
0.360278338 0.606072485 0.058823533
0.396710724 0.600000083 0.061859537
0.437697768 0.598608553 0.068311252
0.477419764 0.597343683 0.066540033
0.508792162 0.599240959 0.075648472
0.542567730 0.599240959 0.081720464
0.569892406 0.601264715 0.087792732
0.606831253 0.601517737 0.094117984
0.636685669 0.606325388 0.097659983
0.674256563 0.607843459 0.104491174
