Assets/Shaders/EldamarStudio/100 Sci-Fi LUTs Pack/LUTs/cube/Corliss LUT.cube
LUT_3D_SIZE 8
DOMAIN_MIN 0.000000 0.000000 0.000000
DOMAIN_MAX 0.903226 0.903226 0.903226
0.086274996 0.050980002 0.054901998
0.159898996 0.054522451 0.066666998
0.263377994 0.039216001 0.083871000
0.368880272 0.006704646 0.106514998
0.506894171 0.000000000 0.134598374
0.657938480 0.000000000 0.180138990
0.799241006 0.000000000 0.238203704
0.939025760 0.003922000 0.294370651
0.146995544 0.108918093 0.099556997
0.183428094 0.112839997 0.094876997
0.272738993 0.124225549 0.091714002
0.383554727 0.116381548 0.123845994
0.498544991 0.096015543 0.150031656
0.648323715 0.055408161 0.187602535
0.791271567 0.009487636 0.234661743
0.935610533 0.015559623 0.288678110
0.233523190 0.211511999 0.164453000
0.264389634 0.206451640 0.197596192
0.312587172 0.205313101 0.146489099
0.395699114 0.215812728 0.139405087
0.505250096 0.233396277 0.162935004
0.655028343 0.233396277 0.202656642
0.792789221 0.241999179 0.247564897
0.933712780 0.256420016 0.297659904
0.348133922 0.347121924 0.262491912
0.381277442 0.346362919 0.284883171
0.422897190 0.349905282 0.285895109
0.466413617 0.330802917 0.216951281
0.547881007 0.321189165 0.193927646
0.644402146 0.371663630 0.214168534
0.775838196 0.393548638 0.253383905
0.913219750 0.411891073 0.310436606
0.474004000 0.533459544 0.395319551
0.508918524 0.536748946 0.423656076
0.570398271 0.539658487 0.471473485
0.587602556 0.533333302 0.407969564
0.629981399 0.484882951 0.310816169
0.694117665 0.451486409 0.264768988
0.789879560 0.505123198 0.285895109
0.894243717 0.558254063 0.332320809
0.626818478 0.724983990 0.589373708
0.654016733 0.723718822 0.598228753
0.699557364 0.728652477 0.640733540
0.731941581 0.728273213 0.647058606
0.745603740 0.713851988 0.567362249
0.783554494 0.660088718 0.454016477
0.847438276 0.587729335 0.369386464
0.931435645 0.644149303 0.407589823
0.760025561 0.850221515 0.738772810
0.774066806 0.854142964 0.752435029
0.807969570 0.855787277 0.779380322
0.838329911 0.858570635 0.803668618
0.847058833 0.851106942 0.770272017
0.865780830 0.840860307 0.705755830
0.903478861 0.793674827 0.604427576
0.960657537 0.715116978 0.510057092
0.873497784 0.942694843 0.864389658
0.885895014 0.945856810 0.886907220
0.898418784 0.946615815 0.880075991
0.924983978 0.942821026 0.903352320
0.932195008 0.943959653 0.903098941
0.933585942 0.940037966 0.869702756
0.957242250 0.938772798 0.823782325
0.985831797 0.907526970 0.749398768
0.000000000 0.115622543 0.159140006
0.152814984 0.050980002 0.166224003
0.270462006 0.054142904 0.159898996
0.371789724 0.065907806 0.192409649
0.491587728 0.083871000 0.240480900
0.645540476 0.103352189 0.306261986
0.785831809 0.096774548 0.350284576
0.923339784 0.113472611 0.388108611
0.080835000 0.172422096 0.163820103
0.163440555 0.142694101 0.168121547
0.273498118 0.119924091 0.172422186
0.378494263 0.131688997 0.199747190
0.494750023 0.146742716 0.246932194
0.643137455 0.129285291 0.280834854
0.784187555 0.109171636 0.326249093
0.922960222 0.117014162 0.368627250
0.161417007 0.221378639 0.199873090
0.228462636 0.215053648 0.201011747
0.306008637 0.206072196 0.190386102
0.391777277 0.218975544 0.195825279
0.513093054 0.219355002 0.229601279
0.656546414 0.214168444 0.259203196
0.790512443 0.218722656 0.295635730
0.930423737 0.239974543 0.350664258
0.284629852 0.341682732 0.264262825
0.340038031 0.342567801 0.267805159
0.416318834 0.340923637 0.311195612
0.449589282 0.317900270 0.246679187
0.534977555 0.328905463 0.239721879
0.638456464 0.367362469 0.260847360
0.781151056 0.383427918 0.304364264
0.910436332 0.403921455 0.356230378
0.415180296 0.523213387 0.379127204
0.459455907 0.523213387 0.401264995
0.543706357 0.526375473 0.452625185
0.581404388 0.525616407 0.442504466
0.613914907 0.481720179 0.337634176
0.685262561 0.450727642 0.295762539
0.779886305 0.506388605 0.318026274
0.899051189 0.549019575 0.369512945
0.590765476 0.704364300 0.567109406
0.622770488 0.710436285 0.584060490
0.677040219 0.716761470 0.618848562
0.724731326 0.715876400 0.660847843
0.734218657 0.705755532 0.585958362
0.769513130 0.653257489 0.476154268
0.832131386 0.587855756 0.388994366
0.921948075 0.645414472 0.435040921
0.737507999 0.844149292 0.722201049
0.760025561 0.850221515 0.736875057
0.792156756 0.855281770 0.761669755
0.828210056 0.854522526 0.794054091
0.843643188 0.848323822 0.780771732
0.856546581 0.838836074 0.715623140
0.889816523 0.795319557 0.617710531
0.947754502 0.721188784 0.520936131
0.881973803 0.940796971 0.865148664
0.881467640 0.945350945 0.867045820
0.893990874 0.942820787 0.884123981
0.921568811 0.943326890 0.895255983
0.935610294 0.946236491 0.909171343
0.936622322 0.944591939 0.870461643
0.953826666 0.934345067 0.825300336
0.984693229 0.903984487 0.754965007
0.000000000 0.199747190 0.287413090
0.000758999 0.141809091 0.289436728
0.253131002 0.047059000 0.272738993
0.372548819 0.021631647 0.270335108
0.492093176 0.007969907 0.280455083
0.618975461 0.030993164 0.341682166
0.766982555 0.099430889 0.407337010
0.903478622 0.219987348 0.487413079
0.000000001 0.252624750 0.295762539
0.000758999 0.204427198 0.277166277
0.242884099 0.116002090 0.283997655
0.386338085 0.097659647 0.277419090
0.493231803 0.092093542 0.285136074
0.620493472 0.118785538 0.342315167
0.755977273 0.172928274 0.408475548
0.905376256 0.267805070 0.493105531
0.000000000 0.329032302 0.307021081
0.065781362 0.324730754 0.298039615
0.253131002 0.239722088 0.299304187
0.405186385 0.197090551 0.287665993
0.506135285 0.210752890 0.315876186
0.642884254 0.238836080 0.372169375
0.780265689 0.292726159 0.441619068
0.908791780 0.359392762 0.509298086
0.180392072 0.333965838 0.320177287
0.231752351 0.323339283 0.332954079
0.308918744 0.323466212 0.319544286
0.421632200 0.314484626 0.309424281
0.524857581 0.330550194 0.329411745
0.657684982 0.342567921 0.365211934
0.789373934 0.364705652 0.408855289
0.916002452 0.404554158 0.459329426
0.273624182 0.501328290 0.409614086
0.319671154 0.499683350 0.416318864
0.433270186 0.497406453 0.413535476
0.562302589 0.503225803 0.471093893
0.586084485 0.465275168 0.383807391
0.669575989 0.467172712 0.372548848
0.769513071 0.511448383 0.404933572
0.902593255 0.550537527 0.465907723
0.498039246 0.686906874 0.546995759
0.532827258 0.688171983 0.556862593
0.595951736 0.698798418 0.582542598
0.691840291 0.702213824 0.637697816
0.724731386 0.699177802 0.628589809
0.748386979 0.639595151 0.512966573
0.817963481 0.604300916 0.458191097
0.906388462 0.664642870 0.497912735
0.694117486 0.833649397 0.700442433
0.721821666 0.838836074 0.721695185
0.756862640 0.844022453 0.745098114
0.806578040 0.849462450 0.782416284
0.849462390 0.850221336 0.809234500
0.855407834 0.838456452 0.749525845
0.885389090 0.788994610 0.649082959
0.946236491 0.732953846 0.567994952
0.853130877 0.940797091 0.856672764
0.868564069 0.943074286 0.868310988
0.882353127 0.946742654 0.875648379
0.913725436 0.948134005 0.896014929
0.936369300 0.946615815 0.913598895
0.936369300 0.941429675 0.890322566
0.949399173 0.939405680 0.849715471
0.976091087 0.907526910 0.779380023
0.002783356 0.324604630 0.471473575
0.003542452 0.283870727 0.473118365
0.000000013 0.153573900 0.451612920
0.364326268 0.013409002 0.412017256
0.501960814 0.000000000 0.409614086
0.613029718 0.000000000 0.418469280
0.733079910 0.001644712 0.440733552
0.889563739 0.044908315 0.508032978
0.001897547 0.366982728 0.469070375
0.002783356 0.330929756 0.463377625
0.001138550 0.229601175 0.460468173
0.359519273 0.097659647 0.423402816
0.498671740 0.048703101 0.407337248
0.609993756 0.023656003 0.420366704
0.732447505 0.010246635 0.440860301
0.884123802 0.137001976 0.513472378
0.000759096 0.476281077 0.494244277
0.001138547 0.444149286 0.490322381
0.002783375 0.356862634 0.480202347
0.338519990 0.203668192 0.448830068
0.510689259 0.173181191 0.426565647
0.625300467 0.170777902 0.430866480
0.751549900 0.194307193 0.467552096
0.895382524 0.291081458 0.539405406
0.000000000 0.547121942 0.502846301
0.004301451 0.541176319 0.506388605
0.000759116 0.533838868 0.493738025
0.353067636 0.380645275 0.469196260
0.533586323 0.295256197 0.436559111
0.635041058 0.299936861 0.444528729
0.773434520 0.362175912 0.509550929
0.894370556 0.460088640 0.595066607
0.086400740 0.509550929 0.496521175
0.169639826 0.505629718 0.493485302
0.288172424 0.506135166 0.490828753
0.409234792 0.483744740 0.479949623
0.532447994 0.436685741 0.446932644
0.655914068 0.480961353 0.497912645
0.783934057 0.511701643 0.540796876
0.903352320 0.560657561 0.591524243
0.187856093 0.656420052 0.599747121
0.255407929 0.657684863 0.602150679
0.388741016 0.659962058 0.602909565
0.537507832 0.656546593 0.579127192
0.687160075 0.674003780 0.648197174
0.708032727 0.622390747 0.564452767
0.796078384 0.628336489 0.544718742
0.889437079 0.677925289 0.589120567
0.566982865 0.823908925 0.705755830
0.603668571 0.826692283 0.712334216
0.660215080 0.825806320 0.721442163
0.742188215 0.832890570 0.746742189
0.833523393 0.844149172 0.806325138
0.851107240 0.840101242 0.786970139
0.860847652 0.790385842 0.685641885
0.931688428 0.751423001 0.632384419
0.819607794 0.944465697 0.847438395
0.825553477 0.945983589 0.850221634
0.852119088 0.945224643 0.868817389
0.887919068 0.948134005 0.897659600
0.931182683 0.951296508 0.917773366
0.947374880 0.949778676 0.923213065
0.948260367 0.944212556 0.879696608
0.974066794 0.914231598 0.811132431
0.000000000 0.462239385 0.658950150
0.001138644 0.428083837 0.658064365
0.003162904 0.341556013 0.647185385
0.002403808 0.135483995 0.629601717
0.495383024 0.003035997 0.592283130
0.631119728 0.000379548 0.566856384
0.744592190 0.000000000 0.563187420
0.872612417 0.000000000 0.587855935
0.000000000 0.498418868 0.653889954
0.004807003 0.462998182 0.662871361
0.001138547 0.385452151 0.654143214
0.000000000 0.192283645 0.625427008
0.483111799 0.052245453 0.594940007
0.624668062 0.004680806 0.560025156
0.736495733 0.001644712 0.577356160
0.864895642 0.000000000 0.583807707
0.002277094 0.568121374 0.674763083
0.000000000 0.549651861 0.682606101
0.001517998 0.477925390 0.668437481
0.005945647 0.328652650 0.644528925
0.461480290 0.192663088 0.607210517
0.631499290 0.137634352 0.571157277
0.745857179 0.127008185 0.577229619
0.873497605 0.123845525 0.591018081
0.001897643 0.706388652 0.685768664
0.001897547 0.682479501 0.685515463
0.001517998 0.614547968 0.670967698
0.134851530 0.504996657 0.653004527
0.431372732 0.324984282 0.623276830
0.641366243 0.280455112 0.582036495
0.757495344 0.280834854 0.589373946
0.884250402 0.300316006 0.598987818
0.004807003 0.741303146 0.692726374
0.000000000 0.739785016 0.695003390
0.000759096 0.731182456 0.685642064
0.228336096 0.704111516 0.674636304
0.465528190 0.540670395 0.642378151
0.643896282 0.428463191 0.597217143
0.762428761 0.437824160 0.586843371
0.898292005 0.532573938 0.656925976
0.021632008 0.706514835 0.691713929
0.105502546 0.710057020 0.692726195
0.269323170 0.699810326 0.682858884
0.401138186 0.686906815 0.672359169
0.528652430 0.654016435 0.648197174
0.654143035 0.589879692 0.607716739
0.779253542 0.644275784 0.662491918
0.900442600 0.690069199 0.702087164
0.195445746 0.770904362 0.745983243
0.251486301 0.779886067 0.748639882
0.369765937 0.795192838 0.751549542
0.528273344 0.801770985 0.738266885
0.693611443 0.805313170 0.744085729
0.829222083 0.826059163 0.806451797
0.835167348 0.776217461 0.720683277
0.906514704 0.776344001 0.703605294
0.701201618 0.941303194 0.842504680
0.721188903 0.938646495 0.841492593
0.765464723 0.942188561 0.847058654
0.831119537 0.944086134 0.866413653
0.890701950 0.941303194 0.903858006
0.945857048 0.956356585 0.934977531
0.950537801 0.948639929 0.912966549
0.962302446 0.916508615 0.839341938
0.000000000 0.560278475 0.793548763
0.000000000 0.537887752 0.802909553
0.002276998 0.483870834 0.795445979
0.002024260 0.360784560 0.790006340
0.130929455 0.135230735 0.760657430
0.579886019 0.003922000 0.726628721
0.735989988 0.000000000 0.705123484
0.867172599 0.000000000 0.724604487
0.001897740 0.580645084 0.793042481
0.001897740 0.562428713 0.799367428
0.000000000 0.508538902 0.793421805
0.003542452 0.392663091 0.786717415
0.067678362 0.180265889 0.764705539
0.578747571 0.009614542 0.719924271
0.734092236 0.000759096 0.694750428
0.860974193 0.002783159 0.724225163
0.008602096 0.645287693 0.802783132
0.001138644 0.631245911 0.810373366
0.000000000 0.575458765 0.799620688
0.002024260 0.473877192 0.791144788
0.009740648 0.272486091 0.775331855
0.565338612 0.178494275 0.734598219
0.738140285 0.099430904 0.718153000
0.875395417 0.051612813 0.732953787
0.000000000 0.742694259 0.809234500
0.001138644 0.730170667 0.810626090
0.002656642 0.682353139 0.808349013
0.002024260 0.600379705 0.799620748
0.155850708 0.450094610 0.797090292
0.549905181 0.319923908 0.748640001
0.745224357 0.256293535 0.711701632
0.876533687 0.254522353 0.728905678
0.000000000 0.872359157 0.824667692
0.001138547 0.862112403 0.836053073
0.001138645 0.828336477 0.820619941
0.162302092 0.757748246 0.814674199
0.366223544 0.644401968 0.794939876
0.532194912 0.474636167 0.767615557
0.749146104 0.413155913 0.730423510
0.892220080 0.416192114 0.729411483
0.007970003 0.877798975 0.826818466
0.006957998 0.874383569 0.826691926
0.086147919 0.875015855 0.821505070
0.334345609 0.865780950 0.824415028
0.494244099 0.837697685 0.827956676
0.611005545 0.689436972 0.789626777
0.773561239 0.571789980 0.735104501
0.893611670 0.598987579 0.725742936
0.239974663 0.852751493 0.827198029
0.284756333 0.852245450 0.823656023
0.361290187 0.845035136 0.817836940
0.460341185 0.835547268 0.817710161
0.561922908 0.814674020 0.802023768
0.678810716 0.787222981 0.779000282
0.773940563 0.736242831 0.742061794
0.893105567 0.793042123 0.788361669
0.350664079 0.884756505 0.874636412
0.380012661 0.896774173 0.875901401
0.456419617 0.909677327 0.876407444
0.585705221 0.928019822 0.879569709
0.742947161 0.930297256 0.879316986
0.875395596 0.932953656 0.895888746
0.952941298 0.956736207 0.944718480
0.947628081 0.917520523 0.869702637
0.004553996 0.633269966 0.913978279
0.003542452 0.624414980 0.918785572
0.001518192 0.583174944 0.904237747
0.004427648 0.500442624 0.912334263
0.000000000 0.342441201 0.898924291
0.295509458 0.144085795 0.885895073
0.665907562 0.003289004 0.855407596
0.827324748 0.004553996 0.827830434
0.000379548 0.653004587 0.898292065
0.000000000 0.639595270 0.903984964
0.000000000 0.600126505 0.907274008
0.002403808 0.521948159 0.903478563
0.002403711 0.373307943 0.893611491
0.291207999 0.191018283 0.879823029
0.656293690 0.006831091 0.847944260
0.829221964 0.000000000 0.828463078
0.001644713 0.702972829 0.908159554
0.002277191 0.692220330 0.911828041
0.000000000 0.656673253 0.908539057
0.000759096 0.582542717 0.904743969
0.000000000 0.460088402 0.897406280
0.266919553 0.276533902 0.886780620
0.661100388 0.182289377 0.856546521
0.833017051 0.076786950 0.835041106
0.001644712 0.783428192 0.910183609
0.004427648 0.767741621 0.913472652
0.001138645 0.738646567 0.911828041
0.003415642 0.681467652 0.906894207
0.003668552 0.576976776 0.906894445
0.251106977 0.396584719 0.902593434
0.650221527 0.318532258 0.863757193
0.843516707 0.249968439 0.843643427
0.004680709 0.887412906 0.910816014
0.000758999 0.883870840 0.916382015
0.001517998 0.855787277 0.917267323
0.047817729 0.811385095 0.909298182
0.217457533 0.723339260 0.909930527
0.406325281 0.582795620 0.896647453
0.652751267 0.473118186 0.869702637
0.854016304 0.404680461 0.847438157
0.003794996 0.971031010 0.923845530
0.040986542 0.978873849 0.923718989
0.132827312 0.970904768 0.921948075
0.350790560 0.937001824 0.926248908
0.508665383 0.884250462 0.923719287
0.572422683 0.776090860 0.903478861
0.686527729 0.637571454 0.887665987
0.871600151 0.569006681 0.855914235
0.297027081 0.968880296 0.923465967
0.333333194 0.964200139 0.916634977
0.404933304 0.964326441 0.920936286
0.497153819 0.957621634 0.921315670
0.607210696 0.953320324 0.910816014
0.705123007 0.946615994 0.915876031
0.769765556 0.826059580 0.895003200
0.888425231 0.730929792 0.847944260
0.483364731 0.954838574 0.931056201
0.505882263 0.953826487 0.931561947
0.537887573 0.950917125 0.933206737
0.596964002 0.946489513 0.927640676
0.658443928 0.936749220 0.924477816
0.733080149 0.917267323 0.911828101
0.819860995 0.891587615 0.891461074
0.912460744 0.887160063 0.875774622
0.001265167 0.694244146 0.977862000
0.000000000 0.681720674 0.980139256
0.000000000 0.656799555 0.979126930
0.003922000 0.594560325 0.980391979
0.000000000 0.502846360 0.984566629
0.000000000 0.305376291 0.983174801
0.446047157 0.183934331 0.969892383
0.762555480 0.000000000 0.955850780
0.000000000 0.709803522 0.979379773
0.002656833 0.695635796 0.975458682
0.000000000 0.671473503 0.980771363
0.000000000 0.614927292 0.978114784
0.001518189 0.518152773 0.979886174
0.000759092 0.336369038 0.986717165
0.426312625 0.221252501 0.973054767
0.753826618 0.070967682 0.963314235
0.002530012 0.742441058 0.987349927
0.000000000 0.736495793 0.979886055
0.000000000 0.708159268 0.983681262
0.000379548 0.657685161 0.979885936
0.001518192 0.573687315 0.981656909
0.001138644 0.422770411 0.984060585
0.434409052 0.296015173 0.976343930
0.756482899 0.209994003 0.963946640
0.001265167 0.810246646 0.975585043
0.002656833 0.801517606 0.980012655
0.002277284 0.780392110 0.980898261
0.000000000 0.735610604 0.984313607
0.001138644 0.664136589 0.980771661
0.000759092 0.541935563 0.985325515
0.433396935 0.406198621 0.975711823
0.758507192 0.327261060 0.962175548
0.001265167 0.901580989 0.977229774
0.004048204 0.893105805 0.980392158
0.001517998 0.875268877 0.973814070
0.001644715 0.837697804 0.979506612
0.067931741 0.775964439 0.984313607
0.278684258 0.685009539 0.976849794
0.472232938 0.538519919 0.980392039
0.770145416 0.471979737 0.963314116
0.159392700 0.982036710 0.975584984
0.207969248 0.977482438 0.977862298
0.326755285 0.969386637 0.976849973
0.440101117 0.945983648 0.981024861
0.481467098 0.905502796 0.980645180
0.529791236 0.834028721 0.977862000
0.598229051 0.721821249 0.983174980
0.794433832 0.623782516 0.955976844
0.464516073 1.000000000 0.974699855
0.480581880 0.998355269 0.973940492
0.525363684 0.998861432 0.970398545
0.601391315 0.997596204 0.973940432
0.663251400 0.994686723 0.982795835
0.732953668 0.963946640 0.971536994
0.755977631 0.886021435 0.976850450
0.831372380 0.773687720 0.970018983
0.591524541 0.997469962 0.981909752
0.612903118 0.997722745 0.977609217
0.637570977 0.998734832 0.977229655
0.684503436 1.000000000 0.974193633
0.747627735 0.998481810 0.974826038
0.820872664 0.997469962 0.985452235
0.891967058 0.988108695 0.977988839
0.899809778 0.933585942 0.964706004
