Assets/Shaders/EldamarStudio/100 Sci-Fi LUTs Pack/LUTs/cube/Corliss LUT.cube
LUT_3D_SIZE 5
DOMAIN_MIN 0.000000 0.000000 0.000000
DOMAIN_MAX 0.903226 0.903226 0.903226
0.086274996 0.050980002 0.054901998
0.240607396 0.046046715 0.080075711
0.440733820 0.003922000 0.120936416
0.695383132 0.000000000 0.192283258
0.939025760 0.003922000 0.294370651
0.206957698 0.187982693 0.143200412
0.274636418 0.181783408 0.127513990
0.445287406 0.206325114 0.147754416
0.688930988 0.205059960 0.213535875
0.937001646 0.212650388 0.293358505
0.417203963 0.432890803 0.329537958
0.495002955 0.450347900 0.380012810
0.556483269 0.408728391 0.258949965
0.692473412 0.428336412 0.238962859
0.911574781 0.493864357 0.329790950
0.660215139 0.751296282 0.626818359
0.711701691 0.760784566 0.662745118
0.759772360 0.761164010 0.671600282
0.816951156 0.693485141 0.492473274
0.938013792 0.664389789 0.424541235
0.873497784 0.942694843 0.864389658
0.898418784 0.946615815 0.877545655
0.933585942 0.940037966 0.907400131
0.938645959 0.939784944 0.862365603
0.985831797 0.907526970 0.749398768
0.000000000 0.173940405 0.249462694
0.228842393 0.051612999 0.243896395
0.427324533 0.024162004 0.248197526
0.667046249 0.079822853 0.345983416
0.910563052 0.239974901 0.481340796
0.000000000 0.290322393 0.262239397
0.228842407 0.215433702 0.265148699
0.448576838 0.181151405 0.276913285
0.680075824 0.234787822 0.373687685
0.917647123 0.306514919 0.470841229
0.239848405 0.420493364 0.352055699
0.379253805 0.419228405 0.352434993
0.518911660 0.392030120 0.338772804
0.680708289 0.429348528 0.352814525
0.912207365 0.485389024 0.438583106
0.576217651 0.738013566 0.584439993
0.643516958 0.745098114 0.631878257
0.761164010 0.751043379 0.706008911
0.789879799 0.685389221 0.533712804
0.921315491 0.675775111 0.496394813
0.859708965 0.940544069 0.862744927
0.882605970 0.949272633 0.876407683
0.930296957 0.948260486 0.909424365
0.935863256 0.941429675 0.879443645
0.982163250 0.906767786 0.774319768
0.000000000 0.400252789 0.570904374
0.003289416 0.292979389 0.558506787
0.434914380 0.001265006 0.503604770
0.647944272 0.000000000 0.481973380
0.874383152 0.000000000 0.533585966
0.000000000 0.499936670 0.584946096
0.000000000 0.412650377 0.574826181
0.408981681 0.169007123 0.526122510
0.653636932 0.113725424 0.497026980
0.880834997 0.151549503 0.546362936
0.009867410 0.646046817 0.615433216
0.000000000 0.643137038 0.604554117
0.402150393 0.455787390 0.559771776
0.676786840 0.361669421 0.523465931
0.899809778 0.500569224 0.635167181
0.133965567 0.659455955 0.636685669
0.292979419 0.657685161 0.646805882
0.544592023 0.683112144 0.631498933
0.722707272 0.645161390 0.607210577
0.891967177 0.709171295 0.642884195
0.781656981 0.944845200 0.848829567
0.816318989 0.939405382 0.858317316
0.895256162 0.949905217 0.894623578
0.947880983 0.952182114 0.926501811
0.975458622 0.914737403 0.829221785
0.001012128 0.585579097 0.826945126
0.003542291 0.529664874 0.826818347
0.000000000 0.304111302 0.806451559
0.603162110 0.003922001 0.761037230
0.862871587 0.000000000 0.753699958
0.003542291 0.644276142 0.840733826
0.003289420 0.597217143 0.840860367
0.002023998 0.403415442 0.816951573
0.593674839 0.145603940 0.767235696
0.863504231 0.013156415 0.759772360
0.001012128 0.812017798 0.847691119
0.001644708 0.781657100 0.841746092
0.072865091 0.648956060 0.842125237
0.573434412 0.399620801 0.786590993
0.884124041 0.330676675 0.769892573
0.002909872 0.904111266 0.856167138
0.093485266 0.900822401 0.857431710
0.457052946 0.885515153 0.848956525
0.650474429 0.726881385 0.816951156
0.896394789 0.634408355 0.755091429
0.373687685 0.888298571 0.881214499
0.430613548 0.895761788 0.887539506
0.577861667 0.904111028 0.874256790
0.862744987 0.927893579 0.896141529
0.940037906 0.909677625 0.871979952
0.001265167 0.694244146 0.977862000
0.000000000 0.667172849 0.980644941
0.000632584 0.554458976 0.982542396
0.000000000 0.255787492 0.985704958
0.762555480 0.000000000 0.955850780
0.002023991 0.732827127 0.984819710
0.000000000 0.707400143 0.981909811
0.002277292 0.605439544 0.980898082
0.001644704 0.338520020 0.983807385
0.753952861 0.176344097 0.960657716
0.003289416 0.853131235 0.985325396
0.005566127 0.828969002 0.982542396
0.001265006 0.757748425 0.983934164
0.196331561 0.570778131 0.985831797
0.762555420 0.400885403 0.967109144
0.250474304 0.996711075 0.980139136
0.353320509 0.991903841 0.979886234
0.530044198 0.952182114 0.980265558
0.596078396 0.849715233 0.977355957
0.802782893 0.661733329 0.962808132
0.591524541 0.997469962 0.981909752
0.627197683 1.000000000 0.979759991
0.716382086 0.996710598 0.979127169
0.838330030 0.996457815 0.981150985
0.899809778 0.933585942 0.964706004
