Assets/Shaders/EldamarStudio/100 Sci-Fi LUTs Pack/LUTs/cube/Corliss LUT.cube
DOMAIN_MIN 0 0 0
DOMAIN_MAX 1 1 1
LUT_3D_SIZE 32
0.086274996 0.050980002 0.054901998
0.098419003 0.054016385 0.054901998
0.117014773 0.054901998 0.059202999
0.138267159 0.054901998 0.064010158
0.159898996 0.054522451 0.066666998
0.184186995 0.051486067 0.066666998
0.213535637 0.050980002 0.074256673
0.240607396 0.046046715 0.080075711
0.263377994 0.039216001 0.083871000
0.281594038 0.039215993 0.089942999
0.308538884 0.030487129 0.093105868
0.335863262 0.017330751 0.098165996
0.368880272 0.006704646 0.106514998
0.410373062 0.003922000 0.117900029
0.440733820 0.003922000 0.120936416
0.473497778 0.001518196 0.123972185
0.506894171 0.000000000 0.134598374
0.541555703 0.000000000 0.151549980
0.581024945 0.000000000 0.163694024
0.617710710 0.000000000 0.170272008
0.657938480 0.000000000 0.180138990
0.695383132 0.000000000 0.192283258
0.723339975 0.000000000 0.204807490
0.765844822 0.000000000 0.226059914
0.799241006 0.000000000 0.238203704
0.832384288 0.000000000 0.248703331
0.868817091 0.000506064 0.261353910
0.905249834 0.003542448 0.276533544
0.939025760 0.003922000 0.294370651
0.972422123 0.003922000 0.314358175
0.996963620 0.003036392 0.332953990
1.000000000 0.000000000 0.345097989
0.095382616 0.069196776 0.076154388
0.101454616 0.063124768 0.060973998
0.126502156 0.068311386 0.058823772
0.145351157 0.072612390 0.062239386
0.161037549 0.075395390 0.067805447
0.193295389 0.069702841 0.075774617
0.207463384 0.069196776 0.078304939
0.238077000 0.067552067 0.081467390
0.265654713 0.061227098 0.082353003
0.281594038 0.054396383 0.083871007
0.311448753 0.051486515 0.095761992
0.342947632 0.040607393 0.103225864
0.374573022 0.027577490 0.111448646
0.410120010 0.018342646 0.120936356
0.437697411 0.009994000 0.123972028
0.472865194 0.002783201 0.129411608
0.511448383 0.000000000 0.139152184
0.547501504 0.000632576 0.152688205
0.574952960 0.003036387 0.157622024
0.619987428 0.003036387 0.172549367
0.653384089 0.001138647 0.181277648
0.689310908 0.000000000 0.192283258
0.723213494 0.000000000 0.204427987
0.762808383 0.000000000 0.216951519
0.803035855 0.000000000 0.233649880
0.835673273 0.000000000 0.247059032
0.869323075 0.000000000 0.260847986
0.908285499 0.000506061 0.273497939
0.942062080 0.000885613 0.291334361
0.971916497 0.000885613 0.307779789
0.994813323 0.002656604 0.326502204
1.000000000 0.006072000 0.345097989
0.104490772 0.080961771 0.084503770
0.114863776 0.079190776 0.077925384
0.123086549 0.081720777 0.067045994
0.152182162 0.083997615 0.067805223
0.167362541 0.087412998 0.073497772
0.190132931 0.088425003 0.079063840
0.214420989 0.089563772 0.085262321
0.231498688 0.086274773 0.088298708
0.263124496 0.084250450 0.089563675
0.283871293 0.080708474 0.090955012
0.313598990 0.073118672 0.098291993
0.343959749 0.068058036 0.102339998
0.377229631 0.056167006 0.108791865
0.410626024 0.044528544 0.116129220
0.441745400 0.037318200 0.124857575
0.471979588 0.028209973 0.134597987
0.505376339 0.016065586 0.139152184
0.544086099 0.009108026 0.151802570
0.574446976 0.001518196 0.160910979
0.609614372 0.003922000 0.168627590
0.653257489 0.002024260 0.181910217
0.686654270 0.000000000 0.194307253
0.722960472 0.000000000 0.208728984
0.758380949 0.000000000 0.220872998
0.797849238 0.000000000 0.233143494
0.835926294 0.000000000 0.246932551
0.868311048 0.000000000 0.260847986
0.904490411 0.000000000 0.272991985
0.936495662 0.002150774 0.290448964
0.969892323 0.000379557 0.305122942
0.991777182 0.012397162 0.319923818
0.997849226 0.033649545 0.338646203
0.121189155 0.092599832 0.090069838
0.129538313 0.093864992 0.089563772
0.138266921 0.096900836 0.082226381
0.151170149 0.099178001 0.078178324
0.177735537 0.096521154 0.083491325
0.194686934 0.100822166 0.085642099
0.216192156 0.106894478 0.087412998
0.240101025 0.107527159 0.090575546
0.262112290 0.102973156 0.094370842
0.288931310 0.105502836 0.097912528
0.315369993 0.098165706 0.103857994
0.348260522 0.093611643 0.110942319
0.378621310 0.089816161 0.113219313
0.411132157 0.078431189 0.116382122
0.441492379 0.071347326 0.125489980
0.471220434 0.064136684 0.136369154
0.505376339 0.055787452 0.146489352
0.537002087 0.041872069 0.150158152
0.573434949 0.025553474 0.163440987
0.609614372 0.020493675 0.172802001
0.644908309 0.013409419 0.182668984
0.686401188 0.005313164 0.194813251
0.722960472 0.003415656 0.212270990
0.756356955 0.000000000 0.224415004
0.793042421 0.000000000 0.235294148
0.831119478 0.000000000 0.248703331
0.868058205 0.000000000 0.261353910
0.902972579 0.000000000 0.274256825
0.933712780 0.003921671 0.289184123
0.960784256 0.022391101 0.306388110
0.989753127 0.031751871 0.322959721
0.997343183 0.073877156 0.339658141
0.146995544 0.108918093 0.099556997
0.151170388 0.111574933 0.103731930
0.155598000 0.114231318 0.097786218
0.166350543 0.115875706 0.092979155
0.183428094 0.112839997 0.094876997
0.204680488 0.112839997 0.094876997
0.226312324 0.118912317 0.092726223
0.248829871 0.123845994 0.091334544
0.272738993 0.124225549 0.091714002
0.297026992 0.124225542 0.097786009
0.319164872 0.119164899 0.104237542
0.349019498 0.117140643 0.113978505
0.383554727 0.116381548 0.123845994
0.413915515 0.116381548 0.129664958
0.438456535 0.107653424 0.132700577
0.466286868 0.101328552 0.141682357
0.498544991 0.096015543 0.150031656
0.537002087 0.089690521 0.158507437
0.573434949 0.080582112 0.164579466
0.612270832 0.070209078 0.176217556
0.648323715 0.055408161 0.187602535
0.683744371 0.038709641 0.199367255
0.722833991 0.020873131 0.211511984
0.755977392 0.011764731 0.223655999
0.791271567 0.009487636 0.234661743
0.827324748 0.009487636 0.246932656
0.863504529 0.009867184 0.260974467
0.902972877 0.009867184 0.276154101
0.935610533 0.015559623 0.288678110
0.962176204 0.039847963 0.305123478
0.981783986 0.079569645 0.325237125
1.000000000 0.119038090 0.352561563
0.162175938 0.133206859 0.111700997
0.174319938 0.133206859 0.123845771
0.176343992 0.133712932 0.117267385
0.183681145 0.136748865 0.109424159
0.198608488 0.140164390 0.107020997
0.207716882 0.137127995 0.100949004
0.231498942 0.134598315 0.100949004
0.253636688 0.138520002 0.100442939
0.275395185 0.142821088 0.099683844
0.297027022 0.145477936 0.097786009
0.324224859 0.145477936 0.106767870
0.348513514 0.144465804 0.115370184
0.378241628 0.142188519 0.123845994
0.410879135 0.137633935 0.129664958
0.441239893 0.137633935 0.132700577
0.475395530 0.133712798 0.147754595
0.507273853 0.131688923 0.156862736
0.539784789 0.129411936 0.161543056
0.573434949 0.123086900 0.167615071
0.609867036 0.122327864 0.179253772
0.646805525 0.114611119 0.187602937
0.683744371 0.104996793 0.195699066
0.722833991 0.096774280 0.205439985
0.753193974 0.087665886 0.217583999
0.786337852 0.085388795 0.234281987
0.820240676 0.085388795 0.250980407
0.854143143 0.085894860 0.266667008
0.887792468 0.088804729 0.273118466
0.927260816 0.096773870 0.285641909
0.961669743 0.110689193 0.304870456
0.986844003 0.134724766 0.327261508
1.000000000 0.161542863 0.349525928
0.182416320 0.162555635 0.126375318
0.192030638 0.157494992 0.133459449
0.204174638 0.157494992 0.139152452
0.209487796 0.158760160 0.133965641
0.220999643 0.162808314 0.132194772
0.227957249 0.161922693 0.128272995
0.239595324 0.158886313 0.112080999
0.263883740 0.154205993 0.112080999
0.286780626 0.155218005 0.112840094
0.309803814 0.156483173 0.113346159
0.331815183 0.169259995 0.116887867
0.357115835 0.171284258 0.121948250
0.383681327 0.172928676 0.130044356
0.415180027 0.171789676 0.137254715
0.443263501 0.174066961 0.140290901
0.476028085 0.169259965 0.148134127
0.512333989 0.167615637 0.162934989
0.546615720 0.167615637 0.170904294
0.583807945 0.165338635 0.180771336
0.614927649 0.162302315 0.189879715
0.651359618 0.166097313 0.200126737
0.687792242 0.158127502 0.205819190
0.725616693 0.147627831 0.211891174
0.760784268 0.143327057 0.221632004
0.791144848 0.145603955 0.236053273
0.829854608 0.148892939 0.254016310
0.867805064 0.151676029 0.270208687
0.901201427 0.154712409 0.276280671
0.932321072 0.160531431 0.290195972
0.966476619 0.173181474 0.307653159
0.991144955 0.192409933 0.331182867
1.000000000 0.216697961 0.354079992
0.206957698 0.187982693 0.143200412
0.216066092 0.183554634 0.147627696
0.224035695 0.180138692 0.151549473
0.233649686 0.181403860 0.163440689
0.242757991 0.184060693 0.163061157
0.251359999 0.184060693 0.149904758
0.260847718 0.184819788 0.147374690
0.274636418 0.181783408 0.127513990
0.298924983 0.174952313 0.124477990
0.323212981 0.172295704 0.123086765
0.342947572 0.180265576 0.126122832
0.364579499 0.192283258 0.129158542
0.388868004 0.199873626 0.133333281
0.417963028 0.204680398 0.141935036
0.445287406 0.206325114 0.147754416
0.474130392 0.203794986 0.152308807
0.510563195 0.202277169 0.164453194
0.547121823 0.203036264 0.176091120
0.585578978 0.204048395 0.187223017
0.621632040 0.199620336 0.196584359
0.652498722 0.198987693 0.202403739
0.688930988 0.205059960 0.213535875
0.725237191 0.194939807 0.219481006
0.760151803 0.193422005 0.230107605
0.796963811 0.193928108 0.242125273
0.830107570 0.198608428 0.257305622
0.873371124 0.204427391 0.273750782
0.907906115 0.208602130 0.280961424
0.937001646 0.212650388 0.293358505
0.969006598 0.225679874 0.320303559
0.993168831 0.237318307 0.337128371
1.000000000 0.256293416 0.356862992
0.233523190 0.211511999 0.164453000
0.243390486 0.209234700 0.165970817
0.248830095 0.205439419 0.169006780
0.258697182 0.204174265 0.176344186
0.264389634 0.206451640 0.197596192
0.275395125 0.206072196 0.173687354
0.285009444 0.209361419 0.172675282
0.298165709 0.209867477 0.164705485
0.312587172 0.205313101 0.146489099
0.336875170 0.196204707 0.134345084
0.354585826 0.194939971 0.132194966
0.374826342 0.202530086 0.135989934
0.395699114 0.215812728 0.139405087
0.419734150 0.230993122 0.145477086
0.446046501 0.233523190 0.154079407
0.474130392 0.233396471 0.158380806
0.505250096 0.233396277 0.162935004
0.545351028 0.235800087 0.178115368
0.582036853 0.238709956 0.187476039
0.620493412 0.234914482 0.196584359
0.655028343 0.233396277 0.202656642
0.685895205 0.233902350 0.208222970
0.722327948 0.239848569 0.223402590
0.756356955 0.240480989 0.236179814
0.792789221 0.241999179 0.247564897
0.830866277 0.244149595 0.261100560
0.867299080 0.246679276 0.275775015
0.903731823 0.252245277 0.285136431
0.933712780 0.256420016 0.297659904
0.963820219 0.267552227 0.321695149
0.990132511 0.282099813 0.352308989
0.999240935 0.285136193 0.358381003
0.257811993 0.241872013 0.194813013
0.269955963 0.241872013 0.191777393
0.273371488 0.237444505 0.193295211
0.282479644 0.234028980 0.197596341
0.300822437 0.233776033 0.203668982
0.303858072 0.230740428 0.203668982
0.312333852 0.235420987 0.202530473
0.326375514 0.238077492 0.192916065
0.342947215 0.235673904 0.176849887
0.355091959 0.226565495 0.167741477
0.370651841 0.214548007 0.152688369
0.390006721 0.215180486 0.152435482
0.410120457 0.224921137 0.157242328
0.428842545 0.240101531 0.160657495
0.450094879 0.255281895 0.166729480
0.478811085 0.262618959 0.170524806
0.509044945 0.266793281 0.170524806
0.542314649 0.269196510 0.172042608
0.584819555 0.269196510 0.187223017
0.621505260 0.269323051 0.196584359
0.656166732 0.270967752 0.203795001
0.688424766 0.272865474 0.210752651
0.719291568 0.273244977 0.220366970
0.755724370 0.276280612 0.235547394
0.789753318 0.281467587 0.246046692
0.824794352 0.287286997 0.258064151
0.861227155 0.292220473 0.272738636
0.897659898 0.292220473 0.284883410
0.931435764 0.297786474 0.299557149
0.962808371 0.309045196 0.321694672
0.987096906 0.321695477 0.346742213
0.996204555 0.327641010 0.364453018
0.285009861 0.272232741 0.210625872
0.291334867 0.269322872 0.210499376
0.301328093 0.267172635 0.216065764
0.309930146 0.265654564 0.219354734
0.326755106 0.266919404 0.223276541
0.337381691 0.263883799 0.235926867
0.337887615 0.268437862 0.233396545
0.345857024 0.272865564 0.228083715
0.358760059 0.274889648 0.213662416
0.370904833 0.274383247 0.198102236
0.380138993 0.259455889 0.174446732
0.401391625 0.247311875 0.161290362
0.425806642 0.246932507 0.162049115
0.449588895 0.254522830 0.166602999
0.470841259 0.264389545 0.167361990
0.489689857 0.279569924 0.171030805
0.516508341 0.291714162 0.177103192
0.545477152 0.299683750 0.180898160
0.578873992 0.299683750 0.186969981
0.615812719 0.305249751 0.196584359
0.650347710 0.305502743 0.205692738
0.683744133 0.307527006 0.214800864
0.716002107 0.309551209 0.225679994
0.746868968 0.312586814 0.232511044
0.783301711 0.317899734 0.247691423
0.817330658 0.322580665 0.256672829
0.852751374 0.327134848 0.268817127
0.891587853 0.331941843 0.290575892
0.920050800 0.334598690 0.302719980
0.956483066 0.343959689 0.321189046
0.985831738 0.356230497 0.343579859
0.998987854 0.364326745 0.361796141
0.314357966 0.304617256 0.229854241
0.320429981 0.305629373 0.235926494
0.330676973 0.308665246 0.240354002
0.337254584 0.303099334 0.246932402
0.350537330 0.302719504 0.249589041
0.369260103 0.301328152 0.264769435
0.377356499 0.301834255 0.268817186
0.377356499 0.306261957 0.260847509
0.386084735 0.308539242 0.250601232
0.398229212 0.310310036 0.234914780
0.409487635 0.303984642 0.212903500
0.418595761 0.292852223 0.192662984
0.439468890 0.279569894 0.181656852
0.462745279 0.276787221 0.182795241
0.483997643 0.278810829 0.182795241
0.506894231 0.292726040 0.179126799
0.528146625 0.304870427 0.180644989
0.554332495 0.318406224 0.187602729
0.581910014 0.323972255 0.192030042
0.611764491 0.335610479 0.198608622
0.640607238 0.337887496 0.207716510
0.672612250 0.339911491 0.215812728
0.705249786 0.344212741 0.226059228
0.741302848 0.351043850 0.237823993
0.776217580 0.354332477 0.250727266
0.815433323 0.359013170 0.265907645
0.850221395 0.362555504 0.274383336
0.885136306 0.368627489 0.291081876
0.918026805 0.372042805 0.304743975
0.945351124 0.380392402 0.323971927
0.979379952 0.391650885 0.344591916
0.997975767 0.400758982 0.362808257
0.348133922 0.347121924 0.262491912
0.354205906 0.349019676 0.267046034
0.364579171 0.351929277 0.272865266
0.377482742 0.355091780 0.281087786
0.381277442 0.346362919 0.284883171
0.401771128 0.344844908 0.298545569
0.415686607 0.345983267 0.302466959
0.422138274 0.347627968 0.299557269
0.422897190 0.349905282 0.285895109
0.433902621 0.349905282 0.272991985
0.444908261 0.349272698 0.257811755
0.455028534 0.341049671 0.237444758
0.466413617 0.330802917 0.216951281
0.481088012 0.315117240 0.207083851
0.498798370 0.306767851 0.201770633
0.522454262 0.309044778 0.199240640
0.547881007 0.321189165 0.193927646
0.570904613 0.332827538 0.194560230
0.594180703 0.346489668 0.200126305
0.618974984 0.360278368 0.207337067
0.644402146 0.371663630 0.214168534
0.668690622 0.375711620 0.221252143
0.699177861 0.382163137 0.227450624
0.738646567 0.391271532 0.241618901
0.775838196 0.393548638 0.253383905
0.812776625 0.396584302 0.268563986
0.851739407 0.400632709 0.284250498
0.880202591 0.407337248 0.295256436
0.913219750 0.411891073 0.310436606
0.948766768 0.417963058 0.327387571
0.972549021 0.430107623 0.352561206
0.996078014 0.439468265 0.371537000
0.386844009 0.402530074 0.311322004
0.392409980 0.403795093 0.308791667
0.402783036 0.403542072 0.310562849
0.416192204 0.403795093 0.317394048
0.430360585 0.404048085 0.328905553
0.439468950 0.397976071 0.338013947
0.453890324 0.398734808 0.339785069
0.465148985 0.401770741 0.338520080
0.470208943 0.403289050 0.330170929
0.473244548 0.403289050 0.311954141
0.481593907 0.406198919 0.303858072
0.490955263 0.400126576 0.287412822
0.502340376 0.388235062 0.264769047
0.517014027 0.375332028 0.240733996
0.526122451 0.354079664 0.222517237
0.546236634 0.341176301 0.217204064
0.571031153 0.340417236 0.214168057
0.596710980 0.351043522 0.210246623
0.614926994 0.372295976 0.213283017
0.635926366 0.384946018 0.220872685
0.659076452 0.398987740 0.227830470
0.683364987 0.413156003 0.232890859
0.707906008 0.425426513 0.235926509
0.746995747 0.434787929 0.247691035
0.783934534 0.435800314 0.255787522
0.820113957 0.435800374 0.266540319
0.855028093 0.439595103 0.281973124
0.876280487 0.448703468 0.300189912
0.907906413 0.455661029 0.321315795
0.945604324 0.461480021 0.340290964
0.980645418 0.469576091 0.360910565
0.995825052 0.481720090 0.388235003
0.417203963 0.432890803 0.329537958
0.417203963 0.448071212 0.332574368
0.427071512 0.447185457 0.338646591
0.440480947 0.447311968 0.347754806
0.454522818 0.450095236 0.359139830
0.460721314 0.455661178 0.365338326
0.477419376 0.449589193 0.369386733
0.495002955 0.450347900 0.380012810
0.506134927 0.450347692 0.386337698
0.506640911 0.442757398 0.375711203
0.509677291 0.445667267 0.351676196
0.520050406 0.446679384 0.331182718
0.532700598 0.440733552 0.306388170
0.547374845 0.429980755 0.280202359
0.556483269 0.408728391 0.258949965
0.567994833 0.385072798 0.240733802
0.584187150 0.376091212 0.232384831
0.603162587 0.379886210 0.228842810
0.624035418 0.390511930 0.234535366
0.645034790 0.400632322 0.232005045
0.668184876 0.414168149 0.235294148
0.692473412 0.428336412 0.238962859
0.717014432 0.440606892 0.241998509
0.747375250 0.455787331 0.245034903
0.781910300 0.465148687 0.256799400
0.815939248 0.470335394 0.271853209
0.849968195 0.475774795 0.290828466
0.882353246 0.482099801 0.306261897
0.911574781 0.493864357 0.329790950
0.942567945 0.499430597 0.346362978
0.972802162 0.506641388 0.363314360
0.992789388 0.521189213 0.388235003
0.445161402 0.484882742 0.357368588
0.447564602 0.483238369 0.362808168
0.454016387 0.494117767 0.365844548
0.467172951 0.490828574 0.376976937
0.482732773 0.490828782 0.389880031
0.496900797 0.496900797 0.397975802
0.513092756 0.497659802 0.399114311
0.526375473 0.494876802 0.415306687
0.539278626 0.496394604 0.430486858
0.542567551 0.492219895 0.424667895
0.543073654 0.489942640 0.403415591
0.548133790 0.488931030 0.379127085
0.559519053 0.488551587 0.353699952
0.573434651 0.483238339 0.327134579
0.586844027 0.470587999 0.308032990
0.593548656 0.446932405 0.281973571
0.602656603 0.422643989 0.263757199
0.616445363 0.413662195 0.252878010
0.637697756 0.412143797 0.248323992
0.656546354 0.418848962 0.248450443
0.683491409 0.431751847 0.251106769
0.708791971 0.445920259 0.254649103
0.732953489 0.458064586 0.257811606
0.756483018 0.470967710 0.263124704
0.782289743 0.483870804 0.266160488
0.812523663 0.498671621 0.277925313
0.841872096 0.510815740 0.295129716
0.867678761 0.520682752 0.310309619
0.905629158 0.520050585 0.331055939
0.943073511 0.528652608 0.351802409
0.972422421 0.536748767 0.366982967
0.992156982 0.553446949 0.388235003
0.474004000 0.533459544 0.395319551
0.481593788 0.531941354 0.396837354
0.482858986 0.535104334 0.405312926
0.493232191 0.541682422 0.409614176
0.508918524 0.536748946 0.423656076
0.528273165 0.539405525 0.433902621
0.541935384 0.541935384 0.438456565
0.559771895 0.540417552 0.450221270
0.570398271 0.539658487 0.471473485
0.578747332 0.538899362 0.469955653
0.577482581 0.537507713 0.454016477
0.581530571 0.537507832 0.432258070
0.587602556 0.533333302 0.407969564
0.598482132 0.532068193 0.380771697
0.609867394 0.524224937 0.357495397
0.625427186 0.510689557 0.335104585
0.629981399 0.484882951 0.310816169
0.635420799 0.459961802 0.290069431
0.651359975 0.445540398 0.272612154
0.668311238 0.441239715 0.264009982
0.694117665 0.451486409 0.264768988
0.723466337 0.465654433 0.270841241
0.748007417 0.477799177 0.274257183
0.767868102 0.489943206 0.277546197
0.789879560 0.505123198 0.285895109
0.815559685 0.515875816 0.293105364
0.840860069 0.536116183 0.302719921
0.860088408 0.550284207 0.311827540
0.894243717 0.558254063 0.332320809
0.927893102 0.559013367 0.348766416
0.968626976 0.566856384 0.369639575
0.990638793 0.583807349 0.389753193
0.505629122 0.574193537 0.440228105
0.515875697 0.577861905 0.436559141
0.518532276 0.581783652 0.443010718
0.524351716 0.585325956 0.455154687
0.535736680 0.588741124 0.460467696
0.555724084 0.586464405 0.471600413
0.566856444 0.586590767 0.478684545
0.579633176 0.588235199 0.492979228
0.597722650 0.586464584 0.511574984
0.612902999 0.583428204 0.514610648
0.612523794 0.582036674 0.504996717
0.614927530 0.583428323 0.489310414
0.620367110 0.584946394 0.466287106
0.626186073 0.578873694 0.441746056
0.631878555 0.572801650 0.411764830
0.648703337 0.564326286 0.387982309
0.662112713 0.549272656 0.366097480
0.665781558 0.523212671 0.342947543
0.668817163 0.495888233 0.312586695
0.681087911 0.478051662 0.292978734
0.704490840 0.474762559 0.283491135
0.733839691 0.485641658 0.284250230
0.760911047 0.497912914 0.290069968
0.779633164 0.510562956 0.290069968
0.798228860 0.525363564 0.297280431
0.822896838 0.541302621 0.309424549
0.849209249 0.551423013 0.322580576
0.864642560 0.569512546 0.320429683
0.893864334 0.584439993 0.336115956
0.921821117 0.595066190 0.351422966
0.949272215 0.601391494 0.366097540
0.985705018 0.613535523 0.393421978
0.542061985 0.619734049 0.482733011
0.545098364 0.625806808 0.476660222
0.548893213 0.627324939 0.479443580
0.560278356 0.626565814 0.491081983
0.581277966 0.625173986 0.506008983
0.587349951 0.631245971 0.506008983
0.597217321 0.626439035 0.512081027
0.607969999 0.627703965 0.526375711
0.622137964 0.632258117 0.545351028
0.640227497 0.635041535 0.557115495
0.646679044 0.629095972 0.554332852
0.649968266 0.627577960 0.546489716
0.653257608 0.628969371 0.529538393
0.656546950 0.630487025 0.502467036
0.659582615 0.624414980 0.475142628
0.672485828 0.615939200 0.449968427
0.685136259 0.605313063 0.425933033
0.693106055 0.590006411 0.400632858
0.699178040 0.568753958 0.370272040
0.704997003 0.535863578 0.339911222
0.723213017 0.513725519 0.318406016
0.749019444 0.506135046 0.307779998
0.776091456 0.513092577 0.308286011
0.797343850 0.528272986 0.308286011
0.811511934 0.538646340 0.310562730
0.832764328 0.552688003 0.318532407
0.861353993 0.569639087 0.331689000
0.882606328 0.584819436 0.349904984
0.906008899 0.597596645 0.358380795
0.927513957 0.611764729 0.368501157
0.948260188 0.625932634 0.380518973
0.973561049 0.640860021 0.399494022
0.589626729 0.684756458 0.541935802
0.592663169 0.682479203 0.541429698
0.602150738 0.684250414 0.541808665
0.609614253 0.684250414 0.548513532
0.624035776 0.683111787 0.561037302
0.630107760 0.684376717 0.568248093
0.636179745 0.685388744 0.575838387
0.648324072 0.683111787 0.583807766
0.662365854 0.685388744 0.596710742
0.678558111 0.686400890 0.604806781
0.693484724 0.686274409 0.621884942
0.695508718 0.684250414 0.608728647
0.694370389 0.684250414 0.595066428
0.691967070 0.684882760 0.574826479
0.689943314 0.678810716 0.552562058
0.704996705 0.675142527 0.532447934
0.720556557 0.665275097 0.504364312
0.730929971 0.652498364 0.473751009
0.734851718 0.635547519 0.439089179
0.743706346 0.619861066 0.411511749
0.755471110 0.580771983 0.375458777
0.773054719 0.555471182 0.350031972
0.791271150 0.547121704 0.337508231
0.812523544 0.549019277 0.334851354
0.836053193 0.566476941 0.343959361
0.853004336 0.579886377 0.351296395
0.876786768 0.595193028 0.362049371
0.900316417 0.605818808 0.375711352
0.918911934 0.620999217 0.385958195
0.942947388 0.636812449 0.393295348
0.962302327 0.653004467 0.404933602
0.980898380 0.668184340 0.425047368
0.626818478 0.724983990 0.589373708
0.627957165 0.725743055 0.577988744
0.635547459 0.728652477 0.595319450
0.645161450 0.724857330 0.593295038
0.654016733 0.723718822 0.598228753
0.663124740 0.726755202 0.605818927
0.671094477 0.726755202 0.620620012
0.685389161 0.728399515 0.631372690
0.699557364 0.728652477 0.640733540
0.712460458 0.728652477 0.647944212
0.721947908 0.728652477 0.652371705
0.730803192 0.730550230 0.659582734
0.731941581 0.728273213 0.647058606
0.728399515 0.726755202 0.635167718
0.725363851 0.723972201 0.618849039
0.733459711 0.718405783 0.596204817
0.745603740 0.713851988 0.567362249
0.758380532 0.703731477 0.536369503
0.763946950 0.692346692 0.507526934
0.774446368 0.680961370 0.475648105
0.783554494 0.660088718 0.454016477
0.794686913 0.618596077 0.413535953
0.804047942 0.594180942 0.385705471
0.818215907 0.583554447 0.366729826
0.847438276 0.587729335 0.369386464
