Assets/Shaders/EldamarStudio/100 Sci-Fi LUTs Pack/LUTs/cube/Cyber LUT.cube
LUT_3D_SIZE 5
DOMAIN_MIN 0.000000 0.000000 0.000000
DOMAIN_MAX 0.903226 0.903226 0.903226
0.113724999 0.035294000 0.043136999
0.131056279 0.049335711 0.058823999
0.152941003 0.074510001 0.078431003
0.202023998 0.119670995 0.107905999
0.299683630 0.191017970 0.175331980
0.127134711 0.088930994 0.081087992
0.131056279 0.095129706 0.085642003
0.159519419 0.116381995 0.100695573
0.207337409 0.155344859 0.139911413
0.320682913 0.222770676 0.190638691
0.135357410 0.181151405 0.134724990
0.141176417 0.186084688 0.135356992
0.166729569 0.203415394 0.160910830
0.223023400 0.244275689 0.184440404
0.355344355 0.325237215 0.253257364
0.114484876 0.351423234 0.222770125
0.131688863 0.351676106 0.234535128
0.187349707 0.375585228 0.251233250
0.269956112 0.409234375 0.281720102
0.443769753 0.497912824 0.357747942
0.282099366 0.658190548 0.472612411
0.308538496 0.668058395 0.476913452
0.389879793 0.682353020 0.498798430
0.495635569 0.709803581 0.540290892
0.634788394 0.741935611 0.600885391
0.118279584 0.047059000 0.073876999
0.132700995 0.056546707 0.085009411
0.156230420 0.091587827 0.103984565
0.199747130 0.130170584 0.136369124
0.301327914 0.194939971 0.197216839
0.123845711 0.091208287 0.096773989
0.140543997 0.102972701 0.106894284
0.157874718 0.125237107 0.122959986
0.203668714 0.159898698 0.157242134
0.317393810 0.228589520 0.213662490
0.139531717 0.186717108 0.152688131
0.143832996 0.189626575 0.159898698
0.169639274 0.210246697 0.173940822
0.222011536 0.242378116 0.200379282
0.356989056 0.327134639 0.272865385
0.106135130 0.353320241 0.244022995
0.130676985 0.362176120 0.259455949
0.184187099 0.376217663 0.267931700
0.273877114 0.410246253 0.301581264
0.448323905 0.500569165 0.381151199
0.281846732 0.663757324 0.485009581
0.309044510 0.668943703 0.490575433
0.383174956 0.683997273 0.508538544
0.494370371 0.707526863 0.549398959
0.632005095 0.740543544 0.598734677
0.125489995 0.058823999 0.128146991
0.127134711 0.072232708 0.131056279
0.159519002 0.096773997 0.147754833
0.202403545 0.138646409 0.180139124
0.310816228 0.199494243 0.246552557
0.127388000 0.106261700 0.139910996
0.133332998 0.110816121 0.148766711
0.160784006 0.129791290 0.161163703
0.205692694 0.165085539 0.199114293
0.319038630 0.235420823 0.264895797
0.126754999 0.192282990 0.192915574
0.136875302 0.202403694 0.203036115
0.175205827 0.234155819 0.233523399
0.226312250 0.261986077 0.257432252
0.363820463 0.328399807 0.318026662
0.099557295 0.359266251 0.299051404
0.119291455 0.372675538 0.307147533
0.182163119 0.390259087 0.320556223
0.277166545 0.423909247 0.348386973
0.455534428 0.508412182 0.426944911
0.255028158 0.669322968 0.514990330
0.299556971 0.670967698 0.520176828
0.383174956 0.685641587 0.539152563
0.497279674 0.712839842 0.576470137
0.632890821 0.749145985 0.626944602
0.117647000 0.082479253 0.219861001
0.130044416 0.093484998 0.227956712
0.163061291 0.115116835 0.232257828
0.207969993 0.152055860 0.259076238
0.310562879 0.206451669 0.322580814
0.118912160 0.129158854 0.230613112
0.128020406 0.136369541 0.233902529
0.162428722 0.152055696 0.244655252
0.210879132 0.184440404 0.268185019
0.328273147 0.241365969 0.344844967
0.105502710 0.220746115 0.271094561
0.125490412 0.227324679 0.283997238
0.162428871 0.245919973 0.303225964
0.227703989 0.273118526 0.325490117
0.371031195 0.334345222 0.399493933
0.062492009 0.380771250 0.379759401
0.097279996 0.381404251 0.383680969
0.173687696 0.405945390 0.401644647
0.303352147 0.463124275 0.450474381
0.482605755 0.519797385 0.509930134
0.259203196 0.666919887 0.582289577
0.289689958 0.676786721 0.583301663
0.363567144 0.691840291 0.598355293
0.493990898 0.717646599 0.630107582
0.651865363 0.754965425 0.679190576
0.011512037 0.121694818 0.459582567
0.054143097 0.129538149 0.459582567
0.158254161 0.148513407 0.463377416
0.263124824 0.191650987 0.486400723
0.400632441 0.243389964 0.511827707
0.008602163 0.165844530 0.456925809
0.030740414 0.171284005 0.467299014
0.153953120 0.194307402 0.477166563
0.269322962 0.225047559 0.494117141
0.407210588 0.276786804 0.528526247
0.002656833 0.270208538 0.494749725
0.001644708 0.270840973 0.500696003
0.128146827 0.286527783 0.508538961
0.279822677 0.318658948 0.532953739
0.443896234 0.365718067 0.566097140
0.002530012 0.459962219 0.572295904
0.002023998 0.463630646 0.576976299
0.112966269 0.465528369 0.585579038
0.307653219 0.480202258 0.596710563
0.510562778 0.532953739 0.637191772
0.272991508 0.696268260 0.688171625
0.300822049 0.700316489 0.697912693
0.387982190 0.706514597 0.704617143
0.504743755 0.733333588 0.727008045
0.688551426 0.783681214 0.773307562
