Assets/Shaders/EldamarStudio/100 Sci-Fi LUTs Pack/LUTs/cube/Cyber LUT.cube
LUT_3D_SIZE 8
DOMAIN_MIN 0.000000 0.000000 0.000000
DOMAIN_MAX 0.903226 0.903226 0.903226
0.113724999 0.035294000 0.043136999
0.118026547 0.039595451 0.047438450
0.134850994 0.048576999 0.060341999
0.147375003 0.068944000 0.072865002
0.165338188 0.086907193 0.090828799
0.193927735 0.113598995 0.109930001
0.234914273 0.145730570 0.136242703
0.299683630 0.191017970 0.175331980
0.121189453 0.060341999 0.058823999
0.125869542 0.063883543 0.067046449
0.134092093 0.072106093 0.071726546
0.148892999 0.084629998 0.084629998
0.170145184 0.100695640 0.097280197
0.194054261 0.124604799 0.116381735
0.236558989 0.158253998 0.144465744
0.303984523 0.203162521 0.176976368
0.127893999 0.099556997 0.090955094
0.128652990 0.101075098 0.088172451
0.136369184 0.104997002 0.093231991
0.152435347 0.117899641 0.097912997
0.172422275 0.130803078 0.112839997
0.197469994 0.155850992 0.137887090
0.242884189 0.185578793 0.159898803
0.323465765 0.235926792 0.197217062
0.128273353 0.148007289 0.110436283
0.137254998 0.149145633 0.114357993
0.144212186 0.151549548 0.118658639
0.156863004 0.166476637 0.132827342
0.178747997 0.182163343 0.146616012
0.206831083 0.201517820 0.159392729
0.255660921 0.233270273 0.183933988
0.339784950 0.285515636 0.225679815
0.141176000 0.219355196 0.156609803
0.133333191 0.223276183 0.158760354
0.143453285 0.222391188 0.164453194
0.159519449 0.235293821 0.167235836
0.184946179 0.247438371 0.182542995
0.218848929 0.267298937 0.199620187
0.281088263 0.303605378 0.229348376
0.376217395 0.364579171 0.272359371
0.121569000 0.317014456 0.211638004
0.124478266 0.318659067 0.211891443
0.138013899 0.323592812 0.218089834
0.163314551 0.333839089 0.225426987
0.202023983 0.349399120 0.241872355
0.244655713 0.367741466 0.256419718
0.316002548 0.406578213 0.288424760
0.423782587 0.469576538 0.334471822
0.112713285 0.468817264 0.305755556
0.127134532 0.469196826 0.308412552
0.154838368 0.480455548 0.312207282
0.199746922 0.489563644 0.324731261
0.248576656 0.496774375 0.335610539
0.317647219 0.521569014 0.363314003
0.394939840 0.543959260 0.389753282
0.495256335 0.585072637 0.432510912
0.282099366 0.658190548 0.472612411
0.294117659 0.669576108 0.474636585
0.313598573 0.673877597 0.474636495
0.356862575 0.680202365 0.486653745
0.418595552 0.688424945 0.506894588
0.479443312 0.703225791 0.531941473
0.551928878 0.719291270 0.553700209
0.634788394 0.741935611 0.600885391
0.118026547 0.042757548 0.066666998
0.118026547 0.043516546 0.059203450
0.137634441 0.059582900 0.068184897
0.150917456 0.076407455 0.085009545
0.160278440 0.097533450 0.100316189
0.195951998 0.125363991 0.125363991
0.234282285 0.151929289 0.144212291
0.303604960 0.192283139 0.181909800
0.110183448 0.063883543 0.063503996
0.125489995 0.067805447 0.079190098
0.134851083 0.079949096 0.080328643
0.144971192 0.088551894 0.089310996
0.166982904 0.107273899 0.109297544
0.197470188 0.128399804 0.128399804
0.234534815 0.162048995 0.151170015
0.297533363 0.200000107 0.183428288
0.129791453 0.099936552 0.093611546
0.127008095 0.107400097 0.096774451
0.138393447 0.110056639 0.097533442
0.153320551 0.117899641 0.108918093
0.172422171 0.133965999 0.126122802
0.194686830 0.159013197 0.140543833
0.242757693 0.189500287 0.166730002
0.321188748 0.233649507 0.205060065
0.134092093 0.151549637 0.123719089
0.140417099 0.151170090 0.128146544
0.145477459 0.155471444 0.130044088
0.158760458 0.167994738 0.142947644
0.174699187 0.181657180 0.148766384
0.205313087 0.198861286 0.167994738
0.257305622 0.233270273 0.195445836
0.336748570 0.282479256 0.225932911
0.124984443 0.218848735 0.162555352
0.134598449 0.220746174 0.166476741
0.146236554 0.225932822 0.173560828
0.158380911 0.238456726 0.178241640
0.181024805 0.251359999 0.195066392
0.215307087 0.267298937 0.204427272
0.276280999 0.307779908 0.235041082
0.376217395 0.361669660 0.277545810
0.119291715 0.317773461 0.215812534
0.125996456 0.321315527 0.220493540
0.138393447 0.323972285 0.226312265
0.164199635 0.338140398 0.234534815
0.195825383 0.347880930 0.246173531
0.243010923 0.369765699 0.261353254
0.317520350 0.406578183 0.298924565
0.431625575 0.470208645 0.346489429
0.109171249 0.467678994 0.307527274
0.125237286 0.469576269 0.313725531
0.151296720 0.479569554 0.315622807
0.198482081 0.486653775 0.331309110
0.253763705 0.501960993 0.350157917
0.316635072 0.514611006 0.366476804
0.393295527 0.540417314 0.383681297
0.489183873 0.579633117 0.430107296
0.275774837 0.662112594 0.481467307
0.286906958 0.670588255 0.481720567
0.321315646 0.669449508 0.486653894
0.359898567 0.676280797 0.490575433
0.417330384 0.688677549 0.512460232
0.480202407 0.703984737 0.535230696
0.552941263 0.721315145 0.567994356
0.631878853 0.741556048 0.600505829
0.114484094 0.047817901 0.080708101
0.118406095 0.051739097 0.083871096
0.137254998 0.061100900 0.095635995
0.150917351 0.077925645 0.101454645
0.163061097 0.100316092 0.112080894
0.188867897 0.125363991 0.133080080
0.236558989 0.159772292 0.167615280
0.305629224 0.196963921 0.207590088
0.118785545 0.071346998 0.088172451
0.119544543 0.075648546 0.092473097
0.138013989 0.079949096 0.099556997
0.149399459 0.093611538 0.112460539
0.172169551 0.112080894 0.124225348
0.192409545 0.137887090 0.139784634
0.234534815 0.167615280 0.168753833
0.309930533 0.206704557 0.206324920
0.123845898 0.101075001 0.110436194
0.129032448 0.109297641 0.110436089
0.145098001 0.115117088 0.119038090
0.152561545 0.123719096 0.127261549
0.167615280 0.141808987 0.144086078
0.203415737 0.164958835 0.162555352
0.238076985 0.194939986 0.187096983
0.322454065 0.238456815 0.226565808
0.127387539 0.157874539 0.133839279
0.139278650 0.155850992 0.141429543
0.145098090 0.169639647 0.151676446
0.159519359 0.173054993 0.151169986
0.176723629 0.187602833 0.166476741
0.204806834 0.205439821 0.182795823
0.250474364 0.239089012 0.208602011
0.335863203 0.286021531 0.249968514
0.131688893 0.231119186 0.177862093
0.129032359 0.227450833 0.177355736
0.145730376 0.229475081 0.185578987
0.157242462 0.237570927 0.191904187
0.180265903 0.251360178 0.204427272
0.220114082 0.273245156 0.222770527
0.276407361 0.310057104 0.247438192
0.373054713 0.364452899 0.295635730
0.119797260 0.322454184 0.235673368
0.126375720 0.324098259 0.240733624
0.135230735 0.328779459 0.238456726
0.161037251 0.340164721 0.252624929
0.193801552 0.352688015 0.263503730
0.242504463 0.371031046 0.280076057
0.319165051 0.410373211 0.313978255
0.430107594 0.473497540 0.365464538
0.101707794 0.471347570 0.320303261
0.119038276 0.468564570 0.328526348
0.153953180 0.481340766 0.336495757
0.199367464 0.487918913 0.342820972
0.251866072 0.500063360 0.354585558
0.317014605 0.515243173 0.377229661
0.390006542 0.538519621 0.402909517
0.494876862 0.582162976 0.448703378
0.275521517 0.665781260 0.487792462
0.297153652 0.668690503 0.487159699
0.314357489 0.670714676 0.488551587
0.362934649 0.678557634 0.509044826
0.415939391 0.693105340 0.521568596
0.476913303 0.702466726 0.542314827
0.551296651 0.718026102 0.570398152
0.632258415 0.738519847 0.602276742
0.119923994 0.050474640 0.107653640
0.123086900 0.059203450 0.113599092
0.138013899 0.069702901 0.117899738
0.147375003 0.084629998 0.127261341
0.166603357 0.103478804 0.142694190
0.192789093 0.127261251 0.164958745
0.237697631 0.158633649 0.186717346
0.306134969 0.202782974 0.231245801
0.131056100 0.080835000 0.118785642
0.126628548 0.079569548 0.120303541
0.135609999 0.085388996 0.123845994
0.146616101 0.097533442 0.133206904
0.166603357 0.117899731 0.146489292
0.197090641 0.139784738 0.166097283
0.234155372 0.171537191 0.195319638
0.304490775 0.213029787 0.236306354
0.122580640 0.111701548 0.133586451
0.132194549 0.117140733 0.134725004
0.135989636 0.126248986 0.148133993
0.154079646 0.133207098 0.150790542
0.173181280 0.148893088 0.167615280
0.195445642 0.170778081 0.181277633
0.242378250 0.199620470 0.212271005
0.328272849 0.241113156 0.251992434
0.136116356 0.158633634 0.162555635
0.137634456 0.160151735 0.164073542
0.149020001 0.171536997 0.175458282
0.163060993 0.191145003 0.190006629
0.176723629 0.198102280 0.194180995
0.208855346 0.219734639 0.213915378
0.254016608 0.248956293 0.233270273
0.345604122 0.291840464 0.281340629
0.132700801 0.229854628 0.207969546
0.134598464 0.231372535 0.208349198
0.144338906 0.244022831 0.215307087
0.159140006 0.250600994 0.222390980
0.184060797 0.263883442 0.236938626
0.222011536 0.285136074 0.248576730
0.278684378 0.317520618 0.276154459
0.385199159 0.370145321 0.321947783
0.113978520 0.327640802 0.262871742
0.120556548 0.331182480 0.267172813
0.135357350 0.340164632 0.273624420
0.161416993 0.346742451 0.277799100
0.200885534 0.362934917 0.289690167
0.249335811 0.381910473 0.308918625
0.325363576 0.416318566 0.340038031
0.437065065 0.477292717 0.393548340
0.098671705 0.473877192 0.346109927
0.119291730 0.480961293 0.351296365
0.146615922 0.481214285 0.355344474
0.193042263 0.492979288 0.371283889
0.249588907 0.505629420 0.378621250
0.320176989 0.520050704 0.399873257
0.393295228 0.545097947 0.423402846
0.494243890 0.590259254 0.472485721
0.274383217 0.668690383 0.505755723
0.283617824 0.666413426 0.506135404
0.314357668 0.675395370 0.513472438
0.359392583 0.681720555 0.521695077
0.412776381 0.691334426 0.540796876
0.481846750 0.702719569 0.560151815
0.556356668 0.721694767 0.588867843
0.638583183 0.742441177 0.623149931
0.119165190 0.066666998 0.149652198
0.123086803 0.070588000 0.153573811
0.135610089 0.076786898 0.154332906
0.152561560 0.088931441 0.161037341
0.167741999 0.112839997 0.174699381
0.188741088 0.132320985 0.186717451
0.235800281 0.163693696 0.216825083
0.311448634 0.205186471 0.266160458
0.121062540 0.088931344 0.152688190
0.126122802 0.089816645 0.155092001
0.136875346 0.096774347 0.160658002
0.150917456 0.108918093 0.172422186
0.168880641 0.122201182 0.172296196
0.194686830 0.145730481 0.196963742
0.232131615 0.173940569 0.222643927
0.307400137 0.209234804 0.267299086
0.138899103 0.121442094 0.170019090
0.135230660 0.124225453 0.170398638
0.136495903 0.130803078 0.175458282
0.153700098 0.137002006 0.181783885
0.173181176 0.151929080 0.193422183
0.197722822 0.175078839 0.207842916
0.245161280 0.204427466 0.241998792
0.328526050 0.245540917 0.292346805
0.131435648 0.166097194 0.191524640
0.130929798 0.171537101 0.193422094
0.140796542 0.178114817 0.201644629
0.155597553 0.189879835 0.214168444
0.174699366 0.205565825 0.227956980
0.207590193 0.224288538 0.245034888
0.255660921 0.254142821 0.268058091
0.346489638 0.290575624 0.313851863
0.123972192 0.235673368 0.229981378
0.126376003 0.241619632 0.235420540
0.143453285 0.246679276 0.253004283
0.157621816 0.263883471 0.262365371
0.191270992 0.286653966 0.283365160
0.229348466 0.303858191 0.293105811
0.287286371 0.327387542 0.317014247
0.390638947 0.374193162 0.361163974
0.106135011 0.333459646 0.292852461
0.109677270 0.335863382 0.298671722
0.124731094 0.342821062 0.307147413
0.156356648 0.358886898 0.317014277
0.201138377 0.375331908 0.332700640
0.255281478 0.397975922 0.349905193
0.336748809 0.429348707 0.378747642
0.445034772 0.482858747 0.427197725
0.086527616 0.479569554 0.385199457
0.097027183 0.485135853 0.387476295
0.137760893 0.490702182 0.395192653
0.186970368 0.500063360 0.410120249
0.250221372 0.513472438 0.418089658
0.319417983 0.533080459 0.433649451
0.398861289 0.554206312 0.453004360
0.511448383 0.599493623 0.508665323
0.260721207 0.669070303 0.529664755
0.274509400 0.668311059 0.532574594
0.304996669 0.672612429 0.539152503
0.351170033 0.681340992 0.548260331
0.408475548 0.692346275 0.563694000
0.481340557 0.707653642 0.584946036
0.559392452 0.726755321 0.609993696
0.642757535 0.745603919 0.640733540
0.117647000 0.076407261 0.201644734
0.123845801 0.082605928 0.207842931
0.138140097 0.094750091 0.206198633
0.152435347 0.102972634 0.212523624
0.171536982 0.122580729 0.224288732
0.197849736 0.144971475 0.234787971
0.234788269 0.169133469 0.261353284
0.310562879 0.208728731 0.308918566
0.119924188 0.101075187 0.203415468
0.125489995 0.101581261 0.211511984
0.130929992 0.110183351 0.206704289
0.146109834 0.116255730 0.212903172
0.172928542 0.132700533 0.223529547
0.198987991 0.152687997 0.238709465
0.230866268 0.178115025 0.261480153
0.306894064 0.211258650 0.307400554
0.119671263 0.137507826 0.211384982
0.127008185 0.140290990 0.216445535
0.134850994 0.142947361 0.220746472
0.152182192 0.149904728 0.227830365
0.173560932 0.169259995 0.241113275
0.199746996 0.183681250 0.255281389
0.241998985 0.207463473 0.281720370
0.331308961 0.250221312 0.337254643
0.118658908 0.182036638 0.238203615
0.124098808 0.184820086 0.243516982
0.135610089 0.190638736 0.244149372
0.152561650 0.200885534 0.254396081
0.177103192 0.213788986 0.272359163
0.208728626 0.227071375 0.282479465
0.258570731 0.254016727 0.305249989
0.353320420 0.291714460 0.360278189
0.111195460 0.253130734 0.286274731
0.115117073 0.253130823 0.278558165
0.127514452 0.259582430 0.292852372
0.150537908 0.269323200 0.300569266
0.182163447 0.288551599 0.314231426
0.224288717 0.304111630 0.331182450
0.292726159 0.331309408 0.360910743
0.391398042 0.374952465 0.404174596
0.086780533 0.344338983 0.342314750
0.091587648 0.349146098 0.342821181
0.121062711 0.354585469 0.350537419
0.149399266 0.365970731 0.363187581
0.199240729 0.389120668 0.379379898
0.267931700 0.424667716 0.411005467
0.348893255 0.445034713 0.433649749
0.461606383 0.484376609 0.475268811
0.058570281 0.478178561 0.426312536
0.088931255 0.481214345 0.426818073
0.120050535 0.493864566 0.441113025
0.179000571 0.507653058 0.451106906
0.248576641 0.523971975 0.462112695
0.332700700 0.546362817 0.489184201
0.416319042 0.565717518 0.509550989
0.527767122 0.611258805 0.551169932
0.260974050 0.663883507 0.572675586
0.269576281 0.674383342 0.576723456
0.294497102 0.678304791 0.572422326
0.337381393 0.687286496 0.580645084
0.398355484 0.699683428 0.593168676
0.474256665 0.710815668 0.612650156
0.559013009 0.729032099 0.641745746
0.647311568 0.754206300 0.672359407
0.106894299 0.097027287 0.295635283
0.107273750 0.102340452 0.294749796
0.124731287 0.108791701 0.295762181
0.149652287 0.119417928 0.300695926
0.175584987 0.137760893 0.310563177
0.215432987 0.159013286 0.317267507
0.251233280 0.183934286 0.338772833
0.316382080 0.215812817 0.364199787
0.106388263 0.111954086 0.290322274
0.115117162 0.115243092 0.287539721
0.124478258 0.125743255 0.298039079
0.148260817 0.135863453 0.306768090
0.174319819 0.151170284 0.310942709
0.215053529 0.168374285 0.324731052
0.255534738 0.192283258 0.340543985
0.312839925 0.218595982 0.361290246
0.103858106 0.153447285 0.306767881
0.104870453 0.153953254 0.309044987
0.120050810 0.163694099 0.311322272
0.145477459 0.170398444 0.315622866
0.176344097 0.182542786 0.322327554
0.212017462 0.200126633 0.337634087
0.268311352 0.223150089 0.359898657
0.328526050 0.250474364 0.387729377
0.084377013 0.204680637 0.325869650
0.090828650 0.203162432 0.324731261
0.114611000 0.208222657 0.332321346
0.140037641 0.216951281 0.333712608
0.175584897 0.232511178 0.348893255
0.221252352 0.247438192 0.361922801
0.271473557 0.266919553 0.380265564
0.350664049 0.295509100 0.409108043
0.051486358 0.272106260 0.367868543
0.060468152 0.277925164 0.364579350
0.086780630 0.280202478 0.369259626
0.126881659 0.283870935 0.373687744
0.175585195 0.298418999 0.387223154
0.235673562 0.310815871 0.400252819
0.304364264 0.334218651 0.420113742
0.386464298 0.375331908 0.456166714
0.004933716 0.376850009 0.420872837
0.018089734 0.381151348 0.427324444
0.058444284 0.383807808 0.429728270
0.118785352 0.391397655 0.436685652
0.185452178 0.401897609 0.454016268
0.263630748 0.416065991 0.471979558
0.352435321 0.445793718 0.493611723
0.461606324 0.485135525 0.528779209
0.004553996 0.494623572 0.488045573
0.035167709 0.493484795 0.488551319
0.093738280 0.502466559 0.492220163
0.163820326 0.509171188 0.509171188
0.243010551 0.528399587 0.520683050
0.325869739 0.552688420 0.539278865
0.434787840 0.589373589 0.580898583
0.543453455 0.620619833 0.612397373
0.242378175 0.668311000 0.619354606
0.256799459 0.673244596 0.615939200
0.287412912 0.672612429 0.620366573
0.337254584 0.685515344 0.631498933
0.393168479 0.701707721 0.640606999
0.477925301 0.716761410 0.655913591
0.560910702 0.735863626 0.679064095
0.659961820 0.760657787 0.713598609
0.011512037 0.121694818 0.459582567
0.019734576 0.126881987 0.461100131
0.070841208 0.132320985 0.462871671
0.126881480 0.139784634 0.466034234
0.186717346 0.158633828 0.471094221
0.247691706 0.182795823 0.484123588
0.320683271 0.208222359 0.492725581
0.400632441 0.243389964 0.511827707
0.015180398 0.136875063 0.461100847
0.023529567 0.142947540 0.453004420
0.064263381 0.146363273 0.459203124
0.124225028 0.156989440 0.465781212
0.181783512 0.172296181 0.470967770
0.247438267 0.194560543 0.480708390
0.315875947 0.218469083 0.494370311
0.395445585 0.251613081 0.514610887
0.005060025 0.174952731 0.455660760
0.011385026 0.174825802 0.463630587
0.039595507 0.182416171 0.473118454
0.117647193 0.193801552 0.470587969
0.181656986 0.207463652 0.481340855
0.251865983 0.227830470 0.497406602
0.325363338 0.254396170 0.507526875
0.408728600 0.284123957 0.529032409
0.003795180 0.228842437 0.477798760
0.003668657 0.231498629 0.480834752
0.015559945 0.241872355 0.483744562
0.091461040 0.248576626 0.491840571
0.174193546 0.261100650 0.504870176
0.253510445 0.274762988 0.508285582
0.329917639 0.298671812 0.523592234
0.421125770 0.332194805 0.542694330
0.001518192 0.313219309 0.505755544
0.001265167 0.314231515 0.512333751
0.003542261 0.313093185 0.516002536
0.029475216 0.313851953 0.512460411
0.159266353 0.328779191 0.524857581
0.256166816 0.346742362 0.539405465
0.347248226 0.370904148 0.554838717
0.447058737 0.400252789 0.570904434
0.003289105 0.430360526 0.564958572
0.001265167 0.432257980 0.564326346
0.000000000 0.432764351 0.563567340
0.024035482 0.430360526 0.562555194
0.153699934 0.430740088 0.571789801
0.272485584 0.444528550 0.583554685
0.379885912 0.471094131 0.598608315
0.495635569 0.503099382 0.623782575
0.002277288 0.553826511 0.615939021
0.014421269 0.560910821 0.614800751
0.065528214 0.558633804 0.617710114
0.161922947 0.565465093 0.626185954
0.246299997 0.573813617 0.628209829
0.341429651 0.581910014 0.642377973
0.448576808 0.595445573 0.659203291
0.562301934 0.626944602 0.681087852
0.272991508 0.696268260 0.688171625
0.289437205 0.700315773 0.690069258
0.311195374 0.697533429 0.697406590
0.351296186 0.706641555 0.697406590
0.408981740 0.711574793 0.707526505
0.483997405 0.728020489 0.722200751
0.577102959 0.747627556 0.740797043
0.688551426 0.783681214 0.773307562
