Assets/Shaders/EldamarStudio/100 Sci-Fi LUTs Pack/LUTs/cube/Cyber LUT.cube
DOMAIN_MIN 0 0 0
DOMAIN_MAX 1 1 1
LUT_3D_SIZE 32
0.113724999 0.035294000 0.043136999
0.113724999 0.035294000 0.043136999
0.115875773 0.037444774 0.045287773
0.117647000 0.039216001 0.047059000
0.118026547 0.039595451 0.047438450
0.121062934 0.042631064 0.050474066
0.126628995 0.048197001 0.056040645
0.131056279 0.049335711 0.058823999
0.134850994 0.048576999 0.060341999
0.140922993 0.054649003 0.066413999
0.138266876 0.057811871 0.063757129
0.141303003 0.062871993 0.066792995
0.147375003 0.068944000 0.072865002
0.152941003 0.074510001 0.078431003
0.152941003 0.074510001 0.078431003
0.157747999 0.079316996 0.083238609
0.165338188 0.086907193 0.090828799
0.173813984 0.095382988 0.099303991
0.179886013 0.101455010 0.105376005
0.185957998 0.107527003 0.111448005
0.193927735 0.113598995 0.109930001
0.202023998 0.119670995 0.107905999
0.208348989 0.125995979 0.114231013
0.220493004 0.138140008 0.126375809
0.234914273 0.145730570 0.136242703
0.247311667 0.153194308 0.145350665
0.257937998 0.163314074 0.154459074
0.276153982 0.178494439 0.163567454
0.299683630 0.191017970 0.175331980
0.327514350 0.206704393 0.189247176
0.360531569 0.221378982 0.203541979
0.400000006 0.227450997 0.215685993
0.110689387 0.035294000 0.049209002
0.119797774 0.035294000 0.043136999
0.117647000 0.041745774 0.045287773
0.118912160 0.044022840 0.047059000
0.121442385 0.043010611 0.048197545
0.127134934 0.048703067 0.056546837
0.122581005 0.046679325 0.054522451
0.134851694 0.049588677 0.059076607
0.142441586 0.051612809 0.062618703
0.134850994 0.057685390 0.066413999
0.143832877 0.063757382 0.069576129
0.145351261 0.066919737 0.070841253
0.149272755 0.070841253 0.074762739
0.153447002 0.075015999 0.078937069
0.159013003 0.080582000 0.084503770
0.161416814 0.082985803 0.086906962
0.166856393 0.088425383 0.092346609
0.173813984 0.095382996 0.098039001
0.179886013 0.101455018 0.099304006
0.191524014 0.110309653 0.102593362
0.196204737 0.114737347 0.106514640
0.203036129 0.120683126 0.108918123
0.211258873 0.128905863 0.117140889
0.220493004 0.138140008 0.126375809
0.237191573 0.148007289 0.138519987
0.251739353 0.157621592 0.149778381
0.264516056 0.168374062 0.160025001
0.285262376 0.178494439 0.166603059
0.303478360 0.188361824 0.175711438
0.330549955 0.203668326 0.185705200
0.360910773 0.220113814 0.197469980
0.393927991 0.230487391 0.209614009
0.111954227 0.043896001 0.053130776
0.116761610 0.041745774 0.047058772
0.121569000 0.043896001 0.047437999
0.122327775 0.046679225 0.049209226
0.124731451 0.045034546 0.050347771
0.121948227 0.056419771 0.059456158
0.130803227 0.052751325 0.060594678
0.128020227 0.053004708 0.060847707
0.141176552 0.056040455 0.065654673
0.135989800 0.060721196 0.068690710
0.142061874 0.068944000 0.071726903
0.147122264 0.072991744 0.074762516
0.151297003 0.077166289 0.078937516
0.155091777 0.080961771 0.082732551
0.157368779 0.083238766 0.085009828
0.163187817 0.089057811 0.090828963
0.166223809 0.092093803 0.093864575
0.172295794 0.096900806 0.098039001
0.179886013 0.101455018 0.098039016
0.189373791 0.110309653 0.105123356
0.199620515 0.119417734 0.111954734
0.203162640 0.122960128 0.115496419
0.210120216 0.129791468 0.122074507
0.221252099 0.138899103 0.127134904
0.237191573 0.148007289 0.138519987
0.254016668 0.158506975 0.147880986
0.267931759 0.170145065 0.158001080
0.287539423 0.179253444 0.165717766
0.308285743 0.190512046 0.178747594
0.337128103 0.203162402 0.191397950
0.367362350 0.220999196 0.201265141
0.396458000 0.235673994 0.212144002
0.116255321 0.053510323 0.056167159
0.116761386 0.050474383 0.051359996
0.119797774 0.051739547 0.051739547
0.122833841 0.054775160 0.056040321
0.128526375 0.049841706 0.056040321
0.122960225 0.061480090 0.062492095
0.126502156 0.061480161 0.064010158
0.133332998 0.060341544 0.065654546
0.134092093 0.063377932 0.068690933
0.137128487 0.066413686 0.071726680
0.141808838 0.072738707 0.074762709
0.145857096 0.077798903 0.077798903
0.152308837 0.081973158 0.081973158
0.158380881 0.087792866 0.087792866
0.159392998 0.088804998 0.088804998
0.162934840 0.092346832 0.092346832
0.167488977 0.096900962 0.094370961
0.171789736 0.101201572 0.098671570
0.180898145 0.105502814 0.100569010
0.188741356 0.112839974 0.107653201
0.195319414 0.119417734 0.114231572
0.204427809 0.128526121 0.123339966
0.208475500 0.132447973 0.127008155
0.221758172 0.142694265 0.131182894
0.235926405 0.150537282 0.139785156
0.254016668 0.159772143 0.149146155
0.268691003 0.172422230 0.155724108
0.285388976 0.183048606 0.164832294
0.307526648 0.194813132 0.176723644
0.336369336 0.208728343 0.191904008
0.371916562 0.223023131 0.210626408
0.400000006 0.240480840 0.222011149
0.121189453 0.060341999 0.058823999
0.118912160 0.056926157 0.056546610
0.119418226 0.058570772 0.057811771
0.122454390 0.061606836 0.061733447
0.125869542 0.063883543 0.067046449
0.128905937 0.066919930 0.067046449
0.129791453 0.067805447 0.067425996
0.131056279 0.069070287 0.068690836
0.134092093 0.072106093 0.071726546
0.137128487 0.075142480 0.074762933
0.140164122 0.078178227 0.077798679
0.143200263 0.081214257 0.080834806
0.148892999 0.084629998 0.084629998
0.160530999 0.090701997 0.090701997
0.163693875 0.093864866 0.093864866
0.167109191 0.097280189 0.097280189
0.170145184 0.100695640 0.097280197
0.174067020 0.104617506 0.096394956
0.183175430 0.113725133 0.105502583
0.189500466 0.120050713 0.111827552
0.194054261 0.124604799 0.116381735
0.199873120 0.129285127 0.121442124
0.208981514 0.138393506 0.130297482
0.223655909 0.150284559 0.136116460
0.236558989 0.158253998 0.144465744
0.250727326 0.166097224 0.152182445
0.269070536 0.175458521 0.158760488
0.281214535 0.190638885 0.167868078
0.303984523 0.203162521 0.176976368
0.333206564 0.216698185 0.188488171
0.366603553 0.232131526 0.206831023
0.400000006 0.244275555 0.234155446
0.118153065 0.072485998 0.058823999
0.121189453 0.066413999 0.061859611
0.118912160 0.069449931 0.063883774
0.119418226 0.073750839 0.066919841
0.122833937 0.076027550 0.070082061
0.128905937 0.072991937 0.070082061
0.131941676 0.076027676 0.072612382
0.132827058 0.076913066 0.073497996
0.134092093 0.078178093 0.074762836
0.137128487 0.081214488 0.077798545
0.140164122 0.084250867 0.080834933
0.143200263 0.087286606 0.083871193
0.147375003 0.089184001 0.086907282
0.154459000 0.090701997 0.090701997
0.160530999 0.096773997 0.096773997
0.166097045 0.102340057 0.102340057
0.170145184 0.107905999 0.103352197
0.173813984 0.113472216 0.102213994
0.180139035 0.119797908 0.108538970
0.186464071 0.126122877 0.114863940
0.192536056 0.132194981 0.120935924
0.201138124 0.137760922 0.127514124
0.215053499 0.144465506 0.136369482
0.224161908 0.153573915 0.139405102
0.236558989 0.163187638 0.147501349
0.248703331 0.173181325 0.155218050
0.263378054 0.184313864 0.161796123
0.284250915 0.193674490 0.170904472
0.307020873 0.206198722 0.180012763
0.334851295 0.218342900 0.187349916
0.366603553 0.233649582 0.200252965
0.400000006 0.253383934 0.225047067
0.122706994 0.079570003 0.068944000
0.123213060 0.078558005 0.069449931
0.124098673 0.074636228 0.072485551
0.123972155 0.078304842 0.075521834
0.126249447 0.081340872 0.078178324
0.125869676 0.082606256 0.078178324
0.129411995 0.084629998 0.078178324
0.132447600 0.087666027 0.081214711
0.134092093 0.089310542 0.082859218
0.137128487 0.092346482 0.085894838
0.140164122 0.092852540 0.081340872
0.143200263 0.095888928 0.084377259
0.147375003 0.100063317 0.088551998
0.153194040 0.103099287 0.092979290
0.156989321 0.106893994 0.096773997
0.167868316 0.110562801 0.102845997
0.172675505 0.114990510 0.107400186
0.176344305 0.120683052 0.107020997
0.182416335 0.128652617 0.109298006
0.191018000 0.132195011 0.115370005
0.197090477 0.140164733 0.127134725
0.204174504 0.146869317 0.135104313
0.216065496 0.153067797 0.142441511
0.225173905 0.162175581 0.145477742
0.241112977 0.169007242 0.148513347
0.253763348 0.179253623 0.158506975
0.267426074 0.190892071 0.167362064
0.288678408 0.200000182 0.176470444
0.317646921 0.211764649 0.183048502
0.343706131 0.225680172 0.193928093
0.374193490 0.242125288 0.204174682
0.407590330 0.265022010 0.223528996
0.127134711 0.088930994 0.081087992
0.122201003 0.088930994 0.077799000
0.130423695 0.085135929 0.081593931
0.127893701 0.085894704 0.082099862
0.129411995 0.088930994 0.083997712
0.127640769 0.090702221 0.083997712
0.132953599 0.093738385 0.088930994
0.131056279 0.095129706 0.085642003
0.135610089 0.098165900 0.089437284
0.140417486 0.101201512 0.093358509
0.143453538 0.102972701 0.092599705
0.144844979 0.104996540 0.087666258
0.150158063 0.108032927 0.091840997
0.156483039 0.113346025 0.097659968
0.159519419 0.116381995 0.100695573
0.164832279 0.119417794 0.104490705
0.173940659 0.123971991 0.110562705
0.177735984 0.127767280 0.113092996
0.183808014 0.135863036 0.113093004
0.191018373 0.141050056 0.121947996
0.198228762 0.146236733 0.128779009
0.207337409 0.155344859 0.139911413
0.217836693 0.162049308 0.145477504
0.228462905 0.169639513 0.151549906
0.239468694 0.178114846 0.154585704
0.257684678 0.186970606 0.160404667
0.271853358 0.199114695 0.171789780
0.293105692 0.209361434 0.180898160
0.320682913 0.222770676 0.190638691
0.349272132 0.233396456 0.196963698
0.379253179 0.251233459 0.213535860
0.413409293 0.275521725 0.231751695
0.127893999 0.099556997 0.090955094
0.122580707 0.101075001 0.087919094
0.126881778 0.097533092 0.088172004
0.133207008 0.096521094 0.091208063
0.128652990 0.101075098 0.088172451
0.129411995 0.100316100 0.087793000
0.134724781 0.103605323 0.092346676
0.140164092 0.104237907 0.097027101
0.136369184 0.104997002 0.093231991
0.145477578 0.108032614 0.099303998
0.148766771 0.111827865 0.100948870
0.150537997 0.114863932 0.100189909
0.152435347 0.117899641 0.097912997
0.161037043 0.120936029 0.103731968
0.164073423 0.123972416 0.106767580
0.168627381 0.127008185 0.110562898
0.172422275 0.130803078 0.112839997
0.178494886 0.136875078 0.120176986
0.184566915 0.142947108 0.120683014
0.190638915 0.149019629 0.130297005
0.197469994 0.155850992 0.137887090
0.204301029 0.162175953 0.143706128
0.219354913 0.171283588 0.146742508
0.231499106 0.177988812 0.154585913
0.242884189 0.185578793 0.159898803
0.255407989 0.196078226 0.166476667
0.274130076 0.208223030 0.175585061
0.295382410 0.220367074 0.184693441
0.323465765 0.235926792 0.197217062
0.349272132 0.249841839 0.206577972
0.381530285 0.261859268 0.217330575
0.417963117 0.286148101 0.244654998
0.121822007 0.105629005 0.093991488
0.127893984 0.111701004 0.100063488
0.129032478 0.111068778 0.099177718
0.127135009 0.111701488 0.097786009
0.122581005 0.116255492 0.097280070
0.128652990 0.110183492 0.094244465
0.129411995 0.114484489 0.091334686
0.136369482 0.115496300 0.095382713
0.145477578 0.114104621 0.102340393
0.148513973 0.117141016 0.105376005
0.151802614 0.123086482 0.102719881
0.154838786 0.127008244 0.103984743
0.157748356 0.130044311 0.106641166
0.161037043 0.133080021 0.109803975
0.164073423 0.136116415 0.112839587
0.171916798 0.139152184 0.118279614
0.177735761 0.142188206 0.119671293
0.181530505 0.145983487 0.120176993
0.187602535 0.152055517 0.132321000
0.193674535 0.158127517 0.138393000
0.201644257 0.166097254 0.142820731
0.209613994 0.174067006 0.146995485
0.216318518 0.180391997 0.152814507
0.228463322 0.189500406 0.155850902
0.242884174 0.196205020 0.161417007
0.257811159 0.205186471 0.170145467
0.274130076 0.217330649 0.181657061
0.295382410 0.229475409 0.190765440
0.327260762 0.246932447 0.205186799
0.353320181 0.265021950 0.216698229
0.381909788 0.282858670 0.229221582
0.427071512 0.301328480 0.250726998
0.127388000 0.120429866 0.102846123
0.124731123 0.117773741 0.100189999
0.126502126 0.123845741 0.104111224
0.132827282 0.123086706 0.105123162
0.137508005 0.124224991 0.106767870
0.128399998 0.128272995 0.106261939
0.131941676 0.124731317 0.105756000
0.133965835 0.128020152 0.106388159
0.141556084 0.129031956 0.109930225
0.148893490 0.132068351 0.108665384
0.149020001 0.132194877 0.108791873
0.152055621 0.136242613 0.109803736
0.155091777 0.139278769 0.112839639
0.158127844 0.142314911 0.115876026
0.161163554 0.145351291 0.118912324
0.166603118 0.145983875 0.121947929
0.175205454 0.153067738 0.125996321
0.181656986 0.160910860 0.127640858
0.187729016 0.166982874 0.135230884
0.199367717 0.170272231 0.141808867
0.205692738 0.176217735 0.144085869
0.213788733 0.184313744 0.148134127
0.222011000 0.192409500 0.156103864
0.234155804 0.201517910 0.161922902
0.246299982 0.208348989 0.164958715
0.262238830 0.217204332 0.173181459
0.280961066 0.229854673 0.185325861
0.307020426 0.244402006 0.196837455
0.333586454 0.253889948 0.205945820
0.364705652 0.271347404 0.218848959
0.394686639 0.289563715 0.231751829
0.436179876 0.307779998 0.250979990
0.129411995 0.133585989 0.105881996
0.132447854 0.130550385 0.104870118
0.129538000 0.133965999 0.110183477
0.130803168 0.136242822 0.109424248
0.141050011 0.134345084 0.110183448
0.135483980 0.140417516 0.111827739
0.133965939 0.140923575 0.111827739
0.137001544 0.137887537 0.111827739
0.140796930 0.140923247 0.115243189
0.148640484 0.145224482 0.116002731
0.151043743 0.147375256 0.117899984
0.153068006 0.149398997 0.119924247
0.156103626 0.151296258 0.119544514
0.159139782 0.153447032 0.119924225
0.162175849 0.156483412 0.122960150
0.169639513 0.163188249 0.134092435
0.172675505 0.163188249 0.132574245
0.181530654 0.172043249 0.135357559
0.191777006 0.178115249 0.142821267
0.197343454 0.181404084 0.146869004
0.207590476 0.190133199 0.151043743
0.213789001 0.194434255 0.152182117
0.222264230 0.200632498 0.159266248
0.238203555 0.211638168 0.167236000
0.252371967 0.220493510 0.177102968
0.264515966 0.229348496 0.181530237
0.282479137 0.241492987 0.191903800
0.308285683 0.255154788 0.202529997
0.337634474 0.271094322 0.216065824
0.368501127 0.283744216 0.230486929
0.400885433 0.301707923 0.244908184
0.439215988 0.319924265 0.263124496
0.128273353 0.148007289 0.110436283
0.134345353 0.146110028 0.110436283
0.136242867 0.148386985 0.114610769
0.134598166 0.151802465 0.119670995
0.137254998 0.149145633 0.114357993
0.137254998 0.153700218 0.116634704
0.138393357 0.153574005 0.117140643
0.138899282 0.153067932 0.117140643
0.144212186 0.151549548 0.118658639
0.151043966 0.157241985 0.124731325
0.151929125 0.161543503 0.127893761
0.153826624 0.163441032 0.129791260
0.156863004 0.166476637 0.132827342
0.160657644 0.166729674 0.127767414
0.166350424 0.169766054 0.131688863
0.173055157 0.176470801 0.138646439
0.178747997 0.182163343 0.146616012
0.180645406 0.183428496 0.143073991
0.194813043 0.189500645 0.151676327
0.200000003 0.193927929 0.156356633
0.206831083 0.201517820 0.159392729
0.215939477 0.210626483 0.163440987
0.222517490 0.211132497 0.166729629
0.239721641 0.222264647 0.174825907
0.255660921 0.233270273 0.183933988
0.272865236 0.243769974 0.196710616
0.286527336 0.255914122 0.203288704
0.310183525 0.268058270 0.212397084
0.339784950 0.285515636 0.225679815
0.373055130 0.303099334 0.244908229
0.406451553 0.320935816 0.257811278
0.442631334 0.339658648 0.274509996
0.126249030 0.165971041 0.122580998
0.131815031 0.165465042 0.122833967
0.135230735 0.167868286 0.124984257
0.137254998 0.170145065 0.126501992
0.137507960 0.169892028 0.126501992
0.137507960 0.169892028 0.126501992
0.139531717 0.167868361 0.126501992
0.141429037 0.166224003 0.125995994
0.143706188 0.167235941 0.128526062
0.155850977 0.170271546 0.134598061
0.153700173 0.175711691 0.137001902
0.153194040 0.177735955 0.138266996
0.154332608 0.178874388 0.139405414
0.157621965 0.182163030 0.142694056
0.169765949 0.185199410 0.148766831
0.176849991 0.190638989 0.149778962
0.182163149 0.195192859 0.151549801
0.186211407 0.198861152 0.155218050
0.195319057 0.204933956 0.161290079
0.201644719 0.210500002 0.166603044
0.209867284 0.218975320 0.171283767
0.219228119 0.226059124 0.175332025
0.228589490 0.229222015 0.181277514
0.243769899 0.238203943 0.187223002
0.258950293 0.249841988 0.194054037
0.276660591 0.261986047 0.203541651
0.298419029 0.274383098 0.217963099
0.319671392 0.286527872 0.227071479
0.348639935 0.303985000 0.239342004
0.382542342 0.321947992 0.256799400
0.418342590 0.341429174 0.276028007
0.451739043 0.365718007 0.276028007
0.135357410 0.181151405 0.134724990
0.135357410 0.175079405 0.137760594
0.134471640 0.178874403 0.140164346
0.135230750 0.184313819 0.140670240
0.137634456 0.187982276 0.138645992
0.140543580 0.185072407 0.138645992
0.138013899 0.187602729 0.138645992
0.141176417 0.186084688 0.135356992
0.145224512 0.185957983 0.136622190
0.149778977 0.191523910 0.152814820
0.150285006 0.191650391 0.147248834
0.153700426 0.192915559 0.149146155
0.157368779 0.194054216 0.151549637
0.160657585 0.197343409 0.154838830
0.166729569 0.203415394 0.160910830
0.171663389 0.208854973 0.159772187
0.179885998 0.213409171 0.161922574
0.188867569 0.217077807 0.167362139
0.195319057 0.223149925 0.173434824
0.201644719 0.223655984 0.171157464
0.211511984 0.234408721 0.177609146
0.223023400 0.244275689 0.184440404
0.234661490 0.247437999 0.190385893
0.249841899 0.253510773 0.193421513
0.265022278 0.267046094 0.206198275
0.281593978 0.280202299 0.215306386
0.301960617 0.292852759 0.224288121
0.328778982 0.307779461 0.236179858
0.355344355 0.325237215 0.253257364
0.388614327 0.341682553 0.261353612
0.425047159 0.358380795 0.275015950
0.460847408 0.377861977 0.294243962
0.139658198 0.201138794 0.144465804
0.134851187 0.195066795 0.140290618
0.137001961 0.195446014 0.147627771
0.134471640 0.201264977 0.151170164
0.135989740 0.205818981 0.151549608
0.143073872 0.200758860 0.155597597
0.141049519 0.202783123 0.150790602
0.139658198 0.204174802 0.150790602
0.144212380 0.202656597 0.148513496
0.148893490 0.205439597 0.158507168
0.153826997 0.210499600 0.163061187
0.153826997 0.212523341 0.156989187
0.159140006 0.215180069 0.160025001
0.163440779 0.219481558 0.164326221
0.167361990 0.223402783 0.168247998
0.175837800 0.224667802 0.171916798
0.178874180 0.229221985 0.171916410
0.187729210 0.232890785 0.175837800
0.195572019 0.238962799 0.178368136
0.204047918 0.241871983 0.183301628
0.215812936 0.247564718 0.185957983
0.229475111 0.259709120 0.195572451
0.243137300 0.265654594 0.204301283
0.258317709 0.271726787 0.207336888
0.273498058 0.282352954 0.212649792
0.290069759 0.297406435 0.224667653
0.309803843 0.311069041 0.233269870
0.337128192 0.326249152 0.247311875
0.366856366 0.339278638 0.255154967
0.397722721 0.362808138 0.271600187
0.433522969 0.379633188 0.282479584
0.469955802 0.394813597 0.305249780
0.141176000 0.219355196 0.156609803
0.133586198 0.217836991 0.153573409
0.132447779 0.216698408 0.150663763
0.134219006 0.218469188 0.155976996
0.133333191 0.223276183 0.158760354
0.143579930 0.219481185 0.163694009
0.142567679 0.219481319 0.165717989
0.142694190 0.222391188 0.164453194
0.143453285 0.222391188 0.164453194
0.148766965 0.222391188 0.166729897
0.153320819 0.226691991 0.168121189
0.158380806 0.232257918 0.172169194
0.159519449 0.235293821 0.167235836
0.165212005 0.240480989 0.171916336
0.169512764 0.242251769 0.174952403
0.175837800 0.245920181 0.179506615
0.184946179 0.247438371 0.182542995
0.188614979 0.251107186 0.186211184
0.196837246 0.257179171 0.187982202
0.205945551 0.260467827 0.192030385
0.218848929 0.267298937 0.199620187
0.234029055 0.276407331 0.205692187
0.249082819 0.285515666 0.216445312
0.262871921 0.292978972 0.219481289
0.281088263 0.303605378 0.229348376
0.297659963 0.317141026 0.236812040
0.318912119 0.331309319 0.246932313
0.349272609 0.344465405 0.262112409
0.376217395 0.364579171 0.272359371
0.408349305 0.377988547 0.282226354
0.446173340 0.405312955 0.300063133
0.485136181 0.420620173 0.321947992
0.138646021 0.236432970 0.171157137
0.132700801 0.240101159 0.171157137
0.129411995 0.239089131 0.166856140
0.129411995 0.240354136 0.163946569
0.130171001 0.240354136 0.165085122
0.141809016 0.240354136 0.168627501
0.141935259 0.240354136 0.172928557
0.142188147 0.240733698 0.176723689
0.145224527 0.244275972 0.178368405
0.148260921 0.244275972 0.178368405
0.151296705 0.247185260 0.176723689
0.155724019 0.251612544 0.179126978
0.162555069 0.256546199 0.182416037
0.165844485 0.259835541 0.180139452
0.171916559 0.260594547 0.183554709
0.177988574 0.264769137 0.188361555
0.186211184 0.269323140 0.192915753
0.194054574 0.271726966 0.195319563
0.200126603 0.277798951 0.201391578
0.209614351 0.282985181 0.205313340
0.221252739 0.288551301 0.211511821
0.237065449 0.298292100 0.219607562
0.252118558 0.307273954 0.225806072
0.264263213 0.315875649 0.229854465
0.283238709 0.327893525 0.240733847
0.305629522 0.341429621 0.251866102
0.325363636 0.356103957 0.262492537
0.361416876 0.365338087 0.277798712
0.387223125 0.387855351 0.290322632
0.419354528 0.408854961 0.304996908
0.454016566 0.423529536 0.319418103
0.502593398 0.450853974 0.343706161
0.126501992 0.260721028 0.183301955
0.132573977 0.266793042 0.183301955
0.130929798 0.261859775 0.179000959
0.129411981 0.259835958 0.176723808
0.130171001 0.264642984 0.180265546
0.136242986 0.264642984 0.189373910
0.137760997 0.264642984 0.190385982
0.139152244 0.262998253 0.190891981
0.142188132 0.262745023 0.190385923
0.145224527 0.268564045 0.187476054
0.148260906 0.271473885 0.190385908
0.151296705 0.274509698 0.192915723
0.158000991 0.277798653 0.195066020
0.168880090 0.281087995 0.195319116
0.174952865 0.287159979 0.201391876
0.181024969 0.290322781 0.204807147
0.190132961 0.293611765 0.208096176
0.200126588 0.296015024 0.210499987
0.203162998 0.296015024 0.210500017
0.214800984 0.307653010 0.216572002
0.224794745 0.313345730 0.222391024
0.237445012 0.319923997 0.228715986
0.255154997 0.331562012 0.234914497
0.267299026 0.337634027 0.244022906
0.286274344 0.350790262 0.252625287
0.311701357 0.365717679 0.259456307
0.340544075 0.380392015 0.265528202
0.367868394 0.392536014 0.283744961
0.393295646 0.407083809 0.296394944
0.429981053 0.428589404 0.315622926
0.470967591 0.450094998 0.337128192
0.505629063 0.469070017 0.355850965
0.122707352 0.287792355 0.201012015
0.123213343 0.288298368 0.201012015
0.124984346 0.290069371 0.201012015
0.126375988 0.287919164 0.197470173
0.129411995 0.291714370 0.197090730
0.130676985 0.291714370 0.198988289
0.134218663 0.294244051 0.203036040
0.136116356 0.292852730 0.203289017
0.139911354 0.292093754 0.204807013
0.144971490 0.298165739 0.207842872
0.148007870 0.304111272 0.205060244
0.153068006 0.303099126 0.206072375
0.159139708 0.304617018 0.209487721
0.169386029 0.307653397 0.212776721
0.177988470 0.311195701 0.213788837
0.186464444 0.314863920 0.219861001
0.194434196 0.319418013 0.221758366
0.205313340 0.323718935 0.224161997
0.214800984 0.325869739 0.228463024
0.223403364 0.328652382 0.234029025
0.237444595 0.338899136 0.238203749
0.250347793 0.345730513 0.245414361
0.266666532 0.356103718 0.255028367
0.281467378 0.367488712 0.261479944
0.302719921 0.378114730 0.268311024
0.327261329 0.392789006 0.278304994
0.354712427 0.408475488 0.287033707
0.377482772 0.425174057 0.300695896
0.412776947 0.439974904 0.316255838
0.446426481 0.458697230 0.335610300
0.487286538 0.480202705 0.359898567
0.522580683 0.498418748 0.381910354
0.121569000 0.317014456 0.211638004
0.121569000 0.317014456 0.215432987
0.115876265 0.320809454 0.221125737
0.118406266 0.317014307 0.216065735
0.124478266 0.318659067 0.211891443
0.127514258 0.324731469 0.213409245
0.130044416 0.319671154 0.215939417
0.134724736 0.324351460 0.217330739
0.138013899 0.323592812 0.218089834
0.142947257 0.328526467 0.223023474
0.149905130 0.332700729 0.222264603
0.154965267 0.334598213 0.223149985
0.163314551 0.333839089 0.225426987
0.173181430 0.337128490 0.230992988
0.182289407 0.341809154 0.230992988
0.191397801 0.344844937 0.235799968
0.202023983 0.349399120 0.241872355
0.211511821 0.354838610 0.243896455
0.222391009 0.357874691 0.249968484
0.235547349 0.360910833 0.252245486
0.244655713 0.367741466 0.256419718
0.259835333 0.374825865 0.259456128
0.275268495 0.382163227 0.268690735
0.293990910 0.392536461 0.274762750
0.316002548 0.406578213 0.288424760
