Assets/Shaders/EldamarStudio/100 Sci-Fi LUTs Pack/LUTs/cube/Deemi LUT.cube
LUT_3D_SIZE 5
DOMAIN_MIN 0.000000 0.000000 0.000000
DOMAIN_MAX 0.903226 0.903226 0.903226
0.047059000 0.023529001 0.031373002
0.218089700 0.012397002 0.054901998
0.426312804 0.000000000 0.102719560
0.650348127 0.000000000 0.174699247
0.903731763 0.000000000 0.278684646
0.190638691 0.170018986 0.126249403
0.262239397 0.159898683 0.106261700
0.429601401 0.192915976 0.118026279
0.648323655 0.211638108 0.190006122
0.890701950 0.236559257 0.286527634
0.365464568 0.460467786 0.325742960
0.436432660 0.466413349 0.389500529
0.506767333 0.422517806 0.257052392
0.628083110 0.449335814 0.221378699
0.864642620 0.515369773 0.308791935
0.524984121 0.798355281 0.645541251
0.606957853 0.803541839 0.688930988
0.667804837 0.794813335 0.689310849
0.730803132 0.728779137 0.486654252
0.890069604 0.686527789 0.412523955
0.831751823 0.961036921 0.877419770
0.859582663 0.956736088 0.891334772
0.902846396 0.956988990 0.919164836
0.907400131 0.956103504 0.880961478
0.954585612 0.919164836 0.767868400
0.001644708 0.166097403 0.251106977
0.216445416 0.008476003 0.232131407
0.413282394 0.001644708 0.236432686
0.626818538 0.077925429 0.357115984
0.862871885 0.254648775 0.495129645
0.000000000 0.277925402 0.260594696
0.217710406 0.200758979 0.255660981
0.427957088 0.167109698 0.267805547
0.634914875 0.237444401 0.373054653
0.872991741 0.327767223 0.479316980
0.185199291 0.427704215 0.355977118
0.337001681 0.424794495 0.344971538
0.470081985 0.397976071 0.326628685
0.618848979 0.449968636 0.340417534
0.858949840 0.507906556 0.439595371
0.420113832 0.773940563 0.608349264
0.516508400 0.780518293 0.649842143
0.664768934 0.789879978 0.726881564
0.705882132 0.722327352 0.539278924
0.864389598 0.706261814 0.490828693
0.817077875 0.954079688 0.871726692
0.847438455 0.961922705 0.887665808
0.900063097 0.957368672 0.916888118
0.906135261 0.953446984 0.892726064
0.945983648 0.915243804 0.788614690
0.000000000 0.416571379 0.603668213
0.000000000 0.298545122 0.581404209
0.414547831 0.000000000 0.514104784
0.591777444 0.002909872 0.490575373
0.812270761 0.000000000 0.542062223
0.001644708 0.519291818 0.611764491
0.003288997 0.424415231 0.598734915
0.386717141 0.142567992 0.544718385
0.603921592 0.108918279 0.506894231
0.828968883 0.162934974 0.560404658
0.005187006 0.676787257 0.636938810
0.000632584 0.672232747 0.630740047
0.316381991 0.470208347 0.578747392
0.610120416 0.371790081 0.529032350
0.836432338 0.524098217 0.647564590
0.000000000 0.684377134 0.667425513
0.000632580 0.692346573 0.665527999
0.398102134 0.708918273 0.651359856
0.620366573 0.676913738 0.618342698
0.821125925 0.738266766 0.650980473
0.701581240 0.953067839 0.852624953
0.753573477 0.954079509 0.863756835
0.841619194 0.966350615 0.905629218
0.923845828 0.956103563 0.938899398
0.934977591 0.925110340 0.845541120
0.000000000 0.603162110 0.866919994
0.000000000 0.545983851 0.860847354
0.001644712 0.300569594 0.854522288
0.540291131 0.000000000 0.788614988
0.786464453 0.001644704 0.781530619
0.000000000 0.664895415 0.865275502
0.005945998 0.612903118 0.866919994
0.001897590 0.414294749 0.850980103
0.526249409 0.134851396 0.799241126
0.801391423 0.022770695 0.783934236
0.003289416 0.843010664 0.877799094
0.000000000 0.805186570 0.871726692
0.002277288 0.667299092 0.856546700
0.464263260 0.403921664 0.818216503
0.815559745 0.338520110 0.794939756
0.001012128 0.927640975 0.870841265
0.004554003 0.925363779 0.870461702
0.110057093 0.914231539 0.874130428
0.515243411 0.753320277 0.831625283
0.822137594 0.655281246 0.776091218
0.000000000 0.909804106 0.888298631
0.052119054 0.916761637 0.894876659
0.407589674 0.921315730 0.884376884
0.809740186 0.937634468 0.905249476
0.899177611 0.919417918 0.877925277
0.000000000 0.699431002 0.986970186
0.000000000 0.664516270 0.992409945
0.000632584 0.553067863 0.994180560
0.001644704 0.233270049 0.993674815
0.652498841 0.015938960 0.968880594
0.001644708 0.735736668 0.992030084
0.001012124 0.710309684 0.987096786
0.001265006 0.607716680 0.993674934
0.001265167 0.327767134 0.993168712
0.638962805 0.188488394 0.967741787
0.000632584 0.866287351 0.989120364
0.002909714 0.841365993 0.983807564
0.002656833 0.762301981 0.983807385
0.000000000 0.578368127 0.988488376
0.646806002 0.408095956 0.976091266
0.002277296 1.000000000 0.983301699
0.051612850 0.997975826 0.981277645
0.353067487 0.967109561 0.978494585
0.447185487 0.865275145 0.981783986
0.706514597 0.689816594 0.971410394
0.475648344 1.000000000 0.971536815
0.526502013 1.000000000 0.976596773
0.655154824 0.996078134 0.979253829
0.796457946 0.996710837 0.978873968
0.873877585 0.945351005 0.964958966
