Assets/Shaders/EldamarStudio/100 Sci-Fi LUTs Pack/LUTs/cube/Deemi LUT.cube
DOMAIN_MIN 0 0 0
DOMAIN_MAX 1 1 1
LUT_3D_SIZE 32
0.047059000 0.023529001 0.031373002
0.062239386 0.023529001 0.037445001
0.083871000 0.023529001 0.039216001
0.106894158 0.023529001 0.037950840
0.128905535 0.023529001 0.036432546
0.156229943 0.023529001 0.045540933
0.186084643 0.018469002 0.052118998
0.218089700 0.012397002 0.054901998
0.248450100 0.007084097 0.056419998
0.269702524 0.004048484 0.062491998
0.299683750 0.003922000 0.059835870
0.334092498 0.001897744 0.064895734
0.369386643 0.000000000 0.075142287
0.402024060 0.000000000 0.087539963
0.426312804 0.000000000 0.102719560
0.455407977 0.000000000 0.108285800
0.487286180 0.000000000 0.115875989
0.521315098 0.000000000 0.128652558
0.557747960 0.000000000 0.143832982
0.585831344 0.000000000 0.150664002
0.616951227 0.000000000 0.160530984
0.650348127 0.000000000 0.174699247
0.683997512 0.000000000 0.192662984
0.723465919 0.000000000 0.204807013
0.756103516 0.000000000 0.219228283
0.790638566 0.000000000 0.234408647
0.830107212 0.000000000 0.249082997
0.869576275 0.000000000 0.261226982
0.903731763 0.000000000 0.278684646
0.938899338 0.001771217 0.296900928
0.972675562 0.003036392 0.314231575
1.000000000 0.000000000 0.329412013
0.059202999 0.041745774 0.046552613
0.062239386 0.038709387 0.040480614
0.086021774 0.040860161 0.037950613
0.108665384 0.041745774 0.038709611
0.129664540 0.042125225 0.042884097
0.162301928 0.044781387 0.054649319
0.189626962 0.037191711 0.053637065
0.216192380 0.028969068 0.053257290
0.243896097 0.022264289 0.053383809
0.269702524 0.019228091 0.059456393
0.299683750 0.007463615 0.068437517
0.330044508 0.002909617 0.071979605
0.365591645 0.000000000 0.081214286
0.402530074 0.000000000 0.093105964
0.432384789 0.000000000 0.102719560
0.456672966 0.000000000 0.108285800
0.487286180 0.000000000 0.115875989
0.521947682 0.000000000 0.128019974
0.560784400 0.000000000 0.140796587
0.591651142 0.000000000 0.150410965
0.619228542 0.000000000 0.160530984
0.650348127 0.001012128 0.172675252
0.683997512 0.002909875 0.186843976
0.723465919 0.000000000 0.204807013
0.765211582 0.000000000 0.221505567
0.797216654 0.000000000 0.238836363
0.829095185 0.000000000 0.255154997
0.863504291 0.000000000 0.267298996
0.897659779 0.000000000 0.279443651
0.934598148 0.000000000 0.298671722
0.970524788 0.001771221 0.315496206
1.000000000 0.003036387 0.326375604
0.071346998 0.057811771 0.048829775
0.076534159 0.056926161 0.051359773
0.090322770 0.056040544 0.043136999
0.116381995 0.056546610 0.044655323
0.137128100 0.056799546 0.051360000
0.165211707 0.063377611 0.054649092
0.191397965 0.062745094 0.056293678
0.218722701 0.056926064 0.051613003
0.244275868 0.049588770 0.051865775
0.271600306 0.045161054 0.060721200
0.299683750 0.033396550 0.069702901
0.334092498 0.023276296 0.080834761
0.363567621 0.015939130 0.086021416
0.398229063 0.012397000 0.094623998
0.428589821 0.008601999 0.101834342
0.458443969 0.002150774 0.110436030
0.487286180 0.000632582 0.116508417
0.520050108 0.000000000 0.127387568
0.554965198 0.000000000 0.138013795
0.588235199 0.000000000 0.149525359
0.620493650 0.000000000 0.160530984
0.648324132 0.000000000 0.173687115
0.679696500 0.001897738 0.187349707
0.719164908 0.002909870 0.207589999
0.756609559 0.000000000 0.219354793
0.794939637 0.000000000 0.234788209
0.825300097 0.000506064 0.250980288
0.860341549 0.002150774 0.264768988
0.895888746 0.000000000 0.283364892
0.932827115 0.000000000 0.299051166
0.969639182 0.016824752 0.318152577
1.000000000 0.042631544 0.329790980
0.086021326 0.072992161 0.055914160
0.095888928 0.072992161 0.056926161
0.102973156 0.075522155 0.057305384
0.124984317 0.074256994 0.048197322
0.148513317 0.071979702 0.058064904
0.171030864 0.079317093 0.054142904
0.195319638 0.080835164 0.054901998
0.221252695 0.081720449 0.056673001
0.249336183 0.080202252 0.055154998
0.277166665 0.075648308 0.067299001
0.303225875 0.065022156 0.074003868
0.334092498 0.056167066 0.082605988
0.368247986 0.049335677 0.093611643
0.395698935 0.040986352 0.096648000
0.425047815 0.035926487 0.100695997
0.454143137 0.028716132 0.110436350
0.487286180 0.021379288 0.120809190
0.520682693 0.018342903 0.129917562
0.551676154 0.017710319 0.139025971
0.583554387 0.017710319 0.149652183
0.614421248 0.016445158 0.163061306
0.647818148 0.013409290 0.175205305
0.676280975 0.012144304 0.190006152
0.716888070 0.009487742 0.207842901
0.754079700 0.007969872 0.222517282
0.784060776 0.007589999 0.231752142
0.817963123 0.008602127 0.243896157
0.854395688 0.012397608 0.258317411
0.894623578 0.018975487 0.278810769
0.930297136 0.030360639 0.300821930
0.968880236 0.037444603 0.320809186
1.000000000 0.090955153 0.337128133
0.104997002 0.089690544 0.075648546
0.120556936 0.088931449 0.071474001
0.124984547 0.092473447 0.071473777
0.134851709 0.095509388 0.069829158
0.160658002 0.092852540 0.060341999
0.178873986 0.095888928 0.054269228
0.201771095 0.096015446 0.055028323
0.226945147 0.097659834 0.058949992
0.253890097 0.101834096 0.065021999
0.284250915 0.104870476 0.077166006
0.309171438 0.097406670 0.081340872
0.337507963 0.090702102 0.086780548
0.367868543 0.085389003 0.092852645
0.398228616 0.082605645 0.101708002
0.425680220 0.079696514 0.101961002
0.453763783 0.075775094 0.112333991
0.484882981 0.070082538 0.124857537
0.519164622 0.064643063 0.135230571
0.552561879 0.061606672 0.144338980
0.583554566 0.061733089 0.153826818
0.613535643 0.059835449 0.166350737
0.642884552 0.056293219 0.180518985
0.676154435 0.047438607 0.192789495
0.717647254 0.036052924 0.205186561
0.755598009 0.031498928 0.219607830
0.786591113 0.031246049 0.231625661
0.809993982 0.034028765 0.241999000
0.846425951 0.040101532 0.254143000
0.890069425 0.055661052 0.273877352
0.928526103 0.079063900 0.295761913
0.962428629 0.107274048 0.319670647
0.998861432 0.131562084 0.343959451
0.129284993 0.117014930 0.084756933
0.147501782 0.110942155 0.093864553
0.152308941 0.110183060 0.093990996
0.158634096 0.112460226 0.091966935
0.175838381 0.114104934 0.084629998
0.191017985 0.114104927 0.072485998
0.211764306 0.112080678 0.068943545
0.233522758 0.112839773 0.068563998
0.255787164 0.118152931 0.069575995
0.278178126 0.129158467 0.071094006
0.305628985 0.129284993 0.080328874
0.334471583 0.125743181 0.088425256
0.364832342 0.121062867 0.093611933
0.395192981 0.116002798 0.095635995
0.425553739 0.116002798 0.101707995
0.457811803 0.120303862 0.116381988
0.488677979 0.119797669 0.132068172
0.518152535 0.116255507 0.143579930
0.540417075 0.113219835 0.144338980
0.573814213 0.115749441 0.156230018
0.610499680 0.114484601 0.167868540
0.645920217 0.113472596 0.180518985
0.679190040 0.114231378 0.192789495
0.709550917 0.111195773 0.207969904
0.746489644 0.111195371 0.222644225
0.781530738 0.113219470 0.233649924
0.812903166 0.115749665 0.242251992
0.846425951 0.116002686 0.260214984
0.885515451 0.124730930 0.277672648
0.922454119 0.138899043 0.294623643
0.955850601 0.158380508 0.313092589
0.989753067 0.180138856 0.334851056
0.158633634 0.144339323 0.101454996
0.166729763 0.140796870 0.105502613
0.178494766 0.139025643 0.110309772
0.184693322 0.140290797 0.111954480
0.197849557 0.142568097 0.109677546
0.208728701 0.140417323 0.101833999
0.223908961 0.135357320 0.089690000
0.248450339 0.132320940 0.086654030
0.273750633 0.134345189 0.085768640
0.300315797 0.142947644 0.085768640
0.312207192 0.151043326 0.089436866
0.339531571 0.155091316 0.094497256
0.369386286 0.156989276 0.101454996
0.399494022 0.156989634 0.104490966
0.427577496 0.156989634 0.108285673
0.460341454 0.159392834 0.116761476
0.490701854 0.163820505 0.133080184
0.520050108 0.162808388 0.146995574
0.546995342 0.159772292 0.152688339
0.586970091 0.164832279 0.158760339
0.616571724 0.165970638 0.174699306
0.650474250 0.166603312 0.188108936
0.682099819 0.170777649 0.200000316
0.710056841 0.165338218 0.207969904
0.751802862 0.164579317 0.223150283
0.790385902 0.168753624 0.239721969
0.824541450 0.173434436 0.251359999
0.851866066 0.177482963 0.265527993
0.888045132 0.185452089 0.283744633
0.929285049 0.196331367 0.300189704
0.964073181 0.211638257 0.319797188
0.995825291 0.231245965 0.345983326
0.190638691 0.170018986 0.126249403
0.200000107 0.166983008 0.122707017
0.206578165 0.167741701 0.130676478
0.213156238 0.166476861 0.136242867
0.224161804 0.167995155 0.137761146
0.234535322 0.164958760 0.127893537
0.242125303 0.169259697 0.118405700
0.262239397 0.159898683 0.106261700
0.288045794 0.155344307 0.102466993
0.315749437 0.156989247 0.100695990
0.332321256 0.165970832 0.103605121
0.348639965 0.176343694 0.104996540
0.371410340 0.182415977 0.106894284
0.399494022 0.188741654 0.112207316
0.429601401 0.192915976 0.118026279
0.456799507 0.196963891 0.124224797
0.491713703 0.201518074 0.133333191
0.520050108 0.204680815 0.147627980
0.550410986 0.203668445 0.157748267
0.585325778 0.204048112 0.165717989
0.619987428 0.209614113 0.172801986
0.648323655 0.211638108 0.190006122
0.678937316 0.217710108 0.202783272
0.710815907 0.217710108 0.211891294
0.746869147 0.217836812 0.224794567
0.788235605 0.220619813 0.239974931
0.826945126 0.226185754 0.257432073
0.855787873 0.231119573 0.270714700
0.890701950 0.236559257 0.286527634
0.927387357 0.245793805 0.312840134
0.967235625 0.257052779 0.325363368
0.998355269 0.272991687 0.349651992
0.222517088 0.195825189 0.155092001
0.232384771 0.192789376 0.148260698
0.243263990 0.193295315 0.151170105
0.248071030 0.196078345 0.162808165
0.250347644 0.193422183 0.169639558
0.260594785 0.190765336 0.155218259
0.268943846 0.196584195 0.145097867
0.280455410 0.198608190 0.135863185
0.303225994 0.186464190 0.122960091
0.324478388 0.177355796 0.116888091
0.344971865 0.181910068 0.114990227
0.364959061 0.191524193 0.115243196
0.382036716 0.202909291 0.116002098
0.397723109 0.209741041 0.116255127
0.429095477 0.219860762 0.124351509
0.455281496 0.228083178 0.131814986
0.483364999 0.233396471 0.137887195
0.517899513 0.240101501 0.149525553
0.548133910 0.243390128 0.162049115
0.579253733 0.243137538 0.171410456
0.610373378 0.245035082 0.178621083
0.640734076 0.250348181 0.186970115
0.671094120 0.256420195 0.202150494
0.706261754 0.262492180 0.214927092
0.742694497 0.267046392 0.227830365
0.779127240 0.271474093 0.242251649
0.816572070 0.277040184 0.257432073
0.853510797 0.280075848 0.272612423
0.890701950 0.282353014 0.288551718
0.925616324 0.290449172 0.312840015
0.961163580 0.298798651 0.340543985
0.994560003 0.307906270 0.346616000
0.249841511 0.226185977 0.179380015
0.252877891 0.223149598 0.179380015
0.267046005 0.222264022 0.179000497
0.278431177 0.224920839 0.184566498
0.280708462 0.229854986 0.193927571
0.277672052 0.229854986 0.184819967
0.292979151 0.227198154 0.175458670
0.307273984 0.226438999 0.167995006
0.321442008 0.222896993 0.159392893
0.339657992 0.210753009 0.144212484
0.358001262 0.204554498 0.129411623
0.378368229 0.207210988 0.123086751
0.397217125 0.215812981 0.122454330
0.412903517 0.227957040 0.125363529
0.434155852 0.243137419 0.128399909
0.458317459 0.255660951 0.136495680
0.484123707 0.262998164 0.142441183
0.511827588 0.267425925 0.149525553
0.539152086 0.276533544 0.170777977
0.572169602 0.282606244 0.180518836
0.605439723 0.286401272 0.187729478
0.637697816 0.289563656 0.195825472
0.668058455 0.292852968 0.208222494
0.698418498 0.298925012 0.223402902
0.733586073 0.304996967 0.233902767
0.770018816 0.310942501 0.244655475
0.807463646 0.316508591 0.257432073
0.849968374 0.319544941 0.272612423
0.889563322 0.319924474 0.290448964
0.923592329 0.328905702 0.313851655
0.955091596 0.341176242 0.337887079
0.988488019 0.347375482 0.352688015
0.274256736 0.259455860 0.192029998
0.271473378 0.262239218 0.192029998
0.280961514 0.259202838 0.202782765
0.298924893 0.257178903 0.211638197
0.313346207 0.258317888 0.223782599
0.325489819 0.263377845 0.232384682
0.317394078 0.263377845 0.215686083
0.330550581 0.265654743 0.208728582
0.343959749 0.267425656 0.199367538
0.357874751 0.261732876 0.177735373
0.370271742 0.249588847 0.156736001
0.386464268 0.237444609 0.141555622
0.407084286 0.237317979 0.138393417
0.427324861 0.245667025 0.142694712
0.440607399 0.255534410 0.140417412
0.461859792 0.270714819 0.145856991
0.488677830 0.287919044 0.151423067
0.516128540 0.299304277 0.155091867
0.538899064 0.303857893 0.164958984
0.566224098 0.312966228 0.175079361
0.601264954 0.322959989 0.186084986
0.634661436 0.328019857 0.193168864
0.665022135 0.329285026 0.199746624
0.695382893 0.335357726 0.214927033
0.728020191 0.341429740 0.227830693
0.762428641 0.346110046 0.238962978
0.797849357 0.350663871 0.252625078
0.837950826 0.356103450 0.272612423
0.872485757 0.361796677 0.287792802
0.913219333 0.365844727 0.305755824
0.947248578 0.374952585 0.327893585
0.976597011 0.381024867 0.347121984
0.296521246 0.300948769 0.220366493
0.295509100 0.301960886 0.220366493
0.307273507 0.298671961 0.223023281
0.318153113 0.296900749 0.235673666
0.335231006 0.295382947 0.246300250
0.348766297 0.299810231 0.255155236
0.361922830 0.302846491 0.264263362
0.356103808 0.302846491 0.247691303
0.366729975 0.307400405 0.237065405
0.376343966 0.306894004 0.211511761
0.392536521 0.301201761 0.196204618
0.402656257 0.285009235 0.179000244
0.414421260 0.269829154 0.162681505
0.433650017 0.269449711 0.160910949
0.454649240 0.275015652 0.157874569
0.474004030 0.290954769 0.164073244
0.495256454 0.304617405 0.164073259
0.520935893 0.323719233 0.164958984
0.539405048 0.333712548 0.168248013
0.564199865 0.346362859 0.179127097
0.589627206 0.351676255 0.186337724
0.622517407 0.362428635 0.195192873
0.652119040 0.365717500 0.198481768
0.686274827 0.371789783 0.209867179
0.720936000 0.379886210 0.226818308
0.758507013 0.384566903 0.240354389
0.794307113 0.387602687 0.253637075
0.832258046 0.392156512 0.271853417
0.866413534 0.396204919 0.285768539
0.898039103 0.402277231 0.304490894
0.937760949 0.408349216 0.324731201
0.968501031 0.414421231 0.347122252
0.321189284 0.352182269 0.255660921
0.323466271 0.352182269 0.256799281
0.335230917 0.351296902 0.260088414
0.349651784 0.346616268 0.267931789
0.358380646 0.346616268 0.277419627
0.369006634 0.348892987 0.285009623
0.383934289 0.349652231 0.296394944
0.396331578 0.352182269 0.297406912
0.395572245 0.352941364 0.282985628
0.401644289 0.355977058 0.257558763
0.415939391 0.352055788 0.240227818
0.428083658 0.345730692 0.226059318
0.437191278 0.326375544 0.205186293
0.443770051 0.310689867 0.186717242
0.466667026 0.306641489 0.178367868
0.491461426 0.313725263 0.179253444
0.510436535 0.330044031 0.185325652
0.529791534 0.342821211 0.179253638
0.544465363 0.360531300 0.178241640
0.569133401 0.377103001 0.185958013
0.588867784 0.388108730 0.194307283
0.617204607 0.394181252 0.201391146
0.645034969 0.403668404 0.204806983
0.679443836 0.412776560 0.212903261
0.712460637 0.421125561 0.225426987
0.747121632 0.425173938 0.242251649
0.790132523 0.428210199 0.258950144
0.828462839 0.431245834 0.276028067
0.866793036 0.436559111 0.294244260
0.902972341 0.440227896 0.309424162
0.933333158 0.446299940 0.334218800
0.969259977 0.452371925 0.359266639
0.350284964 0.411891043 0.289310992
0.356357008 0.412144095 0.291081637
0.367868751 0.413788795 0.298292071
0.380771875 0.414547890 0.306641161
0.390512079 0.411891043 0.322960079
0.396584064 0.411891043 0.335104078
0.407969683 0.410120338 0.343453377
0.419355005 0.410120338 0.345224410
0.430234045 0.412903130 0.333586037
0.436306030 0.415939510 0.321442038
0.445287883 0.410247028 0.298166037
0.454396218 0.408223033 0.279443800
0.464010388 0.401771456 0.259076804
0.473371029 0.380013078 0.229728028
0.485515773 0.358760715 0.208475664
0.507906795 0.350158244 0.197470039
0.529158831 0.354459226 0.195698991
0.545477211 0.369133592 0.200000048
0.557622015 0.384314030 0.193928033
0.582163334 0.402277023 0.196963713
0.600759029 0.416951060 0.201138437
0.619734228 0.429601252 0.207716897
0.655787468 0.441998988 0.216571540
0.686021864 0.457305938 0.222517058
0.714864254 0.468184769 0.230613321
0.743579984 0.472485721 0.243010685
0.776217163 0.470208973 0.259456158
0.821758270 0.473244607 0.283744872
0.867046416 0.481340855 0.309930742
0.909044862 0.487160206 0.329917699
0.949272156 0.491588056 0.350410819
0.979632974 0.497660071 0.383808017
0.365464568 0.460467786 0.325742960
0.371537358 0.463504195 0.313598990
0.375458628 0.461606443 0.334724933
0.384819567 0.461100370 0.346110046
0.397090077 0.460467786 0.351043493
0.414800823 0.460467786 0.380645216
0.428463131 0.465527773 0.377609223
0.436432660 0.466413349 0.389500529
0.442884088 0.467045784 0.390765369
0.451486409 0.467551857 0.360910416
0.460468262 0.461859375 0.342947364
0.469576120 0.459835351 0.321442127
0.480961174 0.458696991 0.300316393
0.494623393 0.449842155 0.275269151
0.506767333 0.422517806 0.257052392
0.514105141 0.398861617 0.230993003
0.529158831 0.388108790 0.214168191
0.548133731 0.389626950 0.207210585
0.578874290 0.399494410 0.209108412
0.588235021 0.417457432 0.219734401
0.608728349 0.433776140 0.220493078
0.628083110 0.449335814 0.221378699
0.652751088 0.466286987 0.225679919
0.680076301 0.484503806 0.228716314
0.714863956 0.497533411 0.234661832
0.746615887 0.506261826 0.248324066
0.779000521 0.509424388 0.268311471
0.821758270 0.509677410 0.289816856
0.864642620 0.515369773 0.308791935
0.895382762 0.522074342 0.325363547
0.928146541 0.529285192 0.344338804
0.970524549 0.540164769 0.377736032
0.378241599 0.511448383 0.352561593
0.386716962 0.512080967 0.364452571
0.390638947 0.512966573 0.356609553
0.399999797 0.513978362 0.381404310
0.414420873 0.515496373 0.388994396
0.428589642 0.511448383 0.399114668
0.439468503 0.518912196 0.418342769
0.451359898 0.523339510 0.422137767
0.457431912 0.522580385 0.434281975
0.466540307 0.519291401 0.415685922
0.475648642 0.518279374 0.399240583
0.482732803 0.514231086 0.376976579
0.491460949 0.510436177 0.350790739
0.504364073 0.504617572 0.322960556
0.520809531 0.492346972 0.302593559
0.535357416 0.465022594 0.277166605
0.541429818 0.437697798 0.252878189
0.554585576 0.425173998 0.234661832
0.579127133 0.427197933 0.223529771
0.602277279 0.435041010 0.225300819
0.622770369 0.453257471 0.231752068
0.645034730 0.469955772 0.232763797
0.666287065 0.488045275 0.237317979
0.689057708 0.503984809 0.242631078
0.709550977 0.519924223 0.245667472
0.743832648 0.533586442 0.253004670
0.774699390 0.543200552 0.268691003
0.807716846 0.548892796 0.284250617
0.845413983 0.554206371 0.302846164
0.886147976 0.560278356 0.324604601
0.918279529 0.563693762 0.343706369
0.963819981 0.568247974 0.374067187
0.394940197 0.558507383 0.393548548
0.401011795 0.564579368 0.399620563
0.407336742 0.564579368 0.408222347
0.411638319 0.564579368 0.405945510
0.428083390 0.569765925 0.426945210
0.440227836 0.567109585 0.431499183
0.452878058 0.569133639 0.445161372
0.468058109 0.573434889 0.467678577
0.477166295 0.576470494 0.478304565
0.486274511 0.572675407 0.475268543
0.489310861 0.572422385 0.457431704
0.497912794 0.571916342 0.437697381
0.503985107 0.566603243 0.412270725
0.513725460 0.557242453 0.379633337
0.533206999 0.548640192 0.353320956
0.550537765 0.534851730 0.325743377
0.556609809 0.509045124 0.298418969
0.565211952 0.478684425 0.275901616
0.583428204 0.467678398 0.252878189
0.605692744 0.460847378 0.240480989
0.630360544 0.472991645 0.240860447
0.655660927 0.489184201 0.243896320
0.676660299 0.506388187 0.249462366
0.695129693 0.522959948 0.255534381
0.721694946 0.536622465 0.260847449
0.744085968 0.550411105 0.266666830
0.775711358 0.566477060 0.276281178
0.802024126 0.579632938 0.288425177
0.832763970 0.589120626 0.305882156
0.869449377 0.595192969 0.323086381
0.909803987 0.600379586 0.346489578
0.954712033 0.598608375 0.372548997
0.414927572 0.602909684 0.448703527
0.418595761 0.614421070 0.442631543
0.423782140 0.617963076 0.446046919
0.429854304 0.617963076 0.455787241
0.437065512 0.618722081 0.459582627
0.449462563 0.622011483 0.471473694
0.464136869 0.621885121 0.483617872
0.481341124 0.621885121 0.503478825
0.500190020 0.622644007 0.528020144
0.509297669 0.625679612 0.534092069
0.509297848 0.625173688 0.518405795
0.512460291 0.624541104 0.496520996
0.520429850 0.622390747 0.473624051
0.527008593 0.613789082 0.447311640
0.547122359 0.602782845 0.416192263
0.567235947 0.593674898 0.382036656
0.576723516 0.578874230 0.352561474
0.576217115 0.553953111 0.322707146
0.594433904 0.523592293 0.295382679
0.613535941 0.501834095 0.272991717
0.635420561 0.496268272 0.260594547
0.661226690 0.510436535 0.260974079
0.682352543 0.522707105 0.263883948
0.698039055 0.540417194 0.268943965
0.723718882 0.554079533 0.275015950
0.754965007 0.567489088 0.282479614
0.783302069 0.579633117 0.291588038
0.807969570 0.600506008 0.303605556
0.834281981 0.613788545 0.319164962
0.864389360 0.623023152 0.334345162
0.900063217 0.631372154 0.352561563
0.942568004 0.634408534 0.373813987
0.430108011 0.654523015 0.494244069
0.436179996 0.663630605 0.488172054
0.441998988 0.666540027 0.488551825
0.448071003 0.666540027 0.498418987
0.455281585 0.667299032 0.514231563
0.470461994 0.673371017 0.523339868
0.485389352 0.671600342 0.527640700
0.500569284 0.670462012 0.539911509
0.515496254 0.671220899 0.558887005
0.527514458 0.674256504 0.576596975
0.536622107 0.671473861 0.576849997
0.538646102 0.668690741 0.558887005
0.541682303 0.665907621 0.534851730
0.548261046 0.662365973 0.511069000
0.560405016 0.659329593 0.495888591
0.582921982 0.653130949 0.455155253
0.597596407 0.642251790 0.418469608
0.603542387 0.623782456 0.386464506
0.612649977 0.596458018 0.346995980
0.625300765 0.566097260 0.322454274
0.641999006 0.540544033 0.300316274
0.665781140 0.531689048 0.287919015
0.697532952 0.543959558 0.288172036
0.715749741 0.559139907 0.288172036
0.733712971 0.572295964 0.293231994
0.758760333 0.587223351 0.300695688
0.789374113 0.603921950 0.309804112
0.822770417 0.616065919 0.318912476
0.847438574 0.628968954 0.328273177
0.871979833 0.639342189 0.338140219
0.899051189 0.650853992 0.353067607
0.930423975 0.667804956 0.379886001
0.470335722 0.722834110 0.562049150
0.470841736 0.723593056 0.561543107
0.476913750 0.726249456 0.561922908
0.485515743 0.724984288 0.564958990
0.495382756 0.723466098 0.574446321
0.508159339 0.724731147 0.583554626
0.523339748 0.723212779 0.597723007
0.538520098 0.723466158 0.603415489
0.552182198 0.725363791 0.614041805
0.562302649 0.728399932 0.624161720
0.582669556 0.731182575 0.644402146
0.585705459 0.726122737 0.630233884
0.585705459 0.722327471 0.610120177
0.588488758 0.719291449 0.590765178
0.595572710 0.716255665 0.567995071
0.605312943 0.710816085 0.540796876
0.623149514 0.704744101 0.504743755
0.634282172 0.692726314 0.472485602
0.645541191 0.671853125 0.433017135
0.657432139 0.650094748 0.396331400
0.673371375 0.615939021 0.362555414
0.687539399 0.588108778 0.334977865
0.704869986 0.578494728 0.320429891
0.733712792 0.580392301 0.312460721
0.758760273 0.595572650 0.323845416
0.784060657 0.608222723 0.334218711
0.813409328 0.622644007 0.345730811
0.839974403 0.634787977 0.359393179
0.865401626 0.646932662 0.363187879
0.887919188 0.662618697 0.373813689
0.912966549 0.675648332 0.385704964
0.943327367 0.690069377 0.405439377
0.497659981 0.767995000 0.609108210
0.507147729 0.764199972 0.611005485
0.509550989 0.766097724 0.613156259
0.519418120 0.767362595 0.619987488
0.531815290 0.765591264 0.623782158
0.542441487 0.764073431 0.625300407
0.557115734 0.769133151 0.641366005
0.575585186 0.766097188 0.656546414
0.588994503 0.768627346 0.667172551
0.596964180 0.771663427 0.678937197
0.615812838 0.772801816 0.688172102
0.628589690 0.771663487 0.690575182
0.628589690 0.766729832 0.671600044
0.628336668 0.763440490 0.655913949
0.629474998 0.758760095 0.633270204
0.637950659 0.757115662 0.609867334
0.647058666 0.752561927 0.579506576
0.661480010 0.746236920 0.550410807
0.674889684 0.731815279 0.517267168
0.685136020 0.718405843 0.474889189
0.695382714 0.693358481 0.444149226
0.710562885 0.655913830 0.404680550
0.718153000 0.627451181 0.375711203
0.743200541 0.616824687 0.354206353
0.773181260 0.616825044 0.346236438
