Assets/Shaders/EldamarStudio/100 Sci-Fi LUTs Pack/LUTs/cube/Deemi LUT.cube
LUT_3D_SIZE 8
DOMAIN_MIN 0.000000 0.000000 0.000000
DOMAIN_MAX 0.903226 0.903226 0.903226
0.047059000 0.023529001 0.031373002
0.128905535 0.023529001 0.036432546
0.248450100 0.007084097 0.056419998
0.369386643 0.000000000 0.075142287
0.487286180 0.000000000 0.115875989
0.616951227 0.000000000 0.160530984
0.756103516 0.000000000 0.219228283
0.903731763 0.000000000 0.278684646
0.104997002 0.089690544 0.075648546
0.160658002 0.092852540 0.060341999
0.253890097 0.101834096 0.065021999
0.367868543 0.085389003 0.092852645
0.484882981 0.070082538 0.124857537
0.613535643 0.059835449 0.166350737
0.755598009 0.031498928 0.219607830
0.890069425 0.055661052 0.273877352
0.222517088 0.195825189 0.155092001
0.250347644 0.193422183 0.169639558
0.303225994 0.186464190 0.122960091
0.382036716 0.202909291 0.116002098
0.483364999 0.233396471 0.137887195
0.610373378 0.245035082 0.178621083
0.742694497 0.267046392 0.227830365
0.890701950 0.282353014 0.288551718
0.321189284 0.352182269 0.255660921
0.358380646 0.346616268 0.277419627
0.395572245 0.352941364 0.282985628
0.437191278 0.326375544 0.205186293
0.510436535 0.330044031 0.185325652
0.588867784 0.388108730 0.194307283
0.712460637 0.421125561 0.225426987
0.866793036 0.436559111 0.294244260
0.394940197 0.558507383 0.393548548
0.428083390 0.569765925 0.426945210
0.477166295 0.576470494 0.478304565
0.503985107 0.566603243 0.412270725
0.556609809 0.509045124 0.298418969
0.630360544 0.472991645 0.240860447
0.721694946 0.536622465 0.260847449
0.832763970 0.589120626 0.305882156
0.497659981 0.767995000 0.609108210
0.531815290 0.765591264 0.623782158
0.588994503 0.768627346 0.667172551
0.628589690 0.766729832 0.671600044
0.647058666 0.752561927 0.579506576
0.695382714 0.693358481 0.444149226
0.773181260 0.616825044 0.346236438
0.877925336 0.667046368 0.394307613
0.683491528 0.878684282 0.763946533
0.693738282 0.884882987 0.775964558
0.735610545 0.885642111 0.794307232
0.779253602 0.884883285 0.826692283
0.779380381 0.880329013 0.793548346
0.802656531 0.866034091 0.725742817
0.836812317 0.826691985 0.616824508
0.905502796 0.737128258 0.500695527
0.831751823 0.961036921 0.877419770
0.843769670 0.956989169 0.881088078
0.866413653 0.953699946 0.899683595
0.891334593 0.954585612 0.911321819
0.907779992 0.958507359 0.915496469
0.905376077 0.958886921 0.887792826
0.925869346 0.944339097 0.836179316
0.954585612 0.919164836 0.767868400
0.003922000 0.093232095 0.143453091
0.128905535 0.018469453 0.144971102
0.248703644 0.015812907 0.137128189
0.360404998 0.019608000 0.168753639
0.476786733 0.054775286 0.230234087
0.606451452 0.098924734 0.299683541
0.736875117 0.112966634 0.351043671
0.882858574 0.131056443 0.389753252
0.021252003 0.154712543 0.148893088
0.140291005 0.120303541 0.138266638
0.258570164 0.092852540 0.149272636
0.363946617 0.102593087 0.182922557
0.477166176 0.126249090 0.233016923
0.604933321 0.125743359 0.283364624
0.734471858 0.122833371 0.315749079
0.873877108 0.141808912 0.364452600
0.141049996 0.202529743 0.184060991
0.206451640 0.202529743 0.181404561
0.287159741 0.191145092 0.175458193
0.382795632 0.205186293 0.182922438
0.487286270 0.213789091 0.214294642
0.613282740 0.220746294 0.245287895
0.746109843 0.232764021 0.284124076
0.885642052 0.266286910 0.341049910
0.263377994 0.340417266 0.255660743
0.310689658 0.341682732 0.258696824
0.386337996 0.340417355 0.307273805
0.419102162 0.315875888 0.235293925
0.493864745 0.328399837 0.225553274
0.587223113 0.379759371 0.247944340
0.719165087 0.404427558 0.280329198
0.858443677 0.427957028 0.344338983
0.342947423 0.545857370 0.376217723
0.381024808 0.550537348 0.398987889
0.461226851 0.551296353 0.461986363
0.490828753 0.555344403 0.440101355
0.546995163 0.498798370 0.327007920
0.620872736 0.471473575 0.280329168
0.702719629 0.536116004 0.302593440
0.843390286 0.576597214 0.355218142
0.458444089 0.749525547 0.584693193
0.493737996 0.755218446 0.606198668
0.555471063 0.757368922 0.640607238
0.615812838 0.758380473 0.677292645
0.635547101 0.743453383 0.599367082
0.680708408 0.685009539 0.464136451
0.764958799 0.619987309 0.377229363
0.861733377 0.673497975 0.419734448
0.644149542 0.876154304 0.747375309
0.666919827 0.877419591 0.758760273
0.719291806 0.878937721 0.782163143
0.764452755 0.879696727 0.821252584
0.785705388 0.876154363 0.801391423
0.792410076 0.866919339 0.732321322
0.831245959 0.822517574 0.634535313
0.902466774 0.742061973 0.516002476
0.820619941 0.957115650 0.874509573
0.839089036 0.954838395 0.888425231
0.860341370 0.953447223 0.898418665
0.889183879 0.954079390 0.906641424
0.906641364 0.955724001 0.914990366
0.905249774 0.951296687 0.889563560
0.920936286 0.948260546 0.845540345
0.952561796 0.914358079 0.778494358
0.003162904 0.191903993 0.288298279
0.000758999 0.128020540 0.292599648
0.246806011 0.003162904 0.264769077
0.368247986 0.002783356 0.263630629
0.470082194 0.000000000 0.280455291
0.586337864 0.013409540 0.335863471
0.711322069 0.115749463 0.413535476
0.854775488 0.235673681 0.500189722
0.003921903 0.247944549 0.288677752
0.000000000 0.202529654 0.289057285
0.224035174 0.088551894 0.273750752
0.363567203 0.061985999 0.265148640
0.472991765 0.056672834 0.280075759
0.581277549 0.113219440 0.344338894
0.713725388 0.178368166 0.415053397
0.854016602 0.285009652 0.505755842
0.000000000 0.323466182 0.302340180
0.000000000 0.318785310 0.298039615
0.234408990 0.231878281 0.290575206
0.384440631 0.176976278 0.277798653
0.476407379 0.197343379 0.307147175
0.597217083 0.241492733 0.372043103
0.724731207 0.306008786 0.449462473
0.866160691 0.378367990 0.522327721
0.135736793 0.325363636 0.321821392
0.188108981 0.319797754 0.323086649
0.286021173 0.311954707 0.318785369
0.386338085 0.311701179 0.288424730
0.483111829 0.330802917 0.324730843
0.595825672 0.352687925 0.362555265
0.731435895 0.384693205 0.406704783
0.870461702 0.424415022 0.465528101
0.165211812 0.513852179 0.417330563
0.233396441 0.513345897 0.415812552
0.362176090 0.518532276 0.409487396
0.469449997 0.528652549 0.480455607
0.515623152 0.475395292 0.377482384
0.591397762 0.486021608 0.360784531
0.700695872 0.541176438 0.400253087
0.840860248 0.572675586 0.460720897
0.334092498 0.725869834 0.557242215
0.375458598 0.729285359 0.567995131
0.461606592 0.729664803 0.599241197
0.577988505 0.743073821 0.663124681
0.617710173 0.736495554 0.642378271
0.657558620 0.672991574 0.522580802
0.741555989 0.634788036 0.450474381
0.847185194 0.689563513 0.495129734
0.573561013 0.868311346 0.727767348
0.610373020 0.869070470 0.743326843
0.666919529 0.869829535 0.770018697
0.739658356 0.875648260 0.803921342
0.785705566 0.880202293 0.820113719
0.788741350 0.865275204 0.761922777
0.815433502 0.817330718 0.661606610
0.889689922 0.752055526 0.571284115
0.812776685 0.955091894 0.869702816
0.821631849 0.957495093 0.875521958
0.843643606 0.959645987 0.888171792
0.882479370 0.956103802 0.905376256
0.910562992 0.956989169 0.925363719
0.904870152 0.954458833 0.902846158
0.919923961 0.946615815 0.858064353
0.943706572 0.916002691 0.793421686
0.000000000 0.341429263 0.491081268
0.000000000 0.289690197 0.479569912
0.004301363 0.139405176 0.458443910
0.357621640 0.000000000 0.421505243
0.484377176 0.002403808 0.412396818
0.573813736 0.001138644 0.419734359
0.684883296 0.000000000 0.453510582
0.834282279 0.061479829 0.519544661
0.003542452 0.376723379 0.487539709
0.000379548 0.336749196 0.487919152
0.000000000 0.215307087 0.462745279
0.343453616 0.054901995 0.422517687
0.484377086 0.003795093 0.414548010
0.572043180 0.005819353 0.424667984
0.688677967 0.020366827 0.457685024
0.834282041 0.151676238 0.531562090
0.000379548 0.493485302 0.513093174
0.000379548 0.454648823 0.508412302
0.002783365 0.355217904 0.491081268
0.317899734 0.186338082 0.458696902
0.485388845 0.160151646 0.427704096
0.577861965 0.167615190 0.435041040
0.697912514 0.198102280 0.475268573
0.845667124 0.306261688 0.560530841
0.006198998 0.563440919 0.523086548
0.001897547 0.564705491 0.521568477
0.000000000 0.550157905 0.516634941
0.295888633 0.377356261 0.479317307
0.483870745 0.294876665 0.444655448
0.575964451 0.305249989 0.448323995
0.705123246 0.377988547 0.521442294
0.835420787 0.487919092 0.608475626
0.002783356 0.520429909 0.508539021
0.003795093 0.522454143 0.507906735
0.163946643 0.516255379 0.507527173
0.332194656 0.492346644 0.486021727
0.473118365 0.449588954 0.456799477
0.575964272 0.495762378 0.503352463
0.706894159 0.538393080 0.553320348
0.844528615 0.590006232 0.605566204
0.002277095 0.680835009 0.628209710
0.002783356 0.684756398 0.620620012
0.150790632 0.690575719 0.613662243
0.401138783 0.687412858 0.604807377
0.575331986 0.706894219 0.659708977
0.608981788 0.653384149 0.571284115
0.710562944 0.655281544 0.549778640
0.822517514 0.708665729 0.593674481
0.395192802 0.858570635 0.718658864
0.441745549 0.857684851 0.725616693
0.531815350 0.858064294 0.732953906
0.633776128 0.863124609 0.771283865
0.757621825 0.871726930 0.823023260
0.782163084 0.864768922 0.805819154
0.799873292 0.816065848 0.702972889
0.872738779 0.774193585 0.642378271
0.756988943 0.956989169 0.865274966
0.772422254 0.958759964 0.867804885
0.807463706 0.956356585 0.885641992
0.856166542 0.959013164 0.903731763
0.898291945 0.961543322 0.920177162
0.919291675 0.960025191 0.927387595
0.917900026 0.953699827 0.891081393
0.944718599 0.924477816 0.819860995
0.001518192 0.483365178 0.703605354
0.000000000 0.448450625 0.688804388
0.003922000 0.357242167 0.681594193
0.001138644 0.108285725 0.663630605
0.457685202 0.000000000 0.605566382
0.582795501 0.003922000 0.577735841
0.680835068 0.000000000 0.584946275
0.811891019 0.000000000 0.607337356
0.000758999 0.513219297 0.688678384
0.000000000 0.485388845 0.698165536
0.000759096 0.395572364 0.680455685
0.001138644 0.173940271 0.661353588
0.444022834 0.007337352 0.613914967
0.577609181 0.002024260 0.581656933
0.681214631 0.000000000 0.588741064
0.806957364 0.003921713 0.603541911
0.004807003 0.595446050 0.707653284
0.000758999 0.574066818 0.709298193
0.003162904 0.496774286 0.699557245
0.003921806 0.334977835 0.677292824
0.420114100 0.167615294 0.628336251
0.575964272 0.133206904 0.587602496
0.687286377 0.134092301 0.600885451
0.813156188 0.136242896 0.602909565
0.001138644 0.744844913 0.725616336
0.002403808 0.714864016 0.722833812
0.002403808 0.645540357 0.698291957
0.000000000 0.513852239 0.692599595
0.370018989 0.318785280 0.640227616
0.575584710 0.281593651 0.598355353
0.694117486 0.287792653 0.603921354
0.821505427 0.312966347 0.606577933
0.000000000 0.775079370 0.713852167
0.007084001 0.773561180 0.718152821
0.000759097 0.767995238 0.712207437
0.000000000 0.737508178 0.708412349
0.341809183 0.555471361 0.667678595
0.568248212 0.436938375 0.616825104
0.689563453 0.449589163 0.607337415
0.829095602 0.555977106 0.677419305
0.002024260 0.744085789 0.711574972
0.000758999 0.738267064 0.710309923
0.000000000 0.731561899 0.705503047
0.124984272 0.716382027 0.687792659
0.377356350 0.691587865 0.668816984
0.546995461 0.611638427 0.622264147
0.686653972 0.677672446 0.679949641
0.833902478 0.717899799 0.717773497
0.000000000 0.798861504 0.767995238
0.001138644 0.811258793 0.769386470
0.041745834 0.829095542 0.772422373
0.318026811 0.831246316 0.756736219
0.571663499 0.832131565 0.760657549
0.754585803 0.851739526 0.825679779
0.754206300 0.802150607 0.740037858
0.845667243 0.798355222 0.718406141
0.599367261 0.955470979 0.848576844
0.623149991 0.954332590 0.860594392
0.686147869 0.957115650 0.863377810
0.773181438 0.953573525 0.877419472
0.853889763 0.955724001 0.910056949
0.921695232 0.959139705 0.936369538
0.922706962 0.955850780 0.918279409
0.932827115 0.924731135 0.849714994
0.000000000 0.583933949 0.832511246
0.000000000 0.562049150 0.834155917
0.002024260 0.496394753 0.828209877
0.001138644 0.364073545 0.820872843
0.035420999 0.095509097 0.790891886
0.521062493 0.000000000 0.756230474
0.668943822 0.000758999 0.730044425
0.797343552 0.001897740 0.750917315
0.000000000 0.602909744 0.828463197
0.002403808 0.582289279 0.829095304
0.003542452 0.517899990 0.824794650
0.000759096 0.395951807 0.813029766
0.000000000 0.153067738 0.801391602
0.518026292 0.004933544 0.757748246
0.662871540 0.003162904 0.728652716
0.792662621 0.000000000 0.744844615
0.000000000 0.666160583 0.831372559
0.000000001 0.650094748 0.836179495
0.002656643 0.597976029 0.832511246
0.000379548 0.488677800 0.826945126
0.000000000 0.257178813 0.809487462
0.498165756 0.169766188 0.773181617
0.667172670 0.106008932 0.735736728
0.809234679 0.068564460 0.756103456
0.000000000 0.774193287 0.843643069
0.000379548 0.752941251 0.840860426
0.001517999 0.705629528 0.836938441
0.000000000 0.616951108 0.833270073
0.003162904 0.455914170 0.818595827
0.462744892 0.317900270 0.773181379
0.665907562 0.262618750 0.742694438
0.814168334 0.261606485 0.752435148
0.000000000 0.907780170 0.851992309
0.002024260 0.889183939 0.850853920
0.000000000 0.857052624 0.847311974
0.003795190 0.788867891 0.833143294
0.054522470 0.664642870 0.821758687
0.420240551 0.487539798 0.793295205
0.668690741 0.421758443 0.751423299
0.827197731 0.432131350 0.748387218
0.002024260 0.909424424 0.846552968
0.000000000 0.903352737 0.846932530
0.000000000 0.903352737 0.848450720
0.002276998 0.895255983 0.845034778
0.227830559 0.868437469 0.837697744
0.463630736 0.716888011 0.809360743
0.672865272 0.600759208 0.754838467
0.821378767 0.622137785 0.738393247
0.003542452 0.882479191 0.841239929
0.007969714 0.875015676 0.838330030
0.000000001 0.871094227 0.841239870
0.106261641 0.862871587 0.835799992
0.365211904 0.845540941 0.823149979
0.540290773 0.813915014 0.793674767
0.670588076 0.765591025 0.752688468
0.830360651 0.812397420 0.804300964
0.031119309 0.907526910 0.883491457
0.056166954 0.911701500 0.889943004
0.125236720 0.926628768 0.884756565
0.419101596 0.943200588 0.889057636
0.650474429 0.950410903 0.882858813
0.825426579 0.940923750 0.908032537
0.930550039 0.959771872 0.947121978
0.915369868 0.920682847 0.877166331
0.000000000 0.652245581 0.930676997
0.001897740 0.635420561 0.933586240
0.000000000 0.591018379 0.927261114
0.003415642 0.507147253 0.931308985
0.003289004 0.337002009 0.921948195
0.209108382 0.120303370 0.899177790
0.582289577 0.000000000 0.872485995
0.759266078 0.001644712 0.857811391
0.003794996 0.666160703 0.929032087
0.001644712 0.652245581 0.924351573
0.003668553 0.615053535 0.928525805
0.002277095 0.531941593 0.922074676
0.001644712 0.372296095 0.914990723
0.187096864 0.170271650 0.903858244
0.578368008 0.019354627 0.866160989
0.746995628 0.000379544 0.856166780
0.000000000 0.714231074 0.928146243
0.001644712 0.702973068 0.930297434
0.000000000 0.667172730 0.928905368
0.000759096 0.591777265 0.925616741
0.000759096 0.456040472 0.924857438
0.127008274 0.263883382 0.907273889
0.567489207 0.184566468 0.884124279
0.756736279 0.093358658 0.861353815
0.001644712 0.795825601 0.930802882
0.007210714 0.786970198 0.930423617
0.004048100 0.755218208 0.931308985
0.000000000 0.689942896 0.924098551
0.000000000 0.582922399 0.919038653
0.034535289 0.388994277 0.913978457
0.547627985 0.322959930 0.886021614
0.758760095 0.258570641 0.860468209
0.000759096 0.907020926 0.928146482
0.000379548 0.898418963 0.931056261
0.006325000 0.872359455 0.931182444
0.004427649 0.829601526 0.929032087
0.002277288 0.738267183 0.925616324
0.150411159 0.602024138 0.917900026
0.539026260 0.480961382 0.888931096
0.771031260 0.414168268 0.868817031
0.004048004 0.989499986 0.927893519
0.005186744 0.987982273 0.929032087
0.004553995 0.987096906 0.932448030
0.011385280 0.957621634 0.932827294
0.295129627 0.904237568 0.927134514
0.396584392 0.799746811 0.913472593
0.547121823 0.661227465 0.893990815
0.797343433 0.592156768 0.866666555
0.000000000 0.981657028 0.929032266
0.000000000 0.980391860 0.929664850
0.083618186 0.980012298 0.933586240
0.276913226 0.974446297 0.932321310
0.469196707 0.965970755 0.933712780
0.610752761 0.958380520 0.930043995
0.666792810 0.849588990 0.904490948
0.818342566 0.759013236 0.862744987
0.230107054 0.968121290 0.932067990
0.273244560 0.969006956 0.942694426
0.351043582 0.964705884 0.932321012
0.450980157 0.960657716 0.930297315
0.549398839 0.951296508 0.923845589
0.642251611 0.930170834 0.918659031
0.739152253 0.910436630 0.888551831
0.858823121 0.901327848 0.876786768
0.000000000 0.699431002 0.986970186
0.000000000 0.683744669 0.991397560
0.000000000 0.657431781 0.993674815
0.002530012 0.591018140 0.993801355
0.000000000 0.494750023 0.987096965
0.003922000 0.284630120 0.992915750
0.317647099 0.172295958 0.986463845
0.652498841 0.015938960 0.968880594
0.000758999 0.713851810 0.992283165
0.003542452 0.695382714 0.988487959
0.002277285 0.669576287 0.991017997
0.003542452 0.616192162 0.993042231
0.001138640 0.517520189 0.984060705
0.000000000 0.324730933 0.991903961
0.298545271 0.210120171 0.978368044
0.647691488 0.101834223 0.969133437
0.001897737 0.746363044 0.991271079
0.000000000 0.739784837 0.984566748
0.002024263 0.714610934 0.981530547
0.001518189 0.657179117 0.992409945
0.001138640 0.569006979 0.990638673
0.000000000 0.414547652 0.987602532
0.282606274 0.291714132 0.985831797
0.644275844 0.217330933 0.967236042
0.001518189 0.815433502 0.989120841
0.001518189 0.807210565 0.982542872
0.000000000 0.785072744 0.987855673
0.000000000 0.738013804 0.986717165
0.002277284 0.662998080 0.991903961
0.000000000 0.537507951 0.982163131
0.260721385 0.402403265 0.986337781
0.639089406 0.337001830 0.972928762
0.002530012 0.910436332 0.984187186
0.000379548 0.907779992 0.981909990
0.002024263 0.885388792 0.981783926
0.000000000 0.848070920 0.986337662
0.000000000 0.790259182 0.985325813
0.000759092 0.696394503 0.982668877
0.283238292 0.551802695 0.977988839
0.650347948 0.483491391 0.972169578
0.000000000 0.991904020 0.977482736
0.003794996 0.992409766 0.986464262
0.001518012 0.980771482 0.979253650
0.151802391 0.960404992 0.974319935
0.228842139 0.920303464 0.984819889
0.336875409 0.851359844 0.982795715
0.436938763 0.743706465 0.979759753
0.687539399 0.648070931 0.964579225
0.218848154 0.997469962 0.972928584
0.282226056 0.999620438 0.972548783
0.376597047 1.000000000 0.974699378
0.491081476 1.000000000 0.980645299
0.576090872 0.998481810 0.986590922
0.675142229 0.969007194 0.983175159
0.677798867 0.906514823 0.971663356
0.751802742 0.797470033 0.964073360
0.475648344 1.000000000 0.971536815
0.506514609 0.997722745 0.976850271
0.548513591 1.000000000 0.979886293
0.612523735 0.998861372 0.977482855
0.686527371 1.000000000 0.979253650
0.778494358 0.997216880 0.982668877
0.858823180 0.990891814 0.976344287
0.873877585 0.945351005 0.964958966
