Assets/Shaders/EldamarStudio/100 Sci-Fi LUTs Pack/LUTs/cube/Derehild LUT.cube
DOMAIN_MIN 0 0 0
DOMAIN_MAX 1 1 1
LUT_3D_SIZE 32
0.027450999 0.054901998 0.129411995
0.027450999 0.054901998 0.129411995
0.031751998 0.054901998 0.129411995
0.039089162 0.056167159 0.130676836
0.047817998 0.058823999 0.132953539
0.053889997 0.058823999 0.129917935
0.065021999 0.063883997 0.134471998
0.075521708 0.068311289 0.137254998
0.083871000 0.071347095 0.138013899
0.089943007 0.074383490 0.141049519
0.098924875 0.083238870 0.141176000
0.110056996 0.090322994 0.145224512
0.122200996 0.096395001 0.150158361
0.134345055 0.101961002 0.153194040
0.146489829 0.101961002 0.156230420
0.156230196 0.104364187 0.156863004
0.169892386 0.111954376 0.162934989
0.186843976 0.122833990 0.173181564
0.198988020 0.128906012 0.176217958
0.211132005 0.134977996 0.179253638
0.227071464 0.142947733 0.180391997
0.242251858 0.152055874 0.181404129
0.251865476 0.161163509 0.184566990
0.273117900 0.170271903 0.190639004
0.292093575 0.181656986 0.198988289
0.310309976 0.192409664 0.206704989
0.329538137 0.203035995 0.213789001
0.353826880 0.221251979 0.225932986
0.383427918 0.239468634 0.238076970
0.408475161 0.255914181 0.250221401
0.431498796 0.273750961 0.262365967
0.458824009 0.298038989 0.274509996
0.027450999 0.054901998 0.126375601
0.030487388 0.051865615 0.135483995
0.034788385 0.056167163 0.133333221
0.042125225 0.059203222 0.131182775
0.051612709 0.061859611 0.130676836
0.062998384 0.061859611 0.132953554
0.074130386 0.066919610 0.134977937
0.081341095 0.072991610 0.135610282
0.087666288 0.077419095 0.134977698
0.096015006 0.080455489 0.138013899
0.102086991 0.089310870 0.138140380
0.113093123 0.094370738 0.142188385
0.124098741 0.098292254 0.148260608
0.134598032 0.102213971 0.152941003
0.149525449 0.104996607 0.153194025
0.159266427 0.107400417 0.158633605
0.171410590 0.113472573 0.161416814
0.186843976 0.122833990 0.168374568
0.198988020 0.128906012 0.176217958
0.211132005 0.143327370 0.179253638
0.223276466 0.150158390 0.180391997
0.239216000 0.157115996 0.182415992
0.254775375 0.164326385 0.187602609
0.273117900 0.176343903 0.193674624
0.294370294 0.185452282 0.202023908
0.311954260 0.196837381 0.209740609
0.330044061 0.208602071 0.216824740
0.356862485 0.224288374 0.228969380
0.378494382 0.242504343 0.238456532
0.409487575 0.258949786 0.244908214
0.436685741 0.277672172 0.255914211
0.461859614 0.304111004 0.274509996
0.033902772 0.061353773 0.127640769
0.039089385 0.060468160 0.136748612
0.044275999 0.059582550 0.135104224
0.049083158 0.064389840 0.137128159
0.056799550 0.067046002 0.136875451
0.068943873 0.067046002 0.132827058
0.072485998 0.074256778 0.133712545
0.084629990 0.077039778 0.136748940
0.090702325 0.081340872 0.136242673
0.099810302 0.084377259 0.139278710
0.110309772 0.091081873 0.143706769
0.118406028 0.096141741 0.147754773
0.130423993 0.099177644 0.151549771
0.140543804 0.102467000 0.155597776
0.151929185 0.107400350 0.159392774
0.164452806 0.112586804 0.162048995
0.172042996 0.118659191 0.165085003
0.185325786 0.127134994 0.168121383
0.198988020 0.133207008 0.175711975
0.208981782 0.141176596 0.181404412
0.223023504 0.150664225 0.184440032
0.236432865 0.156736225 0.185705125
0.253636718 0.163187727 0.190512255
0.273876995 0.177356005 0.194560006
0.290069282 0.189373508 0.202909291
0.311321646 0.198481888 0.207843006
0.329032063 0.210879132 0.213408992
0.353067428 0.227704212 0.225553334
0.383680791 0.241239727 0.235041142
0.406704366 0.264768928 0.249462411
0.437191784 0.283238381 0.258823723
0.462745011 0.308032781 0.278811008
0.046805996 0.069196999 0.133206829
0.047817998 0.070461839 0.138519615
0.052625161 0.071727000 0.140670165
0.058697157 0.070461839 0.134598166
0.062492449 0.074256547 0.143706560
0.073750839 0.076913163 0.139911383
0.079569995 0.079443485 0.135862991
0.083617993 0.086148165 0.138772875
0.095003091 0.087666161 0.142568156
0.104111485 0.091208480 0.146109849
0.112333842 0.093358837 0.148260579
0.123719253 0.098671742 0.151802838
0.133965999 0.102846004 0.159013480
0.146109998 0.106261902 0.159392998
0.156230256 0.112334155 0.163441002
0.166476995 0.117140993 0.168374360
0.176850155 0.123466030 0.168626994
0.185452148 0.132574409 0.171157137
0.201264977 0.139279008 0.178494945
0.210879356 0.145351008 0.182036996
0.225047573 0.151422992 0.186211258
0.239216089 0.157494992 0.189247131
0.254395813 0.163946494 0.192409992
0.275648236 0.179126903 0.196584269
0.293611407 0.189499989 0.201644450
0.309044808 0.201517835 0.209108174
0.329791158 0.211638242 0.210120171
0.350284427 0.229095876 0.220746145
0.380897909 0.244528964 0.230233982
0.411511540 0.261732996 0.245920390
0.435800135 0.288172036 0.264136970
0.462745011 0.309803993 0.282353014
0.063883543 0.075648546 0.141555548
0.058190998 0.079063706 0.141935095
0.058950223 0.081340775 0.143706322
0.063251540 0.082605936 0.143327013
0.068943992 0.080328546 0.138014004
0.078051612 0.089436933 0.147122383
0.087159865 0.089184314 0.144718453
0.094623543 0.090322994 0.144085869
0.101454638 0.096394993 0.150158450
0.110563025 0.102467000 0.156230450
0.113851674 0.100569129 0.154332682
0.122959957 0.103225537 0.153320551
0.135483995 0.108918093 0.156356648
0.146869034 0.114737064 0.164452970
0.158633545 0.120683283 0.164326459
0.169133350 0.125490189 0.169512987
0.177862197 0.129284993 0.171789899
0.188108981 0.135610119 0.170398146
0.206325024 0.144718528 0.182542950
0.216951370 0.151423007 0.184313998
0.231372535 0.157874554 0.186211258
0.247944266 0.163946554 0.189247131
0.260341972 0.170145050 0.192536503
0.281341344 0.184819445 0.198861554
0.299936980 0.193927556 0.203036293
0.317141086 0.202782780 0.207463980
0.333586544 0.215433523 0.214295000
0.351802528 0.230613887 0.220366985
0.379886061 0.247691512 0.228716269
0.410626352 0.266287029 0.243770152
0.439974964 0.286653727 0.264895976
0.464263022 0.310942531 0.283112019
0.072991937 0.084756933 0.144591942
0.069955550 0.090828933 0.147628337
0.072864994 0.089943096 0.148007870
0.078431383 0.090449162 0.147248775
0.084124379 0.092473321 0.144086003
0.087159999 0.095508933 0.144085988
0.096268259 0.099557325 0.148134381
0.103731930 0.099936999 0.146363154
0.110563032 0.102467000 0.147122055
0.119671419 0.108539000 0.153194055
0.122960061 0.111701131 0.156356931
0.132067919 0.113725252 0.156356946
0.145350710 0.117267579 0.158633947
0.159013033 0.120809838 0.164452970
0.162049413 0.123845443 0.161416590
0.176217735 0.134598061 0.168500856
0.185831919 0.139151990 0.174067184
0.193674982 0.141429156 0.175458863
0.206325024 0.147754923 0.176470950
0.221758366 0.156862602 0.183048993
0.235926732 0.165464744 0.186211258
0.251613051 0.173054919 0.189247131
0.266413987 0.179253429 0.192536503
0.284630001 0.188361838 0.201644912
0.301075339 0.200758934 0.207969949
0.318152964 0.211890906 0.213535994
0.336875200 0.224541128 0.220619991
0.360910922 0.239721507 0.232510984
0.384439886 0.252245694 0.238582999
0.415053636 0.270715088 0.248703480
0.447058946 0.293232441 0.265907943
0.476406991 0.320050925 0.289184004
0.084629998 0.098924674 0.147628322
0.084123932 0.099936672 0.148134395
0.085389093 0.103858449 0.151170224
0.091081642 0.102846317 0.152814850
0.096395001 0.104237996 0.152688324
0.097280383 0.105123378 0.152688324
0.105375998 0.108158998 0.150158003
0.114484377 0.111195385 0.154838681
0.121441990 0.112840094 0.155977100
0.128779158 0.117141329 0.160278320
0.134598121 0.122833766 0.160910875
0.141682252 0.123845637 0.163946733
0.152181968 0.127514318 0.164452672
0.164326325 0.131941959 0.167488709
0.174193412 0.134977579 0.169006899
0.182036802 0.140417606 0.168374315
0.193928197 0.149272636 0.172548994
0.202909723 0.152561635 0.175838247
0.216951013 0.158633962 0.181530997
0.229348689 0.167489290 0.184566677
0.244529054 0.174699634 0.196331412
0.259709209 0.183175191 0.202909321
0.274636179 0.190765023 0.207210511
0.285641998 0.197470233 0.206704915
0.308412552 0.208855316 0.215812698
0.327134967 0.222390965 0.223529339
0.346489638 0.236179709 0.230739996
0.366729885 0.251360059 0.238835990
0.393548280 0.266413331 0.245666981
0.419607460 0.285642058 0.258823395
0.452371836 0.310310185 0.273371577
0.486021310 0.339279324 0.292726308
0.095129706 0.112460412 0.147375286
0.093484998 0.114104696 0.152309000
0.098924764 0.114610761 0.154459223
0.101960830 0.116381988 0.156230003
0.107273832 0.116761535 0.158886835
0.108538993 0.118026696 0.160152003
0.112840094 0.118912086 0.164200082
0.123592407 0.123592407 0.159518987
0.132700786 0.125869706 0.164832085
0.139658406 0.128020480 0.167868495
0.144085690 0.132321283 0.166350290
0.152181953 0.135989994 0.168374449
0.161290348 0.137128636 0.171410352
0.170651704 0.142441660 0.172422409
0.182795689 0.145477280 0.176850110
0.190891802 0.152561605 0.177482694
0.200000197 0.157115802 0.177482694
0.209108412 0.163061440 0.177482694
0.222264051 0.169133723 0.183554962
0.237950712 0.176344365 0.190385640
0.251992732 0.183554992 0.194433734
0.267173141 0.191651002 0.207590133
0.282605886 0.201391205 0.214294702
0.297785878 0.208981797 0.215812892
0.311701566 0.216318995 0.218595698
0.334598631 0.229854643 0.226312339
0.356356978 0.245035067 0.235673711
0.376849979 0.260215431 0.244022712
0.403035790 0.278684527 0.255028397
0.428715855 0.297533095 0.261606395
0.456040263 0.322707266 0.282479554
0.490195990 0.352308989 0.300695986
0.106514998 0.124605000 0.148893088
0.104237705 0.126881704 0.155724391
0.107526772 0.127767086 0.158254325
0.113345936 0.128526002 0.159266010
0.117899641 0.128146544 0.161922559
0.122454025 0.130423933 0.167235941
0.124731317 0.131688893 0.170019224
0.130424082 0.134218991 0.173181579
0.141050085 0.140290990 0.170145184
0.150158480 0.140290990 0.173181579
0.154965118 0.143959209 0.171916217
0.162808344 0.146995366 0.172169253
0.171157658 0.150031537 0.175205633
0.180266038 0.152814895 0.177735955
0.191904083 0.155344576 0.182289898
0.200759083 0.163187802 0.184313998
0.207590193 0.168500900 0.183554903
0.217963561 0.172801659 0.185452476
0.227324247 0.179000959 0.185832009
0.243263721 0.185073003 0.194180846
0.259582728 0.191904098 0.200252831
0.274004042 0.198482081 0.203795031
0.289057881 0.210499600 0.212650418
0.308412105 0.219607994 0.218089998
0.324351549 0.227198005 0.222643793
0.339911550 0.237444639 0.228589237
0.361670047 0.253131121 0.235674024
0.385958076 0.268564522 0.247818083
0.412902862 0.288298786 0.262618721
0.439215392 0.308792055 0.274762988
0.463630646 0.331815451 0.282479554
0.490955085 0.359139889 0.309803993
0.124730997 0.136748999 0.164073497
0.124731012 0.136749014 0.164073497
0.124604493 0.136875495 0.160152003
0.124984011 0.138140336 0.155724332
0.127008036 0.140290558 0.155850559
0.142188430 0.137254953 0.177102923
0.144212499 0.139531687 0.169766009
0.145983726 0.142441243 0.166729823
0.150158495 0.146363005 0.170145199
0.156230479 0.152435005 0.176217973
0.165338114 0.158254012 0.179253608
0.176217511 0.162175760 0.180012479
0.185958490 0.165211856 0.181277633
0.192410052 0.167994529 0.183807954
0.201518431 0.167994529 0.180771574
0.213156477 0.175331816 0.182922319
0.222011477 0.179886013 0.182795808
0.230107561 0.181910068 0.182416096
0.245287985 0.191018477 0.191524491
0.257431984 0.197217017 0.200253353
0.271726727 0.205186754 0.207463965
0.285894990 0.213156492 0.212397352
0.298165500 0.219607994 0.215686023
0.310309529 0.228716403 0.218722418
0.327387571 0.237824202 0.224161997
0.345350981 0.249588668 0.232890472
0.364705652 0.265275121 0.244781658
0.388994396 0.283491880 0.256926417
0.415939271 0.301581442 0.271726608
0.443263650 0.319923908 0.286906689
0.469576210 0.340923101 0.299936593
0.493991494 0.368247539 0.309803993
0.134218872 0.145983875 0.167615131
0.137127995 0.148892999 0.170524999
0.137127995 0.148892999 0.170524999
0.140923157 0.150158167 0.168500990
0.146236420 0.153194204 0.167868420
0.151296809 0.155217946 0.173940808
0.158886880 0.154712006 0.180012554
0.161290154 0.157368585 0.177988708
0.165085316 0.160404772 0.179506645
0.171157867 0.164325982 0.179127082
0.174319997 0.167488873 0.182289988
0.185451865 0.173560858 0.183301866
0.196457773 0.177482635 0.183301866
0.204554036 0.180518702 0.184060961
0.213662416 0.183174863 0.181024581
0.220366985 0.187981859 0.185198992
0.229981184 0.193548188 0.190259114
0.238709867 0.196837440 0.193295151
0.251612991 0.205945849 0.200126857
0.264010012 0.209487528 0.206451878
0.276154488 0.217330724 0.211638242
0.290322751 0.225427002 0.215686262
0.304490507 0.231751978 0.218848854
0.319417864 0.243643031 0.224667907
0.333839118 0.255028695 0.232258290
0.352814645 0.266160727 0.243137524
0.373054922 0.279822946 0.256799728
0.394939899 0.295635879 0.268943906
0.421884775 0.313851953 0.275775015
0.447438389 0.332068384 0.291966796
0.475395441 0.352941304 0.308285594
0.505756021 0.380265743 0.321442008
0.145350993 0.161163986 0.176723510
0.148387134 0.166223869 0.175711393
0.151296258 0.165085509 0.176596999
0.152561426 0.166350350 0.177862167
0.159013256 0.169006988 0.179380253
0.160404950 0.170398310 0.184060931
0.167995259 0.170904249 0.183048666
0.172422543 0.172548965 0.186084718
0.176976338 0.176344246 0.189879984
0.184313953 0.180645019 0.190638766
0.189500377 0.181657121 0.189373598
0.194560245 0.186717257 0.194434255
0.205565900 0.191650897 0.193295613
0.214674294 0.194940254 0.192409992
0.223782659 0.199747086 0.191144839
0.234535247 0.203162238 0.195319250
0.240607247 0.209234238 0.199873447
0.249209568 0.212776572 0.205439508
0.259962291 0.219101965 0.211511940
0.272106260 0.226692155 0.215559736
0.284250230 0.231625497 0.217836738
0.296394706 0.239595249 0.220746130
0.310689002 0.245920241 0.224035501
0.327767164 0.258064270 0.232005253
0.344971240 0.272232533 0.240354016
0.361543298 0.284376979 0.249462396
0.382669240 0.297533154 0.262871712
0.405439436 0.314231694 0.275015712
0.427956760 0.332068235 0.283870995
0.457052350 0.352055401 0.297026932
0.483618200 0.373181581 0.316128582
0.515876293 0.400505990 0.333585978
0.162049279 0.181657284 0.185452357
0.163947031 0.184313640 0.185831606
0.166982859 0.186211407 0.186084643
0.168880165 0.184567124 0.186211169
0.171536997 0.187602744 0.188108996
0.171536997 0.188361645 0.191145003
0.176850319 0.189500287 0.191903681
0.184946567 0.190006346 0.192156717
0.188741282 0.193801641 0.195951998
0.197470129 0.199873626 0.202023998
0.207084268 0.202403635 0.201644421
0.209740639 0.203035980 0.201264873
0.218089640 0.209108278 0.206199005
0.227451041 0.212397635 0.204174608
0.237445042 0.218469635 0.206830993
0.246679634 0.223276481 0.209360987
0.256926000 0.226691619 0.211638182
0.263630569 0.232131213 0.214042008
0.272738993 0.235167608 0.219101995
0.284630001 0.243770003 0.224667922
0.297912627 0.250980645 0.229221642
0.310056627 0.258064777 0.231245637
0.322327137 0.264263272 0.234408498
0.339531809 0.274383307 0.241492912
0.356609613 0.289942920 0.250600994
0.374825954 0.303731591 0.259708643
0.393548697 0.316887766 0.269829065
0.417204261 0.335104525 0.282605618
0.441113085 0.354459256 0.292093456
0.466539979 0.375584781 0.306514561
0.496015191 0.397722811 0.329158425
0.526122987 0.424794286 0.351422936
0.185831994 0.205440000 0.189753070
0.185325995 0.202150643 0.194306999
0.187729254 0.203668773 0.198987812
0.190006033 0.205186963 0.201265037
0.189500034 0.206072494 0.200252995
0.189500034 0.209108099 0.194180995
0.192283317 0.211891323 0.195698738
0.198608696 0.213536039 0.198481753
0.206957996 0.214548036 0.202023998
0.213030010 0.220620021 0.208095998
0.226818874 0.226438999 0.211258873
0.230613768 0.227197766 0.210499778
0.233017057 0.227577314 0.209993646
0.244655058 0.233650029 0.212777004
0.256799847 0.239722028 0.221884608
0.264642984 0.245540991 0.224288031
0.271979839 0.250094861 0.222770229
0.281087607 0.253636628 0.220873028
0.290196031 0.256673038 0.220873043
0.302087039 0.264769375 0.229222313
0.315875709 0.272233039 0.238077313
0.330044061 0.279064149 0.245920032
0.342314541 0.288172513 0.251865536
0.357494920 0.294371009 0.254901946
0.373181254 0.309551030 0.262492269
0.390259326 0.325490028 0.271853358
0.408729017 0.338140160 0.281467080
0.429981381 0.356356919 0.296647429
0.456293792 0.377229810 0.307020813
0.483365119 0.400000006 0.322959989
0.510436535 0.425047219 0.344085783
0.537760973 0.449336022 0.377483010
0.204047978 0.223655984 0.207969829
0.197975993 0.217583984 0.195825055
0.201770991 0.220746398 0.204680547
0.207210407 0.222390816 0.212397411
0.210499406 0.221505120 0.215306848
0.204680413 0.230360463 0.206324995
0.209740400 0.230866402 0.207843319
0.216824681 0.233143702 0.209234834
0.225173980 0.234788403 0.210626319
0.231245980 0.235800400 0.214167982
0.234408855 0.238962531 0.217330858
0.241999000 0.244654983 0.218342990
0.247312054 0.248829678 0.219987407
0.256799817 0.254902393 0.224920988
0.262871832 0.260974407 0.224920988
0.275015980 0.264642596 0.231625408
0.282858998 0.268311173 0.231878608
0.290195972 0.272612393 0.230740398
0.299304396 0.280961782 0.236053422
0.311195403 0.283997446 0.244402051
0.323339373 0.292093724 0.251613021
0.336116254 0.299557388 0.257305682
0.348387301 0.306388468 0.260973901
0.363566935 0.315496862 0.264010310
0.383301258 0.330803365 0.271600097
0.404680312 0.349019349 0.282099903
0.426691979 0.364958525 0.293105781
0.445160985 0.377609283 0.302719414
0.469070196 0.398482174 0.317899793
0.493990898 0.419734538 0.344212323
0.518911719 0.445161372 0.370651394
0.543833017 0.476660401 0.389626980
0.222264603 0.244275793 0.214168191
0.216191992 0.243010789 0.204427838
0.214420989 0.239088997 0.209487602
0.219987318 0.244402304 0.219101995
0.225300595 0.244402289 0.224035442
0.223276600 0.243389919 0.218975067
0.227324590 0.252118796 0.217583507
0.231751874 0.253763497 0.220619902
0.237824082 0.256799698 0.222138092
0.242251799 0.258443981 0.225174114
0.252624840 0.261353701 0.225806668
0.257684976 0.264389336 0.228842542
0.262618631 0.268943429 0.230360627
0.269197017 0.273497999 0.234661803
0.277419776 0.277419776 0.234661803
0.288298786 0.283491790 0.237064987
0.298924595 0.286527395 0.243136987
0.305882156 0.290828556 0.243390173
0.313219786 0.299936950 0.245920181
0.327513993 0.305882424 0.254775435
0.339658469 0.312713534 0.260088533
0.351802588 0.322833776 0.265654981
0.364073485 0.331941754 0.270335287
0.379253685 0.343326867 0.277925700
0.392156601 0.354712546 0.287792802
0.413029432 0.369892567 0.297026902
0.435800076 0.386084586 0.308159322
0.455913782 0.402023882 0.319165140
0.477039635 0.424541593 0.326375604
0.508412361 0.445793957 0.350411147
0.533459544 0.469702750 0.382922381
0.554711998 0.501580954 0.404174805
0.237444997 0.264009982 0.217204183
0.234408602 0.268564194 0.218722373
0.234155178 0.264895618 0.220114186
0.235420346 0.264389545 0.225933015
0.240860537 0.269829631 0.230866536
0.241999179 0.267172486 0.230107442
0.245540991 0.270714700 0.228083193
0.248450473 0.275015861 0.228209704
0.251486272 0.278052092 0.231246084
0.254522681 0.281087697 0.234282479
0.263251185 0.282605857 0.235926807
0.271347195 0.288678110 0.237950936
0.278557837 0.290575385 0.240986541
0.282606184 0.293485194 0.244275853
0.290449381 0.297786415 0.246806189
0.298924983 0.301708192 0.246173397
0.309551179 0.309297979 0.252245396
0.319291353 0.312966168 0.257684797
0.327134937 0.321188956 0.258570194
0.340037853 0.327514380 0.265401334
0.353320301 0.337001950 0.272232920
0.365465045 0.346110344 0.276281178
0.377609164 0.357748359 0.282353163
0.391397893 0.369892389 0.290069878
0.407336980 0.380518734 0.301454991
0.422264308 0.394054472 0.312207639
0.443896174 0.407843053 0.322327465
0.466160417 0.427071184 0.335484087
0.487412810 0.449082613 0.349905372
0.514484346 0.471600175 0.364073336
0.546489596 0.495509177 0.393548548
0.565338194 0.525869370 0.420872986
0.251486570 0.283491135 0.223402977
0.250853986 0.291334361 0.233649567
0.251739383 0.291587561 0.239342183
0.254775137 0.289310724 0.241113394
0.258190989 0.292726547 0.238836110
0.261480331 0.296015203 0.241872504
0.263883650 0.298418850 0.240480810
0.265907556 0.299810529 0.237823978
0.266666651 0.300569445 0.238583088
0.269703060 0.303605050 0.241619483
0.275015980 0.304364115 0.244655266
0.282352984 0.309171230 0.248323828
0.289563626 0.316129118 0.250727504
0.298418939 0.316635132 0.254016161
0.304490954 0.322707117 0.260088801
0.311195552 0.325743347 0.260215163
0.318785727 0.331815332 0.261986166
0.327893943 0.339658111 0.270461977
0.340038002 0.345730126 0.273497611
0.351549566 0.353067696 0.279316574
0.363693565 0.361669958 0.286021441
0.375205249 0.372802109 0.291461408
0.387602955 0.382036954 0.297786415
0.400758982 0.394180983 0.304870546
0.417457134 0.404680818 0.314863980
0.435673296 0.417836994 0.326249212
0.454902083 0.433016777 0.336875558
0.479190111 0.454016149 0.352182388
0.500189364 0.474635929 0.370778203
0.527387321 0.497785866 0.392789483
0.555091560 0.519164741 0.413662106
0.576343954 0.549525559 0.440986544
0.272738993 0.307779998 0.241619036
0.269702613 0.310815603 0.244655430
0.266919822 0.314357817 0.248450220
0.266919822 0.316635191 0.251486212
0.270335048 0.320051014 0.254016548
0.276407033 0.326123029 0.257052928
0.277166069 0.326882005 0.257559001
0.279063731 0.327135026 0.254016548
0.281847119 0.327893913 0.250727117
0.284883499 0.330929518 0.253763527
0.287919134 0.333965868 0.256799877
0.297280043 0.336748719 0.261859953
0.307779670 0.341429353 0.265402019
0.316635013 0.346996009 0.266160995
0.322706997 0.353067994 0.272232980
0.331182808 0.354332983 0.275901228
0.340038180 0.359139830 0.278431207
0.349146396 0.366982609 0.282606035
0.358254015 0.370019019 0.288678050
0.367615372 0.381657004 0.294497013
0.378874004 0.389500052 0.302466750
0.390006155 0.397090197 0.309297889
0.399747014 0.406325042 0.312966079
0.417963028 0.418469071 0.325110883
0.435673594 0.430613637 0.334471703
0.453889936 0.446679622 0.345224351
0.473118126 0.466414005 0.358127981
0.497406870 0.481594384 0.376343966
0.516381919 0.499936908 0.388994008
0.543706119 0.525490344 0.412523419
0.573307574 0.551549911 0.440986574
0.594559968 0.570778012 0.468311012
0.291207999 0.351549387 0.265401721
0.293738335 0.354585707 0.268437415
0.292852730 0.355471104 0.269323021
0.292979211 0.357874900 0.271726549
0.295635372 0.360531747 0.274383396
0.296900392 0.361796767 0.275015950
0.300442696 0.365338415 0.278052330
0.303984731 0.363947093 0.278305382
0.308159471 0.364326745 0.275268972
0.311195850 0.369386613 0.274256885
0.308665514 0.372422248 0.277293265
0.315749645 0.375458658 0.280329108
0.324857712 0.379633099 0.285641998
0.332321405 0.385452420 0.289437026
0.340923697 0.388994724 0.295509040
0.346995711 0.395066738 0.299177825
0.355724186 0.398861736 0.303731710
0.365464836 0.405439496 0.308665365
0.376723766 0.408475399 0.314737350
0.391398072 0.419861078 0.320809364
0.398608714 0.428210080 0.323086351
0.409993857 0.434282094 0.329538137
0.423023701 0.441872239 0.336369216
0.441239715 0.456673115 0.345857173
0.457179010 0.471094370 0.360278666
0.472106367 0.483744711 0.371790051
0.488551497 0.500316381 0.385452420
0.512840271 0.517773449 0.405945718
0.539785147 0.538266838 0.421505541
0.561922669 0.556609750 0.439089239
0.589626551 0.582036912 0.467299283
0.612776697 0.605945706 0.498418748
0.303731740 0.387602478 0.278304994
0.312460393 0.386843860 0.287033319
0.309551001 0.391524464 0.293611467
0.310816169 0.391524464 0.289816320
0.314231485 0.394307733 0.291081548
0.317267478 0.397343725 0.295635730
0.317900062 0.397976130 0.296268314
0.320936024 0.401011735 0.297659993
0.325996101 0.400000066 0.298418909
0.329032481 0.404933751 0.297659487
0.333839595 0.406198591 0.300442874
0.335104257 0.409234732 0.303479195
0.344212651 0.413409442 0.307653487
0.351043731 0.419481486 0.313725471
0.358507395 0.424162149 0.319797456
0.367109746 0.425806701 0.323465794
0.374699533 0.433396906 0.326502174
0.383807302 0.439848453 0.332194716
0.394686937 0.444149256 0.338266760
0.403921634 0.451739460 0.340543747
0.419101983 0.463883698 0.346615732
0.428210139 0.469955713 0.349651873
0.443137497 0.476154238 0.358760238
0.456040740 0.487792641 0.367868632
0.473877251 0.501075268 0.381531000
