Assets/Shaders/EldamarStudio/100 Sci-Fi LUTs Pack/LUTs/cube/Derehild LUT.cube
LUT_3D_SIZE 8
DOMAIN_MIN 0.000000 0.000000 0.000000
DOMAIN_MAX 0.903226 0.903226 0.903226
0.027450999 0.054901998 0.129411995
0.047817998 0.058823999 0.132953539
0.083871000 0.071347095 0.138013899
0.122200996 0.096395001 0.150158361
0.169892386 0.111954376 0.162934989
0.227071464 0.142947733 0.180391997
0.292093575 0.181656986 0.198988289
0.383427918 0.239468634 0.238076970
0.063883543 0.075648546 0.141555548
0.068943992 0.080328546 0.138014004
0.101454638 0.096394993 0.150158450
0.135483995 0.108918093 0.156356648
0.177862197 0.129284993 0.171789899
0.231372535 0.157874554 0.186211258
0.299936980 0.193927556 0.203036293
0.379886061 0.247691512 0.228716269
0.106514998 0.124605000 0.148893088
0.117899641 0.128146544 0.161922559
0.141050085 0.140290990 0.170145184
0.171157658 0.150031537 0.175205633
0.207590193 0.168500900 0.183554903
0.259582728 0.191904098 0.200252831
0.324351549 0.227198005 0.222643793
0.412902862 0.288298786 0.262618721
0.162049279 0.181657284 0.185452357
0.171536997 0.187602744 0.188108996
0.188741282 0.193801641 0.195951998
0.218089640 0.209108278 0.206199005
0.256926000 0.226691619 0.211638182
0.297912627 0.250980645 0.229221642
0.356609613 0.289942920 0.250600994
0.441113085 0.354459256 0.292093456
0.237444997 0.264009982 0.217204183
0.240860537 0.269829631 0.230866536
0.251486272 0.278052092 0.231246084
0.278557837 0.290575385 0.240986541
0.309551179 0.309297979 0.252245396
0.353320301 0.337001950 0.272232920
0.407336980 0.380518734 0.301454991
0.487412810 0.449082613 0.349905372
0.303731740 0.387602478 0.278304994
0.314231485 0.394307733 0.291081548
0.325996101 0.400000066 0.298418909
0.344212651 0.413409442 0.307653487
0.374699533 0.433396906 0.326502174
0.419101983 0.463883698 0.346615732
0.473877251 0.501075268 0.381531000
0.553067803 0.570904255 0.451865792
0.386210978 0.553447545 0.400505543
0.393548727 0.557368517 0.407337010
0.411764652 0.561037362 0.409108460
0.437318206 0.572548866 0.433523268
0.464136541 0.587855577 0.447691262
0.498798281 0.609867275 0.467046529
0.549525499 0.638709843 0.507020533
0.620746195 0.681846619 0.561543226
0.539278746 0.737887442 0.596837521
0.556483328 0.742062032 0.595825136
0.565338433 0.745730460 0.604553759
0.578241348 0.753320396 0.613535821
0.607716620 0.765717626 0.631119430
0.650600791 0.778747320 0.654648840
0.693738043 0.797216594 0.680961609
0.741935611 0.818848729 0.718405545
0.036052998 0.062744997 0.137634456
0.052498095 0.063503996 0.138393551
0.092093550 0.079949193 0.152941003
0.133966088 0.099936545 0.160278350
0.173560739 0.124984443 0.169006541
0.227450922 0.153953448 0.190132737
0.292219996 0.191903800 0.208602011
0.374952644 0.239215523 0.239721686
0.068184994 0.079569548 0.138393536
0.084250547 0.087792993 0.156103998
0.108918093 0.100316092 0.155217990
0.141809106 0.116002187 0.163440540
0.183302000 0.135483906 0.172801837
0.235673472 0.165211990 0.192789093
0.306135297 0.200126737 0.215433285
0.392915905 0.261480272 0.247944236
0.110056639 0.125363901 0.166983098
0.130929902 0.133207008 0.170145094
0.151676446 0.141429543 0.174446538
0.175078735 0.154332995 0.179506898
0.213029981 0.175458282 0.191271186
0.259329289 0.198608533 0.206198990
0.321062475 0.234155372 0.226439089
0.407843024 0.290322632 0.271220803
0.173055097 0.188741192 0.197470099
0.176976293 0.191903979 0.199114293
0.196204647 0.200885534 0.202277094
0.219228297 0.213789001 0.202909186
0.260847360 0.230613634 0.217837095
0.301834434 0.254901826 0.233143628
0.362934649 0.294370472 0.260721266
0.446046710 0.364705503 0.303099364
0.233522996 0.263757169 0.226438999
0.244149536 0.270588636 0.238709539
0.253763378 0.279569983 0.233902648
0.277672529 0.291713744 0.244022727
0.313092828 0.310942382 0.260088354
0.349651784 0.337001801 0.279696375
0.408728659 0.383554757 0.306894273
0.491334498 0.452245533 0.358380854
0.306388080 0.386843652 0.289943188
0.313345999 0.394560307 0.297280341
0.319544375 0.401897818 0.299051166
0.343453556 0.411764622 0.313219398
0.379000455 0.432511121 0.330423474
0.415053487 0.456673205 0.354585648
0.470208704 0.499051094 0.391777188
0.549525499 0.565844536 0.445287734
0.392030746 0.542694092 0.402150840
0.398355275 0.553826988 0.399746865
0.408222616 0.556862772 0.419101804
0.427324444 0.569765747 0.429728150
0.461859643 0.586337864 0.446932554
0.502340198 0.610120296 0.476786822
0.554712236 0.646552801 0.521568954
0.620999157 0.692852497 0.575205564
0.539405346 0.735736847 0.593421698
0.549398959 0.741808712 0.594307482
0.563820124 0.741555870 0.607083976
0.580138922 0.752940893 0.618975520
0.611132026 0.764199734 0.629601181
0.647944510 0.777608693 0.652751625
0.691460848 0.794939935 0.678684354
0.740923107 0.818596005 0.718405604
0.048576999 0.065022096 0.159266010
0.065022096 0.072105996 0.154459000
0.100316100 0.088551894 0.163061097
0.136369094 0.107779540 0.169386089
0.181783900 0.132447988 0.178747892
0.237697631 0.162681744 0.200000092
0.301581264 0.198988289 0.221758187
0.384060711 0.253257722 0.253383934
0.088551894 0.097280100 0.156863004
0.100316092 0.090069897 0.156736091
0.117520183 0.104996994 0.169765636
0.149652094 0.123845898 0.178368449
0.193927750 0.146109745 0.190132648
0.241240084 0.177482545 0.204174638
0.306514651 0.212650344 0.225553378
0.394307226 0.268437654 0.266666830
0.120682999 0.136369199 0.173181176
0.137128100 0.137128100 0.176344082
0.156736091 0.146489099 0.187349990
0.182922542 0.159772187 0.195192993
0.222517282 0.181783885 0.208602101
0.268691093 0.208349183 0.225300729
0.331182480 0.245920375 0.248450279
0.416445136 0.303984821 0.289563656
0.184946001 0.192283630 0.199746996
0.184061080 0.196963727 0.211258531
0.208349183 0.209867179 0.214674085
0.235673368 0.225553185 0.224921092
0.267805159 0.242378622 0.237824440
0.308159530 0.266539991 0.253383636
0.369259804 0.303225636 0.278051883
0.454269558 0.367109358 0.325869381
0.240607098 0.274889380 0.240480989
0.249968290 0.276027739 0.245287895
0.264010191 0.288172007 0.254648983
0.287539184 0.303858399 0.262492180
0.314864099 0.322707295 0.272485971
0.357115567 0.351169944 0.297153801
0.418089628 0.393674672 0.327134579
0.501328051 0.459961921 0.383175105
0.317267478 0.396078378 0.313346088
0.321568549 0.400759190 0.317520648
0.331688821 0.407843381 0.325743079
0.355597556 0.423149824 0.333586395
0.384946018 0.438836128 0.350284815
0.423023462 0.464642823 0.368754089
0.471347362 0.508032560 0.410499811
0.550916910 0.576091111 0.470461637
0.386843383 0.553193867 0.422517538
0.397469997 0.556230247 0.422264099
0.413409382 0.562049389 0.432005078
0.436812282 0.574572742 0.448830009
0.464263469 0.590132654 0.466287524
0.507779956 0.617204189 0.498418540
0.561416626 0.649841666 0.532068551
0.633396387 0.699936628 0.590385735
0.544338763 0.735863507 0.602150440
0.543580055 0.743832588 0.602909446
0.561543405 0.743326724 0.611258626
0.580898225 0.753573418 0.627577364
0.608349025 0.762302279 0.639468670
0.644022703 0.777482569 0.655407965
0.690954745 0.796331286 0.688551664
0.745224476 0.822137654 0.722327590
0.074003644 0.079569645 0.173181280
0.086906999 0.083871096 0.180265993
0.112460546 0.098798096 0.183428094
0.148513645 0.113219641 0.187729359
0.194307387 0.140670642 0.206957802
0.241619349 0.166097194 0.220619634
0.306641340 0.203542277 0.244402289
0.393801630 0.259076655 0.281973481
0.101454645 0.103858545 0.185452446
0.108791992 0.110942349 0.174319640
0.129664630 0.116761185 0.190891638
0.158633560 0.129664645 0.192030102
0.202909276 0.153573900 0.205819353
0.248197287 0.180139080 0.218975544
0.315116793 0.219228193 0.249462426
0.398482144 0.277166158 0.295508891
0.146742806 0.146236449 0.199240997
0.149272636 0.145350635 0.206578344
0.165338188 0.156356633 0.201770633
0.195445642 0.168501094 0.215559989
0.229475081 0.187982097 0.222517282
0.273750722 0.212650448 0.234155372
0.339152366 0.256040484 0.270335197
0.420999587 0.312586904 0.314357728
0.193927631 0.198481634 0.224161997
0.193422079 0.205186278 0.234029457
0.212650537 0.216571733 0.229980722
0.237697646 0.229854643 0.239342645
0.276913434 0.245035097 0.253383815
0.319923729 0.272485882 0.274256885
0.380645275 0.313472331 0.299936950
0.460341424 0.377229452 0.353826642
0.249335915 0.282732397 0.264642626
0.258190751 0.287413090 0.267552435
0.270335168 0.299683630 0.272232622
0.296141803 0.316508174 0.289816380
0.335231185 0.342188179 0.313345969
0.375205278 0.367615551 0.329285026
0.430613548 0.410499811 0.362302244
0.502972960 0.475648344 0.416444957
0.316002280 0.403668731 0.340797007
0.325616628 0.407969475 0.346615911
0.340797186 0.417583793 0.353320599
0.362934738 0.434914738 0.366476983
0.397976071 0.462365717 0.389626712
0.433902353 0.488678098 0.410626113
0.483617991 0.523719311 0.441745907
0.562555134 0.586337626 0.501201808
0.397596270 0.561922848 0.453763247
0.408096254 0.565211535 0.459456056
0.421252370 0.572675109 0.461733162
0.443516910 0.588235199 0.480075896
0.476407170 0.603541851 0.492979348
0.517140925 0.628210187 0.522327900
0.567488551 0.659961820 0.558001280
0.635546863 0.704996824 0.608728826
0.544591844 0.739278793 0.615053952
0.551675677 0.742694139 0.624035180
0.566097319 0.748513401 0.626438737
0.584693372 0.758886814 0.644908369
0.613156438 0.764958799 0.658823490
0.654522300 0.779506266 0.675521672
0.701201558 0.803541839 0.706261814
0.752688050 0.825047433 0.729917943
0.100189991 0.095635802 0.202150390
0.110815734 0.096394800 0.205692545
0.130043983 0.111322001 0.210879192
0.168374285 0.126882002 0.221378833
0.213029981 0.151169986 0.230486989
0.258696705 0.177355722 0.248829931
0.314737558 0.213029996 0.268690705
0.404554129 0.268437445 0.314990282
0.127261341 0.118658736 0.213156193
0.135104358 0.118279383 0.208475992
0.151929080 0.130044088 0.217836902
0.183301896 0.144591838 0.227324188
0.221758172 0.162175894 0.236685798
0.265401453 0.192283452 0.255028635
0.325236797 0.226565734 0.279190540
0.412523627 0.282479644 0.329538345
0.158127993 0.156736091 0.231119186
0.169259995 0.158633739 0.234155655
0.183302090 0.173181191 0.231119379
0.213535741 0.182163447 0.242125183
0.245920360 0.199747190 0.253890097
0.289816380 0.224794269 0.270588636
0.346236289 0.262365460 0.295383006
0.426185876 0.315749615 0.337634087
0.203668192 0.213409439 0.256672621
0.213915184 0.217330828 0.255408078
0.228715986 0.227956980 0.262744814
0.251359999 0.239595279 0.267805248
0.282352746 0.257179022 0.286274612
0.328146368 0.285009384 0.307779849
0.381024718 0.322959930 0.333206832
0.462997943 0.387476265 0.385199428
0.253763199 0.294496983 0.299937159
0.269196540 0.301075548 0.300695956
0.281973273 0.306261986 0.305250049
0.305502981 0.324225277 0.321821451
0.339152157 0.342188179 0.337634355
0.381024927 0.373308182 0.357748181
0.434535384 0.416445374 0.394433767
0.512333810 0.478557795 0.448956341
0.322453946 0.414547920 0.368754148
0.327893734 0.416951120 0.369639277
0.345604092 0.426312715 0.383301795
0.366603464 0.445793718 0.399367243
0.399873704 0.470588297 0.424414992
0.443010926 0.501454890 0.445793927
0.498798400 0.546489656 0.485262483
0.573054552 0.597469747 0.537381351
0.403289288 0.565844297 0.485389054
0.406071901 0.570777833 0.488298714
0.418975472 0.577103078 0.490955144
0.444781631 0.593042254 0.506388485
0.483871102 0.616192341 0.530044496
0.524604797 0.643516779 0.558001459
0.574699223 0.674003661 0.591018498
0.649588645 0.716255486 0.640986562
0.538772762 0.743959188 0.628336370
0.549019456 0.742567718 0.640227616
0.568247676 0.750157714 0.647438526
0.589373887 0.759645879 0.657937944
0.619481206 0.773307920 0.675901413
0.658697009 0.790765226 0.695635736
0.705882370 0.807336748 0.722833455
0.762681544 0.829601169 0.753826737
0.135104254 0.111574732 0.256546736
0.141809002 0.117520481 0.255028546
0.164705828 0.130044088 0.264010012
0.201265082 0.147248477 0.268058211
0.241619453 0.166097194 0.277166456
0.289816469 0.195698991 0.293611467
0.341049820 0.232510984 0.314990401
0.415812641 0.281087995 0.365844280
0.151549742 0.135989740 0.258697003
0.161922559 0.136748746 0.262492001
0.178114921 0.147754550 0.261859536
0.209740385 0.162555441 0.272991747
0.244655520 0.183681443 0.286021382
0.301960528 0.212270990 0.308159739
0.352687836 0.245920077 0.333586276
0.426312476 0.301328242 0.376850069
0.187729254 0.178241640 0.269702762
0.194686636 0.180518642 0.272991627
0.207590088 0.189120725 0.278811097
0.231752083 0.198861465 0.284629822
0.267805099 0.219734445 0.295508832
0.314864010 0.245920181 0.321821392
0.366477072 0.281088084 0.347501487
0.440353900 0.334977657 0.394307345
0.225932732 0.232890636 0.304617375
0.232257724 0.241998985 0.302087277
0.246299818 0.245793983 0.304870427
0.267425746 0.258823663 0.316002727
0.306388259 0.279569894 0.339531809
0.346995473 0.304364502 0.355471402
0.398987919 0.343453526 0.388361663
0.480834991 0.400126547 0.443263561
0.274636626 0.315370172 0.343706459
0.277292967 0.319038659 0.356989175
0.294117630 0.326502293 0.364579558
0.313346088 0.336622387 0.373054922
0.349398971 0.357748181 0.387602687
0.389499933 0.387855947 0.411005646
0.441366225 0.427451074 0.445034921
0.516381979 0.484503150 0.491081893
0.334977716 0.428589702 0.428463221
0.338899732 0.434408456 0.428589731
0.351043373 0.442251474 0.432890564
0.371284068 0.457179338 0.447438121
0.405692458 0.476786464 0.466919690
0.444275707 0.504996419 0.493232459
0.499683559 0.545603991 0.521442473
0.571916342 0.599494100 0.568247616
0.408728272 0.580139458 0.527261198
0.409487367 0.578494787 0.534092307
0.427957028 0.588362038 0.537760675
0.447438210 0.600759089 0.548387051
0.482859015 0.623529077 0.567236006
0.531942010 0.656546295 0.600759268
0.594307303 0.692979276 0.641998827
0.669702947 0.734978020 0.680202305
0.549272597 0.741049767 0.676027536
0.546615958 0.748892784 0.667552054
0.559898794 0.750916719 0.678304732
0.580139101 0.758380771 0.681467175
0.613156199 0.775585055 0.697912991
0.663757205 0.795951843 0.727008224
0.718026400 0.819608033 0.753953099
0.772422433 0.836558998 0.786464334
0.176091284 0.140164286 0.341429293
0.182163447 0.143453285 0.341808796
0.207590193 0.154332906 0.350664198
0.239974633 0.168753922 0.353826284
0.281847000 0.195698902 0.368627250
0.330423564 0.226186171 0.388994277
0.386843592 0.265274972 0.414547801
0.452878088 0.314610958 0.455028385
0.187982291 0.162808090 0.344465554
0.197849557 0.166476548 0.345477521
0.218848646 0.173434734 0.351802737
0.251739651 0.189120740 0.364326298
0.288425028 0.212144181 0.378241807
0.341429293 0.244655550 0.399873435
0.392156571 0.283997267 0.424794555
0.466540217 0.334345371 0.471726924
0.209108189 0.200506091 0.366350561
0.221378833 0.206198722 0.360151470
0.239722088 0.216951191 0.373308003
0.267425656 0.227450818 0.378747672
0.309298187 0.247438192 0.391271293
0.350410938 0.275522083 0.414294720
0.407843083 0.317647249 0.445034653
0.473118067 0.366223931 0.480075806
0.247185335 0.267425656 0.399367183
0.256672919 0.267425656 0.396584272
0.269196719 0.276660413 0.403921366
0.297659993 0.290448993 0.413282543
0.336875200 0.309171259 0.433523268
0.379759580 0.340923756 0.452245384
0.436179549 0.381277531 0.481720179
0.501201332 0.433649451 0.525616646
0.290575564 0.356989175 0.449968547
0.294623792 0.358886927 0.445161164
0.310183376 0.363946587 0.451486349
0.329917967 0.373813987 0.460468203
0.367995083 0.392915577 0.472738624
0.411132455 0.426186115 0.494876921
0.465022177 0.463251203 0.524984419
0.533965826 0.512460649 0.570524812
0.353447020 0.469576269 0.515117288
0.356356472 0.477419257 0.522454023
0.364452809 0.480202109 0.523466349
0.388108730 0.492726028 0.529791474
0.416571736 0.509044886 0.545856953
0.454649031 0.533080459 0.562175572
0.518405974 0.569892466 0.588994324
0.583934247 0.615306556 0.632764041
0.438456565 0.608981550 0.607336819
0.433269799 0.607084274 0.598861277
0.446932554 0.616824508 0.603415847
0.468817562 0.628589630 0.619101524
0.501834571 0.648197532 0.634787858
0.549525738 0.674510002 0.659076512
0.601138532 0.703731596 0.685768247
0.680581748 0.740796864 0.717773497
0.567615151 0.747375011 0.722074389
0.562935054 0.759392619 0.717267513
0.569766045 0.760784328 0.718279302
0.595192790 0.770018935 0.731562018
0.624794126 0.786211193 0.743959665
0.670334995 0.803921223 0.758760333
0.732827067 0.825932801 0.786084652
0.788361549 0.857305408 0.817204177
0.213155985 0.173940659 0.494749725
0.222137541 0.179633111 0.501708031
0.247438163 0.194560230 0.509171546
0.284377009 0.210120007 0.516634762
0.329158813 0.238709450 0.525110602
0.386084557 0.278431445 0.549525440
0.446552813 0.328020036 0.573813736
0.510309577 0.386211604 0.604680538
0.223023251 0.204554081 0.513599098
0.229475260 0.206578255 0.509677231
0.253889769 0.211637899 0.521315098
0.289057672 0.231878608 0.525490046
0.334724814 0.259582549 0.537254751
0.390385985 0.297912329 0.558380604
0.448956192 0.346109778 0.583807409
0.515496731 0.406957120 0.610626400
0.238329992 0.246426150 0.520429850
0.248703226 0.251359791 0.526628435
0.271853119 0.261606902 0.523465812
0.303099364 0.275901616 0.534218848
0.346236378 0.300063074 0.550031543
0.400126427 0.335104257 0.569386542
0.460088372 0.381657153 0.594307363
0.523339748 0.439595044 0.621125817
0.262745023 0.315875828 0.552055717
0.275521845 0.318152815 0.548260331
0.291460991 0.327893674 0.553826571
0.327387452 0.343959391 0.563693762
0.369259834 0.368627340 0.578621268
0.420619965 0.402909547 0.597090483
0.478937626 0.449082732 0.616445065
0.548007369 0.499430537 0.649335742
0.311195552 0.417204142 0.591650784
0.315369815 0.419101983 0.592789114
0.325869560 0.417457074 0.590891600
0.353953153 0.429095447 0.597849369
0.393421978 0.450727344 0.607716620
0.446679384 0.485389173 0.629980981
0.507526815 0.526502192 0.649968445
0.580012619 0.573560774 0.679822743
0.382036567 0.545983434 0.645287693
0.390006214 0.544845045 0.642631412
0.398734808 0.548007369 0.647564650
0.416318625 0.553193986 0.650853753
0.442757905 0.559519351 0.651613057
0.488424957 0.583807409 0.675268471
0.552941024 0.618975222 0.698798120
0.625426471 0.658191144 0.722327650
0.487539053 0.675901353 0.719291687
0.490322709 0.674256742 0.716887951
0.495382547 0.680075645 0.712966383
0.519417942 0.689563394 0.721568704
0.548893154 0.700189769 0.735863268
0.586084545 0.716255546 0.746362925
0.630992889 0.736622572 0.756229877
0.710309565 0.768880486 0.791018009
0.609867394 0.787602544 0.779632747
0.608728409 0.789247274 0.786590874
0.618595839 0.789626777 0.787476420
0.635926783 0.797849357 0.796584189
0.665275395 0.808475435 0.809993565
0.704490483 0.826565444 0.816192389
0.761796117 0.848197579 0.842504561
0.821631730 0.879063725 0.877798557
