Assets/Shaders/EldamarStudio/100 Sci-Fi LUTs Pack/LUTs/cube/Derehild LUT.cube
LUT_3D_SIZE 5
DOMAIN_MIN 0.000000 0.000000 0.000000
DOMAIN_MAX 0.903226 0.903226 0.903226
0.027450999 0.054901998 0.129411995
0.075521708 0.068311289 0.137254998
0.146489829 0.101961002 0.156230420
0.242251858 0.152055874 0.181404129
0.383427918 0.239468634 0.238076970
0.095129706 0.112460412 0.147375286
0.123592407 0.123592407 0.159518987
0.182795689 0.145477280 0.176850110
0.267173141 0.191651002 0.207590133
0.403035790 0.278684527 0.255028397
0.204047978 0.223655984 0.207969829
0.216824681 0.233143702 0.209234834
0.262871832 0.260974407 0.224920988
0.336116254 0.299557388 0.257305682
0.469070196 0.398482174 0.317899793
0.317900002 0.420999378 0.293485135
0.339152545 0.433396518 0.317900002
0.378368139 0.458950102 0.345098138
0.445414275 0.503352106 0.372928262
0.565717757 0.600252926 0.476659924
0.539278746 0.737887442 0.596837521
0.561796308 0.744718313 0.598481894
0.596078157 0.759393036 0.623529136
0.661226690 0.784566879 0.661480010
0.741935611 0.818848729 0.718405545
0.047059000 0.065022290 0.156230003
0.091208287 0.083997712 0.156230003
0.155977130 0.114737287 0.170271695
0.252371818 0.170018837 0.202024430
0.383048505 0.250221521 0.249841973
0.108538993 0.121947698 0.170904279
0.137001678 0.132067993 0.177482709
0.191271275 0.158886567 0.191903710
0.272738844 0.206325114 0.220999569
0.406577885 0.289563477 0.275395393
0.211891413 0.229222119 0.221631572
0.228842825 0.241619110 0.224920988
0.274003804 0.273371398 0.244528562
0.343073696 0.307400405 0.270461559
0.470714897 0.405692607 0.345856905
0.329918146 0.428462833 0.329032421
0.347628146 0.440227836 0.337128133
0.382922381 0.465148687 0.359139800
0.450348139 0.504364252 0.394813389
0.568374336 0.600885451 0.492979169
0.540796876 0.740164459 0.604427576
0.560025394 0.744338751 0.608475447
0.594433904 0.757115841 0.628462911
0.658190966 0.786843598 0.664769173
0.741935551 0.822137773 0.718026340
0.085642412 0.085642412 0.194180578
0.114737287 0.099051289 0.193801299
0.179886401 0.131435573 0.209234834
0.259329557 0.175964400 0.232764408
0.396457791 0.262997985 0.292346388
0.140290692 0.140923694 0.208222717
0.154965416 0.146489397 0.208222702
0.211890981 0.170651406 0.226185992
0.282226294 0.214168280 0.254016280
0.418342888 0.301581234 0.318912059
0.224288404 0.246552393 0.248449981
0.243895978 0.251106977 0.268437684
0.289057791 0.281214803 0.285135955
0.361669660 0.326375812 0.318532825
0.482100189 0.425933033 0.392536610
0.330929816 0.439595252 0.376723826
0.350790292 0.451739520 0.383934259
0.396584570 0.483744532 0.418342531
0.469323546 0.536748767 0.461226821
0.580518901 0.623149931 0.544591904
0.549651623 0.735104442 0.622770607
0.563061297 0.743959367 0.634535015
0.600632429 0.760658026 0.656799436
0.665401459 0.789500415 0.693485200
0.756356597 0.827450991 0.757748246
0.145224258 0.119670995 0.271727145
0.174319714 0.133080274 0.279949427
0.228589535 0.163187712 0.293358862
0.309045136 0.212903127 0.317900002
0.421631902 0.287159979 0.384060800
0.186717123 0.170398295 0.291714430
0.204047829 0.178494409 0.298292249
0.256040275 0.204047993 0.305123538
0.329032272 0.250474244 0.340797007
0.445920080 0.327387512 0.411511809
0.248450413 0.274383545 0.340796977
0.265148699 0.287792832 0.350664228
0.313219398 0.312966526 0.367362529
0.382669389 0.353953242 0.400759101
0.497406483 0.433776200 0.477292657
0.352182120 0.470082104 0.472991973
0.363947123 0.482732236 0.474636108
0.401897132 0.504996955 0.494244099
0.482732266 0.552561402 0.537761271
0.592409909 0.633902609 0.602909505
0.547754586 0.741555691 0.688171625
0.561416745 0.748639822 0.688424945
0.599620283 0.768880486 0.698924780
0.676913261 0.802529573 0.738899410
0.775964379 0.840100944 0.793548584
0.213155985 0.173940659 0.494749725
0.241365954 0.189753130 0.505629420
0.306767553 0.223150223 0.519670725
0.401011974 0.288298666 0.554332554
0.510309577 0.386211604 0.604680538
0.234029159 0.233270094 0.517393708
0.260214835 0.243137330 0.517393708
0.321442097 0.272865206 0.537634254
0.411764503 0.335104197 0.570651412
0.523339748 0.427450746 0.614041686
0.281847239 0.356609344 0.564705968
0.294243991 0.362555593 0.559519410
0.357115805 0.395951986 0.586337566
0.444149226 0.450600922 0.612397194
0.559393048 0.530044377 0.658823133
0.408349067 0.579380095 0.659708917
0.417710364 0.582669199 0.660467863
0.452751219 0.594433784 0.670588017
0.518532515 0.622517169 0.693485022
0.641872168 0.683997571 0.735989571
0.609867394 0.787602544 0.779632747
0.613788426 0.788867712 0.786211610
0.649209380 0.804553628 0.805945575
0.719417870 0.831372619 0.824541390
0.821631730 0.879063725 0.877798557
