Assets/Shaders/EldamarStudio/100 Sci-Fi LUTs Pack/LUTs/cube/Duldang LUT.cube
LUT_3D_SIZE 5
DOMAIN_MIN 0.000000 0.000000 0.000000
DOMAIN_MAX 0.903226 0.903226 0.903226
0.090195999 0.011765000 0.019608000
0.112460412 0.044781707 0.050347995
0.193547994 0.092852995 0.096141569
0.341556251 0.188362002 0.165844128
0.700316370 0.293105781 0.278810799
0.086907007 0.125869706 0.086274996
0.109803997 0.134724990 0.091208287
0.183048576 0.177229404 0.126881406
0.339911550 0.252118707 0.198482126
0.716508567 0.352941096 0.306135565
0.051612586 0.279317230 0.183174968
0.082352996 0.296647668 0.193295121
0.179253817 0.311321795 0.207337409
0.400885373 0.384946525 0.272485942
0.775964379 0.499809891 0.382162780
0.245920479 0.544592083 0.322833389
0.315496773 0.549525619 0.344465524
0.439341873 0.571410537 0.365717947
0.620366514 0.604427278 0.410246253
0.855154753 0.700189769 0.530929744
0.786211610 0.856672764 0.670082390
0.805945396 0.872485638 0.692219734
0.841113448 0.876913190 0.707274020
0.898798108 0.892978907 0.737634420
0.954711735 0.910309613 0.782542586
0.079064004 0.040860288 0.080455408
0.106894284 0.047438700 0.094876409
0.168374270 0.112839691 0.135736689
0.288551241 0.206704587 0.212271124
0.661353648 0.306767821 0.315622807
0.090195999 0.111195408 0.110562980
0.105249994 0.144592404 0.125616401
0.158253998 0.177608684 0.158001527
0.300696105 0.258317560 0.228969246
0.690828204 0.364326209 0.340417534
0.061100710 0.274003834 0.207590118
0.097786278 0.287792385 0.222770512
0.178620979 0.310689360 0.237065107
0.378368080 0.381404370 0.295003265
0.760025084 0.505376041 0.410246760
0.269829363 0.537128270 0.352308512
0.313978463 0.542061985 0.371030837
0.435547054 0.561669767 0.388993919
0.603415310 0.592662811 0.427577376
0.851612747 0.701201797 0.558254302
0.778494418 0.861100495 0.676913083
0.794180870 0.858064532 0.678304672
0.834029019 0.867172658 0.702466488
0.892599821 0.883870900 0.738014042
0.951675892 0.906767726 0.783807456
0.046426415 0.059456423 0.224920988
0.101960994 0.072232708 0.223908693
0.162175998 0.123592407 0.215812817
0.289563388 0.219481111 0.271094561
0.665780962 0.326375365 0.392536610
0.069576293 0.157242283 0.210499570
0.095382586 0.163440987 0.209867403
0.151043415 0.195193112 0.225553408
0.303352296 0.273750693 0.297659636
0.677672088 0.384313524 0.411384821
0.069322996 0.289690375 0.266792983
0.116129100 0.314863712 0.284756720
0.242757380 0.366856366 0.336115956
0.415559620 0.410752803 0.376090795
0.752940953 0.524604619 0.485388756
0.333080351 0.545098126 0.432763964
0.374446660 0.553573668 0.440480709
0.473118693 0.569639683 0.451992214
0.631372690 0.606957674 0.490954965
0.852498472 0.711954474 0.612270653
0.787476599 0.852751553 0.706388414
0.795319319 0.854016304 0.709930241
0.830486953 0.868437648 0.731309414
0.888930917 0.887792468 0.761037409
0.958633602 0.910942197 0.815180361
0.000000000 0.135356992 0.425806254
0.053636987 0.151423126 0.416571826
0.205186695 0.197216704 0.404933661
0.356483370 0.246300131 0.404301226
0.708159387 0.350410938 0.511321962
0.002277127 0.231498986 0.395698845
0.078810699 0.245161414 0.400252998
0.212397128 0.266540378 0.394433975
0.364325941 0.301834136 0.412144244
0.721695006 0.411891073 0.527261019
0.098545268 0.364326239 0.417330801
0.170651346 0.388488233 0.417583674
0.302719533 0.407463819 0.441872537
0.476154506 0.440227807 0.472612530
0.778114855 0.555091500 0.582922220
0.392789245 0.573940396 0.513219416
0.447438240 0.582036376 0.526754975
0.571410537 0.619987428 0.570271969
0.728905380 0.674004078 0.628842413
0.872991800 0.742947400 0.696647644
0.796710730 0.860973835 0.758759975
0.817963302 0.866793096 0.775331914
0.850095034 0.874636292 0.786211193
0.894496918 0.890448928 0.804553807
0.953952909 0.911195636 0.843643606
0.000000000 0.260594755 0.747121692
0.199240938 0.272612482 0.747374713
0.430993229 0.312839925 0.737254977
0.668816864 0.366603434 0.732194543
0.857052565 0.459709376 0.738013506
0.143073916 0.355977356 0.726628482
0.267551959 0.366476774 0.731688857
0.471220523 0.392030299 0.732447863
0.681973398 0.443137169 0.733333170
0.854648829 0.522707224 0.745730460
0.388108343 0.530677021 0.727514386
0.443516612 0.533965588 0.728399932
0.574193597 0.550916731 0.732068121
0.727640510 0.583681166 0.740543962
0.871979833 0.639342129 0.764831960
0.642884374 0.723845780 0.765338421
0.665781021 0.724857807 0.766476810
0.726501882 0.727387607 0.771283984
0.808095932 0.745604217 0.783934057
0.904996634 0.782922089 0.811131954
0.835926414 0.878937602 0.845034599
0.835167766 0.886147559 0.853889883
0.856672764 0.892726183 0.860088170
0.912081003 0.907653451 0.881340742
0.972928822 0.940290630 0.926122665
