Assets/Shaders/EldamarStudio/100 Sci-Fi LUTs Pack/LUTs/cube/Duldang LUT.cube
LUT_3D_SIZE 8
DOMAIN_MIN 0.000000 0.000000 0.000000
DOMAIN_MAX 0.903226 0.903226 0.903226
0.090195999 0.011765000 0.019608000
0.083491549 0.020746548 0.032511450
0.123086996 0.048576999 0.056419998
0.163693994 0.075142287 0.080708288
0.222391188 0.117394179 0.110436186
0.307147741 0.174193740 0.152687997
0.459329545 0.228715986 0.207463279
0.700316370 0.293105781 0.278810799
0.090195999 0.038709544 0.034029547
0.094497450 0.053636547 0.045034546
0.119924091 0.081467189 0.075268902
0.164199740 0.110436186 0.095635898
0.215433195 0.149904743 0.118279383
0.300695986 0.200506002 0.159772292
0.451613009 0.247564793 0.213409454
0.689310253 0.312334269 0.273877352
0.081593908 0.144086093 0.092346996
0.096900545 0.150031552 0.095509090
0.112081096 0.157495186 0.101834096
0.154079556 0.174319640 0.115116999
0.207463279 0.209108189 0.148640275
0.303984821 0.255407989 0.195445731
0.480202556 0.307779998 0.237950459
0.716508508 0.367615223 0.312966645
0.063251354 0.226438984 0.148513645
0.069829099 0.233016834 0.148766190
0.098797999 0.239215627 0.153067738
0.144591644 0.250600994 0.164832637
0.210499376 0.284250170 0.194180980
0.325237364 0.324984252 0.226691812
0.503984809 0.374572933 0.271473527
0.736748815 0.444908082 0.352182269
0.025047192 0.336748987 0.213029996
0.062112544 0.354079396 0.229601383
0.112586990 0.354079485 0.227957085
0.176723376 0.357874572 0.238077179
0.258697361 0.379000366 0.251359999
0.392915905 0.421252191 0.283364981
0.589880049 0.472738475 0.331182480
0.789373398 0.552308738 0.414674312
0.183175445 0.501075447 0.299557239
0.216571718 0.503478646 0.306768179
0.264136374 0.511574805 0.321695089
0.342188329 0.522580743 0.328779459
0.432131648 0.537887275 0.345983267
0.541429162 0.555850446 0.371789962
0.698671520 0.603036165 0.427197754
0.844781756 0.669829369 0.507906497
0.488298804 0.682858586 0.444908559
0.508918345 0.688804746 0.453510284
0.539152265 0.691461086 0.453636736
0.597596467 0.702466547 0.474003553
0.654901922 0.709424496 0.492979288
0.730044305 0.716002226 0.517393947
0.794307232 0.734471560 0.547248304
0.888298333 0.777608931 0.613029718
0.786211610 0.856672764 0.670082390
0.796837568 0.876533866 0.684376717
0.809993446 0.871726751 0.687159657
0.825300395 0.877798975 0.701201737
0.857052624 0.883238494 0.714610755
0.890448809 0.889183939 0.732574582
0.923592329 0.902087033 0.760784209
0.954711735 0.910309613 0.782542586
0.087033994 0.024667548 0.030866545
0.087033994 0.024667548 0.037950546
0.112840094 0.049715545 0.063377991
0.148513645 0.087666094 0.091587991
0.192283437 0.129158989 0.128399998
0.271094203 0.184693083 0.174699470
0.424541533 0.237950578 0.220366836
0.677039802 0.295129657 0.287918955
0.089816548 0.031625543 0.034788545
0.098039001 0.044529095 0.061480548
0.111701548 0.082985096 0.075142093
0.140291095 0.111574635 0.099430896
0.191145003 0.149145946 0.133839086
0.272486210 0.200758919 0.179380178
0.415939540 0.251865834 0.222264573
0.654649019 0.308918208 0.291587532
0.083491549 0.125237092 0.104111098
0.090955094 0.136622638 0.100948989
0.114104547 0.140164196 0.111195184
0.140670553 0.168374196 0.128779531
0.191777274 0.202783093 0.163693890
0.276786655 0.248197272 0.200758830
0.448323876 0.304237634 0.249335825
0.698418498 0.368880481 0.318659037
0.066033907 0.217963532 0.151802376
0.078557909 0.217204645 0.155344725
0.103099354 0.225047633 0.162428737
0.135863543 0.239468262 0.172548741
0.199873626 0.273245066 0.197217077
0.300948650 0.315875798 0.236938536
0.482352763 0.368627548 0.279063851
0.720935941 0.439848334 0.355218261
0.039342541 0.333586395 0.216825187
0.070841342 0.343706369 0.231752172
0.114990279 0.342947394 0.230613530
0.173561290 0.353953183 0.245540828
0.247058570 0.367995054 0.261732996
0.377355933 0.410626113 0.286147743
0.572422564 0.470588207 0.339785069
0.782036543 0.547627985 0.423402548
0.181277528 0.483364999 0.307147533
0.198987991 0.489184290 0.314611048
0.252751648 0.494750261 0.321315706
0.319797188 0.507653117 0.335483819
0.414168030 0.520683348 0.350031465
0.519797742 0.539405286 0.371536821
0.682605982 0.591018558 0.424414814
0.842251658 0.671726525 0.517140627
0.474636197 0.668690562 0.437444359
0.485262334 0.673624098 0.440860361
0.514484346 0.671726763 0.449462414
0.573560894 0.681593895 0.466919661
0.634282112 0.693864286 0.484503269
0.710942507 0.703605115 0.511322081
0.786464095 0.724731266 0.539405107
0.879190207 0.769639492 0.607210815
0.772169411 0.849968314 0.653636932
0.779886067 0.856293619 0.664642572
0.785831869 0.854649007 0.669702828
0.811891079 0.859202981 0.676660120
0.841239572 0.868184686 0.695635438
0.879569590 0.883112073 0.725237191
0.921188951 0.890195906 0.751296759
0.949778378 0.908538580 0.777482629
0.073750906 0.045414094 0.097912900
0.093738452 0.051359549 0.108159095
0.116002090 0.058824003 0.118406102
0.148513556 0.096774451 0.131309450
0.191271201 0.144971296 0.162175894
0.262744725 0.198608637 0.209234998
0.402023762 0.255281359 0.260721177
0.661606669 0.311574936 0.326754898
0.079569645 0.071726643 0.095888644
0.088172443 0.084250547 0.108159095
0.110562995 0.092472993 0.116002098
0.141176090 0.126122907 0.141809091
0.184566543 0.169259995 0.174319834
0.257305533 0.220240191 0.215053737
0.407210797 0.268943608 0.256799370
0.652118802 0.329791069 0.324351817
0.090195999 0.133965999 0.136369199
0.093738452 0.158760458 0.157242462
0.110562898 0.179507002 0.159772098
0.136748642 0.186464101 0.171537012
0.189627096 0.217710093 0.198228985
0.274636358 0.260847360 0.240860343
0.439341813 0.313219368 0.287539393
0.693358421 0.381277651 0.355597883
0.067931652 0.236179635 0.191903993
0.075648449 0.246426538 0.199747086
0.109044999 0.248703644 0.211511984
0.140543744 0.260467827 0.213030085
0.203921631 0.284629732 0.238077193
0.307653278 0.325743377 0.272865623
0.487665743 0.382036656 0.313472748
0.720176816 0.453510374 0.389247000
0.062492184 0.346363187 0.254775286
0.092346899 0.356356382 0.267678618
0.129791185 0.358760148 0.267931998
0.184186921 0.361416817 0.273371398
0.258950353 0.380645245 0.285895079
0.383428097 0.418595910 0.316002518
0.579632819 0.476913273 0.372802079
0.778241515 0.559645712 0.450853825
0.229601547 0.501707733 0.346995354
0.247311920 0.506261945 0.354458928
0.285894722 0.509424686 0.351296633
0.350031555 0.518785775 0.370777935
0.436559081 0.533333480 0.379759461
0.534345150 0.549652398 0.399240971
0.697659433 0.603289187 0.458443820
0.844275594 0.680202365 0.545603693
0.511195481 0.676660478 0.476533741
0.524478018 0.686780572 0.480328560
0.560025036 0.690828502 0.490069360
0.602403581 0.695888817 0.500695825
0.657305717 0.704870343 0.519797444
0.724731207 0.714357972 0.538140178
0.795572460 0.729158700 0.560531437
0.886906981 0.777862072 0.629095018
0.790385604 0.864136577 0.686780393
0.798482060 0.860974014 0.697027028
0.808855176 0.866160691 0.698798001
0.831372142 0.873371422 0.713092864
0.858317494 0.877039850 0.721821547
0.890322685 0.884376705 0.740543723
0.917393923 0.897786021 0.764326215
0.952687979 0.911574781 0.784060299
0.059835713 0.057178997 0.186717629
0.079949193 0.062744997 0.182668909
0.112840094 0.074383192 0.183175176
0.140670642 0.099810354 0.171030641
0.188741282 0.145983547 0.202023983
0.262998074 0.197216988 0.239468455
0.407336831 0.257305622 0.296647280
0.651739180 0.330803007 0.369639456
0.078937456 0.096268184 0.164200187
0.083871096 0.101328537 0.170651183
0.108159095 0.109171540 0.167489097
0.130803093 0.127514273 0.172548831
0.173434630 0.171030730 0.196458086
0.255913973 0.216065884 0.239468575
0.403415650 0.276281297 0.296268016
0.637318134 0.339911163 0.365084976
0.080455460 0.154458731 0.175205275
0.083491549 0.162302643 0.187476531
0.109803997 0.180012375 0.191397637
0.130803093 0.194181100 0.205186367
0.180391818 0.225806639 0.232131630
0.265527993 0.274889380 0.266034365
0.437318087 0.328526109 0.325743288
0.679696262 0.394939989 0.399747014
0.065528356 0.233270273 0.219228297
0.076786898 0.242631167 0.221125722
0.111954287 0.263377607 0.246553183
0.158253923 0.295508921 0.268057913
0.210499808 0.301707804 0.274763048
0.310815632 0.335357010 0.306514651
0.483870745 0.388614893 0.360025257
0.713725328 0.465907782 0.429348201
0.081467628 0.349272460 0.294117630
0.118532464 0.359771907 0.297533184
0.161290020 0.372675478 0.312460244
0.210499913 0.377356172 0.314357907
0.278431028 0.392283380 0.326375395
0.398608744 0.432131350 0.358886719
0.578747749 0.487033546 0.412776649
0.779380202 0.566350162 0.485009313
0.247564986 0.498039186 0.376850009
0.267046273 0.504743814 0.382922262
0.307147264 0.507906497 0.393801481
0.364579201 0.519797444 0.398861736
0.451739728 0.535104334 0.413409263
0.544085860 0.556609452 0.437571287
0.697533190 0.604680359 0.492725879
0.843769848 0.684376597 0.574826002
0.514737368 0.673371494 0.505249918
0.529917777 0.676786900 0.510309815
0.554585934 0.678684354 0.509171486
0.601517737 0.683491588 0.521568596
0.654775500 0.698418438 0.538393557
0.723592460 0.714610934 0.559645653
0.792789221 0.731056213 0.591650844
0.884123802 0.778367937 0.654775321
0.788741231 0.856040597 0.690575242
0.783807218 0.855914056 0.698671579
0.796204746 0.860215247 0.699430645
0.820493639 0.862492263 0.708791852
0.848829806 0.869323075 0.727134585
0.879443467 0.883111835 0.748260438
0.920809567 0.895382404 0.777609229
0.958254278 0.908032596 0.795825183
0.025932807 0.062744997 0.284503371
0.057685163 0.074003547 0.275142193
0.106641099 0.099430904 0.271094292
0.148134097 0.130802989 0.261732996
0.184060797 0.162934989 0.260088384
0.263757169 0.211005539 0.294370264
0.423023432 0.267805070 0.348387063
0.674636185 0.335357189 0.422517329
0.054649260 0.121062636 0.257685006
0.070967548 0.132827342 0.258570373
0.102719910 0.140670538 0.258570373
0.137507737 0.159899011 0.250727296
0.178241521 0.182922438 0.257685006
0.259962082 0.227577537 0.293738157
0.414801002 0.281214297 0.345730543
0.654901743 0.348766804 0.424161643
0.059709001 0.186337888 0.248324186
0.074256547 0.196711004 0.260974169
0.097280100 0.206072181 0.261860013
0.137507647 0.216571748 0.268057972
0.184693173 0.236559168 0.274130285
0.281594187 0.282732278 0.313978255
0.450347722 0.334345192 0.373561144
0.692093432 0.405945808 0.451865762
0.052498192 0.269955635 0.278937191
0.076027907 0.277039737 0.283997625
0.112333640 0.290195823 0.294117749
0.166223839 0.307020992 0.306261957
0.228210166 0.323718935 0.316129267
0.338014007 0.359392375 0.355850726
0.509298086 0.410626024 0.405818999
0.727260828 0.481087893 0.483365089
0.099051178 0.358760178 0.324984372
0.129411727 0.370525181 0.341556013
0.180645078 0.386211365 0.351043284
0.278431386 0.425047547 0.387097001
0.374826163 0.451992184 0.406451374
0.458064377 0.466034383 0.424161911
0.608855009 0.504364431 0.458950162
0.779000759 0.586464167 0.535609961
0.291840702 0.512966454 0.426565528
0.316129088 0.520050347 0.436179668
0.367488533 0.531815290 0.443769932
0.434914649 0.551043749 0.465275168
0.505376458 0.562049210 0.479822904
0.594813466 0.581024647 0.497280180
0.721442282 0.625806212 0.545730650
0.847058952 0.698292196 0.615433276
0.559519410 0.683744550 0.547248483
0.571537197 0.685894907 0.555218279
0.600252867 0.691714108 0.563820243
0.632384717 0.693232238 0.566603184
0.680328846 0.706514835 0.582669377
0.741555691 0.718153000 0.600505829
0.802150249 0.737001836 0.629474699
0.889563501 0.791777551 0.689184248
0.789626896 0.861227036 0.719544590
0.796963990 0.859076560 0.725490212
0.805945456 0.860847414 0.726628482
0.830739796 0.867299199 0.740670621
0.857052565 0.873624623 0.754965127
0.887286663 0.885641813 0.768627167
0.916508853 0.897785962 0.797090352
0.950158000 0.914610744 0.817710400
0.000000000 0.117140986 0.389373720
0.007210811 0.119923726 0.379380465
0.090069711 0.146362990 0.377356201
0.159645990 0.168627739 0.371789962
0.230360731 0.196458191 0.362555265
0.304870456 0.229095727 0.369892716
0.447058827 0.276028007 0.411005735
0.701328218 0.345097959 0.493358701
0.003922000 0.161290288 0.352561921
0.025806557 0.172296196 0.366603017
0.086906999 0.176470622 0.360278070
0.153953165 0.196458086 0.356103539
0.212144122 0.216318920 0.352941483
0.292220443 0.249335721 0.361163706
0.437318057 0.290449262 0.400379717
0.677672148 0.358760178 0.484756261
0.020746626 0.233017176 0.362808108
0.046679433 0.238962620 0.354965240
0.092979081 0.246426374 0.359772474
0.161416724 0.255914092 0.359139562
0.231878921 0.273244888 0.367109448
0.315243274 0.296774209 0.380518556
0.470841199 0.345351279 0.429854274
0.719418228 0.414674044 0.510056496
0.046932634 0.310689270 0.370525002
0.079570085 0.310057133 0.376470476
0.134851262 0.321188927 0.373561084
0.194687009 0.329791129 0.379127085
0.263630748 0.349019527 0.387096643
0.359519482 0.367868245 0.404048026
0.527767420 0.417077869 0.462492198
0.739152253 0.495635718 0.536875308
0.135736912 0.400759369 0.403415710
0.164199740 0.411258817 0.412776887
0.214800999 0.416318566 0.415939182
0.299051344 0.439215571 0.436053365
0.398608744 0.461100370 0.462365925
0.491334379 0.485009819 0.479949176
0.638836145 0.527260959 0.524983943
0.798861623 0.600000083 0.589120924
0.319923937 0.524351478 0.467678696
0.343706459 0.533080459 0.480075926
0.397090286 0.542821050 0.489816546
0.469196558 0.564832091 0.515876353
0.580771565 0.605313420 0.554206431
0.671220720 0.632511199 0.583301485
0.755217969 0.657179177 0.609993756
0.860847533 0.712586522 0.666793227
0.569765985 0.686148047 0.597090781
0.584566474 0.686906993 0.596078098
0.612270653 0.692852736 0.603921413
0.658443987 0.706261814 0.615306616
0.716508687 0.728399754 0.641113520
0.770525038 0.736622095 0.658191204
0.818342865 0.754585743 0.672991991
0.901834249 0.803541958 0.734724939
0.798481822 0.857937753 0.747121692
0.806957304 0.859076560 0.756103694
0.810373127 0.864263237 0.757874489
0.832890451 0.867046356 0.767235577
0.857558489 0.875142217 0.778241754
0.884630084 0.885894716 0.794939637
0.923086524 0.899683714 0.818595827
0.956736028 0.910436571 0.837065101
0.002277288 0.172169283 0.545603514
0.000000000 0.182036534 0.550411224
0.093611568 0.194939986 0.537634254
0.223402545 0.217583984 0.538899183
0.335989922 0.243516982 0.531435728
0.446046799 0.271347463 0.527135015
0.570651412 0.308412552 0.534471571
0.726755083 0.361163795 0.570904374
0.003289004 0.213155821 0.518912256
0.002783259 0.218848541 0.520936012
0.098039344 0.227577537 0.524224997
0.221505105 0.247565001 0.517899990
0.326755255 0.266539812 0.511827588
0.438709557 0.292093486 0.516002297
0.557115972 0.321315497 0.523086965
0.716002584 0.374699324 0.566223800
0.004933718 0.288931102 0.517520547
0.026565634 0.297280312 0.518658817
0.140417174 0.299937010 0.521315455
0.244781703 0.313219190 0.521695018
0.350031644 0.328905553 0.518912077
0.458064377 0.348766744 0.524225414
0.584693134 0.374826193 0.537634254
0.746109903 0.434661776 0.583301485
0.092473194 0.373434275 0.513725162
0.140290648 0.374952465 0.509803891
0.203794912 0.380012721 0.513598919
0.285768539 0.392536223 0.517647207
0.389247298 0.406577826 0.527387559
0.498292267 0.422264099 0.536748827
0.611638188 0.447564542 0.554712176
0.764073431 0.512839854 0.607843161
0.248829931 0.470714778 0.539911330
0.274003744 0.482353091 0.553953171
0.324857742 0.483997375 0.547880828
0.393927634 0.490955353 0.550031841
0.478304863 0.505123138 0.561416447
0.575584710 0.521442175 0.574699581
0.683112085 0.548007488 0.591777563
0.810626149 0.609993815 0.652751386
0.440733910 0.596458018 0.592789292
0.460974187 0.598228693 0.597216845
0.492220104 0.605439484 0.603036165
0.547754645 0.613282681 0.608602285
0.630360365 0.631246328 0.625806451
0.700063169 0.653257251 0.644655406
0.782796025 0.677166283 0.669449568
0.871473670 0.730044246 0.722960234
0.603036106 0.701834559 0.643010557
0.615559816 0.702719986 0.653257251
0.641113281 0.707147241 0.657052219
0.676786900 0.714737654 0.663124621
0.733206749 0.734724760 0.686907291
0.797975957 0.770651519 0.722201228
0.860341311 0.792030573 0.752814531
0.911069095 0.824920654 0.790132761
0.801391363 0.863250911 0.785325885
0.805439293 0.859076500 0.790765464
0.818595588 0.867045820 0.791271269
0.841745853 0.873371303 0.806957424
0.863883674 0.882099628 0.818469524
0.898291767 0.891587377 0.836938798
0.923466027 0.907906234 0.847818017
0.951043487 0.918406188 0.872485578
0.000000000 0.260594755 0.747121692
0.087665886 0.264769077 0.739152551
0.235673606 0.276154637 0.747880757
0.362428695 0.297912419 0.739405215
0.501201808 0.323718905 0.731182754
0.634408236 0.356989264 0.733459651
0.751802862 0.408981413 0.739026010
0.857052565 0.459709376 0.738013506
0.061732940 0.296268016 0.739405453
0.124857247 0.298418462 0.733080089
0.239342004 0.311575085 0.735610247
0.372548580 0.327261060 0.725110590
0.500695705 0.351422846 0.729411602
0.626438737 0.383428335 0.730297148
0.749399006 0.423782289 0.729791105
0.857432306 0.477672279 0.732700586
0.170398444 0.375205576 0.724857509
0.224288315 0.377103060 0.732447505
0.308285594 0.388234973 0.725616634
0.418722302 0.400505990 0.729664683
0.533965588 0.421884865 0.730044186
0.663504303 0.449209422 0.732574403
0.763060868 0.488424957 0.734977841
0.853130758 0.534345448 0.743453622
0.314104795 0.471979767 0.718279362
0.340543658 0.478178352 0.726122618
0.401138574 0.481467575 0.724098504
0.482100010 0.494370401 0.724857628
0.580644786 0.509171426 0.726755261
0.680581570 0.527514160 0.729664564
0.777482271 0.555218101 0.737001896
0.859456003 0.589752913 0.746742547
0.462745130 0.585072756 0.734092593
0.480455577 0.586084604 0.731941819
0.510815620 0.588108957 0.730929613
0.571030915 0.591650605 0.729917884
0.644908071 0.604427397 0.738393426
0.722959936 0.622897029 0.745856881
0.802403569 0.642125249 0.751043558
0.874003828 0.670841098 0.770018756
0.618595898 0.699304223 0.761543214
0.627956688 0.698039353 0.764452994
0.648576677 0.696774423 0.759645462
0.680329025 0.701075375 0.757368445
0.724098742 0.704617202 0.761037350
0.779759467 0.720050573 0.771789610
0.845793605 0.735230565 0.784566522
0.900442660 0.759898722 0.797722578
0.728399813 0.790638566 0.795951724
0.736116171 0.792789042 0.793548107
0.746615946 0.795572460 0.794054389
0.769007027 0.800126433 0.799999595
0.801770926 0.801644206 0.805692494
0.842757821 0.812903285 0.811890841
0.881467223 0.823655844 0.822517574
0.926122308 0.850221097 0.847185194
0.835926414 0.878937602 0.845034599
0.833775699 0.885894895 0.854395807
0.834661782 0.888171554 0.855407715
0.851359785 0.890575349 0.855407953
0.875521958 0.889563560 0.863250971
0.900948644 0.905123413 0.878304839
0.934724748 0.918658733 0.895255923
0.972928822 0.940290630 0.926122665
