Assets/Shaders/EldamarStudio/100 Sci-Fi LUTs Pack/LUTs/cube/Duldang LUT.cube
DOMAIN_MIN 0 0 0
DOMAIN_MAX 1 1 1
LUT_3D_SIZE 32
0.090195999 0.011765000 0.019608000
0.090195999 0.011765000 0.019608000
0.090195999 0.013915226 0.021758227
0.087665997 0.016951161 0.026059322
0.083491549 0.020746548 0.032511450
0.092599936 0.029854935 0.041619062
0.101707675 0.038962677 0.045667320
0.112460412 0.044781707 0.050347995
0.123086996 0.048576999 0.056419998
0.129158989 0.054649003 0.062492006
0.138140127 0.060720995 0.068563998
0.149272516 0.066792995 0.074635997
0.163693994 0.075142287 0.080708288
0.181403995 0.086780995 0.087033965
0.193547994 0.092852995 0.096141569
0.205692604 0.103731990 0.102845997
0.222391188 0.117394179 0.110436186
0.243010983 0.132574558 0.120176986
0.261227012 0.147754982 0.132321015
0.279443711 0.160152018 0.141682357
0.307147741 0.174193740 0.152687997
0.341556251 0.188362002 0.165844128
0.378115475 0.200632498 0.180897981
0.417583942 0.215812907 0.193042010
0.459329545 0.228715986 0.207463279
0.506008923 0.242251649 0.222643644
0.560658157 0.257432073 0.237824067
0.630487263 0.272612423 0.253004432
0.700316370 0.293105781 0.278810799
0.773687482 0.317900151 0.307906359
0.845161140 0.346995562 0.340038180
0.905882001 0.380391985 0.376471013
0.090195999 0.017836999 0.019608000
0.084123999 0.017836999 0.022643613
0.081973225 0.019987226 0.020493386
0.087412775 0.019228000 0.025553387
0.093738005 0.018089708 0.035926614
0.089563549 0.029854935 0.047691066
0.101201609 0.038962677 0.044149000
0.112460412 0.044781707 0.048956316
0.123087004 0.048576999 0.056419998
0.129159003 0.054649007 0.062492006
0.141049996 0.066539995 0.074382998
0.150284648 0.076913506 0.080708511
0.160278350 0.083871126 0.084503770
0.172295660 0.090069644 0.087033965
0.184440374 0.098924994 0.096141569
0.201391369 0.107400186 0.102845997
0.217836991 0.120429792 0.110436186
0.238203973 0.135610178 0.120809563
0.261227012 0.150790602 0.135357410
0.285009712 0.165970981 0.147501409
0.311321974 0.178367987 0.156862736
0.342567861 0.191397876 0.167868391
0.375079066 0.203795373 0.181024492
0.414547533 0.221884906 0.196078405
0.458570451 0.234787986 0.212776378
0.507400274 0.246932328 0.225932658
0.562681854 0.260974377 0.237317994
0.627450883 0.278684437 0.249968037
0.694623828 0.291207969 0.275775075
0.765844285 0.313092977 0.303099543
0.835167408 0.341809183 0.332194954
0.893738031 0.377356380 0.364326239
0.088045768 0.015307001 0.019608000
0.090575770 0.019608000 0.024794387
0.084503777 0.021758227 0.023529001
0.082732551 0.026059322 0.024288550
0.092726223 0.024667999 0.034661774
0.095509000 0.031499095 0.046805773
0.102466770 0.041113451 0.050221000
0.112966478 0.050221477 0.052371703
0.123087004 0.055028774 0.060720999
0.129159003 0.061100781 0.066793010
0.141049996 0.072991773 0.076533772
0.149145991 0.083112031 0.080581777
0.160404861 0.092853002 0.087539867
0.171789765 0.097406745 0.090828970
0.183934048 0.106514640 0.096141569
0.198734984 0.115622960 0.102845997
0.213914990 0.127766967 0.110436186
0.232764155 0.142947331 0.120176986
0.258570790 0.158127755 0.133839205
0.285009712 0.171157360 0.146236792
0.309297979 0.184439987 0.156483039
0.339152247 0.197596118 0.166603491
0.370018989 0.210752726 0.179000750
0.411511660 0.222897008 0.196204901
0.457684845 0.238709763 0.209360987
0.507400274 0.249462441 0.226185650
0.563567221 0.262366056 0.238836065
0.627324283 0.282226771 0.255913764
0.693738222 0.299430758 0.279190451
0.764073253 0.318658710 0.306515127
0.835167348 0.350031614 0.334724963
0.896647811 0.391524762 0.365085006
0.087539837 0.019354999 0.023403160
0.092346996 0.024162158 0.028209999
0.086021833 0.028083386 0.029095385
0.088804998 0.032384161 0.029854160
0.088804998 0.038077388 0.036685936
0.095256224 0.041113224 0.048830159
0.104364157 0.049209479 0.053383835
0.113472544 0.058317542 0.059708867
0.122580931 0.066667028 0.067299061
0.129159003 0.072739169 0.072865009
0.138520002 0.082100160 0.080582030
0.151675984 0.092220090 0.086148165
0.160025284 0.101328477 0.087286517
0.174826160 0.107274026 0.095888838
0.186970159 0.114357889 0.099936582
0.200252801 0.125995800 0.105375998
0.215180159 0.138140187 0.111701347
0.230486706 0.152688146 0.120809570
0.257811755 0.167236149 0.132321015
0.281341344 0.179633170 0.145730555
0.306767970 0.191777155 0.155977428
0.335104227 0.202909291 0.166097164
0.366223991 0.217583656 0.178494841
0.406451792 0.228969067 0.196711168
0.456040561 0.240101114 0.210373163
0.508665442 0.255028516 0.225173637
0.564832389 0.265654951 0.239342064
0.628589451 0.286148429 0.257558405
0.691207886 0.306009114 0.280202478
0.759013236 0.327767074 0.307527125
0.829221725 0.354711711 0.336622566
0.895635843 0.401391655 0.367362171
0.090195999 0.038709544 0.034029547
0.093232386 0.041745931 0.036685709
0.084883220 0.044022772 0.037191547
0.080455616 0.048323546 0.039342094
0.094497450 0.053636547 0.045034546
0.094497450 0.056672931 0.057179317
0.102087222 0.064769313 0.062492225
0.111195251 0.073118381 0.067299157
0.119924091 0.081467189 0.075268902
0.129032478 0.087539971 0.078304529
0.135610446 0.093991444 0.084630191
0.148639992 0.102087274 0.090322994
0.164199740 0.110436186 0.095635898
0.176091477 0.119797543 0.098671518
0.188108996 0.123213410 0.104616992
0.200632438 0.135104284 0.111068539
0.215433195 0.149904743 0.118279383
0.232004985 0.164073154 0.124604955
0.259329468 0.176217958 0.133712605
0.278305173 0.188741565 0.148386925
0.300695986 0.200506002 0.159772292
0.328273237 0.212017685 0.169133544
0.364958972 0.221379012 0.181277528
0.401897818 0.236559361 0.198988274
0.451613009 0.247564793 0.213409454
0.507273853 0.259076178 0.227197960
0.565971136 0.274383128 0.245034620
0.629728198 0.292599887 0.254142970
0.689310253 0.312334269 0.273877352
0.751928687 0.335357487 0.299683839
0.815939248 0.361543119 0.330171019
0.879696488 0.394939542 0.363567472
0.090195999 0.066033930 0.055281930
0.093232386 0.069070317 0.055281930
0.091967225 0.067805156 0.053637095
0.088171996 0.069575936 0.053637095
0.091461062 0.074888937 0.057179317
0.097533062 0.074888930 0.060214929
0.105123378 0.082985319 0.069829382
0.114231639 0.088804707 0.071347229
0.122580931 0.093611874 0.072612070
0.129032478 0.099683978 0.078304529
0.138140127 0.108665124 0.087159872
0.146742314 0.117267311 0.091714315
0.157368645 0.124098569 0.096395001
0.166983113 0.128905922 0.101707906
0.176091477 0.141049922 0.104743510
0.190512180 0.149272799 0.113092795
0.209740445 0.160910860 0.124731116
0.231245980 0.172928497 0.136495993
0.250221074 0.182289958 0.142820984
0.269196779 0.197217375 0.157495305
0.293105781 0.208096176 0.168880671
0.320936233 0.218722254 0.176976919
0.352814972 0.230487391 0.184313923
0.395319790 0.245667025 0.196457952
0.443643242 0.258570641 0.214168042
0.497153342 0.270208836 0.227197722
0.553826332 0.283365011 0.239342123
0.617583394 0.298671901 0.257179350
0.683997333 0.311574996 0.276913732
0.747501433 0.332321465 0.299936861
0.807337165 0.357495487 0.326122642
0.858444095 0.385831922 0.354459077
0.090195999 0.100948639 0.076534316
0.090702064 0.101454705 0.076534316
0.091587678 0.102340318 0.076534316
0.090195999 0.100948639 0.075142637
0.090954997 0.104111187 0.076154768
0.097027004 0.106261961 0.074889384
0.105629317 0.106261961 0.077925637
0.114737704 0.112080924 0.085389316
0.123845898 0.115875989 0.087286636
0.131688669 0.121947996 0.093358643
0.135610446 0.125869766 0.087159872
0.148766577 0.134977892 0.096268252
0.161163956 0.144085988 0.102593355
0.173055276 0.150411040 0.110309705
0.182163090 0.160278305 0.117899895
0.196078479 0.170019120 0.125743121
0.211258516 0.179127127 0.136369318
0.233143538 0.189626575 0.149272576
0.257052332 0.198734984 0.157242343
0.277798712 0.213409364 0.166603684
0.303605467 0.226691991 0.179886311
0.332574338 0.235420316 0.189627126
0.363820165 0.244655162 0.197596788
0.413535833 0.259835422 0.212144002
0.460594535 0.272738904 0.224288568
0.517520249 0.286274612 0.243390292
0.577608883 0.300569147 0.258064717
0.643390238 0.317773759 0.274257213
0.704743505 0.337887615 0.290069491
0.769765854 0.353573561 0.313093066
0.830866456 0.383428127 0.342694491
0.882732332 0.422264308 0.378241628
0.086907007 0.125869706 0.086274996
0.088551708 0.127513990 0.081341296
0.091840707 0.127513990 0.092852995
0.093105547 0.128779158 0.089057833
0.093105547 0.129538253 0.087919287
0.095382713 0.132574633 0.086148061
0.103984609 0.133080706 0.088172317
0.109803997 0.134724990 0.091208287
0.119671293 0.137760788 0.095762290
0.129664510 0.142947406 0.100063287
0.134598151 0.144465566 0.098165832
0.145730540 0.151549533 0.099557243
0.158633932 0.158380926 0.107526995
0.172549292 0.166729704 0.116381705
0.183048576 0.177229404 0.126881406
0.195319101 0.186337799 0.132700801
0.215053678 0.196963981 0.144845188
0.231878549 0.206198275 0.155850708
0.257179022 0.215306684 0.163946986
0.278937399 0.229981065 0.177988648
0.307526767 0.239974692 0.187349990
0.339911550 0.252118707 0.198482126
0.372422189 0.259961694 0.207590476
0.424035430 0.276660323 0.219734102
0.476660252 0.289563566 0.234281853
0.529411674 0.301707953 0.247817934
0.591650903 0.317140847 0.268564373
0.655028701 0.335357606 0.286021709
0.716508567 0.352941096 0.306135565
0.774066806 0.377356321 0.324984103
0.836938620 0.399999946 0.351929277
0.893105686 0.444781691 0.392156988
0.081593908 0.144086093 0.092346996
0.083871193 0.146362811 0.083997712
0.089816906 0.147248194 0.090322673
0.093105935 0.147754267 0.104238026
0.096900545 0.150031552 0.095509090
0.095382839 0.152308851 0.094749995
0.100948773 0.153574005 0.097280316
0.106767610 0.154459372 0.098039389
0.112081096 0.157495186 0.101834096
0.124225095 0.160531580 0.101834096
0.132068098 0.162176102 0.106261961
0.141176164 0.167488933 0.109044991
0.154079556 0.174319640 0.115116999
0.163946971 0.177862033 0.121695064
0.177103087 0.189500093 0.133839175
0.191524178 0.199240893 0.140290812
0.207463279 0.209108189 0.148640275
0.231119454 0.222517163 0.163188070
0.252371907 0.232005060 0.169513121
0.275901377 0.245161459 0.184440210
0.303984821 0.255407989 0.195445731
0.339152217 0.264263093 0.205313027
0.375964463 0.276280612 0.214421406
0.426312715 0.292599797 0.223529190
0.480202556 0.307779998 0.237950459
0.537760973 0.319165051 0.252371758
0.595952094 0.332321078 0.269070089
0.653890193 0.350537807 0.290575415
0.716508508 0.367615223 0.312966645
0.773687422 0.390638590 0.337002158
0.828589380 0.418975651 0.364832550
0.889311016 0.452372104 0.398228973
0.078557514 0.171410501 0.116635010
0.078557514 0.171410501 0.110563010
0.085135795 0.171536982 0.106514715
0.089057669 0.171536982 0.110815845
0.087792926 0.171283945 0.119797871
0.096900538 0.168247551 0.113725111
0.100442834 0.170524850 0.115496323
0.103731766 0.171790004 0.113599010
0.109044708 0.172675595 0.110942490
0.121189483 0.175711989 0.117014498
0.133333474 0.181657493 0.125743359
0.139152214 0.187476486 0.126502231
0.144971162 0.192536339 0.127260998
0.154838577 0.196078047 0.133839071
0.173055336 0.205186427 0.145983830
0.193422273 0.214421302 0.155724168
0.211258769 0.223529696 0.166097373
0.228083059 0.234661952 0.178368464
0.249335483 0.252877980 0.190512508
0.278937250 0.262365848 0.199620843
0.308918476 0.271726757 0.205313236
0.342441618 0.282732129 0.211637989
0.382036477 0.297532976 0.223529011
0.427577704 0.306641370 0.232637420
0.480202556 0.322959960 0.248577043
0.539025962 0.336748630 0.263883948
0.602024078 0.347501457 0.278178483
0.662744820 0.365717471 0.302466482
0.731308877 0.386590302 0.321315646
0.791903675 0.412902832 0.345098168
0.846553147 0.443137199 0.377482533
0.901455045 0.473624498 0.422517002
0.069702871 0.184186995 0.123466000
0.072612002 0.187096864 0.120303869
0.079063781 0.189247087 0.120683089
0.084377006 0.190006003 0.117899865
0.084124133 0.190765098 0.119418129
0.090702064 0.195319667 0.123466000
0.092220001 0.189752966 0.119924195
0.099810123 0.193295419 0.123845860
0.107400000 0.195825741 0.125110760
0.115243226 0.196711361 0.129032001
0.121568993 0.196837872 0.132194877
0.129664987 0.202909857 0.135230988
0.138140514 0.210120216 0.137634516
0.151549876 0.216950923 0.145477742
0.169765949 0.223403156 0.152308822
0.185578927 0.232510939 0.164453000
0.208855301 0.244655192 0.175584868
0.232131407 0.256546557 0.187096700
0.257937849 0.267931849 0.196964025
0.281973571 0.275015861 0.203541994
0.312080860 0.287792742 0.212523863
0.346489370 0.299936742 0.219607994
0.387981981 0.313092858 0.229854718
0.430739820 0.324983865 0.241745785
0.483111650 0.336369544 0.248576880
0.539152086 0.351929039 0.267046422
0.600379407 0.366097063 0.288298845
0.665907681 0.386716843 0.317393839
0.726628423 0.399620533 0.333712667
0.790385723 0.423655897 0.353447169
0.846426487 0.452878028 0.381151170
0.899051130 0.483238876 0.420619875
0.066666998 0.204427496 0.135610253
0.063630871 0.209487632 0.138646379
0.062871531 0.212523982 0.131815225
0.073244758 0.211764440 0.133585989
0.077039748 0.210246250 0.130170539
0.083111748 0.213029593 0.134598255
0.092220254 0.217078120 0.135104313
0.093864545 0.212650046 0.133712992
0.103351995 0.216825083 0.138267085
0.109424010 0.218090251 0.141303033
0.119544744 0.220113993 0.146363124
0.131688729 0.222138241 0.147375256
0.140038013 0.228210256 0.150790602
0.154333025 0.236432537 0.160151780
0.170778245 0.244276077 0.169766247
0.186590537 0.252751440 0.172549248
0.206325114 0.261859447 0.181657240
0.232511133 0.274130255 0.191524252
0.258444279 0.281846970 0.199240983
0.285009712 0.294244230 0.209614009
0.314990729 0.300316244 0.219481468
0.346489370 0.314104974 0.227704242
0.386337459 0.326375484 0.235800475
0.434535056 0.340417266 0.246046737
0.486147821 0.352561295 0.263756990
0.542188227 0.366097391 0.272612333
0.600885451 0.382289320 0.294877052
0.666160703 0.403541684 0.323719233
0.727640569 0.418848634 0.342820823
0.779506564 0.438077390 0.361543149
0.834535301 0.466919810 0.385452181
0.883870721 0.498418987 0.419607997
0.063251354 0.226438984 0.148513645
0.060594998 0.231372640 0.153447002
0.058950223 0.235294119 0.153320521
0.058823641 0.237950966 0.149145633
0.069829099 0.233016834 0.148766190
0.075141996 0.233775914 0.150284588
0.085135996 0.236559272 0.151928991
0.093485288 0.239974916 0.150790647
0.098797999 0.239215627 0.153067738
0.105629005 0.242631480 0.156863123
0.117520742 0.244528756 0.161669999
0.130550370 0.247564897 0.163693994
0.144591644 0.250600994 0.164832637
0.156989396 0.256926030 0.173940241
0.172169760 0.266034424 0.185199171
0.190765470 0.276280820 0.191144988
0.210499376 0.284250170 0.194180980
0.236053124 0.292726129 0.200885564
0.261353970 0.298798293 0.207463652
0.289563715 0.310942352 0.217963293
0.325237364 0.324984252 0.226691812
0.362682015 0.334092408 0.239848465
0.397216886 0.346489370 0.246552974
0.447818011 0.361669540 0.256672740
0.503984809 0.374572933 0.271473527
0.560025275 0.388108581 0.289689690
0.617204428 0.403794914 0.303352416
0.679063916 0.424414694 0.329411775
0.736748815 0.444908082 0.352182269
0.792030215 0.466540009 0.375584781
0.835800231 0.491714180 0.403921396
0.880834639 0.524604619 0.435547292
0.054648966 0.245920092 0.158886999
0.056420323 0.248703465 0.161163658
0.059456225 0.251739293 0.164199814
0.062998094 0.255028188 0.167488918
0.067299478 0.257052571 0.169512585
0.070335090 0.260088950 0.166476980
0.077672325 0.261859983 0.169006705
0.085641995 0.262998343 0.169259742
0.093485028 0.266034037 0.168248057
0.105629034 0.272106051 0.177356452
0.118026741 0.272612065 0.180392116
0.130676985 0.274889290 0.182163030
0.143074036 0.277925372 0.183301672
0.154965073 0.280961066 0.186085016
0.170145437 0.290069431 0.195192635
0.192030549 0.301075011 0.203794807
0.216571987 0.310689032 0.211638033
0.242125124 0.317267150 0.218595564
0.272485971 0.323339939 0.227703974
0.303605020 0.332194686 0.237318352
0.343200177 0.346489489 0.243137330
0.388741374 0.363694161 0.249715194
0.434788465 0.378874511 0.264769047
0.483744860 0.394054115 0.276913077
0.540923595 0.406957597 0.289057583
0.599746943 0.420493692 0.302593350
0.657179117 0.436433047 0.318785131
0.711827874 0.454649031 0.340037495
0.763820410 0.480328798 0.366350442
0.815686285 0.507653177 0.394686937
0.867172599 0.535230577 0.429221749
0.906641006 0.562555015 0.474762976
0.051612586 0.279317230 0.183174968
0.039468583 0.279317230 0.177102983
0.041239955 0.282100022 0.179380178
0.046805859 0.286400825 0.183681399
0.055787265 0.289942920 0.187602818
0.073371477 0.281341314 0.181657344
0.073877417 0.294497073 0.188741088
0.082352996 0.296647668 0.193295121
0.093991093 0.294876724 0.193548292
0.108665422 0.293358386 0.192536056
0.123719282 0.296521246 0.192915559
0.140290976 0.300948799 0.199620247
0.156103626 0.305249751 0.204554051
0.170145437 0.308285415 0.207337409
0.179253817 0.311321795 0.207337409
0.196837395 0.318026394 0.211638018
0.220872760 0.328399390 0.218975186
0.248197123 0.339278519 0.228083387
0.278557986 0.350664318 0.239847973
0.317267358 0.359519064 0.254522353
0.356735855 0.370524883 0.264642715
0.400885373 0.384946525 0.272485942
0.446932465 0.400126845 0.282985806
0.504617691 0.415306479 0.295129836
0.558127940 0.428209960 0.307273835
0.612650335 0.441746026 0.320809633
0.666540504 0.457938462 0.337001890
0.723971844 0.478937775 0.358254254
0.775964379 0.499809891 0.382162780
0.818722308 0.525869548 0.405312717
0.864263117 0.554079771 0.434661150
0.915749431 0.583807409 0.477798581
0.034155212 0.307906777 0.197849602
0.034029007 0.317520767 0.203794777
0.036938779 0.311068982 0.204174548
0.044275999 0.316887766 0.207210615
0.054901805 0.323339343 0.210246533
0.069070064 0.314231724 0.202150792
0.079316996 0.318153262 0.201518282
0.087539695 0.326754868 0.208981588
0.100442797 0.325995982 0.211258695
0.113978490 0.324604303 0.208222300
0.131562054 0.324983835 0.210499600
0.146742448 0.325995982 0.214547589
0.162302285 0.330170602 0.219860792
0.176470801 0.333459586 0.221632034
0.192030400 0.338646203 0.223782793
0.213156581 0.344085783 0.228589788
0.234408587 0.350157768 0.231625393
0.262112319 0.359898359 0.238962561
0.294243991 0.370271921 0.249335811
0.332953990 0.384440243 0.259456187
0.376217335 0.395445585 0.272738814
0.422264159 0.407590240 0.283364981
0.470714748 0.421126246 0.293991178
0.521568716 0.431751877 0.306135207
0.570145845 0.451486051 0.316002488
0.624415040 0.466793299 0.332194656
0.677040100 0.483997852 0.350917131
0.730929375 0.505250216 0.374067217
0.783301413 0.526502550 0.397975773
0.833143294 0.547754586 0.429348141
0.871220589 0.577356339 0.456419766
0.915243208 0.612270594 0.492852598
0.025047192 0.336748987 0.213029996
0.032637380 0.347375184 0.222137988
0.041492958 0.347501397 0.226944759
0.050601024 0.343453348 0.227451146
0.062112544 0.354079396 0.229601383
0.073118187 0.350664109 0.223909125
0.084250316 0.346616000 0.222391188
0.096647695 0.351043671 0.222644195
0.112586990 0.354079485 0.227957085
0.126249000 0.354838580 0.226438686
0.142694190 0.356356382 0.227703854
0.160404637 0.357874572 0.234282181
0.176723376 0.357874572 0.238077179
0.190386027 0.360784382 0.238330215
0.209867164 0.366856366 0.241366595
0.232890785 0.372928381 0.246806175
0.258697361 0.379000366 0.251359999
0.283617914 0.385072380 0.255028188
0.315243393 0.393295169 0.263250947
0.349652290 0.406451762 0.272359341
0.392915905 0.421252191 0.283364981
0.440480560 0.432384342 0.295509249
0.491840631 0.444276005 0.307400376
0.539025784 0.457558662 0.316761404
0.589880049 0.472738475 0.331182480
0.636812508 0.492599487 0.345856816
0.690702200 0.510310233 0.366097242
0.742314577 0.529538631 0.387349874
0.789373398 0.552308738 0.414674312
0.833143294 0.575079381 0.439974338
0.878178179 0.598988116 0.476407170
0.912207186 0.636559010 0.508032978
0.033776131 0.367741704 0.231245980
0.045920130 0.376849920 0.239089385
0.057432100 0.377355933 0.242631212
0.069576383 0.377482295 0.246299714
0.077925086 0.379759580 0.243264005
0.086527489 0.385072529 0.243010983
0.097533137 0.381656796 0.244275972
0.110689260 0.378494233 0.243643552
0.126628563 0.380898058 0.243770048
0.144844577 0.383934468 0.246805668
0.162048995 0.386970222 0.247564554
0.179253474 0.389373779 0.251739234
0.197470114 0.392536521 0.258696973
0.215686128 0.393295556 0.259709030
0.236558959 0.399747074 0.263883948
0.260215133 0.403921515 0.268058538
0.286021739 0.409361124 0.272612363
0.312713534 0.415433109 0.275648147
0.340037972 0.421505153 0.281720161
0.372043282 0.431878716 0.289310336
0.408728868 0.445287794 0.300316155
0.455660939 0.458443701 0.312460244
0.506768048 0.467931539 0.324604958
0.551296473 0.486148208 0.331688970
0.603668511 0.502719820 0.346869141
0.656167269 0.519923866 0.363946617
0.704744101 0.538140535 0.386211038
0.756229937 0.553447366 0.401897401
0.799873114 0.575332105 0.429728180
0.839468300 0.599620342 0.458444059
0.875901163 0.625047505 0.486274302
0.912333965 0.655407548 0.522707164
0.064137012 0.401138961 0.249462023
0.076281004 0.410246581 0.252498418
0.086274773 0.410752803 0.251739234
0.098165862 0.411511987 0.255534351
0.111321568 0.416192472 0.264516473
0.114357963 0.413156092 0.261480063
0.122960359 0.418469012 0.266287029
0.133965999 0.419986993 0.266919762
0.147881031 0.420240015 0.264896005
0.166097045 0.420366555 0.265022516
0.190132782 0.423402935 0.268058121
0.209613994 0.424414992 0.268817008
0.227830350 0.426945031 0.271853030
0.246047005 0.432764053 0.277925074
0.264263004 0.441872418 0.290069848
0.287539661 0.441113174 0.291840971
0.313346237 0.441872209 0.293864787
0.340038002 0.445793986 0.296900570
0.364326090 0.451865971 0.299936980
0.402783155 0.457937986 0.303225607
0.435800523 0.468311071 0.312460512
0.473498255 0.479696155 0.324604958
0.521948516 0.489183992 0.336749017
0.561416924 0.507400036 0.348893046
0.612776518 0.525616646 0.365085602
0.666034043 0.544971645 0.379127294
0.716888130 0.565465093 0.392283112
0.765464842 0.583681047 0.419607460
0.808981538 0.601644754 0.445920527
0.849715114 0.623908937 0.477040142
0.888045192 0.649082601 0.510563135
0.924477994 0.676660001 0.546995997
0.125111103 0.454016745 0.276028067
0.126123101 0.454775721 0.276281118
0.138267100 0.457432121 0.279316962
0.146742746 0.457558602 0.277545899
0.156989098 0.460973918 0.280961812
0.167235687 0.457938194 0.282732457
0.180392072 0.459961772 0.284756690
0.191650748 0.464136422 0.290575743
0.204553857 0.466793090 0.293991268
0.220746115 0.470841080 0.300063014
0.250347853 0.470967591 0.297406852
0.268564373 0.474004000 0.298418730
0.287160099 0.475901455 0.300695747
0.307274163 0.480328768 0.306514770
0.328020453 0.486906797 0.311069191
0.348640263 0.491208196 0.316002578
0.374067307 0.490449101 0.317900211
0.401391655 0.492852747 0.322201133
0.427830517 0.498924792 0.329537988
0.454901844 0.504996717 0.335357726
0.494370490 0.512966514 0.344086081
0.530423820 0.526249051 0.356230378
0.573434711 0.540796757 0.368374348
0.615560055 0.553700447 0.380518377
0.661859632 0.569639146 0.399493665
0.711321712 0.585958004 0.418216348
0.757115543 0.603415430 0.433523178
0.794307590 0.619354725 0.456293523
0.829601526 0.642884314 0.483617872
0.868184686 0.664895654 0.510942519
0.904870272 0.690069318 0.543200612
0.939405382 0.717393756 0.579633415
0.183175445 0.501075447 0.299557239
0.194560438 0.499177724 0.310942709
0.195572451 0.504870474 0.299810231
0.208981603 0.502340436 0.306641310
0.216571718 0.503478646 0.306768179
0.224161923 0.503478646 0.306767792
0.238836259 0.501707852 0.309804052
0.250727206 0.508032501 0.316128999
0.264136374 0.511574805 0.321695089
0.280455440 0.516508460 0.328525990
0.300695449 0.516761482 0.327893585
0.324730963 0.520682991 0.328779459
0.342188329 0.522580743 0.328779459
0.363440752 0.524857521 0.333333492
0.384693086 0.529285252 0.338014126
0.407843232 0.534851313 0.342947662
0.432131648 0.537887275 0.345983267
0.458191007 0.538899302 0.349019587
0.482985467 0.543706477 0.355597496
0.516002536 0.549778521 0.363820434
0.541429162 0.555850446 0.371789962
0.577861726 0.563946724 0.381910235
0.614547729 0.578367770 0.392409921
0.653510571 0.590512514 0.406324744
0.698671520 0.603036165 0.427197754
