Assets/Shaders/EldamarStudio/100 Sci-Fi LUTs Pack/LUTs/cube/Dunwen LUT.cube
LUT_3D_SIZE 5
DOMAIN_MIN 0.000000 0.000000 0.000000
DOMAIN_MAX 0.903226 0.903226 0.903226
0.000000000 0.000000000 0.000000000
0.083364703 0.001644708 0.007210997
0.288551360 0.003922000 0.018342994
0.666287363 0.000000000 0.038330127
0.988487959 0.001265167 0.102213956
0.003288997 0.100062989 0.027830701
0.099430986 0.104996696 0.032384705
0.323845387 0.135104537 0.043137420
0.701455116 0.100822382 0.066413708
0.992409945 0.047691084 0.142694384
0.007210577 0.437571228 0.107273981
0.001644708 0.457558513 0.098418705
0.421252608 0.459202766 0.117773816
0.744592130 0.475522190 0.161922708
0.992409945 0.482100040 0.254649192
0.000000000 0.791524112 0.303352118
0.000632580 0.800632358 0.324477822
0.420367092 0.795446098 0.349778533
0.733586252 0.782669246 0.386717260
0.968880653 0.774446309 0.463503957
0.432258397 0.957115650 0.590006471
0.502972841 0.964579105 0.599746764
0.612397432 0.955724001 0.610878766
0.763440967 0.954458833 0.618089795
0.915369987 0.950537860 0.652624965
0.000000000 0.002277292 0.254143089
0.158001095 0.000000000 0.271473795
0.314737380 0.002277292 0.270841390
0.682226658 0.000000000 0.405819088
0.991144776 0.001265167 0.435420573
0.001644708 0.138013989 0.293737769
0.048070706 0.107273981 0.304870367
0.356862485 0.075521708 0.331688792
0.716508508 0.001012128 0.412017643
0.989879608 0.000000000 0.437444389
0.003288997 0.430993199 0.397976100
0.000000000 0.442504495 0.424162060
0.389879793 0.453636914 0.432384402
0.733712852 0.449462444 0.456546783
0.981277347 0.497280180 0.505629241
0.001012128 0.776091278 0.528020144
0.001897579 0.788235128 0.534598112
0.445034772 0.781277537 0.555218220
0.726122558 0.778114855 0.573814094
0.941808820 0.781657398 0.615686357
0.530550241 0.953067780 0.686906934
0.569133341 0.956357002 0.696141660
0.660973847 0.953067839 0.702213824
0.777988553 0.951169968 0.711954415
0.913093030 0.946869075 0.723845780
0.003289416 0.003922000 0.761796176
0.181404278 0.001644708 0.755850792
0.466919810 0.000000000 0.769639194
0.713345826 0.001012128 0.757874370
0.975584745 0.000632584 0.771536946
0.001644708 0.054649115 0.767362475
0.005566289 0.028589685 0.772802234
0.425047368 0.001644708 0.775838077
0.696015179 0.001644708 0.767236114
0.977229655 0.001644708 0.773434401
0.007843000 0.436811954 0.789752960
0.002277292 0.436559111 0.788108647
0.374193788 0.440227389 0.790385365
0.690196097 0.459582359 0.791144669
0.959898770 0.512966394 0.775331795
0.000000000 0.748007417 0.801517844
0.076660447 0.757495105 0.809614122
0.485136062 0.760784507 0.812270641
0.734977841 0.773814142 0.808728814
0.918279469 0.801644206 0.816571832
0.498165816 0.943327248 0.784440041
0.576344073 0.947628140 0.797470033
0.700442314 0.947248399 0.817077875
0.825806379 0.943706512 0.843643129
0.919924200 0.949272633 0.835294008
0.000000000 0.000000000 0.952182114
0.043390103 0.000000000 0.949778557
0.366729796 0.000000000 0.947880864
0.605060160 0.000000000 0.956988990
0.832384765 0.000000000 0.958127916
0.002909707 0.019987270 0.944591820
0.001012128 0.024035525 0.951423109
0.337381393 0.023402946 0.946868718
0.595572352 0.046932209 0.948766232
0.834281921 0.163314104 0.958760321
0.000632584 0.427451074 0.952688277
0.163061082 0.444781631 0.948513448
0.419987202 0.458570182 0.948766708
0.630739987 0.486401081 0.941050172
0.852624714 0.532447636 0.945604146
0.377229512 0.700316250 0.936496139
0.470714957 0.710689187 0.942567885
0.610879242 0.743074119 0.941556156
0.755218267 0.775838137 0.934472144
0.894750118 0.798355281 0.941303015
0.581024647 0.913978577 0.939405262
0.618722022 0.925996065 0.952688158
0.696394682 0.933206916 0.943579674
0.826185942 0.938899636 0.935483992
0.928779125 0.946615756 0.935736954
0.002656833 0.000000000 0.990765035
0.000000000 0.002277292 0.995066166
0.280455410 0.000000000 1.000000000
0.490196019 0.000000000 1.000000000
0.699683607 0.053130552 0.998734832
0.000000000 0.036179803 0.997722745
0.006831134 0.042378258 0.995698929
0.285135984 0.070840880 0.998355329
0.502466857 0.161037162 0.998987913
0.707779646 0.275774598 0.998734832
0.257558167 0.446679205 0.999367416
0.322580457 0.455281615 0.997976005
0.448071063 0.472992003 1.000000000
0.601897240 0.509550810 0.998355269
0.775584817 0.566476643 0.999367416
0.640860319 0.756989121 0.988234997
0.673750758 0.774193525 0.996963918
0.728020191 0.787602723 0.999367416
0.772675395 0.781024575 1.000000000
0.869576216 0.802276790 1.000000000
0.754711747 0.886400878 1.000000000
0.760910690 0.891460955 0.995192707
0.804300725 0.903478801 0.998102367
0.869322896 0.926755071 0.991271257
0.941429615 0.953193963 0.985452056
