Assets/Shaders/EldamarStudio/100 Sci-Fi LUTs Pack/LUTs/cube/Dunwen LUT.cube
DOMAIN_MIN 0 0 0
DOMAIN_MAX 1 1 1
LUT_3D_SIZE 32
0.000000000 0.000000000 0.000000000
0.003036387 0.000000000 0.000000000
0.006072226 0.002150774 0.000000000
0.016698159 0.002656839 0.001265161
0.038709544 0.000000000 0.003542452
0.066033930 0.000000000 0.000506065
0.075648002 0.000000000 0.002530322
0.083364703 0.001644708 0.007210997
0.096268192 0.003922000 0.011764999
0.120556980 0.003921998 0.011764997
0.144844994 0.001012129 0.005946001
0.171157241 0.000000000 0.005945740
0.203035921 0.001138644 0.008981644
0.243011028 0.003922000 0.012271000
0.288551360 0.003922000 0.018342994
0.336495578 0.001518196 0.019608000
0.383554548 0.001518192 0.019608000
0.431625664 0.003922000 0.019608002
0.489310980 0.003921997 0.019608008
0.546995401 0.001138643 0.025174003
0.606577933 0.000000000 0.031245995
0.666287363 0.000000000 0.038330127
0.724098980 0.000000000 0.047059000
0.784819841 0.000000000 0.047059000
0.831878543 0.000000000 0.056166992
0.875774622 0.000000000 0.066919662
0.921315193 0.000506064 0.076028064
0.966856301 0.003542448 0.085136436
0.988487959 0.001265167 0.102213956
0.997849226 0.000000000 0.120429941
0.998229027 0.000885608 0.136875212
0.992156982 0.003922000 0.149020001
0.003036387 0.009108387 0.000000000
0.009108388 0.003036387 0.006072000
0.014295000 0.003036387 0.001771000
0.023276547 0.005186839 0.000000000
0.039848387 0.006451548 0.001265161
0.053889930 0.009108387 0.003542452
0.073624000 0.006578065 0.005566064
0.086653702 0.007716708 0.011891318
0.098545097 0.009234904 0.014801004
0.111448601 0.006957612 0.005693002
0.150284484 0.006957612 0.011511998
0.179253504 0.004048260 0.012017740
0.208728671 0.001897743 0.017330641
0.242252067 0.001138645 0.023403000
0.279443741 0.003922000 0.018342994
0.327387989 0.001518196 0.022011193
0.382036746 0.000000000 0.025679998
0.435800105 0.000885613 0.028716389
0.486274600 0.000885613 0.028716387
0.546742380 0.000885612 0.025933033
0.606577933 0.000000000 0.031245995
0.666287363 0.000000000 0.036306128
0.723845959 0.000000000 0.041492984
0.778747857 0.000000000 0.053130999
0.834914565 0.000000000 0.057684995
0.883238316 0.000000000 0.068310976
0.928905487 0.000000000 0.079569742
0.966856301 0.000506061 0.091208436
0.988487959 0.000885613 0.102972969
0.997849226 0.000000000 0.123971924
1.000000000 0.000000000 0.142947212
0.998228967 0.000885613 0.155092001
0.001771226 0.016066000 0.002150774
0.007843226 0.018595997 0.001771000
0.016066000 0.014674226 0.003542000
0.024667999 0.014674226 0.001265161
0.039721772 0.016065549 0.001771226
0.057178997 0.015559935 0.001265161
0.070081994 0.013535677 0.010752676
0.085009411 0.013788708 0.007210714
0.102719866 0.016066000 0.011006003
0.120177269 0.014421290 0.004428005
0.145477638 0.016445000 0.011891225
0.178873762 0.016445000 0.015939482
0.209234506 0.012397228 0.015559776
0.241113290 0.007843032 0.019607969
0.285136014 0.003289416 0.023023233
0.320430040 0.001518196 0.026312741
0.375079215 0.000000000 0.024794163
0.435167670 0.000000000 0.028336607
0.488298774 0.000000000 0.031373002
0.543706536 0.000000000 0.032890644
0.604427159 0.000000000 0.031751998
0.665148735 0.000000000 0.038330127
0.723845959 0.000000000 0.043769993
0.778494835 0.000000000 0.051866002
0.828842580 0.000000000 0.059455995
0.879316628 0.000000000 0.066919662
0.925616443 0.000000000 0.078304768
0.963693857 0.000000000 0.090449117
0.988487959 0.000000000 0.100442976
0.997849226 0.000000000 0.119670928
1.000000000 0.000000000 0.142188206
1.000000000 0.000000000 0.156863004
0.000000000 0.025933161 0.005186839
0.003542000 0.029475160 0.002150774
0.009234775 0.031625383 0.002529999
0.024667999 0.028589323 0.002529999
0.037191547 0.028968774 0.006704837
0.056672934 0.027703933 0.008096064
0.072865002 0.025932837 0.010119998
0.087539412 0.024920706 0.014547552
0.102720000 0.027197998 0.008475934
0.129538327 0.027198002 0.008982003
0.148513705 0.030107450 0.013915287
0.177102983 0.029854160 0.016445095
0.212017268 0.028715806 0.022897126
0.243643090 0.022517290 0.018343128
0.289183944 0.013409426 0.025426732
0.328272939 0.006578195 0.027071448
0.375331879 0.000000000 0.032131776
0.433523238 0.000000000 0.028589152
0.489310980 0.000000000 0.034661777
0.546742737 0.000000000 0.035420809
0.602656424 0.000000000 0.037823997
0.661353230 0.000000000 0.038836125
0.721062660 0.000000000 0.047185481
0.773434818 0.000000000 0.052118838
0.824794412 0.000000000 0.059455995
0.870714605 0.000000000 0.068184502
0.916255176 0.000000000 0.078304902
0.957242310 0.000000000 0.091207989
0.985957980 0.000000000 0.101960652
0.997849226 0.000000000 0.113598928
1.000000000 0.000000000 0.137001589
1.000000000 0.000000000 0.155597836
0.000000000 0.041113548 0.007843000
0.001138547 0.041492999 0.006704837
0.003289225 0.043263774 0.006072226
0.014421546 0.044149160 0.009360999
0.037571095 0.041113548 0.008222548
0.052751482 0.044149160 0.020366548
0.070081994 0.045793545 0.018848550
0.088298410 0.045034546 0.015686000
0.107653551 0.045034546 0.016824549
0.131941557 0.045034550 0.019860936
0.149019420 0.048323870 0.020746548
0.175964341 0.047691289 0.019101840
0.211637825 0.045414191 0.020240286
0.254395574 0.042378511 0.031879000
0.294117659 0.033523135 0.035041124
0.333965778 0.025553294 0.031246005
0.382922202 0.014927097 0.030866545
0.442252100 0.003036092 0.036179539
0.490829021 0.003036092 0.042251546
0.549399197 0.000379548 0.040354352
0.606704414 0.000000000 0.041872256
0.661353230 0.000000000 0.044528577
0.716001987 0.000000000 0.047691476
0.765085638 0.000000000 0.050980195
0.815559864 0.000000000 0.058570281
0.862618268 0.000000000 0.068690524
0.904870152 0.000000000 0.080581613
0.950411260 0.000000000 0.095761985
0.983048499 0.000000000 0.108664975
0.997849226 0.000000000 0.119797193
1.000000000 0.000000000 0.131309122
1.000000000 0.000000000 0.152561545
0.000000000 0.056293935 0.007843000
0.009108387 0.059329547 0.019987002
0.012397160 0.059708998 0.012397062
0.021758385 0.060214929 0.012902999
0.040607482 0.059329547 0.020366549
0.055787869 0.056293935 0.011258935
0.070967607 0.064389542 0.018342935
0.088298410 0.063756935 0.017457226
0.107274093 0.060214929 0.017204000
0.128905952 0.060214937 0.022896551
0.156103805 0.066033937 0.028842805
0.183428437 0.067552000 0.029854935
0.215433508 0.068184577 0.029348871
0.251359969 0.069702901 0.031879000
0.296900332 0.066666514 0.037950993
0.339025646 0.065021932 0.036306132
0.385578573 0.057431873 0.035800189
0.439974755 0.044022884 0.038709935
0.496900976 0.027324846 0.039215937
0.548260391 0.007843502 0.039721936
0.605186224 0.001518195 0.044908255
0.661353230 0.000000000 0.049968001
0.716001987 0.000000000 0.050727092
0.770651579 0.000000000 0.056799870
0.819734573 0.000000000 0.064642571
0.864642560 0.000000000 0.073750660
0.904617190 0.000000000 0.083365001
0.944339275 0.000000000 0.092726372
0.979253709 0.000000000 0.107906066
0.996204913 0.000000000 0.122580178
1.000000000 0.000000000 0.135863215
1.000000000 0.000000000 0.149525940
0.000000000 0.079063997 0.015433321
0.001518066 0.082100257 0.017457325
0.010626452 0.082985640 0.025300322
0.020746320 0.081720479 0.019228157
0.039721772 0.080834866 0.023529001
0.061353933 0.082100250 0.020872613
0.076534316 0.079063997 0.021884998
0.096647635 0.083238319 0.024667999
0.118153192 0.083491318 0.024794320
0.141176820 0.090575315 0.030866325
0.170777857 0.091334313 0.034408741
0.202150747 0.095382571 0.036433000
0.234155953 0.097026989 0.037571352
0.268058360 0.100316063 0.038709708
0.309044689 0.104111545 0.037950993
0.356988907 0.103478961 0.044022996
0.407336891 0.103478961 0.042884320
0.461606413 0.096647799 0.044908416
0.517393947 0.086021289 0.046805676
0.577103376 0.070082583 0.044275999
0.632511139 0.048830222 0.051865991
0.687160194 0.033902839 0.055534191
0.738646388 0.019228641 0.051359504
0.790891588 0.000000000 0.059835482
0.836432517 0.000000000 0.075016238
0.883111954 0.000000000 0.089057609
0.924351752 0.000000000 0.102087311
0.961796641 0.000000000 0.113219433
0.983301759 0.000000000 0.125110447
0.993674994 0.001771217 0.138519734
0.996710956 0.005186696 0.158254206
1.000000000 0.010119998 0.181910321
0.003288997 0.100062989 0.027830701
0.000000000 0.104744084 0.027830701
0.001518069 0.108918697 0.027197996
0.011891294 0.107653528 0.028209997
0.030866388 0.104996696 0.026312256
0.057685163 0.106767923 0.030107414
0.080961607 0.108033076 0.027704030
0.099430986 0.104996696 0.032384705
0.123719193 0.105755791 0.034661606
0.148007989 0.115243405 0.041618995
0.179759711 0.117393695 0.039848160
0.208855033 0.122706950 0.039216001
0.243390560 0.126881689 0.040354352
0.278811038 0.130423427 0.043390032
0.323845387 0.135104537 0.043137420
0.370525002 0.139658689 0.045667287
0.419101775 0.139658689 0.047185484
0.477039784 0.140923679 0.048323993
0.533712745 0.138899148 0.052371744
0.590638757 0.127767026 0.054775342
0.647818208 0.117014654 0.056293700
0.701455116 0.100822382 0.066413708
0.749399245 0.078684583 0.061226912
0.799493909 0.061985970 0.070335314
0.849209309 0.050980501 0.082985565
0.888931036 0.048197158 0.097027302
0.933207154 0.047185149 0.114484414
0.971916854 0.046046793 0.128905684
0.992409945 0.047691084 0.142694384
0.999746978 0.056040291 0.156483114
0.992789388 0.065275267 0.170398682
0.995066285 0.078178197 0.200000003
0.007842999 0.124351189 0.039974902
0.001771000 0.128146872 0.040734001
0.000759096 0.132701099 0.037824325
0.002024003 0.138014108 0.037317995
0.016065547 0.134218737 0.031245997
0.046046771 0.133080184 0.038456839
0.074636318 0.137887403 0.039469093
0.101707697 0.136875466 0.035420902
0.124478102 0.136116177 0.041492905
0.148766890 0.139152572 0.050600518
0.183301955 0.142188400 0.048197191
0.213409230 0.147754341 0.043390162
0.245667264 0.155724093 0.043390546
0.282859087 0.161543131 0.046426158
0.333459556 0.164579511 0.049462415
0.382669181 0.170019090 0.050980385
0.431246340 0.174573094 0.052498192
0.481088072 0.176470667 0.048830006
0.541556001 0.182669178 0.054396011
0.595192730 0.177102923 0.061227102
0.649841964 0.170651197 0.066160738
0.702973127 0.164579198 0.070209004
0.748513520 0.158633709 0.076280996
0.796457887 0.150790468 0.084756806
0.845793784 0.142441571 0.096141890
0.893485188 0.137002036 0.109171495
0.929917991 0.131435439 0.119797185
0.971916735 0.128399834 0.138013870
0.992409945 0.131435618 0.152055800
0.999240935 0.140037462 0.167995080
0.999620497 0.155597374 0.184819967
0.990512073 0.179886192 0.203035995
0.007842996 0.166855976 0.043010518
0.001770999 0.163820386 0.046046905
0.002150773 0.163314521 0.042505007
0.002530323 0.167362660 0.042884327
0.003921547 0.173687920 0.049461998
0.031245921 0.164579555 0.043390010
0.061227143 0.173560992 0.053131163
0.093105681 0.175458521 0.051360078
0.124478094 0.172548980 0.044528525
0.151802525 0.178620994 0.050600525
0.190639123 0.181657374 0.056799743
0.223782465 0.184693217 0.054269463
0.258570254 0.189120516 0.052877814
0.301075071 0.194939554 0.058570940
0.346616209 0.197975934 0.061606549
0.394813538 0.203415513 0.059835814
0.443390340 0.209487513 0.060088772
0.493232071 0.215939075 0.060974009
0.547881007 0.225047469 0.054902017
0.597216725 0.225679994 0.063251361
0.649841964 0.223402739 0.070335485
0.703479111 0.219227999 0.076281011
0.754585505 0.213282511 0.082353003
0.800126731 0.210246906 0.088425010
0.845793724 0.204680979 0.099177517
0.892978787 0.202656806 0.114104845
0.939025581 0.204301044 0.131941959
0.975458324 0.201265424 0.150157943
0.993548334 0.206198961 0.160404831
0.998228788 0.213915199 0.175078943
0.997090161 0.225047082 0.194054097
0.999620497 0.240606993 0.215179995
0.002024001 0.200632602 0.046046872
0.001770999 0.203415245 0.049082518
0.000000000 0.204680637 0.049968131
0.003542129 0.204174563 0.045414127
0.005439548 0.205945536 0.047058549
0.007463938 0.206957787 0.058696866
0.042378001 0.210499734 0.060215190
0.086654074 0.215306729 0.064642996
0.129664868 0.214800730 0.059835643
0.163440496 0.220872730 0.059455872
0.193674743 0.221125737 0.059708867
0.231119618 0.224162132 0.061733127
0.267805129 0.227197975 0.061985865
0.310309917 0.231751770 0.067552127
0.353194237 0.240101159 0.067931578
0.396331578 0.245540723 0.063757002
0.448450565 0.254648745 0.063251324
0.501834393 0.262871325 0.067552276
0.554206014 0.267425716 0.072865009
0.603288770 0.265401363 0.075142354
0.653763175 0.265274853 0.082099989
0.705376387 0.264262736 0.087160125
0.754711986 0.262238741 0.091334864
0.797469914 0.261985779 0.097406879
0.840733707 0.261226863 0.105755568
0.884250283 0.257811546 0.117267333
0.928779125 0.257811546 0.131435990
0.970018864 0.259582311 0.144844979
0.990511954 0.264516532 0.160404801
0.997090161 0.268817365 0.177103162
0.996078014 0.277419180 0.199114442
0.997090161 0.292599589 0.224414870
0.000000000 0.244149491 0.059202988
0.004047996 0.247185096 0.058191121
0.002024256 0.250221252 0.053004257
0.000759095 0.253257632 0.050474260
0.003795004 0.252119005 0.047058802
0.002403680 0.253510684 0.062239185
0.007969761 0.259076744 0.063251063
0.064136572 0.261859745 0.069576450
0.120303839 0.261100650 0.069196999
0.163061038 0.263377488 0.064895771
0.203794986 0.267678469 0.064769253
0.240227491 0.269702762 0.070840992
0.278937280 0.272738844 0.073118277
0.320430040 0.275521487 0.078431480
0.355850816 0.279316634 0.076660253
0.408475816 0.290069759 0.077925511
0.455534428 0.297659546 0.077925503
0.509677410 0.306135088 0.079570256
0.558507323 0.306388497 0.081720553
0.607336998 0.309930414 0.089310348
0.655913711 0.308791757 0.092346728
0.704364240 0.310815752 0.096268252
0.750917017 0.312713236 0.098545469
0.797216833 0.310815483 0.106514737
0.837697864 0.312839746 0.118911952
0.880202234 0.311448067 0.129411578
0.921694875 0.308918238 0.140544251
0.961163580 0.310436040 0.149652243
0.990512192 0.314104885 0.168501049
0.998102248 0.318406433 0.183681428
0.998102248 0.323213130 0.202656612
0.998102248 0.336116225 0.225426733
0.001138644 0.307526886 0.077419281
0.003795002 0.310562789 0.072106384
0.006831128 0.313598663 0.068184860
0.002656839 0.316635072 0.060341641
0.000000000 0.319291890 0.055028640
0.000000000 0.319291890 0.066413932
0.000000000 0.322074890 0.072106317
0.017836887 0.327134907 0.069955707
0.099810451 0.325616896 0.077546097
0.158633530 0.322201073 0.072612636
0.207843244 0.327893555 0.073497988
0.253889859 0.329664797 0.079570018
0.299050927 0.330423921 0.084123641
0.341049701 0.333965600 0.089690350
0.373181462 0.336622208 0.087539583
0.424035639 0.341682494 0.091587797
0.475268811 0.350031704 0.095003344
0.526881337 0.357241899 0.100442924
0.573434591 0.354712248 0.095889002
0.622897029 0.360025287 0.104870290
0.669196725 0.361163914 0.113599017
0.715749502 0.361163914 0.115623280
0.758507252 0.366729915 0.116129264
0.807084084 0.364705652 0.126249030
0.846552849 0.365085214 0.138772562
0.883997560 0.367615223 0.150284320
0.924983799 0.365084916 0.163441122
0.960784137 0.365084916 0.172043279
0.987349629 0.367741734 0.190259427
1.000000000 0.373055100 0.211385459
0.999114394 0.377862275 0.227451235
0.998861372 0.386969924 0.242883921
0.004174968 0.392030090 0.095129997
0.000885613 0.395572484 0.085515618
0.003795000 0.398102313 0.082099974
0.005313001 0.401391208 0.081088036
0.000000000 0.404048055 0.075775035
0.000000000 0.404048055 0.075775035
0.000253032 0.404554069 0.085389033
0.006957671 0.407084078 0.087919004
0.043137342 0.410879046 0.084124096
0.152434945 0.404807061 0.087160476
0.212144420 0.409867048 0.090449162
0.266034245 0.410120308 0.096774250
0.318026245 0.407590449 0.101834357
0.372675121 0.404554069 0.099557064
0.409107864 0.413662434 0.099557064
0.459203154 0.415813059 0.106767796
0.507526994 0.417330861 0.112839863
0.552434683 0.419987112 0.115875572
0.604047954 0.419987112 0.118911974
0.654396117 0.425047100 0.129538044
0.701075494 0.425932854 0.141682431
0.743833244 0.423909098 0.150537997
0.786211431 0.423656076 0.150664508
0.834408820 0.423403025 0.162429050
0.871853352 0.423403025 0.175079033
0.905502617 0.424794406 0.185199052
0.938899159 0.427830100 0.193548158
0.972296298 0.427830100 0.211764917
0.992409945 0.430486947 0.229728028
1.000000000 0.436306268 0.251486391
0.999367416 0.445414424 0.273751020
0.996331036 0.454522073 0.291967034
0.007210577 0.437571228 0.107273981
0.001138578 0.446679622 0.092093602
0.000000000 0.445920438 0.082479224
0.001265006 0.447944224 0.084123909
0.000000000 0.452624798 0.090955406
0.000000000 0.452624798 0.090955406
0.002530322 0.457684785 0.096015409
0.001644708 0.457558513 0.098418705
0.022896977 0.457938135 0.096268088
0.106894612 0.459455788 0.099304475
0.195825219 0.459202766 0.105249986
0.262745172 0.460467786 0.106641397
0.318406045 0.460974008 0.109677345
0.366603136 0.462239206 0.111701056
0.421252608 0.459202766 0.117773816
0.464895606 0.463504195 0.124984011
0.509297729 0.465907604 0.131056175
0.553193688 0.468943357 0.134092227
0.610119998 0.471600205 0.137127951
0.647817731 0.471600205 0.140164346
0.696900785 0.474762946 0.150790408
0.744592130 0.475522190 0.161922708
0.789247096 0.475269169 0.168880492
0.828716338 0.469196379 0.171916887
0.867805541 0.468943357 0.188235402
0.903605342 0.470335037 0.203795061
0.938899159 0.473877221 0.218089879
0.972296298 0.479443192 0.239089280
0.992409945 0.482100040 0.254649192
1.000000000 0.483365208 0.275774747
1.000000000 0.487919152 0.297406554
0.999367416 0.497026801 0.313219398
0.005439809 0.492726386 0.119417988
0.006577996 0.499430954 0.111448400
0.000505996 0.502087533 0.111321785
0.002529999 0.500569344 0.104743585
0.004047996 0.505502939 0.107779987
0.000000000 0.515623152 0.103731990
0.000126518 0.508665383 0.103984997
0.001518196 0.509803653 0.116634987
0.000759112 0.509044766 0.118152790
0.038583644 0.513725102 0.116255470
0.164705813 0.511448383 0.122200981
0.250727206 0.511448383 0.122201242
0.312966496 0.511448383 0.124098793
0.360531062 0.512713552 0.127893567
0.415179998 0.509677172 0.127514020
0.465022564 0.516255379 0.138393790
0.509044766 0.516255379 0.145983592
0.551928699 0.517520189 0.151170209
0.606071949 0.520556569 0.157747835
0.653889716 0.518405795 0.163187951
0.694117427 0.518405795 0.170018852
0.741176426 0.520936072 0.180644915
0.785198987 0.522201240 0.189879775
0.826944947 0.518405795 0.199746877
0.864136755 0.516887605 0.209614545
0.901960790 0.516887605 0.224794582
0.938899159 0.518405795 0.239468783
0.972296298 0.520682752 0.258823425
0.992409945 0.526502430 0.281973600
1.000000000 0.529538333 0.295382738
1.000000000 0.533712745 0.319797367
1.000000000 0.544338584 0.344085783
0.002403808 0.547375202 0.133080184
0.003921616 0.551929355 0.131562367
0.003542000 0.553700328 0.126502186
0.000000000 0.556230307 0.132574186
0.004807003 0.557115912 0.127893642
0.001012001 0.567742288 0.122959994
0.000000000 0.565718055 0.121947989
0.000000000 0.561416805 0.122706987
0.001518008 0.560657561 0.138646081
0.005313357 0.566729546 0.136369199
0.109044783 0.562555254 0.144971177
0.223402798 0.561543345 0.146489248
0.301581085 0.563820302 0.143453643
0.352940947 0.564579368 0.148387179
0.407589972 0.562808156 0.149145961
0.461986184 0.561796188 0.156609774
0.512081206 0.567868590 0.165718168
0.553320348 0.565464795 0.171157598
0.600506008 0.567615569 0.178494230
0.650853932 0.568121195 0.187855899
0.695635676 0.565464795 0.194307625
0.738140464 0.564452648 0.204427376
0.780645192 0.566350400 0.214041680
0.823149979 0.564705670 0.224794388
0.861100376 0.562428355 0.236938551
0.897533119 0.561037064 0.247691646
0.935863078 0.560910583 0.261227220
0.969259918 0.560910583 0.280455381
0.989373922 0.564705610 0.299430817
1.000000000 0.569007158 0.321189344
1.000000000 0.572928369 0.335989982
1.000000000 0.583807349 0.366856396
0.000000002 0.599620283 0.150158137
0.000632576 0.600758910 0.152561963
0.000000000 0.602909684 0.149525777
0.000632576 0.604807079 0.146742538
0.000253028 0.609740674 0.151676089
0.000000000 0.612271070 0.148639768
0.001897566 0.610879362 0.148133710
0.000000000 0.610120118 0.148133710
0.000253020 0.611638129 0.151043206
0.006325061 0.617710054 0.160151616
0.073118128 0.612776697 0.167741582
0.180265367 0.610752702 0.174952134
0.278051883 0.611132085 0.172548637
0.344338655 0.616698086 0.170525029
0.399747044 0.616698086 0.176976547
0.456167221 0.613156080 0.186084762
0.510183573 0.611638308 0.193675116
0.559898555 0.613409519 0.197216988
0.596331418 0.613409519 0.200252622
0.646679521 0.614927351 0.211005703
0.691967309 0.614800870 0.219987556
0.734472096 0.611764967 0.228083551
0.776976824 0.608855128 0.240354046
0.819481611 0.608855128 0.250474453
0.856799603 0.606577814 0.261859536
0.891966760 0.604806781 0.273244619
0.927893639 0.601265132 0.282353044
0.961290002 0.601012111 0.303099394
0.983301640 0.602403283 0.318406224
0.995698988 0.605439305 0.337761134
0.999367416 0.608096123 0.357116014
0.999367416 0.614168108 0.378368437
0.000000010 0.654269993 0.174447015
0.003036386 0.648197174 0.174447015
0.001518193 0.651486635 0.176850274
0.001265160 0.655787826 0.180139050
0.003289417 0.658317566 0.185072601
0.000253033 0.655282021 0.182036996
0.007590314 0.655282080 0.181530997
0.006072258 0.656673312 0.181530997
0.000000013 0.660215020 0.184566990
0.000253066 0.666287005 0.196584493
0.023782821 0.663630903 0.188235149
0.131815284 0.662365973 0.197090313
0.251233280 0.661227345 0.201897383
0.335231066 0.659202993 0.194813132
0.395951778 0.659202993 0.203921497
0.451359600 0.659202993 0.215180039
0.503225446 0.660215199 0.224035442
0.550790191 0.661986411 0.227577850
0.593294978 0.658950031 0.221505105
0.643643141 0.656167388 0.230107412
0.687665701 0.655534983 0.239468813
0.728399277 0.654269874 0.249336034
0.770904005 0.651359975 0.261606514
0.813408852 0.651359975 0.276786923
0.849082887 0.649082720 0.289184034
0.881340861 0.648829639 0.301327974
0.912713230 0.649842024 0.312713116
0.946110368 0.643770039 0.321821481
0.974193811 0.640860140 0.334598035
0.991903961 0.641872168 0.354079485
0.999114394 0.644023001 0.374573022
0.996331036 0.644528985 0.387476116
0.008349362 0.728400111 0.243263766
0.000253033 0.730676651 0.246047109
0.001138643 0.724604487 0.248197347
0.000000000 0.725616813 0.249968112
0.001138643 0.727514148 0.252624661
0.000506064 0.731688678 0.254396081
0.000000000 0.726122797 0.256420434
0.003415639 0.720683098 0.256673485
0.002277106 0.721441984 0.255155295
0.008349418 0.731562436 0.255154759
0.095635489 0.728905678 0.255281240
0.166476995 0.721821487 0.260341614
0.273118287 0.719544411 0.270208836
0.353953421 0.718658805 0.268184513
0.414674163 0.721189082 0.267172873
0.465780973 0.721189082 0.269070446
0.521188915 0.718153059 0.278178275
0.571663260 0.716761708 0.285515398
0.612017334 0.715876102 0.288045168
0.654522121 0.715623081 0.295888484
0.700442493 0.714484751 0.301201880
0.740796685 0.714484751 0.307527125
0.781404197 0.713219523 0.316129088
0.821252167 0.710562706 0.328652680
0.856925666 0.706008673 0.341555774
0.887539327 0.701075077 0.350917101
0.916002214 0.699936807 0.360278457
0.944845319 0.700696111 0.371663511
0.972928822 0.697280288 0.394054025
0.991397977 0.694243908 0.410246521
1.000000000 0.696141601 0.430740088
0.998861372 0.699937105 0.446679115
0.006072264 0.768247962 0.280075729
0.002656613 0.773181379 0.283112109
0.001897740 0.773560762 0.291840702
0.000632579 0.771283925 0.294876307
0.000379548 0.772295892 0.296647251
0.001897740 0.776849747 0.302719653
0.000000000 0.772801757 0.294370562
0.001644708 0.773307741 0.307273924
0.001138658 0.766982615 0.305249870
0.005692809 0.773434699 0.295761734
0.107653335 0.772928596 0.303099215
0.203668237 0.767741919 0.303605258
0.287539542 0.762049198 0.312334090
0.361670077 0.762049198 0.315369725
0.420746535 0.763440847 0.315623164
0.473750591 0.765970707 0.318785697
0.519291401 0.764452875 0.321821690
0.572548985 0.759392858 0.329285055
0.614547789 0.758127689 0.334092200
0.658696771 0.760025442 0.342947096
0.701201439 0.754332721 0.348260462
0.741682231 0.754332721 0.352308720
0.780265749 0.754459262 0.358507216
0.819734216 0.754965305 0.368880481
0.856546283 0.751549423 0.382922232
