Assets/Shaders/EldamarStudio/100 Sci-Fi LUTs Pack/LUTs/cube/Dunwen LUT.cube
LUT_3D_SIZE 8
DOMAIN_MIN 0.000000 0.000000 0.000000
DOMAIN_MAX 0.903226 0.903226 0.903226
0.000000000 0.000000000 0.000000000
0.038709544 0.000000000 0.003542452
0.096268192 0.003922000 0.011764999
0.203035921 0.001138644 0.008981644
0.383554548 0.001518192 0.019608000
0.606577933 0.000000000 0.031245995
0.831878543 0.000000000 0.056166992
0.988487959 0.001265167 0.102213956
0.000000000 0.041113548 0.007843000
0.037571095 0.041113548 0.008222548
0.107653551 0.045034546 0.016824549
0.211637825 0.045414191 0.020240286
0.382922202 0.014927097 0.030866545
0.606704414 0.000000000 0.041872256
0.815559864 0.000000000 0.058570281
0.983048499 0.000000000 0.108664975
0.007842999 0.124351189 0.039974902
0.016065547 0.134218737 0.031245997
0.124478102 0.136116177 0.041492905
0.245667264 0.155724093 0.043390546
0.431246340 0.174573094 0.052498192
0.649841964 0.170651197 0.066160738
0.845793784 0.142441571 0.096141890
0.992409945 0.131435618 0.152055800
0.001138644 0.307526886 0.077419281
0.000000000 0.319291890 0.055028640
0.099810451 0.325616896 0.077546097
0.299050927 0.330423921 0.084123641
0.475268811 0.350031704 0.095003344
0.669196725 0.361163914 0.113599017
0.846552849 0.365085214 0.138772562
0.987349629 0.367741734 0.190259427
0.002403808 0.547375202 0.133080184
0.004807003 0.557115912 0.127893642
0.001518008 0.560657561 0.138646081
0.301581085 0.563820302 0.143453643
0.512081206 0.567868590 0.165718168
0.695635676 0.565464795 0.194307625
0.861100376 0.562428355 0.236938551
0.989373922 0.564705610 0.299430817
0.006072264 0.768247962 0.280075729
0.000379548 0.772295892 0.296647251
0.001138658 0.766982615 0.305249870
0.287539542 0.762049198 0.312334090
0.519291401 0.764452875 0.321821690
0.701201439 0.754332721 0.348260462
0.856546283 0.751549423 0.382922232
0.969133794 0.743579865 0.432384402
0.004933716 0.877672553 0.417836845
0.052119181 0.875901699 0.442251563
0.202276766 0.879317284 0.446046770
0.397216827 0.879822910 0.457052261
0.546489358 0.874636412 0.460341275
0.685515463 0.869196534 0.479063839
0.824415267 0.862998247 0.497912586
0.942947626 0.869070590 0.531435549
0.432258397 0.957115650 0.590006471
0.467172682 0.962302148 0.598228931
0.515622675 0.958506942 0.606830776
0.570398331 0.962428629 0.603794813
0.649209082 0.959519148 0.610372961
0.737634540 0.956989169 0.616824865
0.822517395 0.956736088 0.634535253
0.915369987 0.950537860 0.652624965
0.003542452 0.000000000 0.095888637
0.043390542 0.000000000 0.100190088
0.104870185 0.003922000 0.096268095
0.210878834 0.002783356 0.131436095
0.380898565 0.002403808 0.184945822
0.613915265 0.000000000 0.235547274
0.821885109 0.000000000 0.258823633
0.988614798 0.000000000 0.257684797
0.000000000 0.050094999 0.107653543
0.031752452 0.048197549 0.100569539
0.122201093 0.037571095 0.115876086
0.217457354 0.024414904 0.141682178
0.392030567 0.000000000 0.187476531
0.598861635 0.000000000 0.218596086
0.801011801 0.001644712 0.229474872
0.974952638 0.000000000 0.231246099
0.000759096 0.137761086 0.143706530
0.006325001 0.141302645 0.138520077
0.107147187 0.138520092 0.150284290
0.256293714 0.131815642 0.162808180
0.443390012 0.100949101 0.191397727
0.651106894 0.018975280 0.203162536
0.847438514 0.008349201 0.230233878
0.985451877 0.030360654 0.271853298
0.000759096 0.293358803 0.211385012
0.000379548 0.303352356 0.201644361
0.005439917 0.309930086 0.197723165
0.269196808 0.319797456 0.202024013
0.465654373 0.330423892 0.213788718
0.662112594 0.325363666 0.236179546
0.835800111 0.324098915 0.260341585
0.972295642 0.341935396 0.299177438
0.003415642 0.528526366 0.291334271
0.001138644 0.542694569 0.286527365
0.000759096 0.548134327 0.269575834
0.247817710 0.546109974 0.281847268
0.496900797 0.549652398 0.290322304
0.683871090 0.549019575 0.307906717
0.844276011 0.544718802 0.337001830
0.979633152 0.555597723 0.380771369
0.004427552 0.748133779 0.381530374
0.000379548 0.758507252 0.383933902
0.002656755 0.759266257 0.398102611
0.268690586 0.754079819 0.405692726
0.509677351 0.749399006 0.417457283
0.692599297 0.748640001 0.436559021
0.849082947 0.742567718 0.462998003
0.958000898 0.741935194 0.500442922
0.006831284 0.862998068 0.477166355
0.078178085 0.873245001 0.492852807
0.225679934 0.867552280 0.498798072
0.401644617 0.864895701 0.508412361
0.550664186 0.865401566 0.518026710
0.681467354 0.859835267 0.526754975
0.812144279 0.856166840 0.543833077
0.933206558 0.859456003 0.570904672
0.461479813 0.958886981 0.624035478
0.498797655 0.962302148 0.635546863
0.538519740 0.958001256 0.644908428
0.590511918 0.958633423 0.640354037
0.663124502 0.956989467 0.647311747
0.743453324 0.954079390 0.658570826
0.827198029 0.951802671 0.666287184
0.912713766 0.951549351 0.676154315
0.001517998 0.000000000 0.322454274
0.073498085 0.000000000 0.333459467
0.202024102 0.000000000 0.340544283
0.297785819 0.000000000 0.333459467
0.417077571 0.001517998 0.348260373
0.628336191 0.000000000 0.423782408
0.828715861 0.000000000 0.475521982
0.985072553 0.000000000 0.482226431
0.000379548 0.031372905 0.314231813
0.000379548 0.019607998 0.329158723
0.157621637 0.009867453 0.336115927
0.286780745 0.000759096 0.345224261
0.415559530 0.001138644 0.362808138
0.605186641 0.000379548 0.422138184
0.807084024 0.003542452 0.458317369
0.975331903 0.001897736 0.471094519
0.003162904 0.172169298 0.371916294
0.000379548 0.166350648 0.362681925
0.057179097 0.134598196 0.389120460
0.290828735 0.122453742 0.393421829
0.458697379 0.095509097 0.416571468
0.649209321 0.019734379 0.455787301
0.836432517 0.014548197 0.477925390
0.991144776 0.032637466 0.491334289
0.000000000 0.333459914 0.412270546
0.009108454 0.335104108 0.425679564
0.000000000 0.332827002 0.430233747
0.253636777 0.322201341 0.439848393
0.478051633 0.308791637 0.451106906
0.664642632 0.301328212 0.465401918
0.838077247 0.310056955 0.481720120
0.970904410 0.365464836 0.501834452
0.000759096 0.528526247 0.472738445
0.000379548 0.533586204 0.490575850
0.004680902 0.545098305 0.494876564
0.198355451 0.547501445 0.502593517
0.483871281 0.548260570 0.510816216
0.676786482 0.546616197 0.517267823
0.833017230 0.556103408 0.533586264
0.960151553 0.583428204 0.565970898
0.004807100 0.746742427 0.564705908
0.001138547 0.751549363 0.564832509
0.004933664 0.749019563 0.572295904
0.294750035 0.747121751 0.574193358
0.529917598 0.743326664 0.588361681
0.685388982 0.742441714 0.598861516
0.834155679 0.739531636 0.612270832
0.945350945 0.746489525 0.632131457
0.007084108 0.862871408 0.597090364
0.112460643 0.866793215 0.602403700
0.292979002 0.866919279 0.617583752
0.460721165 0.860847652 0.630360782
0.587855756 0.858191252 0.642378330
0.701454997 0.857937872 0.648071170
0.814041674 0.855914176 0.654143393
0.927513897 0.855028391 0.674003780
0.533586085 0.953067780 0.701328158
0.562049270 0.953699827 0.705882311
0.597216725 0.951296747 0.714104831
0.639721692 0.958760202 0.715243340
0.703857958 0.948513567 0.720683098
0.767362297 0.948893011 0.730423510
0.834155619 0.948134005 0.729917943
0.915369809 0.947374821 0.740038097
0.002783356 0.001138644 0.644655287
0.040860001 0.002277095 0.640733480
0.238836184 0.003162904 0.641998887
0.394054264 0.000000000 0.652498245
0.541935444 0.000000000 0.660847604
0.673371077 0.000000000 0.649842024
0.831372201 0.000000000 0.671979904
0.977229655 0.001138644 0.683365107
0.000000000 0.000000000 0.624667943
0.000000000 0.000379548 0.640860260
0.185578987 0.000379548 0.652245760
0.370525092 0.000000000 0.660088599
0.526122808 0.000000000 0.655028403
0.656546474 0.000000000 0.649968505
0.819101810 0.000000000 0.669196546
0.974067092 0.000759096 0.670208871
0.005566002 0.125996098 0.661986351
0.001897546 0.121315293 0.667931795
0.000759104 0.111574739 0.676660657
0.327387393 0.069829449 0.674256921
0.518279552 0.023656182 0.686021626
0.674256802 0.018975282 0.681087971
0.832258224 0.019355025 0.701075554
0.979506373 0.057178892 0.685894966
0.002276998 0.362175912 0.687286913
0.000000000 0.358127922 0.688171983
0.003162904 0.338519841 0.690575838
0.232510850 0.317520559 0.699557304
0.478684008 0.315876245 0.699683607
0.659835696 0.318912148 0.700821996
0.830739915 0.333333194 0.701201558
0.962555468 0.378368169 0.688298643
0.000379548 0.547374964 0.697785974
0.004807003 0.546489716 0.713978410
0.002783357 0.542567968 0.716382265
0.229095206 0.540037930 0.718785465
0.490069360 0.556230307 0.723339319
0.663630426 0.557748199 0.724351406
0.823023260 0.574193656 0.717393994
0.938772798 0.617710173 0.726375639
0.002024260 0.737887681 0.744085908
0.005060257 0.733839035 0.754712343
0.032637462 0.739785016 0.751802266
0.341935396 0.732953846 0.750537515
0.546742499 0.738140404 0.745603979
0.699304223 0.742441714 0.752055705
0.820240736 0.750664175 0.756483257
0.924857616 0.771410704 0.764579475
0.018722631 0.864136636 0.727893889
0.124731004 0.864009976 0.739025593
0.316888094 0.862492025 0.735357285
0.474130452 0.861859620 0.746362984
0.617330790 0.855534673 0.756862879
0.735736728 0.854016602 0.764958918
0.819987178 0.856799543 0.778368235
0.913472593 0.863377750 0.775584757
0.519417882 0.950916946 0.762934804
0.550031602 0.951928854 0.767741799
0.608601928 0.951549530 0.783427835
0.679190278 0.949399173 0.798861623
0.746742666 0.943327010 0.807716608
0.800505877 0.943326890 0.805818975
0.855787456 0.945224524 0.805313051
0.925616443 0.943959653 0.810752988
0.000000000 0.001518192 0.835673392
0.000000000 0.000379548 0.833775759
0.206198916 0.000000000 0.839595139
0.367109448 0.002783356 0.838709354
0.518912017 0.000000000 0.838709354
0.656673133 0.000000000 0.843010902
0.792536318 0.003922000 0.839468658
0.961290359 0.000000000 0.857052505
0.004807003 0.000000000 0.825933158
0.000379548 0.001138644 0.842757940
0.142694101 0.000000000 0.837191582
0.345730215 0.000000000 0.832763791
0.501201630 0.000000000 0.831625462
0.649462640 0.000000000 0.832005024
0.782415986 0.000379548 0.834155381
0.945604086 0.001138640 0.851233542
0.003035996 0.093738288 0.835420370
0.003162904 0.094876647 0.844275951
0.007969914 0.082606278 0.850601077
0.287159830 0.050348181 0.841113269
0.470841289 0.026565466 0.848956406
0.633902431 0.028463015 0.849588752
0.790765166 0.035673648 0.847312033
0.951423168 0.087919064 0.852625251
0.004680805 0.309930384 0.846553147
0.002403808 0.314105034 0.855281413
0.000000016 0.314358354 0.842251837
0.239595354 0.322960258 0.856419861
0.454395831 0.329917550 0.838962734
0.620366573 0.341302782 0.843137443
0.780265629 0.354838818 0.846426427
0.947121620 0.373434424 0.841366231
0.005439805 0.513219357 0.841999173
0.000379548 0.521441996 0.859329402
0.036432751 0.530423582 0.854649007
0.327387661 0.540544152 0.841492832
0.504870415 0.558507383 0.853763163
0.655281663 0.565970838 0.843516946
0.792283356 0.575711370 0.845035017
0.936875463 0.601138711 0.849209428
0.005060257 0.693738282 0.859329402
0.067552000 0.696267784 0.862618804
0.276154637 0.701707780 0.864010215
0.440227926 0.711575210 0.859329164
0.582415879 0.720809460 0.856926203
0.707906783 0.739026189 0.852624953
0.811005533 0.754712284 0.851739466
0.916887939 0.777735531 0.854522169
0.174066991 0.841872096 0.856167018
0.274889201 0.847438276 0.860594511
0.368500561 0.851107001 0.863250911
0.491587520 0.850348294 0.854016542
0.631246209 0.854395986 0.856799424
0.734598041 0.852371812 0.854269683
0.832258284 0.854902089 0.856167018
0.907653153 0.867678404 0.857684851
0.479949385 0.955850780 0.832511127
0.515243173 0.952055573 0.837824464
0.584566534 0.950537622 0.836938739
0.660088360 0.949525356 0.846552610
0.741049588 0.942314982 0.858823538
0.817583680 0.940670550 0.868311226
0.872738838 0.941429675 0.874889433
0.922960043 0.948134005 0.875522017
0.002024260 0.000000000 0.928905487
0.005566196 0.000000000 0.934977710
0.128905550 0.000000000 0.937634408
0.308032990 0.000000000 0.935736895
0.450727403 0.002024260 0.934472144
0.589879751 0.000000000 0.934724689
0.715749383 0.000000000 0.929031968
0.852625012 0.000759092 0.941682696
0.000000000 0.000379548 0.923592269
0.000000000 0.001518192 0.921948075
0.045920558 0.001138645 0.921948195
0.283997566 0.000000000 0.931309223
0.436559290 0.000759096 0.921441972
0.574193716 0.000000000 0.925489962
0.707020760 0.001897740 0.927387238
0.851865947 0.003415731 0.936369717
0.004933640 0.072359279 0.930423379
0.000379548 0.074889213 0.932447731
0.000000011 0.069323018 0.931182444
0.248323902 0.052625105 0.935357273
0.418722451 0.055534296 0.935990155
0.570524991 0.072738729 0.933080196
0.706388533 0.130803317 0.931435764
0.855534554 0.205819070 0.944085896
0.001138644 0.300442904 0.931688726
0.001518095 0.307527006 0.926881850
0.047185447 0.310183465 0.927387416
0.253763288 0.313598990 0.934092581
0.430740118 0.337634355 0.927007735
0.571536899 0.349272668 0.918026388
0.706641376 0.375332087 0.922959864
0.855281591 0.404554009 0.934092581
0.043010801 0.504111350 0.925869524
0.108412102 0.511068642 0.923845768
0.275015563 0.531435668 0.932321131
0.407842815 0.552434862 0.929411590
0.516761541 0.554711878 0.929917932
0.629221916 0.570018888 0.923212767
0.747501493 0.582669318 0.918911994
0.878051817 0.605439663 0.931941569
0.300315917 0.671979725 0.923339725
0.355218112 0.677292883 0.931815386
0.436559170 0.686653793 0.928652763
0.523592591 0.702340066 0.932954013
0.628083527 0.725996077 0.930297256
0.712713480 0.742441714 0.921315491
0.800000191 0.750284731 0.919291735
0.897785902 0.764199793 0.926375687
0.412017763 0.797090292 0.919797301
0.454395980 0.801644325 0.930929720
0.507400155 0.808222592 0.929538369
0.582036853 0.812523603 0.926502228
0.664136469 0.830107450 0.924477935
0.753447175 0.841619492 0.922833264
0.834788024 0.853510499 0.921188951
0.907400250 0.869196534 0.921948254
0.541809261 0.928905666 0.927767038
0.567236006 0.930803180 0.938646376
0.599493742 0.935610414 0.930170894
0.646046698 0.941302955 0.931435943
0.716888070 0.944971621 0.922327936
0.804427505 0.941429675 0.918279469
0.873750925 0.940290987 0.926375806
0.925995767 0.945351005 0.923592567
0.003922000 0.001644712 0.987855732
0.000000000 0.005186744 0.984060705
0.038330000 0.000000000 0.988867819
0.248829648 0.002277288 0.990132987
0.391271383 0.000000000 0.986337900
0.516635180 0.001644712 0.989247441
0.634914279 0.000000000 0.983934283
0.762681901 0.000000000 0.990765154
0.001897740 0.000379548 0.978367984
0.000000000 0.002277288 0.986590743
0.009614456 0.002024260 0.984440207
0.234408706 0.000000000 0.989120603
0.374825895 0.003289004 0.988741100
0.507526875 0.001644712 0.987223268
0.636812031 0.000000000 0.985578954
0.751549482 0.009361296 0.981024563
0.003162904 0.066034280 0.989753008
0.001518192 0.067931637 0.988994420
0.003795299 0.077545851 0.985705256
0.222391173 0.083744265 0.990385890
0.376850188 0.108032651 0.991903782
0.514105022 0.143579900 0.984313548
0.641872048 0.194813550 0.990132987
0.764705658 0.266540259 0.988614917
0.001644712 0.304111540 0.990132987
0.029980907 0.315117270 0.985452235
0.072359107 0.318785548 0.982416093
0.272865206 0.334345192 0.985072613
0.422770351 0.348639816 0.990259290
0.544718683 0.367109060 0.987856030
0.661480248 0.398861557 0.983934343
0.780139029 0.432384521 0.985705137
0.309424192 0.541808665 0.986211181
0.341682643 0.548513830 0.981150866
0.388994038 0.552814484 0.985705078
0.446932375 0.549778581 0.982416153
0.531688690 0.560025156 0.981657028
0.620366454 0.572549164 0.977103233
0.721694946 0.590512216 0.976344287
0.816065967 0.614800572 0.978241682
0.476280808 0.687539577 0.972042859
0.505629122 0.691840470 0.975458384
0.541682482 0.709550798 0.971410394
0.616571724 0.725237131 0.972042918
0.673750699 0.740796983 0.973055005
0.724983990 0.739152253 0.972169280
0.788741052 0.752561927 0.972296298
0.866919637 0.765464664 0.976091266
0.545224786 0.781277299 0.973814011
0.571537137 0.788867831 0.971157670
0.609234393 0.791397572 0.967615306
0.659835577 0.808095992 0.971537054
0.723086476 0.823782265 0.967741847
0.782163084 0.847185254 0.967868805
0.844655275 0.854142964 0.962049007
0.905502737 0.868311286 0.959772289
0.655787528 0.892472744 0.975458264
0.670588374 0.893105686 0.975964665
0.689943314 0.896268010 0.977735579
0.725743055 0.902972758 0.975585043
0.774699628 0.910816014 0.969765842
0.823782265 0.921062648 0.969259739
0.883617759 0.931309223 0.965464830
0.937254906 0.943959653 0.970524967
0.002656833 0.000000000 0.990765035
0.003542452 0.003542452 0.999620438
0.010879110 0.000759096 0.996837080
0.202656478 0.000000000 1.000000000
0.341809005 0.001518192 1.000000000
0.461353749 0.000759092 0.999240875
0.579380035 0.000000000 1.000000000
0.699683607 0.053130552 0.998734832
0.004553989 0.002277285 0.998355269
0.001265167 0.000379548 0.996078014
0.001518105 0.000000000 0.995698571
0.195825398 0.003162904 0.999240935
0.338266850 0.002276998 0.998481810
0.459455997 0.000759092 0.999240875
0.575711906 0.012903180 0.991271496
0.696015239 0.137128562 1.000000000
0.000000000 0.096900910 0.998734832
0.001897737 0.107906431 0.999240994
0.023023382 0.113472536 0.995445907
0.218469381 0.132194817 0.997975767
0.351296723 0.162681922 0.998734832
0.477419585 0.200253010 1.000000000
0.596710742 0.249588713 1.000000000
0.715369880 0.313472241 0.999240875
0.056925818 0.320303917 0.998734832
0.066792995 0.332574368 0.995319307
0.194560647 0.339405268 1.000000000
0.319671065 0.353573740 0.996964037
0.426059484 0.368880093 1.000000000
0.532827258 0.393548578 0.998861372
0.630740404 0.427071542 0.997469962
0.745730639 0.470335275 0.997216642
0.416951180 0.564326406 0.997469962
0.438077182 0.567615271 0.997216642
0.448576808 0.559645593 0.998481810
0.484882802 0.558127820 0.998734832
0.553447008 0.570145547 0.998481810
0.622390628 0.586970031 1.000000000
0.706135452 0.609614432 0.996204913
0.793295205 0.639468729 1.000000000
0.637065053 0.741808712 0.994307280
0.645540774 0.749525726 0.998481810
0.665148556 0.757748246 0.999240935
0.686780393 0.753700316 1.000000000
0.693611801 0.744338989 1.000000000
0.739025593 0.746615887 0.997469962
0.792283475 0.760404885 0.998102248
0.853383958 0.775964618 1.000000000
0.690828145 0.813788772 0.998734832
0.693864644 0.823276520 0.998102307
0.711195350 0.825933218 0.993927538
0.743326962 0.838582933 0.997596204
0.785325885 0.848450720 0.997216642
0.827577293 0.862871289 0.997596323
0.855787277 0.859076262 0.997469962
0.903478622 0.868311286 0.994813144
0.754711747 0.886400878 1.000000000
0.758886874 0.890955269 0.997469962
0.766223669 0.894749880 0.998734832
0.787349582 0.900948763 0.998734832
0.822896957 0.907653213 0.990765333
0.856166780 0.923718870 0.994813144
0.904111147 0.928399801 0.988488317
0.941429615 0.953193963 0.985452056
