Assets/Shaders/EldamarStudio/100 Sci-Fi LUTs Pack/LUTs/cube/Eden LUT.cube
LUT_3D_SIZE 8
DOMAIN_MIN 0.000000 0.000000 0.000000
DOMAIN_MAX 0.903226 0.903226 0.903226
0.003922000 0.000000000 0.000000000
0.065401547 0.008222548 0.008601999
0.162176102 0.003162904 0.025047192
0.294370264 0.000000000 0.041492999
0.494623572 0.003922000 0.082100183
0.753447175 0.000000000 0.132953987
0.980265558 0.000000000 0.186210990
1.000000000 0.000000000 0.251233637
0.007463549 0.090069994 0.045414094
0.050854094 0.093232095 0.025047097
0.152688086 0.126122996 0.019987451
0.302973092 0.130803183 0.042251904
0.517014682 0.089563906 0.090449348
0.774699330 0.000000000 0.135609999
0.984945834 0.000000000 0.191651180
0.998734832 0.002656833 0.251106828
0.003162905 0.230234176 0.145604089
0.066034548 0.219228193 0.157748550
0.159646183 0.224035278 0.095509090
0.297406465 0.237318188 0.057179000
0.484376758 0.275016099 0.068817191
0.752308547 0.253131181 0.118026368
0.973940372 0.200506285 0.180898085
0.998102248 0.175964609 0.240986630
0.125236914 0.407463282 0.263377994
0.218216375 0.402403742 0.288298190
0.305250198 0.401517838 0.288804531
0.403668642 0.382795632 0.177102998
0.558001041 0.354585618 0.108412638
0.753700197 0.418089747 0.101454645
0.963440955 0.429348558 0.156356648
0.998861372 0.419734448 0.238835961
0.466033727 0.620366752 0.428210348
0.519417882 0.612523377 0.447564930
0.630866647 0.603795350 0.496394366
0.655787647 0.607463717 0.409234554
0.730550349 0.552814364 0.269450188
0.834282279 0.482985437 0.171030730
0.973940551 0.540544093 0.180645287
0.998861372 0.594686985 0.206071988
0.737381220 0.767488956 0.604427159
0.755091548 0.765717745 0.608475208
0.819734156 0.761796176 0.651865780
0.859709203 0.765338421 0.667425811
0.887539566 0.765717745 0.571410596
0.942441761 0.712966442 0.414674461
0.995066285 0.612650454 0.267931730
1.000000000 0.654901922 0.290701896
0.903858006 0.894370258 0.786464274
0.892599344 0.897659719 0.780771554
0.918785334 0.892726004 0.810879290
0.951422930 0.895508945 0.842378259
0.952688158 0.890449047 0.801644325
0.970019221 0.889816523 0.734345376
0.992156982 0.851866245 0.604427576
0.994307458 0.743453264 0.420746565
0.943832815 0.955850780 0.876154661
0.943327010 0.953067780 0.870588541
0.947248578 0.956230283 0.881467819
0.971030772 0.957368970 0.902466595
0.975838065 0.954585612 0.907526612
0.983048856 0.956230283 0.875775039
1.000000000 0.960151851 0.822517455
0.994687021 0.933459878 0.732447624
0.000000000 0.078684546 0.136748537
0.061480545 0.003922000 0.137128085
0.162935004 0.016445097 0.131941631
0.292346627 0.058444452 0.186843649
0.504111469 0.066666372 0.260467827
0.775711179 0.000000000 0.297280341
0.984945834 0.000379548 0.333965808
1.000000000 0.001644716 0.365211785
0.000000000 0.159013093 0.146109641
0.003922000 0.121821545 0.143832549
0.152688190 0.129285082 0.153574005
0.303352624 0.147375092 0.203795090
0.539784908 0.097153649 0.223150074
0.807969928 0.003035997 0.255154818
0.991777301 0.000000000 0.286527544
0.995066464 0.001644716 0.319291532
0.000000001 0.252624750 0.182542995
0.000379551 0.246046990 0.174193650
0.138772845 0.238963097 0.164832547
0.293864727 0.258949697 0.160278454
0.516128898 0.261353552 0.183301985
0.773814023 0.224667639 0.216824979
0.983554542 0.170271844 0.267931819
0.999240994 0.168500647 0.322201103
0.001897547 0.421125829 0.271853179
0.166097730 0.419734538 0.299304068
0.330802917 0.416066080 0.336875290
0.411891341 0.389374018 0.238204002
0.560657501 0.375711620 0.194307089
0.762428880 0.423150003 0.197470099
0.967235863 0.415180206 0.242251813
0.999620438 0.410499483 0.300316453
0.406324834 0.630107760 0.425933152
0.480834842 0.628715992 0.440733463
0.622896612 0.616824985 0.504616976
0.672738969 0.616445422 0.476027489
0.749398828 0.560404778 0.324098587
0.846679449 0.498544902 0.236052722
0.972675562 0.552055776 0.251233429
1.000000000 0.593927860 0.285262436
0.719671130 0.778368235 0.602909148
0.744971395 0.777356148 0.619228423
0.814800560 0.776090920 0.658443868
0.869576037 0.772802114 0.704237580
0.886780679 0.768121123 0.613409221
0.940037906 0.720303893 0.457684934
0.995066285 0.622643769 0.319291532
0.997722805 0.672232509 0.350411117
0.883997560 0.902593255 0.788614988
0.902213693 0.900189579 0.785452306
0.920556545 0.897153497 0.820999682
0.945477545 0.902846277 0.848070920
0.958760083 0.899936974 0.830740213
0.973814189 0.898292243 0.760910392
0.996457577 0.853763521 0.627956867
0.999620438 0.743959665 0.446805745
0.944339097 0.960657477 0.876027822
0.943200231 0.958633542 0.875521839
0.952688217 0.958254039 0.889942884
0.964958727 0.956862748 0.907906234
0.975585222 0.957748353 0.910436511
0.980898201 0.960531235 0.886021614
0.997343361 0.957368731 0.840607047
0.997343183 0.934851110 0.742947638
0.000000000 0.209108189 0.299051195
0.000379548 0.121442005 0.293231845
0.153447092 0.000759096 0.273371190
0.296394646 0.002783356 0.284882754
0.482226551 0.000000000 0.303985089
0.742188454 0.002024260 0.385452181
0.974572778 0.000000000 0.471853465
1.000000000 0.202530190 0.543200791
0.000000000 0.297660112 0.313219368
0.000379548 0.225932732 0.311321735
0.123592287 0.106515095 0.297660083
0.312460393 0.096394993 0.287033647
0.508412123 0.090828463 0.317646831
0.776217401 0.057938069 0.401138365
0.984060705 0.110942706 0.480581820
0.998102248 0.245793685 0.548513472
0.000759096 0.335990071 0.309424281
0.006325001 0.331309199 0.306641638
0.000000009 0.265528172 0.294624090
0.299051255 0.235800192 0.289436847
0.521948397 0.261733294 0.350031376
0.793168902 0.266034335 0.419861197
0.988488257 0.236179650 0.451866090
0.999240935 0.263251364 0.486527175
0.002783356 0.410373449 0.367994726
0.000379548 0.407842815 0.368500978
0.143326923 0.405945301 0.338013828
0.361290008 0.382795751 0.329538524
0.533459902 0.400126636 0.310183376
0.786211610 0.395572335 0.352940947
0.984060645 0.393168986 0.395192832
0.998481870 0.413915157 0.441998810
0.057179026 0.620240450 0.450221390
0.206325248 0.611258805 0.440354019
0.476786822 0.611638367 0.478178471
0.678557873 0.607337058 0.555597723
0.710056782 0.556103349 0.406325281
0.828969002 0.517773569 0.347754359
0.965591252 0.569639385 0.371284097
0.996204853 0.590132952 0.422264278
0.621125519 0.782669425 0.603415489
0.666034043 0.783301950 0.615686297
0.766603470 0.772802114 0.646173239
0.867046058 0.779506683 0.724604547
0.882732630 0.777609229 0.674003839
0.919797778 0.725616872 0.531056166
0.991650641 0.643769562 0.417457223
1.000000000 0.692852795 0.448323935
0.866034448 0.902972758 0.772549272
0.881720304 0.907273948 0.791524291
0.906894386 0.902846277 0.816192329
0.934977770 0.909171462 0.847311974
0.962049186 0.902846277 0.855534434
0.970271945 0.897027016 0.796837389
0.999240935 0.857432008 0.682353079
0.999240935 0.759266078 0.527513921
0.936115980 0.964832127 0.886653781
0.943200529 0.963946521 0.877672493
0.949904919 0.960910797 0.891460896
0.962555647 0.967235684 0.914990246
0.973940253 0.962808073 0.928652763
0.982289732 0.964705586 0.906894326
0.997090399 0.960404873 0.863124847
0.997975767 0.938899338 0.777861893
0.002783356 0.352687895 0.524098277
0.000379548 0.297533184 0.508538902
0.000379549 0.070968084 0.483997375
0.309550911 0.002783356 0.440606922
0.490196347 0.003035997 0.435926735
0.700316072 0.000759096 0.444781750
0.939531922 0.001138644 0.496647567
0.998481810 0.003035990 0.564452827
0.000379548 0.429222196 0.538013458
0.000000000 0.376723409 0.520303905
0.005945550 0.198861271 0.511068761
0.311827928 0.070714906 0.456799358
0.511195481 0.000759096 0.440860450
0.722707450 0.001138644 0.451866060
0.955470860 0.001138644 0.514231622
0.999620438 0.076280378 0.585072637
0.002783356 0.563440800 0.544718802
0.000379548 0.513725460 0.531688452
0.000000000 0.386463940 0.506388605
0.269070268 0.217710286 0.466793358
0.518405974 0.186590999 0.450474381
0.729791224 0.142694280 0.458443940
0.965844452 0.184440181 0.542188287
0.999240935 0.343832880 0.614927351
0.001138644 0.573940635 0.524604619
0.000759096 0.569259822 0.524098277
0.003922000 0.553953290 0.513219357
0.224415272 0.418722630 0.484250277
0.542314947 0.352688074 0.447058827
0.782416463 0.381151021 0.511321664
0.968500853 0.459835619 0.594180882
0.998861372 0.532700717 0.659076631
0.000000000 0.561037123 0.545224369
0.000379548 0.549652278 0.530423880
0.006325006 0.547375381 0.523213267
0.380391926 0.560025394 0.515243471
0.621378601 0.527893603 0.498165458
0.791271269 0.545224428 0.493991017
0.965970933 0.570525050 0.548260450
1.000000000 0.605818927 0.603542149
0.159392655 0.769765735 0.632637680
0.320809573 0.764579296 0.619734347
0.547248542 0.759139597 0.633396566
0.743200183 0.759898484 0.658950150
0.886147916 0.770398378 0.750790775
0.899936855 0.716761470 0.611132085
0.978874087 0.673244894 0.542314887
0.999240875 0.725743175 0.572928488
0.798861563 0.900569022 0.772928953
0.828336477 0.898418665 0.780139506
0.853636980 0.897406340 0.798608184
0.910689592 0.906768024 0.831246316
0.957368970 0.911195636 0.877799094
0.967109740 0.904237509 0.842378199
0.998355269 0.861353576 0.744339347
0.998734832 0.791271269 0.622011185
0.920683026 0.973308027 0.875142515
0.930549920 0.966729879 0.888551414
0.931562006 0.972675800 0.895635605
0.966224015 0.967489004 0.917393982
0.977482796 0.970145822 0.928146720
0.984946072 0.964579463 0.939152300
0.993421853 0.965844274 0.894496977
0.998734832 0.947754443 0.824035406
0.002403808 0.498418987 0.729538143
0.002403808 0.464262843 0.715370357
0.005566099 0.335990071 0.713852167
0.003922000 0.071726546 0.679696739
0.530803502 0.002403808 0.617330313
0.735483468 0.001518192 0.613282859
0.925996304 0.004680709 0.622011304
0.997596204 0.002403808 0.621884644
0.002276998 0.560657740 0.743706346
0.001138644 0.517900109 0.732827365
0.000759096 0.410626084 0.723972321
0.002783356 0.160151735 0.695382714
0.546616197 0.000379548 0.633017421
0.745857000 0.000000000 0.624415278
0.929664850 0.002024260 0.628463387
0.996457815 0.001138644 0.620619774
0.000759096 0.662239194 0.731056392
0.004680806 0.617709994 0.728526473
0.000000001 0.529664457 0.724098325
0.001897643 0.316508383 0.693611681
0.519038320 0.164706007 0.641619205
0.748513520 0.048829816 0.622137964
0.936875522 0.002277300 0.623529494
0.996710896 0.014421346 0.637317896
0.002403808 0.811005831 0.740290701
0.000759096 0.795951903 0.746489584
0.000759000 0.716255367 0.725616455
0.000379548 0.558254004 0.708665550
0.492852896 0.357369065 0.658570707
0.767868340 0.295888662 0.625933290
0.944591939 0.272106469 0.622011364
1.000000000 0.385452479 0.669955790
0.001518192 0.780518532 0.743074179
0.002403808 0.771410763 0.726249158
0.000759096 0.766477048 0.719291389
0.133586287 0.740797043 0.701960504
0.534218907 0.592283189 0.666540325
0.790385485 0.489563555 0.628336370
0.960151672 0.549652457 0.665781438
1.000000000 0.665528119 0.758254170
0.003035997 0.722201347 0.701960683
0.000379548 0.719924331 0.697153568
0.021631930 0.712840080 0.697786272
0.339026004 0.694623590 0.681720078
0.659708977 0.708032787 0.691587627
0.837697804 0.681340814 0.659582436
0.944971502 0.707020819 0.666160822
0.998355269 0.744971216 0.718406081
0.487666309 0.899051189 0.801771224
0.545730352 0.893358529 0.800379694
0.672865212 0.892473161 0.797722995
0.805059791 0.891081572 0.801391363
0.909171283 0.898924649 0.840101063
0.966476619 0.908539057 0.884503782
0.980012536 0.865022361 0.794307292
0.997216642 0.820493281 0.724351883
0.863630414 0.974066794 0.884629965
0.876027822 0.973940611 0.877166331
0.907020867 0.968121588 0.894749880
0.938013613 0.971663713 0.914358079
0.970145822 0.971663594 0.932953954
0.983174980 0.976597130 0.959266245
0.995825231 0.971030831 0.933712840
0.997216642 0.954838693 0.861986101
0.000000000 0.601517737 0.868311286
0.008602193 0.576850176 0.867805183
0.000000001 0.504237592 0.863883376
0.000000000 0.323592246 0.857178867
0.162935197 0.049588710 0.832004786
0.749905169 0.004048004 0.777735770
0.924351871 0.003794996 0.779000461
1.000000000 0.000000000 0.777609229
0.001897740 0.644655526 0.869323313
0.003542452 0.617710292 0.868817210
0.002276998 0.544718385 0.867299080
0.000379548 0.380391836 0.862745345
0.096900471 0.142820731 0.830992877
0.741808593 0.002403808 0.779000461
0.921189368 0.000379548 0.773813725
0.996963978 0.000000000 0.771537066
0.005819255 0.720809817 0.871600091
0.003922001 0.695509017 0.871347547
0.000000000 0.632510960 0.863124847
0.002783357 0.502340257 0.859455884
0.037191633 0.276534110 0.843769848
0.733839333 0.042125300 0.785705209
0.929032147 0.002783364 0.782795548
0.996204972 0.001265167 0.776597321
0.006072264 0.838962615 0.882352829
0.000759096 0.823023379 0.872486055
0.005060257 0.764200032 0.866919577
0.001517999 0.665781140 0.863251090
0.047058731 0.459835470 0.840101361
0.718532741 0.310310185 0.793548763
0.934345126 0.224161640 0.777103424
0.998481810 0.209487662 0.773813963
0.007084001 0.934724748 0.870714545
0.000379548 0.932574570 0.867046177
0.031878561 0.919291437 0.862239003
0.350158304 0.849715292 0.867172897
0.518153131 0.711195409 0.843896270
0.725110650 0.512334108 0.807337165
0.948260486 0.446805835 0.783048570
0.998861372 0.456546456 0.759519279
0.000000000 0.903352678 0.858317435
0.017836919 0.896647453 0.855407715
0.171916306 0.898039222 0.855661154
0.490828365 0.881340683 0.855407834
0.677545846 0.864895701 0.830613315
0.793295205 0.744212508 0.811258495
0.941556275 0.654142976 0.767235875
0.998102248 0.742694497 0.816318512
0.186211199 0.869702697 0.847691298
0.291334391 0.865654707 0.852498353
0.415686190 0.859329700 0.851739407
0.559013128 0.850347996 0.853890002
0.689436793 0.837950587 0.841999054
0.868311107 0.857305348 0.835041463
0.954332829 0.835041285 0.821505308
0.998734832 0.852118790 0.818216264
0.639341950 0.979379952 0.911827922
0.661732912 0.975205481 0.909424424
0.736369193 0.976343811 0.906514883
0.832131505 0.969259977 0.906388342
0.919544399 0.973687589 0.922074556
0.970778108 0.975964606 0.951802671
0.991271257 0.978494644 0.972295761
0.999240935 0.960278034 0.913092852
0.002277288 0.678052306 0.962682009
0.000000000 0.657305717 0.960278273
0.002403808 0.604427457 0.959013224
0.000000000 0.499303967 0.959771991
0.004680709 0.254016191 0.952941120
0.451865673 0.013029899 0.934092283
0.888425291 0.000000000 0.900822282
0.997722745 0.002277288 0.899177909
0.001897740 0.696774006 0.954711974
0.001897740 0.683364987 0.960278273
0.000379548 0.629854798 0.962682009
0.001138644 0.530170858 0.958253920
0.000000000 0.317899644 0.947754443
0.442124963 0.112586737 0.934092343
0.883744717 0.002277288 0.902087331
0.998102307 0.001897740 0.889816403
0.001644712 0.762681961 0.951170027
0.000379548 0.742061675 0.969133437
0.001518192 0.705629230 0.953953028
0.000379548 0.615433395 0.956609905
0.001517999 0.442758054 0.953067541
0.416824877 0.258949935 0.937254667
0.885009408 0.000759108 0.910689473
1.000000000 0.000000000 0.900442600
0.002783356 0.855660915 0.958760262
0.002783356 0.839721978 0.959266305
0.002783357 0.803415358 0.948766589
0.002276998 0.735736907 0.955344617
0.000000000 0.604174376 0.950284779
0.411511511 0.413535386 0.943959713
0.879949570 0.250600994 0.905629337
0.997722983 0.183175325 0.903099060
0.000000000 0.963694096 0.949398994
0.046299826 0.956862628 0.945983648
0.231498748 0.921821535 0.950158119
0.435167462 0.877166450 0.951422930
0.493991017 0.777482390 0.945351243
0.557115674 0.609487653 0.938393295
0.884503245 0.467552274 0.905882478
0.998481989 0.421884924 0.894750118
0.344212562 0.989499986 0.949905038
0.413156033 0.989120543 0.952181995
0.519418359 0.988994300 0.949019670
0.641239524 0.980139196 0.944338918
0.739026010 0.940797210 0.948892832
0.782289743 0.830740333 0.933965802
0.893105447 0.673877180 0.907653570
0.998734832 0.632384717 0.896647573
0.521948099 0.974446535 0.938140273
0.539531827 0.968248248 0.949651837
0.608095884 0.972169220 0.939279079
0.688425243 0.969892561 0.938519955
0.778874457 0.959519088 0.954205990
0.856673241 0.951296508 0.938393533
0.919544578 0.873750567 0.915623009
0.998734832 0.806198239 0.885515571
0.591650605 0.962555289 0.955091834
0.610500038 0.958507299 0.949019849
0.642757773 0.953320384 0.945350945
0.702719867 0.950284600 0.945603788
0.776091099 0.948007762 0.953700125
0.843769550 0.945351005 0.939531684
0.958507240 0.969006777 0.948387265
0.995192707 0.959771812 0.935863256
0.002656833 0.716508687 0.997343183
0.000000000 0.703605413 0.996963739
0.002656832 0.669829249 1.000000000
0.006704646 0.593928039 1.000000000
0.002783360 0.466793418 1.000000000
0.000000000 0.235293895 0.996204972
0.640227914 0.011385385 0.996963799
0.991144836 0.002656833 0.988614798
0.005819156 0.737254560 1.000000000
0.003922000 0.722074330 0.999240994
0.001265167 0.689057291 0.999240935
0.000000000 0.622643888 1.000000000
0.000000000 0.498545140 0.996457875
0.004807003 0.274636239 0.994939804
0.636938810 0.046679437 0.991777241
0.992030382 0.000000000 0.990638554
0.003289108 0.782795668 0.992789328
0.002277284 0.774446368 0.996457577
0.006452012 0.736242950 0.999240935
0.001518189 0.685262561 0.994939864
0.001265167 0.569512904 0.996205032
0.001897736 0.369386405 0.999240935
0.636559069 0.235294148 1.000000000
0.987981915 0.001265168 0.994307041
0.003795180 0.857431829 0.996331334
0.001265167 0.845034957 1.000000000
0.003542452 0.821884990 0.998102486
0.002783356 0.777229786 0.996964037
0.002403808 0.683491349 0.995066464
0.019354917 0.528399706 0.997722983
0.649335802 0.389626801 0.996331334
0.988614798 0.203541905 0.990259171
0.259835541 0.942820787 0.993168771
0.325237453 0.941935420 0.994939983
0.353320479 0.923592329 0.997469962
0.382163525 0.880581915 0.996204793
0.447944254 0.815306962 0.997216642
0.506261826 0.704237938 0.993801355
0.704870462 0.558253884 0.998734832
0.983933926 0.438709617 0.992536187
0.532194674 0.997975767 0.994307041
0.550284564 1.000000000 0.992536306
0.613915324 0.997722924 0.992030203
0.685642183 0.975964785 0.994686782
0.755218387 0.943327248 0.995192766
0.770651519 0.872991800 0.996204793
0.796837449 0.743200600 0.997090399
0.986084521 0.641239762 0.993674815
0.644149482 0.997722745 0.990765154
0.660720885 0.996837139 0.991777241
0.698165834 0.999240935 0.984566689
0.757495403 0.998861372 0.991650641
0.823276401 0.998355269 0.986970186
0.875901222 0.989373744 0.992156744
0.899177909 0.925996006 0.986084342
0.978747785 0.816445291 0.988108695
0.712839901 1.000000000 0.990891814
0.730549812 0.998734891 0.995192707
0.753573656 1.000000000 0.990385711
0.792915404 0.998861372 0.988488376
0.848197162 0.998481870 0.993295312
0.901707768 0.997975767 0.992409766
0.946489692 0.995825231 0.982922435
0.976596832 0.962428629 0.985831797
