Assets/Shaders/EldamarStudio/100 Sci-Fi LUTs Pack/LUTs/cube/Eden LUT.cube
DOMAIN_MIN 0 0 0
DOMAIN_MAX 1 1 1
LUT_3D_SIZE 32
0.003922000 0.000000000 0.000000000
0.016066000 0.000000000 0.003036387
0.030360773 0.000000000 0.003922000
0.046805996 0.002529999 0.005186839
0.065401547 0.008222548 0.008601999
0.086653933 0.011258936 0.014673999
0.112966314 0.011765000 0.023276320
0.138646409 0.008476003 0.025806291
0.162176102 0.003162904 0.025047192
0.183428511 0.000126516 0.031119969
0.222137868 0.000000000 0.031373002
0.257558227 0.000000000 0.035420999
0.294370264 0.000000000 0.041492999
0.337381035 0.000000000 0.048070997
0.385957778 0.000000000 0.060214985
0.436938375 0.002403804 0.069955796
0.494623572 0.003922000 0.082100183
0.559645653 0.003289424 0.096647985
0.629474998 0.000253032 0.108792014
0.688172102 0.000000000 0.118153363
0.753447175 0.000000000 0.132953987
0.820240259 0.000000000 0.147121996
0.880834520 0.000000000 0.153573498
0.938519716 0.000000000 0.168753907
0.980265558 0.000000000 0.186210990
0.998608351 0.000000000 0.201644331
0.996584058 0.000000000 0.214800999
0.999620438 0.000000000 0.233016983
1.000000000 0.000000000 0.251233637
1.000000000 0.000000000 0.265907943
1.000000000 0.000000000 0.277166605
1.000000000 0.000000000 0.286274999
0.006957613 0.012143999 0.009108387
0.003922001 0.018215999 0.000000000
0.026818775 0.020366773 0.005186612
0.046805996 0.023782386 0.008222774
0.064642541 0.029474936 0.011258839
0.080581933 0.032511324 0.014673999
0.106894314 0.035547063 0.015686000
0.135863408 0.036052998 0.019987322
0.162935004 0.033523098 0.022011388
0.186464116 0.030487293 0.028083583
0.219355226 0.033269901 0.034155611
0.258570641 0.025300395 0.038456611
0.296268016 0.015559747 0.043390255
0.337887108 0.005566000 0.048324030
0.392030567 0.000000000 0.063251376
0.445414364 0.000000000 0.070588380
0.503731966 0.000885613 0.082100183
0.565591455 0.002150604 0.096015409
0.623403013 0.006325029 0.105755627
0.696015477 0.003289353 0.117900334
0.758760571 0.001138647 0.129158989
0.823276639 0.001012128 0.142062128
0.883744359 0.003036387 0.150537848
0.938519716 0.003036387 0.165717512
0.977988303 0.003036387 0.180897877
0.998355269 0.003036387 0.199746639
0.999114394 0.002530323 0.217330679
0.999620438 0.000000000 0.233016983
0.997343183 0.000000000 0.245919973
0.998734832 0.000000000 0.263377607
1.000000000 0.000000000 0.279822975
1.000000000 0.000000000 0.295382619
0.007843000 0.035040773 0.024668001
0.011258612 0.032510772 0.011258612
0.016824998 0.042884320 0.008601999
0.044149384 0.043390386 0.008349162
0.064262994 0.047564771 0.008222999
0.077672161 0.055913933 0.013029839
0.102972545 0.061100453 0.013535774
0.130297348 0.064136483 0.013535774
0.159393102 0.064642549 0.017583903
0.185072795 0.062998265 0.025047231
0.222390831 0.065781444 0.033269998
0.255787462 0.064769067 0.037318256
0.298418522 0.054142904 0.042125124
0.342188120 0.040986512 0.046173256
0.396837622 0.029221779 0.061353624
0.453637332 0.006451774 0.069323219
0.509803951 0.001897585 0.081467606
0.572295904 0.000000000 0.094750419
0.631498992 0.003035999 0.100822046
0.700695753 0.002909578 0.117014721
0.767868459 0.001771226 0.131056249
0.828589737 0.000000000 0.143453479
0.887033761 0.001771226 0.153826982
0.945730627 0.001771226 0.166982874
0.980139077 0.001771226 0.180012271
0.996837139 0.001771226 0.196584329
0.997849226 0.001771226 0.216571763
0.997849226 0.000379552 0.233396441
0.999493957 0.000000000 0.250221521
0.996457577 0.000000000 0.265907496
0.996963859 0.000885608 0.280582011
0.995698988 0.002150774 0.293738008
0.007843000 0.062365480 0.037823997
0.012650161 0.056293160 0.030233935
0.023402935 0.060594708 0.022011161
0.033776160 0.068944000 0.018215999
0.061100546 0.066287160 0.008728839
0.077672161 0.074889153 0.009487839
0.098671317 0.088298321 0.011765000
0.127260953 0.092726029 0.014295000
0.156103924 0.095762223 0.015053903
0.184440345 0.096268162 0.023149522
0.220873028 0.099178024 0.030993031
0.260088563 0.098165900 0.037318256
0.298038960 0.097406805 0.042631354
0.346742272 0.088551417 0.046426032
0.400379628 0.074382916 0.059582401
0.457432359 0.053510502 0.072612315
0.517647147 0.026186291 0.080961220
0.575331628 0.009487803 0.095382847
0.637823939 0.000000000 0.097786061
0.707147121 0.000000000 0.118532553
0.774446368 0.000000000 0.131056249
0.836179554 0.000000000 0.143200263
0.891208410 0.000000000 0.155218497
0.950790644 0.000000000 0.170778170
0.983934104 0.000000000 0.186717302
0.999873519 0.001265161 0.197849169
0.996837139 0.000759097 0.216571912
0.996078014 0.000000000 0.235546976
0.998734832 0.001265161 0.249968484
0.999493957 0.000000000 0.269449949
0.997343183 0.000000000 0.285894990
0.994686961 0.002656839 0.292726010
0.007463549 0.090069994 0.045414094
0.010499839 0.084756322 0.049209382
0.022138227 0.086148098 0.044022769
0.037191998 0.090955384 0.035293929
0.050854094 0.093232095 0.025047097
0.078178480 0.093232095 0.012903095
0.098671541 0.108665317 0.012270869
0.122327402 0.121189155 0.015433448
0.152688086 0.126122996 0.019987451
0.186084494 0.129158601 0.023023067
0.219481513 0.132953957 0.028210195
0.258191377 0.132321373 0.034282453
0.302973092 0.130803183 0.042251904
0.348766595 0.133586541 0.051106550
0.400253206 0.121947810 0.060088411
0.457052827 0.108918354 0.076407500
0.517014682 0.089563906 0.090449348
0.581024230 0.060721502 0.098418556
0.638709486 0.015180273 0.098418586
0.708665192 0.007210638 0.122706927
0.774699330 0.000000000 0.135609999
0.839595377 0.000000000 0.144338712
0.897027493 0.000000000 0.150664464
0.954205871 0.000000000 0.171157897
0.984945834 0.000000000 0.191651180
0.997469664 0.001391672 0.207337320
0.999873519 0.004174936 0.217330515
0.996837139 0.001138551 0.238582879
0.998734832 0.002656833 0.251106828
1.000000000 0.002150783 0.267678708
1.000000000 0.000000000 0.286653996
1.000000000 0.000000000 0.298797995
0.004427936 0.120429993 0.063630864
0.007463548 0.120429993 0.072738484
0.019101838 0.117267638 0.070081994
0.036812223 0.118279770 0.063503928
0.056926090 0.120556474 0.055407867
0.081214860 0.117520869 0.037191868
0.106008932 0.120050542 0.030107871
0.127640635 0.131055996 0.025553521
0.151929095 0.143200248 0.022264162
0.180012494 0.159519389 0.019987453
0.213408858 0.168374732 0.020113938
0.248829618 0.170398861 0.025174063
0.293105423 0.168754160 0.034661703
0.345730215 0.166982919 0.048070934
0.394307703 0.166982919 0.054142926
0.453004569 0.162554994 0.070334986
0.511701584 0.152940929 0.085515514
0.572928607 0.135104313 0.095888935
0.641745925 0.106261782 0.101454966
0.718912363 0.071853355 0.120936304
0.779253602 0.028842609 0.128020197
0.838456511 0.000000000 0.136622131
0.903099477 0.000000000 0.159772083
0.954711854 0.000000000 0.171916872
0.986843526 0.000000000 0.187855691
0.999493957 0.001391672 0.201264799
1.000000000 0.004427935 0.210878998
0.999873519 0.007210551 0.223402485
0.999493957 0.004174844 0.247311696
1.000000000 0.002150783 0.269070387
1.000000000 0.000000000 0.290196300
1.000000000 0.000000000 0.304870009
0.001391678 0.145730644 0.084377319
0.001897614 0.145730644 0.090955257
0.017836774 0.145730644 0.100062869
0.035040997 0.145604163 0.095888317
0.053889774 0.148639873 0.088298313
0.069576547 0.149905249 0.070082322
0.098924667 0.146869004 0.054395996
0.124857366 0.144971326 0.038457006
0.150157869 0.151802316 0.028589645
0.179253489 0.166476652 0.027324805
0.199747190 0.183554873 0.027198322
0.239215806 0.194686994 0.029222062
0.281214595 0.198987991 0.033649642
0.332574368 0.200126350 0.043264031
0.381151319 0.197849646 0.056167312
0.436939061 0.200252831 0.064642511
0.496015191 0.195951641 0.077925190
0.556862593 0.185199082 0.089690246
0.628589690 0.165464640 0.101455018
0.696647525 0.152814895 0.106261730
0.762302220 0.127008542 0.125616819
0.820240140 0.087033533 0.133080438
0.886654198 0.071346976 0.153700307
0.943074226 0.032890316 0.165844500
0.983301282 0.005566342 0.180265963
0.998861313 0.001138650 0.196837291
1.000000000 0.001391678 0.210373074
1.000000000 0.002403546 0.224541306
0.997469664 0.002656523 0.242251292
0.999240875 0.001391678 0.261226863
1.000000000 0.004427590 0.282352954
1.000000000 0.012650320 0.300821990
0.001644708 0.183175400 0.112207688
0.003288997 0.181530684 0.114990696
0.013409065 0.178241700 0.118279636
0.037191771 0.178241700 0.127387568
0.055407867 0.182415947 0.122454017
0.066287160 0.190512344 0.106767692
0.095255993 0.185199082 0.089437082
0.123972110 0.183807403 0.074256696
0.152814507 0.174699411 0.046932504
0.184060693 0.177988425 0.036306292
0.212650448 0.192662746 0.044528987
0.240480766 0.208475694 0.041619442
0.278431565 0.222896695 0.041239701
0.323972344 0.231498763 0.042504996
0.372549087 0.235420823 0.050727699
0.426691949 0.235547304 0.062745184
0.491967320 0.234029099 0.074889190
0.552181959 0.228589535 0.084882990
0.623023689 0.217457131 0.099051267
0.687033474 0.209487736 0.104743645
0.753067136 0.197723359 0.117267467
0.810752332 0.179506838 0.135483995
0.875268757 0.155723810 0.151296780
0.932954013 0.122327380 0.164959013
0.976343989 0.096015215 0.177735567
0.997469664 0.069323540 0.190132946
1.000000000 0.064769201 0.207589999
1.000000000 0.062492199 0.223908722
0.997343183 0.067425489 0.241745666
0.994560242 0.070714481 0.258190900
0.998481989 0.073371083 0.275142312
1.000000000 0.087033480 0.296394706
0.003162905 0.230234176 0.145604089
0.007716713 0.226438895 0.144086093
0.021758096 0.222770289 0.146363184
0.040986482 0.218469188 0.150158152
0.066034548 0.219228193 0.157748550
0.075142257 0.233270019 0.146742418
0.100695416 0.228968859 0.129538089
0.133080125 0.226312190 0.112207487
0.159646183 0.224035278 0.095509090
0.193042606 0.205819279 0.059076317
0.230107740 0.211385190 0.062239062
0.264010161 0.221758351 0.061733000
0.297406465 0.237318188 0.057179000
0.328526229 0.255281210 0.051866032
0.375584871 0.267931908 0.052372094
0.427450657 0.274257004 0.058190990
0.484376758 0.275016099 0.068817191
0.558507204 0.268311501 0.083997563
0.625806928 0.265022129 0.096268110
0.688551784 0.260721087 0.105882093
0.752308547 0.253131181 0.118026368
0.814547479 0.242505118 0.133206904
0.872106075 0.230486870 0.151169926
0.929158688 0.214168265 0.165717915
0.973940372 0.200506285 0.180898085
0.997469664 0.190006614 0.193927661
1.000000000 0.177356273 0.204048067
1.000000000 0.171790272 0.222011074
0.998102248 0.175964609 0.240986630
0.995066106 0.183301449 0.256673098
0.993927956 0.189499959 0.273624510
1.000000000 0.198608369 0.294876903
0.000126520 0.272738993 0.179000497
0.009234920 0.266667008 0.172928512
0.033143505 0.265022486 0.177862287
0.062744826 0.263504326 0.186590821
0.090322569 0.261732996 0.194180578
0.099430971 0.267805010 0.191144973
0.116128989 0.264136493 0.175078839
0.144844905 0.264515996 0.156862527
0.177862197 0.266540110 0.138013899
0.202151015 0.257432461 0.116761491
0.241366386 0.247944623 0.091967478
0.278684497 0.245793983 0.077419475
0.317141235 0.252119124 0.070082016
0.358887017 0.267425984 0.070082046
0.398355365 0.282606363 0.073118426
0.445414066 0.297659665 0.071220689
0.492726028 0.309171200 0.071853198
0.546363175 0.313851923 0.077925563
0.625300884 0.304743558 0.093105972
0.692599773 0.304237515 0.110942483
0.757242203 0.302087247 0.124857455
0.817077816 0.297659993 0.135230511
0.869070411 0.291208446 0.142061532
0.923719287 0.282100081 0.154206336
0.969386578 0.270335495 0.173308268
0.995066464 0.262365818 0.192789450
1.000000000 0.259329468 0.210120067
1.000000000 0.259329468 0.225300431
1.000000000 0.256420314 0.245920286
0.998102248 0.259203434 0.261732966
0.996837139 0.265275449 0.276660115
1.000000000 0.271473974 0.297912508
0.005818999 0.321062744 0.197849751
0.041113250 0.314990759 0.209234744
0.069576412 0.306767970 0.211764723
0.100189768 0.307020873 0.220114022
0.128526285 0.308918297 0.230360612
0.152814656 0.307400614 0.245034665
0.161923051 0.308412611 0.221758410
0.182289585 0.309677601 0.205692619
0.211384952 0.314990520 0.188488424
0.237823993 0.314484328 0.165085226
0.265022606 0.302466869 0.129284993
0.296395004 0.285262495 0.107020743
0.331309497 0.277925491 0.093358509
0.372043073 0.282479823 0.087792709
0.414168268 0.297659546 0.085515410
0.458444238 0.315243751 0.086147994
0.511068881 0.329411745 0.085135870
0.562808037 0.340543836 0.084883004
0.618975163 0.347374767 0.084124118
0.678431332 0.352181733 0.088172480
0.746742308 0.350537509 0.107653245
0.814547539 0.346489757 0.124857381
0.877166092 0.340291232 0.138519868
0.920682907 0.331182808 0.145097941
0.968500972 0.326628447 0.166350693
0.994939983 0.320556551 0.189626962
1.000000000 0.318026602 0.211385071
1.000000000 0.318026602 0.231372446
1.000000000 0.318026602 0.246552795
1.000000000 0.320556700 0.267299175
0.998987854 0.324857712 0.281973451
1.000000000 0.326881737 0.295129865
0.058443721 0.367615223 0.232258484
0.086780503 0.365591228 0.234282255
0.119165286 0.361416966 0.244149491
0.148007736 0.356103748 0.251486331
0.173055023 0.359139740 0.260215074
0.200379416 0.354459405 0.271853507
0.220619798 0.355977237 0.274383426
0.234661892 0.355977237 0.256926030
0.255913913 0.360531330 0.240607306
0.278178006 0.363567263 0.213788494
0.313599080 0.360151738 0.183934003
0.336875737 0.345983475 0.153573483
0.361923128 0.321315438 0.128905460
0.396331578 0.310310006 0.112839982
0.438836277 0.314864069 0.100948833
0.487792373 0.328399599 0.096268252
0.531815350 0.343579978 0.099304244
0.586337507 0.356989145 0.100316249
0.637697816 0.371916533 0.097027242
0.686527371 0.386590481 0.091208093
0.744212449 0.394560248 0.092346735
0.810499489 0.392030388 0.111701265
0.876533508 0.387223244 0.130170971
0.924731076 0.383807600 0.147628009
0.967488825 0.379253715 0.159266055
0.994939983 0.373434365 0.184946477
1.000000000 0.369639486 0.208855256
1.000000000 0.369639486 0.228589445
1.000000000 0.371663749 0.246552542
0.998228788 0.373434514 0.265274912
0.998861372 0.378368080 0.284756333
1.000000000 0.379506737 0.296141714
0.125236914 0.407463282 0.263377994
0.146110058 0.405186266 0.262618601
0.170145541 0.406451404 0.268184781
0.197723269 0.403542280 0.278431505
0.218216375 0.402403742 0.288298190
0.247817844 0.395572633 0.296647877
0.273497581 0.399367601 0.306135625
0.288551390 0.400758922 0.299430937
0.305250198 0.401517838 0.288804531
0.320050448 0.404554129 0.260341287
0.356230259 0.404680640 0.234029055
0.384693533 0.399114668 0.205566034
0.403668642 0.382795632 0.177102998
0.424415022 0.352687895 0.147501245
0.458950162 0.342568040 0.128399655
0.506388366 0.344718635 0.115243636
0.558001041 0.354585618 0.108412638
0.603035748 0.367994606 0.111954488
0.657685280 0.386211306 0.110942341
0.701708019 0.403289020 0.108285919
0.753700197 0.418089747 0.101454645
0.806325257 0.429222137 0.103478640
0.865654469 0.427450776 0.120809861
0.915243447 0.430486917 0.140038013
0.963440955 0.429348558 0.156356648
0.991524339 0.425806642 0.173181355
0.998102367 0.417710364 0.199494421
1.000000000 0.417077929 0.218342990
0.998861372 0.419734448 0.238835961
0.999367416 0.421632051 0.255407512
0.996331036 0.424667895 0.277545542
0.998861372 0.427704275 0.293484986
0.180898145 0.440860122 0.278558046
0.195572481 0.435294151 0.281593651
0.212903142 0.436812043 0.288930833
0.233649403 0.439595222 0.298545092
0.258950174 0.435547560 0.311068654
0.295382947 0.426439166 0.326249033
0.326755136 0.432258368 0.341429353
0.344718188 0.436180025 0.339658439
0.351296335 0.436939001 0.318912029
0.363441110 0.439974606 0.303731620
0.394180954 0.439595103 0.279823035
0.421758562 0.438077301 0.250980556
0.444149494 0.430866808 0.221125841
0.459329158 0.411891073 0.190512031
0.474509537 0.384566694 0.169259667
0.510183454 0.371284068 0.149399087
0.559013367 0.370272070 0.132954031
0.612903178 0.378368020 0.121568881
0.667552054 0.396584064 0.115496106
0.709298074 0.411511451 0.120556682
0.757495463 0.426438749 0.118406326
0.808096290 0.441619158 0.113345996
0.850348055 0.456799507 0.118785523
0.895509005 0.466160923 0.127134904
0.944844842 0.469450027 0.140797272
0.978620946 0.469070405 0.158507600
0.989500046 0.466034114 0.179254025
0.998608410 0.462998480 0.200506389
0.997343183 0.465275258 0.223655954
0.997596204 0.465781063 0.242884010
0.999367416 0.467172682 0.257052183
0.996331036 0.470209062 0.281341016
0.281087995 0.507653594 0.327134788
0.290195584 0.507653594 0.330170393
0.307020724 0.502087057 0.337507576
0.327767015 0.502339959 0.344085962
0.352814257 0.502213776 0.350537747
0.383428037 0.490196258 0.365718156
0.414800823 0.493738204 0.380897880
0.436938703 0.495509088 0.394433796
0.446426421 0.494623482 0.389753520
0.448450565 0.497659743 0.364453137
0.460594594 0.491967201 0.340543866
0.487286448 0.493231952 0.308159292
0.516255438 0.493864387 0.277545780
0.544338584 0.487792164 0.251233518
0.559518993 0.460467786 0.217836380
0.565085411 0.423529416 0.189373806
0.595192969 0.407716811 0.163061619
0.639089108 0.407969803 0.142062262
0.685768783 0.420872808 0.130676478
0.737634182 0.430740148 0.135736406
0.782922149 0.443010807 0.141809046
0.829348624 0.456799537 0.140670553
0.871600389 0.471979916 0.137001514
0.908033192 0.487160325 0.127893880
0.950917423 0.498798400 0.140797272
0.982795715 0.507021070 0.157368973
0.994813025 0.511575162 0.175711647
0.995572031 0.508538842 0.191398010
0.996710598 0.510816216 0.207337394
0.996078014 0.506768048 0.236812338
0.997596204 0.504870415 0.259329826
0.999367416 0.512713790 0.269197017
0.376470357 0.567235768 0.378115386
0.385578573 0.560025573 0.366730005
0.388234973 0.564326584 0.374066621
0.411258519 0.560531020 0.389500111
0.438962221 0.560151577 0.400506109
0.465275049 0.552055538 0.407590508
0.488425016 0.550284564 0.425174057
0.525363743 0.551423252 0.438709378
0.544339061 0.550664186 0.446299762
0.545983315 0.555344820 0.430487037
0.545604169 0.552055538 0.398861647
0.559772432 0.552055776 0.370524853
0.587855816 0.550537527 0.339405388
0.620240211 0.545983374 0.314611316
0.639721572 0.531561971 0.283364952
0.650094986 0.504237592 0.245161384
0.651613176 0.467805177 0.210246801
0.678937316 0.451233596 0.177482665
0.719164968 0.445667595 0.151169851
0.760658026 0.452625126 0.150916800
0.808475316 0.461733013 0.151296541
0.851992369 0.476407111 0.154838860
0.892726302 0.494244009 0.153320313
0.926881790 0.507147729 0.153320685
0.958760560 0.517773509 0.153320491
0.986843944 0.531182647 0.162428856
0.998481810 0.543833137 0.174572989
0.998481810 0.554079950 0.187855616
0.996078014 0.553953409 0.203035995
0.997849226 0.553447366 0.223529577
0.998481810 0.548260570 0.255661160
1.000000000 0.552814782 0.273877203
0.466033727 0.620366752 0.428210348
0.475142121 0.617330730 0.420620173
0.482352912 0.614421546 0.419607788
0.488678098 0.615433216 0.426185727
0.519417882 0.612523377 0.447564930
0.543706417 0.608728409 0.455155283
0.568500876 0.607716382 0.466287166
0.595192969 0.606072068 0.485768348
0.630866647 0.603795350 0.496394366
0.636938453 0.608349323 0.493358344
0.635673583 0.607210696 0.465654671
0.641745627 0.606704593 0.437318027
0.655787647 0.607463717 0.409234554
0.685515583 0.599367380 0.382922500
0.706767976 0.591524124 0.344971746
0.725996137 0.577102780 0.310436398
0.730550349 0.552814364 0.269450188
0.731182933 0.518153012 0.229981050
0.757874608 0.493738353 0.192662612
0.795572460 0.479570001 0.172928378
0.834282279 0.482985437 0.171030730
0.876786530 0.494117290 0.167995125
0.915117025 0.514357686 0.170271859
0.944339097 0.530676782 0.176090896
0.973940551 0.540544093 0.180645287
0.990386009 0.549652040 0.185072556
0.999493957 0.565591455 0.188741371
0.998481810 0.584820032 0.198861361
0.998861372 0.594686985 0.206071988
0.996331036 0.595952153 0.223529190
0.999367416 0.594686985 0.248703375
1.000000000 0.595319569 0.278430998
0.549778223 0.668944120 0.476787090
0.559518993 0.670714736 0.478684485
0.567362428 0.668184698 0.479569912
0.579633176 0.665148795 0.482605666
0.594813585 0.659835100 0.487160057
0.618342638 0.659835100 0.502340436
0.643263578 0.658570111 0.509930372
0.672232449 0.658823252 0.526881397
0.698165774 0.656546533 0.546236277
0.713346124 0.656546533 0.552308261
0.715243638 0.656546533 0.533712626
0.721947968 0.657179117 0.510689259
0.729664326 0.655408084 0.484503090
0.742062151 0.652624667 0.459962070
0.762555480 0.647311687 0.414041847
0.783681095 0.640100896 0.374952406
0.802150249 0.627450645 0.338899225
0.802150249 0.604933083 0.295129955
0.805186689 0.565464616 0.255660713
0.835041225 0.532447517 0.222390831
0.866413832 0.514104724 0.199746951
0.900949121 0.517267287 0.193548098
0.937001646 0.531941593 0.190638959
0.961796403 0.550157905 0.198228657
0.985199273 0.564199865 0.203162551
1.000000000 0.573308229 0.211132541
1.000000000 0.582922518 0.217710495
0.997090161 0.603795409 0.223908961
0.998734832 0.619101703 0.224667966
0.998861372 0.629727781 0.233396500
0.996963620 0.634029150 0.249841571
1.000000000 0.637065530 0.277166009
0.628715932 0.717520952 0.525363982
0.640859902 0.714484572 0.534471571
0.646299720 0.707653224 0.534218729
0.656166911 0.702846050 0.534218729
0.673750520 0.702340007 0.538772523
0.688930869 0.702340007 0.553952873
0.707400620 0.697279990 0.553953350
0.732953846 0.698291957 0.568374634
0.758760095 0.702086985 0.592157006
0.771031439 0.702087045 0.606957912
0.777482927 0.702087045 0.604301095
0.787096977 0.704111278 0.589373946
0.794433951 0.703478992 0.564958990
0.796711087 0.698165953 0.532827020
0.811891317 0.698165953 0.505502641
0.825173974 0.695256174 0.461986244
0.847438335 0.688678145 0.423529744
0.868943870 0.674763203 0.386211693
0.868943870 0.647437930 0.337634087
0.885894895 0.607969582 0.306514978
0.901833951 0.573055208 0.268311501
0.921062410 0.555597961 0.237191722
0.949146450 0.562302470 0.220999062
0.976470828 0.565338016 0.220999032
0.992156982 0.581277609 0.219481289
1.000000000 0.594560623 0.225553676
1.000000000 0.604174972 0.238962919
1.000000000 0.616318941 0.248070523
0.999746978 0.629222035 0.248956025
1.000000000 0.643390179 0.254269212
0.999746978 0.655787528 0.263250977
1.000000000 0.664389968 0.271094024
0.668690741 0.729917645 0.551676035
0.678052127 0.732447982 0.558000982
0.690196097 0.731562376 0.558507144
0.698924780 0.728146732 0.558001161
0.712586701 0.728146732 0.561795950
0.720556259 0.728146732 0.572169304
0.738267004 0.730676413 0.589879990
0.759772360 0.725363433 0.596837699
0.784060419 0.726881385 0.615433455
0.798228979 0.730929375 0.630613863
0.815686703 0.730929375 0.653383911
0.821758687 0.728905618 0.632131755
0.827830732 0.731562376 0.609741092
0.828336716 0.731815398 0.583934426
0.835926771 0.724225044 0.561670065
0.851107121 0.726628780 0.531941891
0.866666734 0.724351525 0.492852747
0.888171971 0.717141032 0.455028653
0.896773994 0.700569153 0.406451583
0.907906711 0.678810716 0.371790111
0.918532729 0.641239643 0.335736901
0.931941867 0.606957614 0.295129627
0.955597997 0.589500368 0.264136612
0.980265558 0.584566832 0.240227729
0.993927956 0.594433665 0.240227729
0.998608351 0.608855009 0.241872355
0.997722685 0.618848801 0.252371997
1.000000000 0.626439333 0.263756901
1.000000000 0.643896282 0.275522023
0.998228788 0.654522598 0.277798831
0.997216642 0.666793346 0.283111989
0.997216642 0.677798986 0.287286729
0.737381220 0.767488956 0.604427159
0.735104561 0.768627584 0.602909148
0.742568195 0.767615438 0.610119939
0.745857060 0.766350269 0.607084036
0.755091548 0.765717745 0.608475208
0.770271897 0.765717745 0.613029361
0.782669067 0.762555122 0.633523107
0.799241126 0.765591204 0.640227735
0.819734156 0.761796176 0.651865780
0.833775938 0.765591204 0.667046189
0.849968493 0.765844226 0.687160254
0.858191431 0.769512713 0.692093492
0.859709203 0.765338421 0.667425811
0.858697057 0.768121421 0.647691429
0.864769459 0.765591025 0.626439035
0.872359574 0.764199495 0.601771355
0.887539566 0.765717745 0.571410596
0.904743552 0.761163473 0.536369383
0.918152750 0.749019504 0.494117677
0.928399682 0.738013864 0.449968547
0.942441761 0.712966442 0.414674461
0.949525893 0.679569781 0.368121177
0.967109740 0.647817910 0.322327495
0.987855732 0.624035478 0.286147803
0.995066285 0.612650454 0.267931730
