Assets/Shaders/EldamarStudio/100 Sci-Fi LUTs Pack/LUTs/cube/Eden LUT.cube
LUT_3D_SIZE 5
DOMAIN_MIN 0.000000 0.000000 0.000000
DOMAIN_MAX 0.903226 0.903226 0.903226
0.003922000 0.000000000 0.000000000
0.138646409 0.008476003 0.025806291
0.385957778 0.000000000 0.060214985
0.820240259 0.000000000 0.147121996
1.000000000 0.000000000 0.251233637
0.001644708 0.183175400 0.112207688
0.123972110 0.183807403 0.074256696
0.372549087 0.235420823 0.050727699
0.810752332 0.179506838 0.135483995
0.997343183 0.067425489 0.241745666
0.281087995 0.507653594 0.327134788
0.436938703 0.495509088 0.394433796
0.559518993 0.460467786 0.217836380
0.829348624 0.456799537 0.140670553
0.996710598 0.510816216 0.207337394
0.804174244 0.814041972 0.665148258
0.843769670 0.802024007 0.694876552
0.891081810 0.807589889 0.693231881
0.972802043 0.751423240 0.462239146
0.998987854 0.675395429 0.315749556
0.943832815 0.955850780 0.876154661
0.944971561 0.953446984 0.879443824
0.980518818 0.955091417 0.909929991
0.986590683 0.955470979 0.862112641
0.994687021 0.933459878 0.732447624
0.002277292 0.172675401 0.255028397
0.124604687 0.002277292 0.233143687
0.381403804 0.004933705 0.255407691
0.817330778 0.000000000 0.387476116
0.997976005 0.104364268 0.508539140
0.000000000 0.280581802 0.261606395
0.002277292 0.223023400 0.252119094
0.394813061 0.226565689 0.289057374
0.840480626 0.182795689 0.378620982
1.000000000 0.120050773 0.438203543
0.006198711 0.511575162 0.364958823
0.288804591 0.499430507 0.374825776
0.542188287 0.460468233 0.337507814
0.829728186 0.478051782 0.302846223
1.000000000 0.501707315 0.396331370
0.750917077 0.820873141 0.658317566
0.815180361 0.814800858 0.689437270
0.904870391 0.818975568 0.756103456
0.963061392 0.766350269 0.555091977
1.000000000 0.701707661 0.425553530
0.936621964 0.961036921 0.885641873
0.950157940 0.961922705 0.888171911
0.978494406 0.959266067 0.928273380
0.986337781 0.963187635 0.891714036
0.998734832 0.937128067 0.766982794
0.006577994 0.436179370 0.637697220
0.004933705 0.288804531 0.619734466
0.412776381 0.000000000 0.521821797
0.774193764 0.002277288 0.533333063
0.997343183 0.000632584 0.592409849
0.001644708 0.573560834 0.648829758
0.001644708 0.460721076 0.626185954
0.409234494 0.154585704 0.549272418
0.787476242 0.006957573 0.532320976
1.000000000 0.137254998 0.611764610
0.000632584 0.688045561 0.639721572
0.001644708 0.669702768 0.626565635
0.373181552 0.504237354 0.580139220
0.828969121 0.440607488 0.570271790
0.994054437 0.628716230 0.732447624
0.126249284 0.803921521 0.702972651
0.333965957 0.799367368 0.702719510
0.800885439 0.787982106 0.713346124
0.921442151 0.753700078 0.690322936
0.998735011 0.763440967 0.648070753
0.898798406 0.972043276 0.885768414
0.923719287 0.968880355 0.891081393
0.956230402 0.974699378 0.926375329
0.988614678 0.972296119 0.935610294
0.998735011 0.948513448 0.843389928
0.002023998 0.621758282 0.889563382
0.000000000 0.557368577 0.892726243
0.002023998 0.204680502 0.873118103
0.797470093 0.000000000 0.813156128
1.000000000 0.001012128 0.818090260
0.001264999 0.705123663 0.890828550
0.005566131 0.641113162 0.886148155
0.002909872 0.387096465 0.874256968
0.773561239 0.002909872 0.816318691
0.995445609 0.001012124 0.823908806
0.000000000 0.915622950 0.891460955
0.001265164 0.863630354 0.886148095
0.185451761 0.708791852 0.885262251
0.765844643 0.397343487 0.827451169
0.997343421 0.336369604 0.802530110
0.081973344 0.929664969 0.883618116
0.318152845 0.918785155 0.885515153
0.640860200 0.900569141 0.878684402
0.831752241 0.782669246 0.836559117
0.998355329 0.753826857 0.825932801
0.516128600 0.960657477 0.924731135
0.612143874 0.971536934 0.930550098
0.820493281 0.975079060 0.926375806
0.973055124 0.975711524 0.955091774
1.000000000 0.960025132 0.924730957
0.002656833 0.716508687 0.997343183
0.001644708 0.680202246 0.998987913
0.000632584 0.543327212 1.000000000
0.041492607 0.201138631 0.992915809
0.991144836 0.002656833 0.988614798
0.000000000 0.770398676 0.995066285
0.001644708 0.735736847 1.000000000
0.001012124 0.613535643 0.994560063
0.039089318 0.312460124 0.996963859
0.983933926 0.001012124 0.992283165
0.000632584 0.899430811 0.995445609
0.000000000 0.878937244 0.996710598
0.000632584 0.794939816 0.995445549
0.326502293 0.570777893 0.993421555
0.989879787 0.330929965 0.994939864
0.575458467 0.998987854 0.986463964
0.636432827 0.997976005 0.984440148
0.739911497 0.986338019 0.994560242
0.816192150 0.887413144 0.995445967
0.982542694 0.687286258 0.991144776
0.712839901 1.000000000 0.990891814
0.743453383 1.000000000 0.994180799
0.814673960 0.999367416 0.988867581
0.913345754 0.998734832 0.988361835
0.976596832 0.962428629 0.985831797
