Assets/Shaders/EldamarStudio/100 Sci-Fi LUTs Pack/LUTs/cube/Elfhelm LUT.cube
DOMAIN_MIN 0 0 0
DOMAIN_MAX 1 1 1
LUT_3D_SIZE 32
0.090195999 0.011765000 0.019608000
0.090195999 0.011765000 0.019608000
0.090195999 0.013915226 0.021758227
0.088931158 0.014421161 0.022264162
0.087033994 0.013662547 0.021125998
0.093106002 0.028842937 0.033269998
0.096647680 0.033902679 0.037824322
0.101327993 0.038582996 0.042504996
0.107400000 0.044654999 0.048576999
0.113472007 0.050727006 0.054649003
0.128272861 0.053889871 0.060720995
0.139405251 0.060974251 0.068817250
0.149652004 0.068944000 0.076787002
0.161796063 0.075015999 0.082859002
0.173940822 0.081087999 0.088930994
0.183681190 0.089563802 0.092599802
0.197343379 0.100189991 0.098671801
0.215559974 0.112333983 0.107146993
0.233776018 0.124478012 0.113219015
0.249209374 0.133839354 0.124857716
0.264389724 0.148639992 0.133206993
0.284630001 0.164832264 0.141303003
0.315116495 0.177229971 0.153573498
0.348513722 0.195446000 0.168753907
0.381910264 0.209107995 0.181656986
0.422264278 0.221252322 0.195192650
0.472865134 0.234408990 0.210879132
0.533585846 0.252624989 0.229095876
0.604933202 0.265527993 0.244655117
0.677798688 0.284756392 0.268690348
0.751549721 0.309930563 0.299051195
0.827450991 0.337255001 0.329412013
0.090195999 0.011765000 0.016571613
0.084123999 0.017836999 0.022643613
0.081973225 0.015686225 0.024794387
0.082352772 0.016951161 0.025300225
0.085136160 0.018216452 0.023402710
0.099178001 0.022770163 0.030234385
0.095129997 0.032890547 0.042378385
0.103225671 0.036938708 0.048576996
0.113472193 0.041619387 0.053130999
0.119544782 0.047691394 0.054649003
0.128525898 0.059582382 0.060720995
0.143453255 0.067046247 0.070840992
0.153447002 0.075015999 0.079822898
0.161543041 0.081341028 0.085642353
0.170904428 0.090196386 0.088930994
0.180645406 0.096268386 0.095002994
0.194307372 0.104743801 0.100189604
0.212523744 0.116002172 0.107779570
0.230740398 0.130550012 0.116255410
0.246173024 0.145477369 0.130676746
0.265148342 0.155091733 0.141176730
0.285641849 0.167868391 0.149399266
0.312207371 0.180265620 0.159519017
0.348513722 0.198482394 0.171790302
0.386464268 0.209867090 0.184693381
0.426944941 0.222643644 0.198229045
0.475395441 0.236938685 0.213409469
0.533585846 0.252624989 0.229095876
0.594307244 0.270840973 0.249968782
0.669196665 0.285515159 0.271220714
0.742821157 0.306894153 0.299051195
0.812270641 0.334218591 0.329412013
0.090195999 0.011765000 0.015686000
0.088424996 0.015686225 0.021758001
0.086654000 0.019608000 0.021378776
0.081087612 0.017836774 0.026945161
0.081340775 0.021125998 0.027830549
0.092979155 0.029474840 0.030360872
0.103352226 0.028969096 0.037191998
0.102213934 0.039721768 0.050980698
0.113092773 0.046553001 0.057811677
0.119165204 0.055408005 0.059203003
0.128146902 0.065148771 0.067172773
0.137254506 0.071220517 0.071220517
0.152181879 0.080075875 0.081846647
0.161543041 0.086907029 0.088425227
0.170651406 0.092220411 0.089563578
0.179759800 0.103225991 0.092852764
0.190385997 0.109297998 0.100442573
0.207969561 0.119038336 0.107146993
0.227704182 0.134218767 0.114737213
0.245287642 0.151549369 0.131562367
0.260467738 0.164832473 0.141049996
0.283238143 0.174193650 0.149905354
0.309171200 0.185072497 0.159139767
0.345604032 0.197217047 0.171284035
0.380012482 0.212903470 0.185578987
0.425047159 0.224794418 0.199114650
0.473624349 0.240480766 0.214800999
0.529664397 0.257305413 0.231625661
0.598608255 0.275142521 0.249968782
0.669955671 0.291587293 0.274763137
0.746236742 0.312080801 0.299430728
0.814294755 0.341935545 0.327261239
0.090195999 0.019354999 0.020746322
0.087665997 0.021125773 0.025553161
0.090195999 0.021631934 0.028968772
0.088931158 0.025933161 0.025933160
0.082099773 0.026312612 0.033902999
0.091207936 0.035799995 0.033902999
0.099051155 0.040354319 0.041492999
0.107526705 0.043010991 0.048703540
0.111322001 0.053636998 0.061606836
0.117394008 0.064769007 0.065148525
0.125110701 0.074003868 0.071473867
0.136748895 0.080328904 0.079064064
0.146995172 0.085641809 0.082099676
0.161543041 0.094750129 0.090449028
0.170651406 0.099810250 0.091461159
0.178494632 0.107527152 0.095129803
0.191651165 0.119165152 0.098671801
0.204427570 0.125869736 0.108412147
0.224414825 0.139785156 0.115749344
0.241619006 0.155218184 0.130423725
0.260467738 0.169639319 0.142315164
0.280708253 0.181783825 0.152435154
0.308412164 0.191397488 0.162175998
0.342567980 0.202782914 0.172042996
0.379253447 0.215180442 0.185199112
0.418469101 0.230360478 0.201644644
0.471094221 0.245034963 0.215813071
0.526501834 0.261733145 0.231752142
0.595825016 0.281214654 0.252498478
0.668437362 0.296394885 0.270967990
0.743833065 0.316887736 0.299178004
0.813282847 0.350284845 0.324225157
0.090575546 0.037191547 0.032891002
0.085262544 0.037950546 0.035926614
0.086274549 0.036559317 0.040353999
0.090069607 0.036559545 0.043390162
0.087413445 0.041872546 0.040734001
0.096521065 0.044908158 0.040734001
0.100948773 0.052624866 0.050094996
0.105249994 0.059708994 0.058570541
0.111322001 0.065781094 0.064642541
0.117394008 0.071853101 0.070714548
0.124224998 0.080455415 0.074636415
0.135610253 0.087539546 0.080582254
0.148892999 0.094370641 0.087792896
0.160784036 0.103479035 0.090828516
0.169892401 0.112586662 0.093864866
0.177735537 0.119671054 0.098545447
0.189500377 0.128779545 0.104237802
0.206704959 0.140670568 0.109171145
0.221884608 0.149778977 0.121315949
0.237823918 0.161670014 0.133080468
0.257178754 0.173054993 0.143706739
0.280328721 0.184819534 0.154332995
0.310562938 0.197216526 0.172169507
0.340670735 0.212649912 0.178494543
0.377482742 0.225553572 0.189499989
0.420113862 0.238709837 0.203668326
0.468058616 0.254142582 0.221885070
0.525742948 0.266287357 0.230993450
0.592535913 0.285642236 0.251486391
0.662744462 0.301960945 0.271600187
0.730929315 0.318785548 0.290828645
0.797722995 0.352182001 0.321189463
0.093611933 0.052371934 0.045034997
0.093611933 0.058443934 0.048070613
0.088298932 0.061353706 0.048955999
0.090575777 0.062112927 0.051233161
0.096521065 0.063124932 0.052877996
0.096521065 0.063124932 0.052877996
0.103098996 0.068690866 0.057937995
0.107020773 0.073624223 0.063377708
0.111322001 0.077925190 0.067678936
0.117394008 0.083997875 0.073750943
0.129284993 0.090069868 0.082732804
0.138393253 0.096647933 0.084756933
0.147375003 0.102719933 0.088551998
0.154712036 0.109551035 0.093864903
0.163820416 0.118659414 0.096900515
0.177735791 0.127767056 0.097533062
0.191398129 0.137887448 0.104617059
0.206451982 0.150031909 0.115243137
0.218849003 0.161922991 0.127387941
0.239595309 0.173813999 0.136748642
0.261732936 0.182163000 0.148260534
0.284503132 0.190259129 0.157875001
0.307526559 0.200252920 0.166097507
0.334850997 0.218468949 0.175205901
0.369512677 0.231625572 0.188361630
0.412017345 0.243769988 0.201644331
0.462112367 0.257431924 0.216319069
0.522707283 0.275394976 0.237065449
0.580392301 0.290195882 0.246173143
0.648956180 0.306388259 0.266666442
0.717773378 0.322833598 0.290322572
0.779507041 0.346109986 0.318153083
0.083997361 0.082732320 0.062238999
0.083997361 0.083744317 0.062744930
0.090449132 0.087666094 0.065781094
0.088804677 0.089437321 0.063630641
0.093358546 0.089816771 0.062871769
0.095509320 0.091966994 0.065021999
0.100569323 0.091966994 0.067552321
0.106641315 0.096394703 0.071979612
0.112839997 0.099430539 0.075774863
0.122454002 0.103731647 0.081847325
0.124224991 0.112333991 0.083238870
0.136368990 0.116382249 0.090322994
0.147121966 0.123086669 0.094750352
0.156736359 0.130550057 0.101960704
0.170398727 0.137381732 0.104996897
0.179506510 0.148893312 0.110436313
0.192916065 0.156609640 0.115243509
0.206451982 0.165464982 0.124478057
0.218596026 0.173814014 0.130929619
0.239089370 0.188488334 0.140290976
0.264136732 0.198735058 0.156989053
0.290069461 0.206451505 0.170019120
0.314863801 0.215812489 0.177735791
0.346995234 0.231625333 0.186843589
0.383428156 0.247564599 0.202783242
0.428462923 0.259961993 0.216824621
0.481340766 0.273118138 0.229475066
0.542061746 0.291334629 0.246679425
0.607716680 0.304364145 0.262365788
0.672485769 0.323086470 0.280328572
0.743706346 0.345097870 0.306388170
0.809361339 0.372928321 0.335357308
0.086653702 0.102972701 0.072232708
0.078431003 0.106261700 0.072232708
0.083238482 0.110056765 0.076027773
0.091081709 0.110563152 0.080329001
0.091840707 0.110563152 0.075774990
0.093611933 0.113598764 0.075015768
0.099178001 0.114104696 0.074762613
0.103605285 0.119038403 0.082732700
0.111195482 0.120556600 0.084250316
0.123339713 0.121821225 0.087666258
0.125489995 0.127387568 0.089563996
0.133585989 0.135736957 0.095256276
0.143453285 0.137634695 0.097912930
0.154586002 0.145477414 0.105249710
0.168374702 0.154332832 0.112460412
0.178747907 0.160278276 0.114610992
0.192409709 0.172422677 0.125237182
0.206704840 0.180645257 0.134598568
0.221885026 0.189753428 0.139658451
0.237444654 0.200885355 0.144971356
0.262492031 0.210626021 0.158380732
0.289816439 0.220746547 0.175585121
0.317646801 0.230866387 0.184946492
0.354079604 0.247564614 0.197090521
0.388741136 0.261100262 0.206451565
0.435167581 0.276280642 0.224667966
0.491334498 0.288677692 0.236812070
0.553193808 0.304617167 0.249715433
0.619228244 0.320809692 0.269829094
0.684503496 0.338266850 0.288677931
0.753447115 0.362175852 0.312966198
0.822517276 0.394813418 0.341809005
0.097280100 0.116635092 0.081341088
0.081340618 0.122707084 0.076787099
0.081973456 0.127261087 0.083365001
0.087287001 0.129538253 0.086401008
0.093738452 0.127261549 0.092093550
0.094876900 0.130297154 0.087160096
0.098418906 0.130044192 0.085894868
0.103605285 0.132700786 0.085009411
0.108918190 0.140291005 0.095636003
0.121062964 0.137254611 0.092599615
0.125237212 0.140796870 0.094623871
0.132827088 0.145604163 0.100189731
0.142694190 0.152814895 0.107020549
0.149272904 0.153826952 0.105249971
0.161416903 0.165971085 0.117394075
0.173434794 0.171663389 0.121442094
0.185578987 0.178494483 0.127514273
0.203794986 0.190006509 0.142062068
0.224920884 0.204933882 0.151296973
0.240860105 0.215306848 0.156356826
0.260214716 0.224794075 0.163946733
0.287539124 0.232131243 0.177103117
0.315242976 0.244275972 0.186211497
0.354079634 0.261226982 0.200126916
0.392030388 0.275648087 0.209994003
0.435926467 0.287665755 0.220873073
0.492599308 0.303352088 0.239595160
0.556609333 0.316002071 0.249715537
0.622264266 0.332700640 0.269829154
0.688804507 0.354206175 0.293105274
0.751929343 0.378115177 0.319038182
0.818722188 0.408475995 0.343326986
0.094244473 0.143959492 0.108665481
0.076027714 0.150031492 0.090449490
0.077292778 0.151802495 0.096647710
0.083744675 0.150790662 0.102593005
0.087666444 0.148513943 0.098165557
0.096774057 0.151549563 0.101201944
0.097912513 0.149525821 0.106388487
0.101454504 0.148260981 0.102213979
0.108918183 0.149399400 0.095636003
0.121062964 0.152435005 0.101708010
0.127387986 0.158127487 0.101581492
0.133333474 0.160025015 0.103731744
0.139658466 0.162681535 0.108159006
0.146236509 0.169006586 0.114357591
0.158380508 0.181151360 0.126502335
0.175332099 0.188488498 0.133839473
0.190132976 0.195952177 0.141176686
0.203794986 0.205186903 0.151170477
0.222011030 0.214294553 0.163314506
0.245920241 0.226439238 0.172549367
0.265907496 0.240354225 0.177609220
0.287539124 0.253130615 0.183175117
0.315242976 0.262491971 0.192283496
0.351675808 0.274636000 0.201391906
0.395066351 0.289310247 0.213029996
0.445667446 0.301581115 0.226312667
0.504744112 0.312460482 0.242631570
0.571536839 0.330676466 0.263883919
0.635546863 0.345983297 0.279317290
0.702972472 0.368374139 0.300189912
0.769892335 0.396331191 0.328779072
0.830866933 0.426692009 0.367615014
0.082479261 0.159645870 0.112713128
0.084630102 0.159898877 0.106135122
0.075015873 0.163820103 0.100822121
0.080329165 0.165844172 0.108411998
0.086274996 0.166476995 0.109677002
0.087792933 0.166982934 0.110183060
0.091840550 0.167488873 0.105629124
0.095509000 0.169765994 0.110183127
0.102340087 0.172295988 0.109424219
0.112334095 0.173181385 0.113345996
0.115749262 0.173307866 0.113599002
0.121821769 0.179379880 0.117646992
0.130170986 0.182289511 0.120429866
0.140291005 0.186843783 0.123212904
0.152435005 0.196331695 0.132700831
0.164579004 0.203668863 0.142441809
0.184819639 0.212776855 0.152055874
0.204427555 0.222643986 0.163187981
0.224920884 0.229474917 0.175332010
0.240354240 0.241365865 0.181910008
0.264263004 0.253510594 0.187096864
0.289563388 0.265654624 0.192157000
0.320936203 0.274888992 0.201265350
0.354585677 0.287033737 0.210373029
0.402403682 0.299177736 0.219481409
0.450601131 0.315116823 0.235167652
0.505756199 0.330297112 0.253890008
0.574952662 0.348513722 0.272738546
0.633776248 0.364073575 0.288677931
0.698798120 0.384566665 0.307400286
0.765717745 0.410752416 0.333206564
0.828463137 0.439089000 0.368627012
0.072359264 0.180897981 0.117773511
0.075395137 0.182922244 0.121821247
0.078051999 0.185072988 0.118026502
0.074510001 0.184313431 0.116761342
0.080582194 0.185072541 0.120176800
0.082226485 0.186717242 0.121821508
0.088804677 0.188741505 0.118785247
0.091840707 0.187096789 0.116002247
0.099051259 0.192030251 0.121315248
0.109424479 0.194560245 0.125616476
0.112713128 0.196584508 0.127767250
0.117773511 0.196584493 0.129790992
0.124984354 0.201517850 0.133585989
0.136495769 0.205060020 0.134345025
0.150410995 0.214168400 0.143453404
0.162554994 0.220872983 0.152561799
0.179253176 0.228463188 0.161670178
0.200505883 0.239468828 0.171410680
0.217583999 0.246932521 0.179380015
0.239342108 0.258570522 0.187982261
0.262112468 0.268817246 0.195951998
0.288551241 0.279823124 0.200253248
0.321315706 0.289057225 0.208349466
0.360404909 0.301201522 0.217457086
0.403415829 0.315369964 0.232637540
0.456420273 0.328905642 0.243137226
0.508286119 0.346489400 0.262492061
0.573561013 0.364706159 0.282226235
0.634788394 0.382289827 0.295761824
0.697786272 0.399240911 0.316255391
0.761037111 0.424794197 0.338646203
0.821378708 0.453257263 0.368627012
0.063251354 0.202909291 0.127261356
0.065148614 0.204807028 0.132953614
0.071600132 0.207843125 0.136875421
0.074510001 0.210499957 0.133839473
0.074510001 0.205186278 0.131182641
0.076786712 0.207463577 0.133459941
0.082605675 0.208222672 0.132574320
0.091840707 0.211385563 0.131182641
0.096394904 0.209867179 0.132700637
0.108159356 0.215559632 0.138772637
0.112713128 0.218722507 0.141935512
0.118911862 0.219734639 0.144971386
0.126122996 0.222011641 0.146868646
0.135736674 0.225300282 0.147627681
0.150917053 0.233523041 0.156736046
0.163693637 0.241366282 0.164705798
0.179253176 0.246679187 0.171537191
0.201138139 0.256420135 0.180645406
0.215306953 0.266034633 0.184693053
0.236306012 0.279064000 0.195572346
0.267046005 0.289310753 0.203542084
0.297406524 0.299430996 0.212650478
0.328273237 0.308791637 0.218975499
0.368753791 0.320935935 0.228083387
0.418089837 0.336495548 0.241745561
0.468943924 0.350537270 0.259456277
0.524604738 0.366223782 0.271600276
0.585325480 0.384440541 0.290955067
0.644908190 0.404933602 0.308791608
0.706894577 0.425426871 0.330297023
0.772802055 0.445413888 0.356356829
0.828209937 0.475268662 0.381150931
0.053890001 0.222138062 0.141935036
0.054648966 0.222138062 0.143200070
0.062238965 0.224288285 0.146742508
0.070335098 0.227071196 0.149272829
0.073750965 0.229222029 0.146869034
0.073750965 0.229222029 0.146869034
0.077545747 0.227450743 0.146869034
0.083997346 0.229095444 0.146363035
0.095635936 0.234155968 0.147627994
0.104743555 0.237191588 0.153699994
0.111194998 0.240227863 0.157115906
0.119291253 0.241493031 0.159645781
0.129158601 0.243516997 0.162302062
0.138266996 0.249082997 0.162302077
0.153447375 0.255154997 0.171410441
0.166982993 0.263630807 0.178621024
0.182163045 0.269955844 0.183175221
0.201138139 0.274889141 0.187476441
0.225426957 0.287033945 0.196584091
0.245161071 0.301707745 0.210246399
0.276154220 0.313345790 0.220493048
0.314611256 0.323213071 0.227324158
0.351549983 0.335357040 0.236812010
0.388488084 0.347501814 0.246299908
0.440606833 0.364199996 0.257685065
0.497785985 0.380139023 0.272106320
0.555977106 0.393295139 0.289817005
0.616697848 0.411511898 0.301961005
0.675268471 0.434535027 0.324731022
0.734218657 0.458570391 0.351043344
0.795319736 0.483618021 0.381404191
0.859076977 0.507906079 0.411765009
0.041746013 0.252498806 0.151043415
0.050853629 0.252498806 0.166223794
0.051612586 0.254649013 0.165338039
0.054142598 0.256419808 0.165464565
0.055913728 0.256293386 0.165211529
0.064642586 0.250474393 0.168121397
0.079823226 0.255534381 0.168121397
0.081720412 0.258064508 0.164832413
0.083997369 0.260974407 0.162302315
0.095635951 0.261480331 0.165843979
0.104743555 0.264515936 0.171916723
0.113219254 0.267552227 0.171284139
0.125743002 0.269955754 0.174067050
0.141302615 0.273370981 0.180518821
0.150410995 0.273370951 0.180518821
0.170398369 0.281846762 0.192030400
0.188235372 0.289436966 0.198355600
0.206451818 0.296141356 0.202656820
0.225426972 0.308285534 0.211764440
0.255281717 0.320430309 0.215306759
0.285009533 0.333206803 0.228463143
0.320683241 0.343706518 0.238709822
0.357621968 0.353573799 0.245920390
0.406198800 0.365717828 0.264136404
0.456799358 0.382415950 0.275901556
0.510689318 0.400632292 0.288045794
0.565085530 0.417583793 0.302466989
0.625806272 0.435799867 0.320176959
0.689183831 0.454016626 0.342947602
0.746362686 0.475268990 0.360151768
0.803162277 0.500695944 0.381404191
0.862112582 0.532194793 0.411765009
0.027198207 0.278051972 0.167362601
0.033902630 0.280455768 0.182542369
0.038709790 0.278304994 0.178367972
0.045287658 0.282099783 0.179632962
0.051359549 0.283617765 0.182669044
0.056419939 0.277545780 0.181656927
0.065907843 0.286400795 0.179759800
0.077546202 0.289183795 0.184693083
0.079063810 0.289943069 0.183175087
0.091208167 0.288298786 0.182922110
0.105249926 0.291207910 0.188867718
0.116381787 0.292219788 0.188867718
0.125869632 0.296014965 0.188108623
0.140543833 0.300062776 0.194687024
0.158254221 0.300062776 0.201138794
0.172169596 0.302466571 0.201138794
0.193421990 0.310056776 0.208728611
0.213788971 0.318026334 0.213662326
0.235547036 0.331941605 0.224541649
0.264895737 0.341682523 0.232890338
0.299051464 0.353826791 0.239721715
0.333966047 0.365970761 0.251866132
0.371031255 0.376723468 0.259709299
0.421884805 0.391144782 0.275648594
0.472738832 0.407843351 0.289310604
0.528652728 0.424667686 0.300063282
0.582289875 0.441366047 0.312207341
0.637317836 0.457684755 0.330423772
0.698292196 0.480708420 0.351549625
0.758507311 0.502466738 0.379380345
0.812017739 0.527893782 0.401518136
0.865148783 0.561290562 0.433396786
0.018089809 0.306894183 0.188614994
0.028715998 0.306894571 0.196204811
0.029601775 0.308665395 0.198102176
0.035167839 0.306894183 0.189753339
0.049082547 0.311321735 0.197849646
0.054395933 0.306388378 0.199367240
0.060974125 0.310942173 0.196331501
0.072991997 0.318026394 0.195319667
0.082099997 0.318026394 0.203668386
0.095761999 0.315749675 0.202909663
0.110815860 0.318532318 0.205566183
0.122454174 0.321062386 0.210120112
0.135736838 0.322201043 0.209361017
0.146363184 0.327387571 0.212144375
0.166350394 0.327387571 0.217457607
0.184313983 0.331309199 0.220872998
0.201012164 0.335863382 0.222391188
0.222897127 0.341935366 0.226059362
0.247185424 0.354459167 0.236432955
0.275521934 0.365591347 0.244275853
0.309677273 0.376597375 0.251865745
0.350158304 0.388741374 0.262998134
0.388994634 0.401011884 0.273244977
0.437824100 0.416192293 0.287033707
0.487918824 0.430613548 0.296900809
0.540923238 0.448829949 0.314611107
0.599493980 0.464136243 0.326375455
0.655154586 0.479316622 0.345604092
0.707147181 0.503984630 0.364958793
0.766097546 0.526755095 0.390006185
0.819355190 0.552814364 0.420367002
0.866666973 0.585578978 0.453130990
0.015686009 0.339025527 0.211638138
0.028968828 0.337887496 0.212903127
0.034408771 0.337254763 0.212270558
0.037065413 0.340290695 0.210373148
0.046552572 0.339911133 0.208855540
0.055913921 0.336875468 0.217963189
0.063124567 0.338266790 0.216951311
0.074762680 0.340037674 0.214927569
0.090069562 0.343580127 0.217077985
0.108285569 0.343580127 0.223149970
0.122959860 0.346489251 0.224035546
0.135357231 0.349525392 0.226818562
0.148640186 0.353194177 0.232384622
0.163820580 0.356230497 0.235167980
0.181657121 0.356609970 0.235167980
0.199873567 0.360151976 0.238203749
0.218722552 0.365591526 0.241239741
0.236938700 0.371031135 0.243010968
0.261227518 0.377103150 0.249082997
0.287666351 0.388108552 0.253890008
0.321315527 0.398987889 0.261859566
0.359898478 0.411764950 0.269702703
0.408475935 0.424035460 0.284883052
0.454522491 0.439215899 0.297532976
0.502340138 0.453384131 0.307020545
0.554332376 0.468943506 0.319544286
0.609993219 0.486653596 0.343833119
0.673623800 0.501833975 0.365211993
0.722706974 0.526375353 0.383807540
0.773434460 0.551422715 0.407969296
0.825427175 0.573434114 0.435546756
0.867931962 0.603794992 0.465907574
0.015686048 0.366350025 0.229854956
0.021758050 0.372422814 0.235926941
0.032890622 0.369133472 0.235041171
0.043770038 0.368880361 0.230992988
0.055661000 0.373308420 0.227071583
0.067805000 0.370272040 0.236179948
0.077166364 0.369766027 0.235167637
0.090954997 0.368374288 0.232131749
0.108159125 0.368121266 0.232384905
0.123466007 0.373941004 0.241366044
0.135863006 0.376850098 0.244528905
0.150284305 0.379886240 0.245288000
0.168374330 0.384060979 0.248071000
0.191145048 0.389626980 0.253384024
0.206325442 0.392662585 0.253384024
0.224161983 0.393042058 0.258191019
0.243896246 0.395066231 0.262492180
0.264263153 0.398355603 0.264263421
0.282480001 0.401391983 0.261227012
0.306768060 0.410246670 0.261733025
0.340796769 0.417710036 0.271726757
0.380012423 0.427324235 0.284124136
0.420620024 0.442251533 0.293991446
0.469196886 0.457431972 0.309171081
0.517520607 0.474889606 0.324098289
0.570271969 0.493991286 0.338519633
0.628210068 0.513978064 0.355977178
0.688930809 0.529158473 0.380265921
0.741935372 0.549651802 0.398987979
0.791271269 0.574952126 0.424288392
0.837065220 0.599999607 0.453510553
0.874004006 0.622011065 0.481088042
0.054648742 0.410373122 0.250854373
0.060720742 0.408095837 0.251360357
0.064642519 0.409867048 0.250980586
0.073624536 0.408854902 0.251739353
0.083871178 0.412270844 0.251739353
0.093611374 0.409234464 0.248829946
0.110816017 0.413789034 0.257938325
0.122327730 0.412650406 0.259203017
0.136748731 0.412650198 0.261480123
0.149904877 0.420746714 0.270588249
0.170524731 0.423908859 0.268310875
0.184692994 0.426945001 0.269323021
0.202150375 0.429981112 0.271600306
0.224794447 0.433902383 0.277166724
0.247565150 0.434408307 0.277166724
0.269955724 0.439848363 0.281973720
0.293484926 0.442125261 0.285009712
0.317899883 0.444528759 0.286780775
0.340417713 0.445414364 0.288045377
0.361417115 0.454016775 0.293358386
0.391397834 0.463124841 0.299051136
0.431119472 0.473118305 0.312460512
0.474383563 0.488298237 0.324984372
0.520303607 0.503478646 0.332194805
0.568880320 0.518659055 0.347375005
0.621631682 0.533586383 0.365338355
0.676280797 0.550663769 0.384313792
0.721062243 0.570398211 0.406325251
0.763187826 0.590891540 0.433270127
0.812523723 0.613915145 0.457178891
0.857558548 0.641998649 0.489183933
0.893991351 0.670841098 0.524098396
0.100948453 0.446426481 0.275901705
0.107020453 0.452877820 0.268311232
0.116634965 0.451992214 0.275648683
0.122201025 0.450727046 0.276407480
0.130929798 0.452118725 0.281340897
0.138520002 0.450600535 0.276786715
0.145730361 0.455155104 0.275775045
0.165591419 0.459582746 0.283238739
0.181530654 0.457052529 0.287286460
0.198228940 0.461606950 0.295256227
0.209614068 0.464895576 0.292725891
0.232510701 0.469828963 0.295508713
0.248829737 0.470588356 0.294370353
0.269829214 0.472612202 0.298671991
0.295762271 0.477545470 0.305249989
0.316255450 0.476660341 0.304364741
0.343579829 0.484250516 0.311954528
0.368753761 0.488677889 0.313725561
0.389247447 0.491208196 0.316761494
0.418342829 0.495762080 0.324478209
0.443390191 0.502972722 0.326755226
0.474762589 0.511068940 0.334851474
0.514863968 0.523465812 0.347248703
0.558633685 0.536875367 0.356862754
0.610246778 0.552055717 0.373560995
