Assets/Shaders/EldamarStudio/100 Sci-Fi LUTs Pack/LUTs/cube/Elfhelm LUT.cube
LUT_3D_SIZE 5
DOMAIN_MIN 0.000000 0.000000 0.000000
DOMAIN_MAX 0.903226 0.903226 0.903226
0.090195999 0.011765000 0.019608000
0.101327993 0.038582996 0.042504996
0.173940822 0.081087999 0.088930994
0.284630001 0.164832264 0.141303003
0.604933202 0.265527993 0.244655117
0.086653702 0.102972701 0.072232708
0.103605285 0.119038403 0.082732700
0.168374702 0.154332832 0.112460412
0.289816439 0.220746547 0.175585121
0.619228244 0.320809692 0.269829094
0.041746013 0.252498806 0.151043415
0.081720412 0.258064508 0.164832413
0.150410995 0.273370951 0.180518821
0.320683241 0.343706518 0.238709822
0.689183831 0.454016626 0.342947602
0.154585361 0.482859224 0.299177855
0.213156059 0.501075387 0.305502981
0.349778652 0.518152833 0.330044121
0.525363624 0.549525261 0.363188237
0.800379574 0.652498305 0.478683919
0.722327590 0.835926473 0.607210577
0.758380532 0.838836312 0.635926604
0.802150428 0.845667183 0.658444226
0.868184745 0.861606598 0.691966653
0.936495781 0.885515451 0.739405513
0.089184299 0.038582996 0.069322996
0.104616992 0.044149287 0.076533988
0.158253998 0.099430986 0.122327819
0.252878129 0.182795867 0.184820116
0.563440442 0.280328929 0.280328929
0.093105711 0.093864694 0.092852995
0.104616992 0.123972110 0.120050691
0.144845128 0.156989396 0.142315105
0.258444250 0.230233982 0.201138273
0.592156649 0.330044359 0.298039347
0.058443878 0.245540693 0.193927690
0.089184284 0.258697093 0.195572406
0.148134112 0.276027799 0.211258829
0.302466631 0.339784950 0.258949965
0.676786780 0.456925899 0.365085214
0.176091358 0.485136122 0.325489938
0.224035352 0.490069628 0.334092379
0.342061639 0.510056794 0.346110255
0.510057092 0.541682243 0.375585228
0.796457946 0.655407786 0.507526934
0.731056213 0.822517276 0.628210127
0.744085789 0.825426698 0.637824237
0.786084712 0.836558998 0.655408144
0.859455824 0.853510320 0.690954864
0.933839619 0.880328596 0.738519609
0.059456423 0.058823999 0.205312997
0.099051282 0.065022290 0.196457714
0.147122413 0.111827567 0.192915574
0.247058704 0.197849125 0.243390396
0.569006801 0.291081369 0.350031346
0.078431003 0.139911413 0.184693277
0.093105711 0.147121981 0.192915976
0.138899282 0.171031117 0.199746698
0.248323694 0.245287836 0.261986107
0.581657052 0.348007798 0.369639635
0.048956588 0.258317411 0.238709405
0.093485415 0.277925402 0.255660981
0.186464399 0.330297381 0.303478807
0.330170512 0.368247658 0.334851384
0.679316580 0.470335364 0.439721614
0.234535232 0.490575820 0.395445704
0.280202389 0.501960695 0.393042386
0.383301377 0.516761661 0.405565798
0.539025605 0.554079652 0.440607101
0.804933727 0.666287303 0.559013307
0.726755142 0.826691568 0.659455776
0.745477259 0.821125865 0.664389670
0.790765166 0.835799754 0.678305089
0.863251030 0.855787277 0.722201169
0.928525746 0.887539208 0.766856253
0.002023998 0.109930255 0.376850247
0.053636827 0.134092405 0.371790141
0.175332397 0.172042832 0.362049133
0.294623226 0.223655984 0.355344236
0.608855367 0.310815811 0.455408216
0.000000000 0.204047978 0.351549715
0.067931570 0.212144285 0.353826821
0.171790108 0.236812249 0.354585409
0.296900541 0.271726727 0.366982996
0.633396327 0.361796379 0.475015759
0.035420407 0.328652710 0.364326268
0.113219544 0.344085783 0.382416368
0.231751800 0.362681955 0.397090375
0.386970460 0.396710515 0.425553530
0.709044635 0.497153759 0.530929804
0.286907256 0.519038439 0.461227238
0.339784652 0.531056285 0.479190558
0.482985646 0.564452887 0.518406093
0.667299271 0.629854262 0.584693193
0.825426877 0.698291898 0.644022942
0.752941132 0.829727709 0.714357734
0.769259810 0.832511008 0.725110650
0.807716191 0.846932173 0.745730102
0.865148664 0.863377571 0.767994761
0.937381506 0.889183700 0.809740782
0.000000000 0.229095623 0.698924363
0.117014647 0.245161489 0.700189531
0.363566965 0.274889618 0.694243968
0.600632727 0.322453916 0.688045382
0.801012218 0.402023733 0.692346573
0.027577400 0.317393929 0.691207826
0.186210930 0.323972166 0.682099819
0.393674552 0.348133802 0.678557992
0.610626101 0.389753312 0.685009301
0.806578100 0.456925988 0.699557424
0.259962201 0.478305042 0.680455565
0.334724903 0.479696155 0.685768604
0.480075777 0.498671591 0.685136020
0.661100566 0.528779149 0.698545098
0.830360830 0.578494608 0.717773139
0.560784101 0.676280737 0.726881564
0.592662632 0.675142348 0.726881623
0.654395878 0.683997571 0.732447863
0.760911047 0.700948715 0.743832886
0.872865260 0.742441595 0.765338600
0.787602603 0.851612747 0.812397361
0.790512502 0.855787456 0.810499549
0.826059163 0.863377452 0.825679541
0.885768652 0.880202472 0.842757881
0.949398756 0.914231598 0.898671806
