Assets/Shaders/EldamarStudio/100 Sci-Fi LUTs Pack/LUTs/cube/Elfhelm LUT.cube
LUT_3D_SIZE 8
DOMAIN_MIN 0.000000 0.000000 0.000000
DOMAIN_MAX 0.903226 0.903226 0.903226
0.090195999 0.011765000 0.019608000
0.087033994 0.013662547 0.021125998
0.107400000 0.044654999 0.048576999
0.149652004 0.068944000 0.076787002
0.197343379 0.100189991 0.098671801
0.264389724 0.148639992 0.133206993
0.381910264 0.209107995 0.181656986
0.604933202 0.265527993 0.244655117
0.090575546 0.037191547 0.032891002
0.087413445 0.041872546 0.040734001
0.111322001 0.065781094 0.064642541
0.148892999 0.094370641 0.087792896
0.189500377 0.128779545 0.104237802
0.257178754 0.173054993 0.143706739
0.377482742 0.225553572 0.189499989
0.592535913 0.285642236 0.251486391
0.097280100 0.116635092 0.081341088
0.093738452 0.127261549 0.092093550
0.108918190 0.140291005 0.095636003
0.142694190 0.152814895 0.107020549
0.185578987 0.178494483 0.127514273
0.260214716 0.224794075 0.163946733
0.392030388 0.275648087 0.209994003
0.622264266 0.332700640 0.269829154
0.063251354 0.202909291 0.127261356
0.074510001 0.205186278 0.131182641
0.096394904 0.209867179 0.132700637
0.126122996 0.222011641 0.146868646
0.179253176 0.246679187 0.171537191
0.267046005 0.289310753 0.203542084
0.418089837 0.336495548 0.241745561
0.644908190 0.404933602 0.308791608
0.018089809 0.306894183 0.188614994
0.049082547 0.311321735 0.197849646
0.082099997 0.318026394 0.203668386
0.135736838 0.322201043 0.209361017
0.201012164 0.335863382 0.222391188
0.309677273 0.376597375 0.251865745
0.487918824 0.430613548 0.296900809
0.707147181 0.503984630 0.364958793
0.100948453 0.446426481 0.275901705
0.130929798 0.452118725 0.281340897
0.181530654 0.457052529 0.287286460
0.248829737 0.470588356 0.294370353
0.343579829 0.484250516 0.311954528
0.443390191 0.502972722 0.326755226
0.610246778 0.552055717 0.373560995
0.785199165 0.623908520 0.454901785
0.386970401 0.636432528 0.388741553
0.407463849 0.636559606 0.399746537
0.446426213 0.645034611 0.407716572
0.505123138 0.654395819 0.425679564
0.579886317 0.663124621 0.438709825
0.661480248 0.674383581 0.465907991
0.744212508 0.691334605 0.491334558
0.846426189 0.740291119 0.556609571
0.722327590 0.835926473 0.607210577
0.744085670 0.840354443 0.630360544
0.761669397 0.841113567 0.638709426
0.784693420 0.843643606 0.647311568
0.819354773 0.850600600 0.667931557
0.859076560 0.858570516 0.689436555
0.890955031 0.872991800 0.712586582
0.936495781 0.885515451 0.739405513
0.086274996 0.023908548 0.029348547
0.089816548 0.016824547 0.032891002
0.107779548 0.045414094 0.057178997
0.137128189 0.074762642 0.079443641
0.181783989 0.112713374 0.110436089
0.238835976 0.161669537 0.147501737
0.359898537 0.211764738 0.203542277
0.572802067 0.273370981 0.256799370
0.081973456 0.030866545 0.030487092
0.083871000 0.039468545 0.038330093
0.107779548 0.063757442 0.062618993
0.135609999 0.098671995 0.093232088
0.173940197 0.131941751 0.121442184
0.240354180 0.177355930 0.160025343
0.353826702 0.228209823 0.198482022
0.559645414 0.280202657 0.261353523
0.086274996 0.118279189 0.088804543
0.093358904 0.119417734 0.093991093
0.109424450 0.123719089 0.101454645
0.131688997 0.148007274 0.117899634
0.169512734 0.175332189 0.140543729
0.239089012 0.219607636 0.176850289
0.376217455 0.272865534 0.224794284
0.600758672 0.336622089 0.279696733
0.069449544 0.192915633 0.134598181
0.082479708 0.198102280 0.142568007
0.098418549 0.203542188 0.145224631
0.120176733 0.212523639 0.157748654
0.179000542 0.241113171 0.178114742
0.250094652 0.282606065 0.212144375
0.398608744 0.335356891 0.250094831
0.625932813 0.399494082 0.313851982
0.032637551 0.301075548 0.202023998
0.054901905 0.304617196 0.202403545
0.086527549 0.303732067 0.206324741
0.139279097 0.316382200 0.218975559
0.195192739 0.330803007 0.230993181
0.297406703 0.365970910 0.258064568
0.477166295 0.425806373 0.304491073
0.703225732 0.500189483 0.375205815
0.102340259 0.439089477 0.275395483
0.127387539 0.439468920 0.281720459
0.175711289 0.442251742 0.287792534
0.241872355 0.456040502 0.298292071
0.327134818 0.472106248 0.312839836
0.425806731 0.486400992 0.327893674
0.589374006 0.543200433 0.374699533
0.785072684 0.621125638 0.458443791
0.381530821 0.621885121 0.401012093
0.386843890 0.629728079 0.401138544
0.422770202 0.626944602 0.406451613
0.484629512 0.637950540 0.418090075
0.556230307 0.650980413 0.434029132
0.645414114 0.659708977 0.457811356
0.730297267 0.681973279 0.490322858
0.836559296 0.725869596 0.552055478
0.720936120 0.818342566 0.609234273
0.724098563 0.825174034 0.612650096
0.737254441 0.823023558 0.619481206
0.763314247 0.828968942 0.630233705
0.801517785 0.839974761 0.649209261
0.848070681 0.848703146 0.679190457
0.886274338 0.862997890 0.704237521
0.929664850 0.882352769 0.734977365
0.082353003 0.044654999 0.082985193
0.087033898 0.040734001 0.082985193
0.115243196 0.052498195 0.093991093
0.142694101 0.082605645 0.119923994
0.179506809 0.122201189 0.143327191
0.231878370 0.170651481 0.181277722
0.337254822 0.228715986 0.227198005
0.563440621 0.282605976 0.284883082
0.083112098 0.067425996 0.076660186
0.092852540 0.071726643 0.098418549
0.107020542 0.081467189 0.108159088
0.133332998 0.112460449 0.128146544
0.167742103 0.145730302 0.154712364
0.221252441 0.195445925 0.193168640
0.338266909 0.244781539 0.231372520
0.553067386 0.298039436 0.292852551
0.087033898 0.115117088 0.108792089
0.095635898 0.132448003 0.122580543
0.112966098 0.153573990 0.149651989
0.123845994 0.163694009 0.150410995
0.164453000 0.191018179 0.173814192
0.236432374 0.235041082 0.210752994
0.358127654 0.281847179 0.251359999
0.594686508 0.345730811 0.315496653
0.071473904 0.211132541 0.168374196
0.079696454 0.211512089 0.178241551
0.096394904 0.220873088 0.180898085
0.122200996 0.229095548 0.185199544
0.173434645 0.254901737 0.206704378
0.248703480 0.291587651 0.237697735
0.398988187 0.344212651 0.283365101
0.632890284 0.408475608 0.347375154
0.050980002 0.304744184 0.222391188
0.066666991 0.309677511 0.243010998
0.101707995 0.316382080 0.238203898
0.145097822 0.323086649 0.241999179
0.205060095 0.336748987 0.255408108
0.303605080 0.375458717 0.287792742
0.479190439 0.431372672 0.326375484
0.708665133 0.507273734 0.405818850
0.139152199 0.451486647 0.311574996
0.161416650 0.450221270 0.318152905
0.203795359 0.458697259 0.316887736
0.262745112 0.466666669 0.329411715
0.348513752 0.480708361 0.341049850
0.443263829 0.494370818 0.354585588
0.605945706 0.548007727 0.406451941
0.789626956 0.629348397 0.487539440
0.402783096 0.631752014 0.423908830
0.426312119 0.636053205 0.437191725
0.460847855 0.639721692 0.438456774
0.512081027 0.650347829 0.451233119
0.574699521 0.656925917 0.464895636
0.658064723 0.667552233 0.482985348
0.737254918 0.686907291 0.508791685
0.844275773 0.736496031 0.578115106
0.736875057 0.829095423 0.633270204
0.741682529 0.836179912 0.646299779
0.761037350 0.833016813 0.648197293
0.782921851 0.839974821 0.660341740
0.817836940 0.844781756 0.675268531
0.847058773 0.856293440 0.690195680
0.892599761 0.869702876 0.718658805
0.934598505 0.882352829 0.742314935
0.068310998 0.056040641 0.161543638
0.083618350 0.056420092 0.163187638
0.111321993 0.066160545 0.159266636
0.131688997 0.085262284 0.154206276
0.171916634 0.125995994 0.174572989
0.224288628 0.174825832 0.208981380
0.334345222 0.233775929 0.264642566
0.559898555 0.296014965 0.331941634
0.079949193 0.088931449 0.146236271
0.090195999 0.087666094 0.145604074
0.107779637 0.097406536 0.152308539
0.122959994 0.113092631 0.151802376
0.166856185 0.143579826 0.176091090
0.220746383 0.192156821 0.217710286
0.329917669 0.249715567 0.263377815
0.541302741 0.306135148 0.333459735
0.087159999 0.136622444 0.170777991
0.093358897 0.145983636 0.164705738
0.098797999 0.160151646 0.174952641
0.124225453 0.167109638 0.184060991
0.160531178 0.203542084 0.209487647
0.228083625 0.241113096 0.243896440
0.355597824 0.295129478 0.291587621
0.583554447 0.354079902 0.352435112
0.067172654 0.210246637 0.185072631
0.075268999 0.212144285 0.195951924
0.103478998 0.236432269 0.216445640
0.137381643 0.257937908 0.239974633
0.172802284 0.271600276 0.246553093
0.249209344 0.304490864 0.273118377
0.394054472 0.351043642 0.314611286
0.620619833 0.417457104 0.379886091
0.067552000 0.313598722 0.260847181
0.083618186 0.320177197 0.260973811
0.119544372 0.331941396 0.281467527
0.162555277 0.336622387 0.282226533
0.222011372 0.353067368 0.295888484
0.319924086 0.385578722 0.321442038
0.488172024 0.440860271 0.364452809
0.706134975 0.513852000 0.438709795
0.163188010 0.448071092 0.343580276
0.183555007 0.454648763 0.339785188
0.221505642 0.458570570 0.347628266
0.278051972 0.464895457 0.358507365
0.360025048 0.484882921 0.372675568
0.448449910 0.503731728 0.387982219
0.611638248 0.554838717 0.437444568
0.780392110 0.635546982 0.519797325
0.413915485 0.628083467 0.454901904
0.434281766 0.629728198 0.457432121
0.456925750 0.630360186 0.461227030
0.511321783 0.639848173 0.471094251
0.577482402 0.656040490 0.488804817
0.657432020 0.666287363 0.508918405
0.733586490 0.685135484 0.535610199
0.838962734 0.738393486 0.602529883
0.739658237 0.820746601 0.644022584
0.731562018 0.821758389 0.643516481
0.750537395 0.824794471 0.651992381
0.776344061 0.831246018 0.663504064
0.807716548 0.840227604 0.683870792
0.847944498 0.850474536 0.701201439
0.890702128 0.867678702 0.734724641
0.936495721 0.880328596 0.763820231
0.043136999 0.052498192 0.250727177
0.060341999 0.064263187 0.248450279
0.101834096 0.082226291 0.240607083
0.133206800 0.113599084 0.232384637
0.164453179 0.144845188 0.231119186
0.230233982 0.185578793 0.254775733
0.351170272 0.239594981 0.306135446
0.575458586 0.299557149 0.380265623
0.059329357 0.105376348 0.222643733
0.080708288 0.107273988 0.233143538
0.101960905 0.122580536 0.229980826
0.130550444 0.141049996 0.228462741
0.163819999 0.162934989 0.228715986
0.222011745 0.204806730 0.260847449
0.343200535 0.256166995 0.305376172
0.562048972 0.317141175 0.377608776
0.058823809 0.168374375 0.226439089
0.073877193 0.173940286 0.234788343
0.087666094 0.181784093 0.223782271
0.123086907 0.194307193 0.229854539
0.162808284 0.211511999 0.243643075
0.237570822 0.249462441 0.282858998
0.369006842 0.299810290 0.334092349
0.601517916 0.365338326 0.400632530
0.054649167 0.236306250 0.251865625
0.066666901 0.244908437 0.251865745
0.096774451 0.253763288 0.256546527
0.137002096 0.274509609 0.278811008
0.187349826 0.289310813 0.286147833
0.270841122 0.323339552 0.320177078
0.418721914 0.370398372 0.363946557
0.634661376 0.435041130 0.430613428
0.068816997 0.319544196 0.296900809
0.087159738 0.330929756 0.309424371
0.132194996 0.343073994 0.312460244
0.207969472 0.380392045 0.342694581
0.292473167 0.406451374 0.370525151
0.368627101 0.418975383 0.382669091
0.518532515 0.456546366 0.416698366
0.713598609 0.524857759 0.486906946
0.201391652 0.464010179 0.382289469
0.218216196 0.468184441 0.382542908
0.267046362 0.476533741 0.396710902
0.339152336 0.500063002 0.417710125
0.411258817 0.508665502 0.425300449
0.497659594 0.527767479 0.443643212
0.646932244 0.578241706 0.492725968
0.796331227 0.642757773 0.563693821
0.455534726 0.633270025 0.500189841
0.476027668 0.641745925 0.503225803
0.502719760 0.645287633 0.510436475
0.545097828 0.651107013 0.517014563
0.608475685 0.662492275 0.531688571
0.671726584 0.676660299 0.548260450
0.752434790 0.695256591 0.578494549
0.852245569 0.751296461 0.641998649
0.742188156 0.821125746 0.683744431
0.747121990 0.825806260 0.678684294
0.760784090 0.829854488 0.685768485
0.785704970 0.839595199 0.696141481
0.817710340 0.846426249 0.709297836
0.855787158 0.858064413 0.729285359
0.895509183 0.870841265 0.753447175
0.940417469 0.883997262 0.781656921
0.000000000 0.093737990 0.346489727
0.019987721 0.102846533 0.348260462
0.081214458 0.124730729 0.335104108
0.141682282 0.148260638 0.330676734
0.193674922 0.176850185 0.324731469
0.256166726 0.205439731 0.324983984
0.363440841 0.252118975 0.362302452
0.603542209 0.308032721 0.436685622
0.006072264 0.139784545 0.330170721
0.028336369 0.150664032 0.318911731
0.082353100 0.161669627 0.328020364
0.134598181 0.174952641 0.321315646
0.186843649 0.193674728 0.319038630
0.242378458 0.222391173 0.321821481
0.359519333 0.259835362 0.359392583
0.585578620 0.319291532 0.435167491
0.019228527 0.208096176 0.315370083
0.039974365 0.211637929 0.318279505
0.085389003 0.215180084 0.319924325
0.136243001 0.228969008 0.319670826
0.185325459 0.243769810 0.327640802
0.257432193 0.267425746 0.341429383
0.385705173 0.309930354 0.380392373
0.628842473 0.373434663 0.460341483
0.026818620 0.275015742 0.322074533
0.049841553 0.278558046 0.331562012
0.097659990 0.286906928 0.330044389
0.146742269 0.295382708 0.338393092
0.213535905 0.311448455 0.352434993
0.282479465 0.329411358 0.363820344
0.434661448 0.376850009 0.410372972
0.661100388 0.442757726 0.487792283
0.073245183 0.357748389 0.357368708
0.103858106 0.365591347 0.370904416
0.152182162 0.369006932 0.371916354
0.223782107 0.392536134 0.389753282
0.314484090 0.419987112 0.413662136
0.405186355 0.440101177 0.429854661
0.546363235 0.481594086 0.473624438
0.731309295 0.544718683 0.541808546
0.220114186 0.471473724 0.422770470
0.243263930 0.479316711 0.433523446
0.295761913 0.491081715 0.438709825
0.370398462 0.513093054 0.462239206
0.490449071 0.552055657 0.505249739
0.594433904 0.583301425 0.536116421
0.691081703 0.605692744 0.559013188
0.805439472 0.665401578 0.608602285
0.477292538 0.637571275 0.545603812
0.492346466 0.645034850 0.538266659
0.522960186 0.651739180 0.550916851
0.573814213 0.663124621 0.563947022
0.648576736 0.684123993 0.595825493
0.708285987 0.696900547 0.605819046
0.769892514 0.710183501 0.631499350
0.868058264 0.766350210 0.688930988
0.748134017 0.829221547 0.713345706
0.759519041 0.828968942 0.710436165
0.769259751 0.826691806 0.716508389
0.790638626 0.839342058 0.727387309
0.815432966 0.846173406 0.737760961
0.849968612 0.856040478 0.753067613
0.891840696 0.872232795 0.777102888
0.932574451 0.888171554 0.796837568
0.000000000 0.155850708 0.490701973
0.000000000 0.160784245 0.495509267
0.062491998 0.173055276 0.482099861
0.172422543 0.194054276 0.482858568
0.274256647 0.223908991 0.478937536
0.371410459 0.246299744 0.477039814
0.479822844 0.276407570 0.479569554
0.637191653 0.318279535 0.515622854
0.003542452 0.187729090 0.472991824
0.003542452 0.194686547 0.478810817
0.064642459 0.201265186 0.478431344
0.171157479 0.221252337 0.471220553
0.269576430 0.238836274 0.462618560
0.357621551 0.269449800 0.468437821
0.469829082 0.290828735 0.477925241
0.623149693 0.332574040 0.512080729
0.001644712 0.257685184 0.470335454
0.002656740 0.261733294 0.471094310
0.088931277 0.269323111 0.470588267
0.188235357 0.277040005 0.466287434
0.278810620 0.295129538 0.464769542
0.377861798 0.313093066 0.473371357
0.491461128 0.336622268 0.485894740
0.657178819 0.385199249 0.533459723
0.010752993 0.334218532 0.463251531
0.044149175 0.334597975 0.464010268
0.131309301 0.340544075 0.467678905
0.213915557 0.351043642 0.467805535
0.307906270 0.364326090 0.474383056
0.411511600 0.380771756 0.487412840
0.519291401 0.403795272 0.502593160
0.689942718 0.457811475 0.553193927
0.140670642 0.427324533 0.487539262
0.176217556 0.433776081 0.486401021
0.227830455 0.435294271 0.496141762
0.297027111 0.440860391 0.496268451
0.386717111 0.457305670 0.511954308
0.483364880 0.471726924 0.523592532
0.596457899 0.497153640 0.540923297
0.753194034 0.556483328 0.600253105
0.329032212 0.541428983 0.539278865
0.352181733 0.547248602 0.544971287
0.386717200 0.549272776 0.547121823
0.444022834 0.561416745 0.556356847
0.539531887 0.579886019 0.577862382
0.630992889 0.607716501 0.598482013
0.718658805 0.633649766 0.623655736
0.827324152 0.685135543 0.674256504
0.510562837 0.655407548 0.595951557
0.521821558 0.653763235 0.598608255
0.554332614 0.660088658 0.604300797
0.603542209 0.671600163 0.619481564
0.668564439 0.690828264 0.648450375
0.748766720 0.730044246 0.682605863
0.817204237 0.757368565 0.711322308
0.879949510 0.789247036 0.740290880
0.750537515 0.823529422 0.750790715
0.765085459 0.825426936 0.748007298
0.777735531 0.834282100 0.752688229
0.803162158 0.841872394 0.762935042
0.832510889 0.851107001 0.779253662
0.866287470 0.866413534 0.796584547
0.901707649 0.876913428 0.816192269
0.941303015 0.892979145 0.839341879
0.000000000 0.229095623 0.698924363
0.009867080 0.235546961 0.698798239
0.162808225 0.248703614 0.698924363
0.299177706 0.260088801 0.698924363
0.438456774 0.285894990 0.689310551
0.567236066 0.315876007 0.689816356
0.690448821 0.353320628 0.693990946
0.801012218 0.402023733 0.692346573
0.000000000 0.262365490 0.687792361
0.028842717 0.264389336 0.691967010
0.171536863 0.274889171 0.686780214
0.303225756 0.291334510 0.678684354
0.436053097 0.309171140 0.685388565
0.563314021 0.341429383 0.683870673
0.686021626 0.371789873 0.681340575
0.799746990 0.414801061 0.691967010
0.048576675 0.335103869 0.684123695
0.107526824 0.340670168 0.680834651
0.230233848 0.346236825 0.687159717
0.339911342 0.359392762 0.686527193
0.458949834 0.373940617 0.683491409
0.584060550 0.398355424 0.684250414
0.702339888 0.432384610 0.691207886
0.808096230 0.469070226 0.698292255
0.177608892 0.421378881 0.672232568
0.223529220 0.425300390 0.679822505
0.291334569 0.432764143 0.682226360
0.393168867 0.444655240 0.679190159
0.500316024 0.456672907 0.681593657
0.609487474 0.473118216 0.685262382
0.718911648 0.499810159 0.696268022
0.813409209 0.533586025 0.702213585
0.343200386 0.529664576 0.685009420
0.367615402 0.533459783 0.691966772
0.403035820 0.533206761 0.691334426
0.476407468 0.539025605 0.687412918
0.566603601 0.547248483 0.689942718
0.655786991 0.565211952 0.698292136
0.748893082 0.588741243 0.707906425
0.831372797 0.620366752 0.721188903
0.521821380 0.652245224 0.721315265
0.531941831 0.649588823 0.717520416
0.563314199 0.653890193 0.720050693
0.601138115 0.653636634 0.720176697
0.657432079 0.657938182 0.718279600
0.725743175 0.672865272 0.726628304
0.800759077 0.691967070 0.740037799
0.866287470 0.718153179 0.755977273
0.658950031 0.758253872 0.749778509
0.666919708 0.753320396 0.752055883
0.689183950 0.752561569 0.755217850
0.715875685 0.762934744 0.759519219
0.749019504 0.761669755 0.765338182
0.795825064 0.775585055 0.773687363
0.846805930 0.790259540 0.788361847
0.897785962 0.813535988 0.808602035
0.787602603 0.851612747 0.812397361
0.786843598 0.858190596 0.811511695
0.795066357 0.855534375 0.815812647
0.813915133 0.858317375 0.819354773
0.838836253 0.861985743 0.829601228
0.874130487 0.876407564 0.841745675
0.911321938 0.894496918 0.863251269
0.949398756 0.914231598 0.898671806
