Assets/Shaders/EldamarStudio/100 Sci-Fi LUTs Pack/LUTs/cube/Eorwyn LUT.cube
DOMAIN_MIN 0 0 0
DOMAIN_MAX 1 1 1
LUT_3D_SIZE 32
0.003922000 0.000000000 0.000000000
0.000885613 0.000000000 0.000000000
0.004300999 0.000000000 0.002150774
0.011638161 0.000000000 0.002656839
0.021884998 0.000379548 0.000758999
0.040100999 0.003415935 0.006830999
0.050727319 0.006451677 0.007843000
0.063124701 0.006198711 0.006198711
0.079063997 0.003922000 0.003922001
0.097280011 0.003922000 0.003922002
0.103857994 0.003922000 0.006831129
0.122074500 0.001897744 0.011890996
0.148640275 0.000000000 0.016824644
0.179000989 0.000000000 0.020367032
0.209360957 0.000000000 0.029475411
0.244528577 0.000000000 0.036179997
0.283997357 0.000000000 0.040733807
0.327767104 0.000000000 0.043137003
0.376343966 0.000000000 0.043137014
0.430486739 0.000000000 0.054269716
0.490828186 0.001897740 0.064516254
0.550537407 0.002909872 0.072612002
0.602656484 0.000000000 0.078810506
0.666413724 0.000000000 0.087918907
0.725616813 0.000000000 0.099303991
0.784693241 0.000000000 0.112839647
0.843896210 0.000000000 0.128526121
0.895509303 0.000000000 0.146742880
0.941808760 0.000000000 0.170271948
0.976723135 0.000000000 0.194560379
0.995192647 0.000885608 0.218848974
0.992156982 0.003922000 0.243137002
0.000885613 0.000000000 0.000000000
0.003922000 0.003036387 0.003036387
0.005186613 0.005186613 0.005186613
0.010372999 0.007337161 0.004427613
0.018848708 0.008728839 0.000000000
0.037065387 0.006451548 0.000758999
0.047691062 0.004427936 0.004301323
0.061733026 0.008096385 0.009740673
0.076787099 0.009234905 0.012270710
0.088172399 0.006957614 0.009994002
0.109297507 0.009867484 0.012903129
0.128146499 0.007969745 0.017962996
0.152435273 0.006072000 0.025173642
0.178748026 0.005819032 0.031751998
0.206325352 0.003036387 0.032511022
0.239089161 0.000632583 0.034408614
0.282479554 0.000000000 0.040733803
0.330170900 0.000000000 0.047438379
0.376343966 0.000000000 0.052245393
0.430486739 0.000000000 0.055028744
0.485135943 0.000000000 0.066413991
0.544465661 0.000885613 0.075648390
0.602656484 0.000000000 0.081973374
0.666413724 0.000000000 0.093990907
0.734724820 0.000000000 0.103099279
0.794054270 0.000000000 0.117267355
0.848956168 0.000000000 0.135104060
0.895509303 0.000000000 0.155850500
0.936495781 0.005312988 0.174067259
0.975964367 0.002530018 0.199367538
0.999114394 0.000000000 0.224035576
0.998228967 0.000885613 0.246173397
0.000000000 0.008601999 0.000000000
0.005186613 0.009487612 0.003036387
0.008223000 0.008223000 0.003922000
0.016318934 0.012523773 0.004427613
0.024667999 0.015307001 0.001138547
0.034029096 0.010499839 0.006451774
0.048956450 0.011764548 0.004680548
0.059708770 0.010373225 0.007716934
0.076154321 0.014674323 0.013535776
0.088045724 0.014421292 0.011891488
0.108791903 0.017204097 0.018975129
0.128019765 0.018216226 0.019987000
0.153194144 0.014168002 0.025806289
0.179000989 0.011638000 0.033143774
0.208222613 0.006704648 0.033143774
0.244655564 0.003668970 0.037444774
0.282606155 0.002150774 0.037444774
0.331689090 0.001518198 0.044655409
0.378747791 0.000000002 0.052245241
0.432637513 0.002150774 0.064136580
0.491081238 0.000253034 0.069070220
0.545224667 0.000000000 0.076660231
0.602656484 0.000000000 0.080834724
0.666413724 0.000000000 0.095003001
0.728273034 0.000000000 0.107020512
0.792536139 0.000000000 0.120303549
0.845920146 0.000506064 0.137507766
0.889816523 0.002150774 0.153826430
0.934345543 0.001011988 0.178873867
0.973813832 0.003542000 0.204174578
0.998229027 0.000000000 0.229221955
0.995698988 0.000000000 0.249209225
0.001265161 0.019481160 0.003795161
0.008601999 0.018215999 0.003036387
0.008728612 0.021125773 0.003922000
0.020620160 0.015559838 0.006452000
0.033902999 0.022011386 0.005313159
0.036053225 0.020367000 0.015306933
0.050474316 0.020619836 0.010499839
0.061479993 0.022011161 0.010752547
0.075901091 0.022770256 0.015306934
0.092093498 0.025806643 0.016825004
0.113092870 0.025047451 0.023023449
0.133586153 0.027324161 0.027324161
0.151802450 0.028462805 0.026185807
0.179506987 0.023023289 0.031625967
0.211890951 0.017963165 0.032637838
0.246932387 0.011764646 0.037444834
0.290449381 0.005186839 0.046805996
0.333586514 0.003921847 0.048070990
0.381530851 0.000253034 0.056546204
0.435673922 0.001518196 0.064895369
0.492852449 0.002024260 0.074382998
0.551549494 0.001012128 0.080455258
0.603668630 0.001265161 0.081593789
0.665148556 0.001265161 0.096773908
0.726628721 0.000000000 0.109677315
0.782162905 0.001265161 0.122074321
0.838330090 0.000759097 0.139785066
0.882352889 0.002277287 0.152688161
0.928779304 0.002530328 0.174319789
0.968247950 0.000000000 0.200885355
0.998861432 0.000000000 0.231245950
0.994686961 0.000000000 0.250979990
0.003922000 0.028968997 0.011765000
0.012650161 0.027071159 0.007210998
0.012902999 0.030739775 0.005060451
0.016824773 0.033775933 0.007210999
0.039974999 0.025426548 0.012903451
0.039974999 0.034534931 0.025047449
0.053636998 0.036812000 0.019228552
0.067552090 0.036812000 0.014927384
0.076280639 0.037191547 0.017963095
0.097533047 0.040227935 0.027071485
0.118785411 0.035674002 0.030360872
0.139278784 0.035294287 0.033776287
0.160910740 0.038330190 0.034914646
0.180898532 0.040607486 0.032384966
0.217457056 0.037444584 0.035420574
0.251486391 0.031119294 0.040859994
0.292093813 0.021252098 0.051106732
0.340797067 0.009234553 0.064009987
0.386337578 0.003162544 0.070082001
0.439089477 0.000758999 0.071346998
0.495256245 0.000000000 0.075142093
0.551549494 0.000632580 0.081973255
0.606451988 0.003542452 0.088045985
0.664389491 0.003542452 0.102466643
0.722833514 0.002024260 0.115749568
0.779127240 0.001391672 0.126375973
0.826565504 0.003795484 0.140544072
0.875142276 0.000759100 0.155724436
0.923339546 0.002277285 0.173560962
0.963061094 0.002150783 0.194180831
0.990891576 0.000379548 0.220240518
1.000000000 0.000379548 0.250600547
0.003922000 0.041112997 0.011765000
0.009994000 0.047185000 0.017836999
0.018722162 0.043136932 0.015433224
0.022770159 0.043390159 0.015433224
0.030866612 0.043643318 0.018975452
0.046046998 0.040606931 0.022011064
0.051106997 0.047185000 0.029095709
0.069070406 0.048955999 0.028842937
0.087286867 0.048955999 0.028589774
0.100569434 0.049335554 0.027071485
0.121821798 0.052371934 0.030360872
0.139026195 0.051865995 0.035420999
0.160910934 0.053510576 0.038709935
0.190006152 0.055787869 0.038456965
0.229475290 0.049715102 0.041492574
0.263630658 0.051359802 0.046931997
0.303099185 0.047817871 0.056040380
0.350410759 0.038836308 0.066793352
0.401517957 0.024414916 0.070082009
0.447059035 0.009993569 0.076154009
0.499810457 0.003036003 0.081214473
0.553953350 0.000000000 0.089310862
0.606451988 0.000506065 0.100189991
0.667172849 0.000506065 0.106261998
0.718279481 0.002783353 0.120683208
0.773055017 0.003415935 0.128399998
0.826186061 0.003922000 0.134978056
0.866033912 0.003795487 0.161796436
0.911954522 0.000759102 0.179632962
0.950917125 0.000506065 0.196078181
0.980771601 0.000885608 0.217204243
1.000000000 0.003415935 0.247564942
0.006451677 0.060847320 0.021884996
0.012523677 0.059329644 0.022896998
0.018595677 0.065401644 0.028968999
0.027324161 0.063377641 0.027071483
0.034788094 0.064389773 0.027577773
0.052119251 0.061353385 0.030613385
0.062238999 0.063377641 0.036179319
0.074889407 0.069449641 0.040607385
0.095888995 0.071979739 0.040733904
0.111575007 0.073750958 0.037697516
0.127387866 0.071600191 0.040480867
0.154712498 0.070588067 0.043516740
0.179253951 0.072359279 0.046805676
0.211258665 0.077040315 0.047311738
0.246173203 0.080076128 0.052625217
0.285641760 0.081214152 0.060467832
0.325363547 0.081214510 0.066666320
0.372801721 0.075522065 0.075521827
0.426312268 0.064136662 0.080455683
0.477419436 0.056546591 0.091334648
0.532447755 0.039468486 0.099303894
0.584313571 0.025806194 0.103984669
0.631751955 0.014547532 0.109930180
0.692473471 0.002530322 0.118405998
0.748640180 0.000253034 0.138140559
0.800505877 0.001391678 0.155471295
0.854016364 0.001391678 0.164326310
0.893484712 0.001391678 0.181530416
0.930676460 0.001265167 0.208475918
0.967362344 0.003541982 0.228463113
0.990259349 0.027197720 0.251359910
1.000000000 0.069702625 0.285009325
0.006198711 0.082099698 0.035673700
0.012270711 0.077419378 0.034028992
0.018342711 0.082479700 0.035040993
0.024414711 0.084756538 0.038582996
0.035041098 0.084376991 0.037444830
0.055787869 0.082605764 0.043010764
0.071347386 0.086274311 0.043642998
0.085388690 0.087665990 0.049715411
0.102846377 0.092979088 0.052751604
0.120177008 0.096015468 0.051486216
0.142061859 0.096521124 0.054269575
0.162428781 0.095129445 0.052372158
0.193928197 0.095508978 0.056546416
0.227830723 0.101328664 0.058317382
0.264010072 0.106008977 0.065781116
0.303858161 0.108032890 0.069323182
0.347880751 0.112586699 0.078431189
0.392915815 0.111827970 0.085894689
0.443516701 0.107779711 0.093991227
0.500316083 0.099810392 0.100695997
0.549399197 0.096015334 0.114231661
0.606072009 0.081846811 0.122327410
0.650347650 0.064263009 0.124098390
0.708032846 0.052118987 0.134724602
0.764199853 0.041113514 0.148639843
0.817457259 0.039468803 0.168753937
0.869829118 0.039974738 0.186717123
0.910436153 0.041113090 0.201138407
0.945603609 0.049335793 0.226565450
0.978494346 0.064389475 0.247059152
1.000000000 0.078431055 0.272738934
1.000000000 0.143706083 0.309170991
0.003162904 0.104870096 0.050854094
0.007716905 0.100316092 0.046299711
0.014548001 0.102719776 0.049209189
0.018342907 0.108286031 0.046932094
0.027450999 0.105629191 0.046552643
0.052498769 0.105629191 0.054143030
0.073244900 0.109171189 0.054648772
0.092979088 0.113472186 0.056546323
0.114990182 0.114231281 0.062618904
0.130170584 0.117267668 0.065654516
0.156230047 0.121062420 0.069449961
0.178747356 0.122074291 0.068690993
0.204553813 0.123592287 0.065654993
0.238203958 0.129665002 0.071474023
0.277166396 0.133206666 0.079569764
0.319797665 0.134598181 0.082985193
0.363061368 0.136875272 0.087539189
0.411638081 0.142947271 0.095382571
0.454396009 0.149019271 0.107147105
0.510562778 0.143453538 0.112460449
0.564832211 0.140038192 0.120809734
0.611385286 0.139532194 0.134471998
0.660214961 0.133713186 0.140796989
0.714863837 0.126502380 0.152941003
0.767994761 0.118153282 0.165844098
0.820493042 0.112334177 0.180138841
0.870588183 0.112840250 0.195825189
0.913092911 0.115875915 0.214041889
0.948386788 0.128020182 0.237950876
0.978494346 0.148007423 0.261986166
1.000000000 0.175584853 0.281088024
1.000000000 0.208981290 0.317520082
0.000126516 0.132194489 0.066034488
0.000126516 0.132194519 0.056926116
0.006831289 0.131941512 0.065275274
0.010752836 0.133586183 0.069702819
0.012270605 0.135989994 0.061733037
0.042631365 0.135989994 0.058697432
0.067678504 0.135989994 0.061227173
0.091713920 0.139532000 0.065654494
0.118026569 0.144592091 0.071726531
0.151422977 0.147628486 0.077798538
0.175332218 0.153574005 0.083744749
0.195698962 0.155471489 0.087666228
0.219734132 0.156609833 0.089184009
0.253383577 0.160025030 0.089690037
0.289816320 0.166097015 0.092726424
0.333586395 0.169639304 0.098418966
0.375964642 0.172549188 0.105755776
0.417710096 0.176344469 0.113598585
0.466287017 0.182416484 0.116634987
0.514610767 0.182922482 0.125616863
0.569386184 0.182542995 0.132574499
0.623529255 0.182542995 0.141049996
0.672358990 0.182289988 0.152941003
0.727007866 0.182289988 0.165085018
0.777103126 0.181910485 0.179506287
0.825933218 0.182795793 0.195951819
0.873624563 0.185705066 0.214041978
0.916129291 0.188741446 0.232257962
0.953320384 0.197090790 0.250474632
0.982542336 0.211764902 0.276154369
1.000000000 0.233017057 0.304996550
1.000000000 0.260594487 0.332700461
0.000000000 0.162428737 0.078304999
0.000000000 0.171157598 0.089563474
0.004300999 0.169006824 0.078304872
0.006325130 0.170777738 0.076533839
0.003542000 0.175458416 0.069322996
0.018722126 0.177988738 0.073877066
0.059202902 0.175458416 0.078431770
0.090701692 0.176723585 0.083491735
0.121821322 0.181530744 0.089563735
0.157368511 0.186717361 0.095635742
0.184945866 0.192662880 0.095888741
0.213282630 0.196711138 0.101960994
0.238456503 0.196458101 0.104743868
0.268563926 0.195698738 0.104996838
0.304996669 0.196457729 0.108032539
0.351043433 0.202529714 0.113472730
0.394054532 0.210626245 0.118026674
0.435420841 0.217837155 0.123718865
0.483997732 0.221631870 0.129031971
0.532574475 0.222137868 0.140417710
0.581151187 0.225932866 0.147754863
0.632764101 0.226944998 0.156862989
0.681214333 0.225047737 0.170778215
0.727513850 0.225047737 0.180138871
0.777609110 0.227324441 0.196837440
0.823403299 0.230739847 0.212650388
0.868944108 0.235293806 0.229854941
0.916255832 0.238330185 0.250474721
0.948133945 0.249335706 0.268690705
0.980518341 0.264010251 0.293991357
1.000000000 0.281340957 0.319924116
1.000000000 0.300568849 0.339152008
0.000000000 0.202909738 0.098544985
0.000000000 0.207969621 0.098545000
0.004300999 0.214547709 0.103605241
0.005313001 0.211511642 0.095256083
0.000758999 0.214927211 0.088424787
0.009614002 0.217963174 0.089563504
0.028842403 0.224035427 0.093611374
0.079569869 0.219354749 0.099683732
0.119038358 0.222011492 0.104237735
0.159266010 0.228083491 0.107779741
0.195066392 0.230107501 0.112081252
0.228463009 0.236179501 0.120177239
0.261100501 0.238077238 0.126249239
0.291334331 0.236685485 0.128020242
0.324225038 0.240227491 0.129285082
0.364199579 0.243010744 0.134724587
0.409740329 0.249082744 0.139279172
0.450347841 0.258950233 0.143579915
0.496141732 0.263377517 0.151043251
0.542694747 0.265654743 0.156609699
0.591271460 0.265654743 0.164958984
0.639848232 0.270461619 0.173054978
0.688425004 0.269829214 0.187096745
0.735863209 0.273624241 0.198102608
0.781657100 0.273877203 0.207969308
0.826059580 0.275521487 0.227577373
0.867425799 0.280328482 0.245540857
0.911448300 0.284882665 0.268311411
0.948133945 0.291840732 0.284883201
0.973181188 0.305755466 0.306641161
0.996584296 0.321948200 0.333839297
1.000000000 0.335989743 0.351296246
0.000000000 0.264389902 0.126248926
0.000000000 0.265148520 0.121315278
0.002024002 0.269196540 0.121695049
0.005313001 0.273750722 0.121062763
0.000000000 0.270714998 0.118026376
0.004554002 0.272232622 0.114990562
0.013662324 0.279190242 0.114737310
0.051865812 0.282352924 0.119417921
0.114864096 0.277040005 0.127766818
0.164579153 0.281973571 0.129664272
0.206578240 0.284503549 0.128652737
0.245161489 0.287412912 0.137634635
0.286148250 0.292346537 0.149778634
0.323339373 0.292599499 0.155850634
0.358127713 0.297785908 0.157621637
0.394560337 0.300316066 0.162428632
0.433269620 0.302593261 0.168121472
0.476406991 0.308032870 0.171790272
0.519417942 0.313598931 0.180391967
0.564705729 0.315749645 0.186210990
0.612144411 0.319165260 0.191144913
0.657685041 0.320177406 0.200252786
0.705755711 0.323086560 0.212523282
0.753320456 0.327134550 0.224668100
0.796204865 0.330929548 0.236812264
0.840101242 0.330929548 0.250347555
0.878557682 0.332447618 0.271093905
0.916761041 0.339152187 0.294117510
0.950157881 0.347501576 0.316129088
0.976596832 0.357748270 0.336622477
0.991650641 0.372042537 0.365338117
1.000000000 0.384187251 0.388108552
0.000000000 0.347881019 0.158634037
0.000000000 0.345603675 0.156103641
0.000000000 0.346868843 0.156609774
0.000000000 0.350411206 0.156863004
0.000000000 0.352688491 0.150664523
0.000000000 0.349652112 0.147628129
0.002277290 0.354206055 0.144591749
0.030107619 0.357242107 0.147248447
0.096141383 0.356989115 0.154079929
0.175078973 0.353953511 0.169259533
0.223529607 0.359140038 0.160278097
0.266793251 0.362934768 0.162049323
0.308918297 0.365970701 0.171537027
0.357242107 0.369007111 0.183175027
0.402783215 0.372042716 0.189247027
0.441872567 0.372675151 0.195066065
0.478811026 0.372675151 0.201391414
0.516128719 0.373307645 0.207464024
0.561670005 0.376344025 0.213536054
0.607463479 0.376850098 0.222643718
0.654142916 0.379886061 0.229854465
0.700190127 0.384946197 0.238709956
0.739531934 0.387982547 0.253889561
0.784692943 0.388109028 0.266160816
0.823655605 0.392916024 0.280835301
0.862365305 0.396205038 0.297913015
0.903858066 0.397470087 0.316635072
0.937254429 0.406578451 0.334851056
0.965844393 0.417837024 0.362934649
0.987096965 0.429981053 0.389500409
1.000000000 0.442125082 0.416951567
1.000000000 0.454269111 0.456420004
0.000000000 0.381277382 0.179886401
0.000000000 0.387349367 0.182922021
0.000000000 0.389373571 0.178241402
0.000000000 0.394939959 0.179126978
0.000000000 0.401265234 0.180771515
0.000000000 0.398228854 0.171916872
0.000000000 0.402782798 0.168880492
0.000632584 0.407210499 0.175711513
0.041492783 0.409614116 0.184440285
0.150791004 0.411637843 0.184439927
0.215180621 0.411511362 0.196711138
0.273118466 0.412776351 0.199747235
0.321442038 0.414547443 0.205313146
0.363314092 0.417583823 0.210499376
0.408855200 0.420620203 0.216571391
0.454395771 0.421252638 0.220240206
0.496520907 0.421252638 0.226945013
0.535863101 0.421885043 0.234788388
0.570778370 0.424920768 0.240860403
0.619102180 0.427957147 0.252498388
0.661353528 0.426565468 0.260214806
0.704743922 0.427450895 0.268311232
0.748640358 0.430487275 0.281214684
0.785072446 0.433522880 0.296394318
0.825679839 0.440480649 0.313219547
0.863124728 0.444781780 0.333586335
0.901328444 0.445793778 0.356609523
0.940290809 0.452118814 0.380392194
0.973687172 0.458570361 0.401264995
0.991650760 0.469449788 0.424414963
1.000000000 0.481594175 0.447185338
1.000000000 0.493738204 0.474635959
0.000000000 0.436306179 0.210752785
0.000000000 0.439974368 0.211385205
0.006451774 0.439595133 0.207969591
0.003415639 0.444655240 0.205692425
0.000000000 0.452624768 0.209107772
0.000000000 0.451612622 0.202023908
0.000000000 0.456167191 0.202783257
0.000000000 0.460594475 0.194813594
0.021252377 0.462871552 0.203921795
0.120177358 0.464262903 0.212397099
0.210120603 0.461986184 0.219101727
0.267805487 0.459961921 0.221126243
0.323213279 0.461859375 0.227198139
0.366729885 0.465907574 0.232763827
0.410120219 0.466793180 0.236685589
0.460468382 0.467425764 0.247564584
0.506008744 0.468943954 0.255154788
0.550663888 0.469197005 0.263250977
0.592915893 0.468690604 0.265781015
0.628209949 0.471726954 0.277419567
0.672991693 0.476660579 0.293358564
0.711954236 0.475142270 0.303478599
0.753320694 0.475268781 0.315749466
0.796584606 0.476027668 0.330929697
0.830739915 0.479063869 0.343832612
0.867172599 0.486527592 0.363187611
0.901075244 0.489563584 0.384945840
0.932953596 0.495635599 0.403541863
0.962301970 0.504111350 0.429980755
0.986843586 0.508412123 0.458317548
0.996963978 0.517773569 0.481214583
1.000000000 0.528399765 0.502466619
0.000000000 0.493991345 0.244149178
0.000000000 0.495509148 0.239595369
0.001897585 0.495762110 0.239848182
0.009740811 0.493991345 0.240101337
0.003035997 0.501960576 0.242884010
0.003035997 0.504237533 0.237950370
0.000000000 0.506261826 0.233396679
0.003035997 0.509171665 0.235800177
0.021252379 0.512207448 0.229728162
0.103225999 0.512966573 0.246426165
0.198482156 0.510057032 0.251486361
0.269323289 0.511575103 0.251486242
0.323972374 0.509677351 0.255281597
0.374067217 0.513978362 0.264642388
0.422896802 0.511448383 0.267678797
0.461986184 0.511448383 0.271853358
0.510563374 0.516002536 0.280961365
0.555471301 0.518406391 0.293737948
0.602277219 0.516255558 0.298165590
0.644528806 0.514231682 0.306261897
0.682099700 0.517647207 0.323719352
0.721568346 0.522707343 0.337887377
0.757368505 0.520809591 0.349272341
0.797343731 0.520809591 0.365844101
0.835294127 0.521568656 0.375711560
0.871473849 0.521821737 0.390638530
0.903605163 0.528020263 0.411764443
0.929917395 0.535104394 0.428968817
0.955724001 0.542315006 0.451739192
0.982289374 0.546363115 0.475015402
0.994307399 0.553826332 0.508412600
0.998481810 0.564832151 0.529791415
0.000000000 0.545477509 0.276280582
0.000000001 0.546742499 0.271600485
0.000632576 0.546110094 0.268564343
0.001265009 0.547375083 0.272865117
0.006578017 0.548134089 0.280455530
0.006578021 0.554206073 0.277419209
0.002783027 0.553320527 0.271220863
0.002024044 0.554585695 0.269323379
0.033649512 0.553447008 0.273371100
0.106515124 0.556483388 0.285515100
0.199494034 0.554332674 0.288298398
0.271094054 0.557368696 0.288551450
0.327640563 0.561796129 0.290448755
0.381784052 0.561796129 0.305123150
0.438329965 0.556483090 0.308918536
0.478810549 0.553953111 0.309551120
0.515496552 0.557242334 0.314484537
0.560405076 0.563820541 0.321189106
0.602909982 0.563820541 0.336369544
0.649083138 0.560152113 0.345098108
0.691967309 0.559139967 0.357495278
0.729411721 0.561543286 0.374952555
0.762934566 0.564453125 0.381277561
0.796837687 0.564453125 0.398481697
0.831878543 0.565085530 0.407590121
0.865907431 0.564326465 0.418596089
0.904364526 0.561796129 0.437318206
0.929031968 0.570524991 0.458570540
0.953953028 0.575711548 0.477292806
0.978747547 0.579506516 0.496774107
0.999114394 0.582289517 0.516255200
0.996078014 0.600505531 0.549652398
0.000000000 0.584946096 0.303605080
0.000000003 0.591018021 0.315749824
0.002150774 0.590132833 0.311069220
0.002403806 0.591145039 0.308032870
0.000506010 0.596711040 0.310815632
0.000506068 0.602783024 0.307780027
0.000506129 0.596204698 0.307274044
0.000000184 0.596078396 0.309804052
0.029348761 0.598608792 0.315623015
0.142948046 0.592915475 0.321947992
0.224541649 0.593042016 0.322454035
0.289563566 0.596837521 0.324731320
0.341302961 0.601771295 0.328399986
0.387856096 0.604300976 0.335484058
0.436432838 0.604300976 0.344592422
0.488171786 0.598987997 0.345984042
0.531941593 0.597976208 0.353573859
0.572549164 0.600253403 0.366729647
0.615054011 0.597217023 0.375838041
0.654775441 0.600000381 0.391018420
0.695003271 0.600380003 0.399747014
0.732448101 0.600632966 0.409108043
0.765971065 0.600885987 0.420746058
0.802403808 0.600885987 0.432890832
0.836306334 0.603162706 0.440986991
0.864389658 0.604553998 0.451233715
0.889184117 0.604300976 0.467679083
0.922580481 0.604300976 0.488931417
0.949904799 0.605059981 0.499557137
0.973434210 0.609108031 0.514990509
0.990764976 0.614673972 0.533206999
0.996078014 0.621758044 0.552688122
0.000000000 0.657811821 0.383807480
0.002783356 0.658317864 0.384819567
0.000632583 0.660088837 0.386211514
0.002403804 0.658950508 0.380898297
0.010373447 0.660847902 0.381657004
0.058444098 0.659709156 0.388235390
0.116635054 0.658190787 0.392789483
0.153700322 0.652877808 0.390006483
0.185199425 0.656293809 0.392283589
0.249968439 0.660341859 0.400379837
0.308285743 0.651739478 0.400632828
0.353826910 0.653763175 0.402656555
0.395952106 0.655661047 0.404554129
0.438456804 0.655155122 0.407084137
0.487033546 0.655155122 0.411132514
0.533207119 0.650348127 0.417837113
0.573434412 0.647312105 0.421632111
0.607843101 0.648450732 0.432384431
0.643896759 0.647565126 0.443643093
0.678052127 0.650094748 0.449968129
0.713725448 0.653131127 0.463251233
0.751423120 0.653004587 0.473118454
0.788361549 0.651106954 0.484882951
0.822138190 0.648450732 0.489057213
0.854016364 0.653004766 0.501201928
0.882732332 0.653763473 0.512460768
0.905882359 0.651865840 0.527135074
0.932447433 0.649589062 0.541556180
0.955217779 0.654902041 0.562808573
0.980518401 0.656925857 0.581277370
0.996584356 0.661100328 0.598861337
0.998861372 0.665275097 0.611385107
0.000000000 0.697659969 0.423276484
0.010626379 0.695762277 0.428968728
0.062492132 0.701454997 0.434408486
0.075901225 0.697659850 0.430107713
0.091587715 0.696900845 0.429095447
0.146236509 0.699936807 0.442757636
0.193674877 0.696900427 0.443643481
0.242125317 0.697153449 0.443137497
0.292220175 0.694623590 0.441619456
0.330549955 0.699177742 0.451866239
0.369386196 0.696521103 0.454142958
0.411511481 0.691714168 0.456167191
0.438836336 0.695888460 0.460341454
0.475268751 0.694876730 0.462365478
0.518911779 0.691587746 0.467046142
0.561290383 0.690575719 0.472485721
0.600759149 0.686021507 0.477039933
0.630866289 0.685009599 0.482732445
0.661733210 0.683744729 0.492346466
0.695129633 0.684630096 0.498924464
0.726628721 0.685768485 0.506894171
0.760025144 0.687792718 0.519038737
0.797343016 0.685894966 0.531182706
0.828968942 0.686400890 0.539531589
0.860088706 0.686401010 0.547501266
