Assets/Shaders/EldamarStudio/100 Sci-Fi LUTs Pack/LUTs/cube/Eorwyn LUT.cube
LUT_3D_SIZE 5
DOMAIN_MIN 0.000000 0.000000 0.000000
DOMAIN_MAX 0.903226 0.903226 0.903226
0.003922000 0.000000000 0.000000000
0.063124701 0.006198711 0.006198711
0.209360957 0.000000000 0.029475411
0.550537407 0.002909872 0.072612002
0.941808760 0.000000000 0.170271948
0.006198711 0.082099698 0.035673700
0.085388690 0.087665990 0.049715411
0.264010072 0.106008977 0.065781116
0.606072009 0.081846811 0.122327410
0.945603609 0.049335793 0.226565450
0.000000000 0.381277382 0.179886401
0.000632584 0.407210499 0.175711513
0.408855200 0.420620203 0.216571391
0.704743922 0.427450895 0.268311232
0.973687172 0.458570361 0.401264995
0.064768970 0.717899978 0.444529116
0.325110644 0.720429838 0.481594235
0.544085741 0.719164968 0.508918226
0.764073133 0.710056961 0.551423252
0.959519088 0.719544291 0.634787917
0.705249548 0.847311974 0.740164757
0.751802683 0.848956704 0.754585624
0.795825183 0.846552551 0.771031022
0.872865200 0.845919967 0.780391932
0.967615783 0.841998994 0.814800560
0.002277292 0.001644708 0.159645393
0.118405983 0.004554003 0.170398697
0.238203377 0.003921581 0.192030102
0.566856563 0.001012128 0.349652112
0.927640736 0.000000000 0.446299672
0.005566289 0.145224392 0.231878698
0.011385301 0.110562988 0.244655401
0.308792204 0.098798402 0.269576222
0.611890972 0.006704704 0.382036835
0.942314744 0.038203791 0.456546247
0.000632584 0.380012363 0.388488382
0.000000000 0.398734927 0.410752773
0.370271772 0.413408786 0.441872478
0.699177861 0.413409233 0.484376907
0.941176534 0.479570031 0.568121314
0.061353553 0.706514716 0.586464405
0.322200775 0.708412528 0.600632668
0.564326167 0.704111457 0.635041237
0.757874846 0.703858137 0.656166971
0.944845080 0.721062422 0.713472545
0.735230565 0.843263805 0.778747737
0.761796355 0.840354264 0.798355758
0.819987297 0.840354264 0.803795159
0.883365095 0.838709593 0.820240498
0.964958847 0.841998994 0.840733647
0.001265006 0.003289416 0.629854202
0.143200397 0.001644708 0.636685491
0.470208377 0.000000000 0.651359737
0.711574674 0.000000000 0.654269516
0.891334176 0.001265167 0.687918782
0.000000000 0.145856991 0.681087911
0.004933705 0.093864702 0.684376895
0.427703828 0.032890391 0.697785795
0.716508508 0.054775208 0.684630275
0.902339995 0.170651585 0.717900217
0.001265006 0.495635808 0.738140345
0.007210997 0.489437133 0.742694378
0.353573591 0.445414215 0.758380830
0.717394233 0.454269499 0.757874370
0.907526970 0.509677172 0.768880665
0.168374091 0.697280586 0.800379395
0.355344594 0.704111397 0.814294696
0.569512725 0.706135273 0.817204356
0.772296250 0.705123544 0.826312780
0.937634230 0.727767229 0.846046805
0.710309565 0.844655097 0.843263805
0.755218148 0.839974940 0.854902029
0.826565623 0.836053371 0.872106016
0.915749609 0.833523214 0.890069664
0.968121409 0.838709474 0.903478980
0.005819002 0.002023998 0.882605970
0.004301290 0.000632580 0.888804734
0.394939959 0.000000000 0.885515153
0.668817282 0.002909872 0.874762952
0.910436630 0.211384833 0.889563680
0.003289420 0.114484400 0.904996872
0.001012128 0.119038403 0.891461253
0.355091631 0.121568680 0.899557471
0.664010108 0.193927646 0.899810135
0.910436630 0.348387182 0.904870212
0.041366611 0.470840961 0.903099120
0.212270707 0.476786792 0.910942256
0.436559021 0.458191097 0.903351963
0.692220151 0.493484944 0.900442719
0.918026686 0.553320348 0.907020926
0.435041368 0.691334844 0.923592985
0.519418240 0.701834142 0.930803001
0.648450077 0.709044695 0.915496528
0.808222234 0.713978291 0.922707140
0.944339097 0.732321441 0.925869703
0.735230744 0.833902478 0.954712331
0.764832318 0.835420370 0.955850840
0.823656023 0.835800171 0.950790524
0.907147050 0.838077068 0.945856810
0.988234937 0.836685956 0.955977321
0.003922000 0.000000000 0.988487959
0.001265167 0.001012124 0.983681202
0.325616837 0.034534760 0.987729371
0.586464465 0.167488739 0.982163131
0.809487581 0.328652740 0.979253650
0.001012124 0.180898100 0.985704958
0.000000000 0.193421677 0.985704958
0.356230080 0.227830619 0.983174980
0.610373318 0.303352088 0.984693110
0.821252644 0.421758503 0.979506731
0.301328421 0.464895546 0.993674934
0.379506469 0.474509925 0.988361776
0.529917598 0.496394396 0.984439969
0.702972889 0.533333063 0.988994420
0.869576037 0.591271639 0.985831797
0.712966621 0.718405962 0.984314024
0.748007476 0.721821606 0.982922137
0.801770985 0.732574105 0.984440386
0.837950706 0.719544291 0.983174980
0.936875403 0.742061794 0.984440148
0.822643638 0.826438785 0.981783986
0.835799932 0.821758389 0.986337781
0.879443407 0.825047612 0.994939804
0.938520074 0.835799992 0.993547976
0.992283165 0.843263805 0.990891814
