Assets/Shaders/EldamarStudio/100 Sci-Fi LUTs Pack/LUTs/cube/Eorwyn LUT.cube
LUT_3D_SIZE 8
DOMAIN_MIN 0.000000 0.000000 0.000000
DOMAIN_MAX 0.903226 0.903226 0.903226
0.003922000 0.000000000 0.000000000
0.021884998 0.000379548 0.000758999
0.079063997 0.003922000 0.003922001
0.148640275 0.000000000 0.016824644
0.283997357 0.000000000 0.040733807
0.490828186 0.001897740 0.064516254
0.725616813 0.000000000 0.099303991
0.941808760 0.000000000 0.170271948
0.003922000 0.028968997 0.011765000
0.039974999 0.025426548 0.012903451
0.076280639 0.037191547 0.017963095
0.160910740 0.038330190 0.034914646
0.292093813 0.021252098 0.051106732
0.495256245 0.000000000 0.075142093
0.722833514 0.002024260 0.115749568
0.923339546 0.002277285 0.173560962
0.003162904 0.104870096 0.050854094
0.027450999 0.105629191 0.046552643
0.114990182 0.114231281 0.062618904
0.204553813 0.123592287 0.065654993
0.363061368 0.136875272 0.087539189
0.564832211 0.140038192 0.120809734
0.767994761 0.118153282 0.165844098
0.948386788 0.128020182 0.237950876
0.000000000 0.264389902 0.126248926
0.000000000 0.270714998 0.118026376
0.114864096 0.277040005 0.127766818
0.286148250 0.292346537 0.149778634
0.433269620 0.302593261 0.168121472
0.612144411 0.319165260 0.191144913
0.796204865 0.330929548 0.236812264
0.950157881 0.347501576 0.316129088
0.000000000 0.493991345 0.244149178
0.003035997 0.501960576 0.242884010
0.021252379 0.512207448 0.229728162
0.323972374 0.509677351 0.255281597
0.510563374 0.516002536 0.280961365
0.682099700 0.517647207 0.323719352
0.835294127 0.521568656 0.375711560
0.955724001 0.542315006 0.451739192
0.000000000 0.697659969 0.423276484
0.091587715 0.696900845 0.429095447
0.292220175 0.694623590 0.441619456
0.438836336 0.695888460 0.460341454
0.600759149 0.686021507 0.477039933
0.726628721 0.685768485 0.506894171
0.860088706 0.686401010 0.547501266
0.959771752 0.690954924 0.600379527
0.445793808 0.784566283 0.576976538
0.495888352 0.784186840 0.598861277
0.537128448 0.784566641 0.609234750
0.610120177 0.785578966 0.614421189
0.678810835 0.778367996 0.622517347
0.768880010 0.776850224 0.641745567
0.859709263 0.778367996 0.671094596
0.946489513 0.780645251 0.702087343
0.705249548 0.847311974 0.740164757
0.729664505 0.850474536 0.756989360
0.749525607 0.849715471 0.753826499
0.777482808 0.847185135 0.764958978
0.815939128 0.845919967 0.765085459
0.860467792 0.846426189 0.777356029
0.915875912 0.843263805 0.791777372
0.967615783 0.841998994 0.814800560
0.000000000 0.007463549 0.062239543
0.045034546 0.001138547 0.065401539
0.083364643 0.009360998 0.059835542
0.147501633 0.010246905 0.097533450
0.286274344 0.000000000 0.153320283
0.495382547 0.000379548 0.207842827
0.722074389 0.000379548 0.259076655
0.924604475 0.001265167 0.290196210
0.003542452 0.046552543 0.081846550
0.016065547 0.045414094 0.079064094
0.089184090 0.037950642 0.088425092
0.158380643 0.032511357 0.109930545
0.302719563 0.000758999 0.153320283
0.490702480 0.001518192 0.202403635
0.686274529 0.000379548 0.227450639
0.891713679 0.000000000 0.260594755
0.001138547 0.112713180 0.115369730
0.013409099 0.117773637 0.120050639
0.083997548 0.121694744 0.133713081
0.210878819 0.112587094 0.161669642
0.366982579 0.106894545 0.183934167
0.552055478 0.041745838 0.212396920
0.768374324 0.018216379 0.254648745
0.939278781 0.049715448 0.324478120
0.004681000 0.253510207 0.206957459
0.002656643 0.259835899 0.214547828
0.060215093 0.271600008 0.219227910
0.250348002 0.281340569 0.226565376
0.417457551 0.288045913 0.245793924
0.596837521 0.289184242 0.280708551
0.771410465 0.294497341 0.310942620
0.918911994 0.324857742 0.363567084
0.002403808 0.466540277 0.330423474
0.002403808 0.486148149 0.327514052
0.006451651 0.491334796 0.337381363
0.281973600 0.500821888 0.345603943
0.491966993 0.508665562 0.361543477
0.663124800 0.502213776 0.398102522
0.815686285 0.509550810 0.434914619
0.939531803 0.529664576 0.493611693
0.004807003 0.679443300 0.473624349
0.079823084 0.682099879 0.485895008
0.261859387 0.680076003 0.499051183
0.439721555 0.681214631 0.515496790
0.580012679 0.682226539 0.532447577
0.720683455 0.672612250 0.555470943
0.843517005 0.682479501 0.586970329
0.954964757 0.687412858 0.636179745
0.418342888 0.767868519 0.597849369
0.466540098 0.780391812 0.617584050
0.541555941 0.776723385 0.634408355
0.602529764 0.778367996 0.641112983
0.685389221 0.773940623 0.653384268
0.765591264 0.770651579 0.660974026
0.851233602 0.767235994 0.677293062
0.939531744 0.773055077 0.705629528
0.721694827 0.840733826 0.756735861
0.740290999 0.842378438 0.763820171
0.757242203 0.842378438 0.769006789
0.778874040 0.843137205 0.769892812
0.818216205 0.842758000 0.784060776
0.865781128 0.842757881 0.791524231
0.912966371 0.843263686 0.803289294
0.965591490 0.840733767 0.810246587
0.000759096 0.003162904 0.209740385
0.050095093 0.000000000 0.210499287
0.152561292 0.000759096 0.215939283
0.241365924 0.001138644 0.224920928
0.320050478 0.000000000 0.259076297
0.504111409 0.000000000 0.349146158
0.724098623 0.001644712 0.444022447
0.918026567 0.000000000 0.486527175
0.000000000 0.056799546 0.228968829
0.000000000 0.036052998 0.242251739
0.125110298 0.023529096 0.244149283
0.244149372 0.016951455 0.248830169
0.339405596 0.005945647 0.273877382
0.491208106 0.000000000 0.347121894
0.703478932 0.002024260 0.428716123
0.899936497 0.001265167 0.467932016
0.006325002 0.185452282 0.292599469
0.000758999 0.178747743 0.310689300
0.000000001 0.143959180 0.312966377
0.261859715 0.126375645 0.323213369
0.403289288 0.129159003 0.348387301
0.561290324 0.086400911 0.408348858
0.763440669 0.022897089 0.470714569
0.935989618 0.080708407 0.503605008
0.001138644 0.303984553 0.368880570
0.000000000 0.319165289 0.388361990
0.000000000 0.318279475 0.398102492
0.204680458 0.317520440 0.416571945
0.440480441 0.290828466 0.428589642
0.595319569 0.284124017 0.458823293
0.772296071 0.291334540 0.496141762
0.918405950 0.344844818 0.532574236
0.001517998 0.470335454 0.475901574
0.004680903 0.484630346 0.487666398
0.000000010 0.492473155 0.509045184
0.268690825 0.498039395 0.514863968
0.475774646 0.505250096 0.530297279
0.649082899 0.502466738 0.556989133
0.806325257 0.512207270 0.583807588
0.929158807 0.548766434 0.622517407
0.001138656 0.674383759 0.606198788
0.094370469 0.673877478 0.615939200
0.274383456 0.680581868 0.615812600
0.449968278 0.673877478 0.631119609
0.604933739 0.675901651 0.647438109
0.720683455 0.674003959 0.660468161
0.839215696 0.680076182 0.683871269
0.934977651 0.692978740 0.715243459
0.424921006 0.769133270 0.666160524
0.481467336 0.774067044 0.680834830
0.541429520 0.772042990 0.690322340
0.627577424 0.764452875 0.700316370
0.707147479 0.768121362 0.726502180
0.781151414 0.762934923 0.730297208
0.851612628 0.767489016 0.742188394
0.941049695 0.771283984 0.767235816
0.728146493 0.842757881 0.783807814
0.741935313 0.840986550 0.787982166
0.768374622 0.838077009 0.804174662
0.808222592 0.842504740 0.812523842
0.841113031 0.840480983 0.821125925
0.875521719 0.838456750 0.827324688
0.919291556 0.837571084 0.826944828
0.965211987 0.838709533 0.846805871
0.002276998 0.000000000 0.496773899
0.003036094 0.001138644 0.503857911
0.207842737 0.000379548 0.504490912
0.374572933 0.000000000 0.522580922
0.517647266 0.002783356 0.536874890
0.625553310 0.000000000 0.545224309
0.728399932 0.000000000 0.576976538
0.916128933 0.000000000 0.639721572
0.006704549 0.027450902 0.512460709
0.000000000 0.011005905 0.521442294
0.132194996 0.000379548 0.529790998
0.339026093 0.000000000 0.528905809
0.497912645 0.002783356 0.535736561
0.623150170 0.001897740 0.545098305
0.718153238 0.000000000 0.576849878
0.895888805 0.001518189 0.633522868
0.001517999 0.224414840 0.578115284
0.000000000 0.197722733 0.579127014
0.000379548 0.137002096 0.595698953
0.288931072 0.109424189 0.590132833
0.508791745 0.096774280 0.592662930
0.659456253 0.122959919 0.606578231
0.763187945 0.147880927 0.628589690
0.925489962 0.172295645 0.670841277
0.007843000 0.407084286 0.637950897
0.008728907 0.412650377 0.636685431
0.000000000 0.389120460 0.639468849
0.124098465 0.334851265 0.655913889
0.465654552 0.310309738 0.651612759
0.664010406 0.328779191 0.642251551
0.770271897 0.341682553 0.657052517
0.914610982 0.369512707 0.687792540
0.002403808 0.535610676 0.686274409
0.000379548 0.543453634 0.689942956
0.001518002 0.545856714 0.698165298
0.209867179 0.542188168 0.701834440
0.474762917 0.535483718 0.716508210
0.669196784 0.522580564 0.714863896
0.802024007 0.537128568 0.721948206
0.918026507 0.568247855 0.747374713
0.034535192 0.683111846 0.746489286
0.106641382 0.686274588 0.749778628
0.299304128 0.685009360 0.758127868
0.462997943 0.679570079 0.762302518
0.600505829 0.678304732 0.766350448
0.732321441 0.677545726 0.774446428
0.837317944 0.682606101 0.785958230
0.930043936 0.705629587 0.804427564
0.446552545 0.768880248 0.767615259
0.490575284 0.774066806 0.770018995
0.551802576 0.769133329 0.782669127
0.628083467 0.774446249 0.783934295
0.724351704 0.765464962 0.797722936
0.800000072 0.762934744 0.805692554
0.874256968 0.764326274 0.819860995
0.938772798 0.775711715 0.833016932
0.731562078 0.842883945 0.830992758
0.739784896 0.843263805 0.829095304
0.776217282 0.842504740 0.838709593
0.809108377 0.842378139 0.851107121
0.855534315 0.835294008 0.858443975
0.896773994 0.835294068 0.866919577
0.933712840 0.833523154 0.876407444
0.977102757 0.839721978 0.879949808
0.001518192 0.000000000 0.730803549
0.001138644 0.001138644 0.746110201
0.169259995 0.000000000 0.749146163
0.378873825 0.000000000 0.746742368
0.542188168 0.002403808 0.753953159
0.698924661 0.000000000 0.749146163
0.829095602 0.000759096 0.756230235
0.934471786 0.001518192 0.787349761
0.001138644 0.005060451 0.741303146
0.001138644 0.000379548 0.748766720
0.029222189 0.003162904 0.750284672
0.334851533 0.003162904 0.742821157
0.525996029 0.000000000 0.756356359
0.679063916 0.000000000 0.749905288
0.815812767 0.001518095 0.751170099
0.912966132 0.029601552 0.775458574
0.000759096 0.173940092 0.763314366
0.005060451 0.158127993 0.773308277
0.001517998 0.136875287 0.775838077
0.251992375 0.124098368 0.773813963
0.498292089 0.122454084 0.777482390
0.676660657 0.153193906 0.776723266
0.828209996 0.221758649 0.774193585
0.935736775 0.275395304 0.797596514
0.000000000 0.395951897 0.785831630
0.000759096 0.394433826 0.794307590
0.003162913 0.371031195 0.791144788
0.081973381 0.329411477 0.798228979
0.460594714 0.329917729 0.795319438
0.653130889 0.354585916 0.789120495
0.815812767 0.393675089 0.786843598
0.913725376 0.414800882 0.804680705
0.004554190 0.559646130 0.819734156
0.000000000 0.564326167 0.814547956
0.023529280 0.561923087 0.821505368
0.313346267 0.551169932 0.820493579
0.524478376 0.544591963 0.831119180
0.673117995 0.534724712 0.818975627
0.827577531 0.553826451 0.817710459
0.917520761 0.579506576 0.830613315
0.202403367 0.675395548 0.851106882
0.273244709 0.675648272 0.848703563
0.378494352 0.678684473 0.844402254
0.500822246 0.681467533 0.850727141
0.618595839 0.686906755 0.851739407
0.743832886 0.689689994 0.857558191
0.848197281 0.689690053 0.861859620
0.933838964 0.709171295 0.864642382
0.477039635 0.773561180 0.860088348
0.516761422 0.772548914 0.868564367
0.562934637 0.770525098 0.867299020
0.633396626 0.775332272 0.863757372
0.724478185 0.774573088 0.867931962
0.805059791 0.766730130 0.871980011
0.879190326 0.766603589 0.882606030
0.944718778 0.780265629 0.882605910
0.710183442 0.844275951 0.872106373
0.722200990 0.844908178 0.870967805
0.756483316 0.840101302 0.877546012
0.803921402 0.839974523 0.885895133
0.850727439 0.839342177 0.885262489
0.905755520 0.835293949 0.902846217
0.946616292 0.835294008 0.916508436
0.977102876 0.837824345 0.922580600
0.003794996 0.004048004 0.858317494
0.002403808 0.000000000 0.861480296
0.044781741 0.001138644 0.860214829
0.320303530 0.000000000 0.866793275
0.489057362 0.002024260 0.864769161
0.642504513 0.001897740 0.856546700
0.785578787 0.001897740 0.863757193
0.924857616 0.173181117 0.876913607
0.001518192 0.003542258 0.849715054
0.002024260 0.000000000 0.856419742
0.006451826 0.000758999 0.853130937
0.284629822 0.000000000 0.864642382
0.464769006 0.000379548 0.853384137
0.632004738 0.000758999 0.859835327
0.771157503 0.048956275 0.851866126
0.908159316 0.190639034 0.868184686
0.002024261 0.153194085 0.877925396
0.002403808 0.156356469 0.864895821
0.000000000 0.153446913 0.868943691
0.216192365 0.148640007 0.875522196
0.455661267 0.168500662 0.875522137
0.631119728 0.202782750 0.873245120
0.776470363 0.271094441 0.873245120
0.921568573 0.361543477 0.875774860
0.003162904 0.363314182 0.877798975
0.006831263 0.356989115 0.877925396
0.029728271 0.337381124 0.882479370
0.143832862 0.336495996 0.879317105
0.447058737 0.350411177 0.880708635
0.619860768 0.374319643 0.869070351
0.772042871 0.405819356 0.869829297
0.911068559 0.461606354 0.877292633
0.053510465 0.533712685 0.890954971
0.118026562 0.546362936 0.889816284
0.291334569 0.546363056 0.894497037
0.464136302 0.547122061 0.897786081
0.537761092 0.528652489 0.893231928
0.669955730 0.545351148 0.889563501
0.806831479 0.563187778 0.891967237
0.925490141 0.598987758 0.889437079
0.355091929 0.670082450 0.905376434
0.396078646 0.674004018 0.904743969
0.469829172 0.678304791 0.910310090
0.558127582 0.680708647 0.906388104
0.668437719 0.683238328 0.906388223
0.765717745 0.685642004 0.905502975
0.849715114 0.686147988 0.903225720
0.942062020 0.706767917 0.910942435
0.538393259 0.752308309 0.910436451
0.572296023 0.756483197 0.917141199
0.609487712 0.759392560 0.917141080
0.662365615 0.759012997 0.919544458
0.728273451 0.767741859 0.920935929
0.812397420 0.768500805 0.919544220
0.882985294 0.772422731 0.928779304
0.954964817 0.779632986 0.923845470
0.724604785 0.838709593 0.941302717
0.738267004 0.838583410 0.940290868
0.762302220 0.841492712 0.937634349
0.793168664 0.840101302 0.937760890
0.840607405 0.839468658 0.933965802
0.898038924 0.836811841 0.940543652
0.947121799 0.836052954 0.943453491
0.987222791 0.838709712 0.944591939
0.001644712 0.000000000 0.932953715
0.000379548 0.001897740 0.942441583
0.007084110 0.000000000 0.934345365
0.259582639 0.001138644 0.939658344
0.435673356 0.000759096 0.929791212
0.586337924 0.000000000 0.932953715
0.722833574 0.111827821 0.929032266
0.851866186 0.252118617 0.927513957
0.000000000 0.005566002 0.921821237
0.004933716 0.003036094 0.927134514
0.004807205 0.003036094 0.931688726
0.241492733 0.004174544 0.934092343
0.418722332 0.010752799 0.935990036
0.580771267 0.064642563 0.927008033
0.717900276 0.161163837 0.927134514
0.846932173 0.260468066 0.923086405
0.004680709 0.165844291 0.942441583
0.000000000 0.175964475 0.933206737
0.006325013 0.181404188 0.938646078
0.230993107 0.191397458 0.943579853
0.431625485 0.219607666 0.939279079
0.590892017 0.260341376 0.937761128
0.733333468 0.317394257 0.937634349
0.856040597 0.395066530 0.933839083
0.000000000 0.336622179 0.937634170
0.018975466 0.340290815 0.945983589
0.071347386 0.344592005 0.944212675
0.279443383 0.357874930 0.941302896
0.472485662 0.380139351 0.938773036
0.614926994 0.402909428 0.934092343
0.745477915 0.438077241 0.931309223
0.860847533 0.483112097 0.930423677
0.373055220 0.553067386 0.943832874
0.418848723 0.560405076 0.946236670
0.460467815 0.552941322 0.950158119
0.482859075 0.540164709 0.954332829
0.575331628 0.538140237 0.942441583
0.681214511 0.558633626 0.942062020
0.786717474 0.574193358 0.937760949
0.891460955 0.604048193 0.940543652
0.530929983 0.672486246 0.946489573
0.558380961 0.678810954 0.950790524
0.601391315 0.681467533 0.952688158
0.665907979 0.684629738 0.953573883
0.740670204 0.692852437 0.949145973
0.769007027 0.684124172 0.949905038
0.850600719 0.692599237 0.952308714
0.931056201 0.710689425 0.949019730
0.615812838 0.744718254 0.954205990
0.641239524 0.749272227 0.955218315
0.669196606 0.753067374 0.956609964
0.718279481 0.761543334 0.954205990
0.775585234 0.767362475 0.949525476
0.836812496 0.772802293 0.961417019
0.899557292 0.780012250 0.956483245
0.950537801 0.779253304 0.959266424
0.767109454 0.820872664 0.962175965
0.782795787 0.823403060 0.972802103
0.794180930 0.822643816 0.969639480
0.818469405 0.827451050 0.972422302
0.855028033 0.830866575 0.968374372
0.899051070 0.833776057 0.976976752
0.940037787 0.838709712 0.968248248
0.983807623 0.839974821 0.973181546
0.003922000 0.000000000 0.988487959
0.003922000 0.000000000 0.986970186
0.002277107 0.002024263 0.980645180
0.232384473 0.012523815 0.987476110
0.407590389 0.063377567 0.983934164
0.551296711 0.145730332 0.982416034
0.685009301 0.228336364 0.985199094
0.809487581 0.328652740 0.979253650
0.000379548 0.053004790 0.980392098
0.003795180 0.064263046 0.980265498
0.002277297 0.069702715 0.985199451
0.233776152 0.093484871 0.980771601
0.405819178 0.134092331 0.984440446
0.546236515 0.190259382 0.980518758
0.680582047 0.256799519 0.975711524
0.810625970 0.341935456 0.976217389
0.002530012 0.206451654 0.983934045
0.000000000 0.221884727 0.978494287
0.038203664 0.228842333 0.988994122
0.282859027 0.248830080 0.986843526
0.437571257 0.278178453 0.978874028
0.583301723 0.323086560 0.983681262
0.709044993 0.372169703 0.977482557
0.823276699 0.442757815 0.977229714
0.074003734 0.363314390 0.980518818
0.089942999 0.370145559 0.985705197
0.254901946 0.381783456 0.983554661
0.388108999 0.398734927 0.991017997
0.511574864 0.417963237 0.985578775
0.632258117 0.443769753 0.978621066
0.740290821 0.480202287 0.978873789
0.842504799 0.525110662 0.976471007
0.484882742 0.561037421 0.983807802
0.500948906 0.565970838 0.987729371
0.510815740 0.553447187 0.980645359
0.543200433 0.551928997 0.986464143
0.626059353 0.564199984 0.983174980
0.705882251 0.578494906 0.977988899
0.798102677 0.600000143 0.978241861
0.888171911 0.633270204 0.982289612
0.705882370 0.704490960 0.981783986
0.717520356 0.705629528 0.982289493
0.742694259 0.707653344 0.984946072
0.764958739 0.709550738 0.980898082
0.770398319 0.693105459 0.988740981
0.807843328 0.697026908 0.983428061
0.869449735 0.708032787 0.982542932
0.927513897 0.722580492 0.982922196
0.754206240 0.764073551 0.992789030
0.764326334 0.769259870 0.988361776
0.778494596 0.764073253 0.985325813
0.810120225 0.773813963 0.984060705
0.854902267 0.777609169 0.987096786
0.890322328 0.787096739 0.986843467
0.917267382 0.777988434 0.985704958
0.966603041 0.790512383 0.985072851
0.822643638 0.826438785 0.981783986
0.828969181 0.821505368 0.993168533
0.843136966 0.825047791 0.993421853
0.868058205 0.824161828 0.996331394
0.891207993 0.826059580 0.989247143
0.929411650 0.836811841 0.989753127
0.956988931 0.842630982 0.995445848
0.992283165 0.843263805 0.990891814
