Assets/Shaders/EldamarStudio/100 Sci-Fi LUTs Pack/LUTs/cube/Erin LUT.cube
LUT_3D_SIZE 5
DOMAIN_MIN 0.000000 0.000000 0.000000
DOMAIN_MAX 0.903226 0.903226 0.903226
0.003922000 0.000000000 0.000000000
0.265148699 0.052624710 0.050347995
0.506767392 0.108538993 0.122327402
0.738520145 0.182415992 0.236432865
0.935104489 0.264262825 0.340164781
0.197849691 0.304364711 0.258950412
0.309297979 0.319418103 0.246173695
0.510689378 0.337381423 0.244275689
0.743453264 0.346489578 0.309930533
0.934977651 0.382163286 0.392030686
0.510056853 0.591017962 0.553193808
0.590133131 0.609740496 0.616571784
0.657811821 0.597596824 0.545983374
0.761669695 0.537761092 0.455408275
0.935737073 0.577988803 0.518532515
0.782669246 0.777609110 0.789500117
0.821505129 0.787729383 0.812017858
0.885262370 0.788108706 0.851865828
0.901202142 0.767868102 0.760025144
0.974446654 0.701201618 0.656419992
0.967615783 0.866793156 0.940037966
0.984186947 0.866413653 0.940670550
0.997470021 0.866034448 0.962808430
1.000000000 0.868690789 0.960278153
0.996078014 0.864136994 0.902213931
0.003288997 0.257937700 0.406704366
0.210879102 0.042504996 0.396204978
0.500189841 0.126881406 0.391271293
0.716634989 0.209614128 0.416192293
0.913851917 0.265907526 0.453130811
0.000000000 0.415180385 0.421378702
0.159898698 0.373687685 0.428589672
0.498291969 0.315496683 0.414547801
0.709045112 0.327893674 0.438962698
0.913093090 0.377355993 0.484250695
0.282226503 0.556356430 0.501454830
0.439848065 0.563567400 0.545983851
0.609740555 0.577988446 0.593674779
0.727007985 0.552434981 0.546236217
0.916761756 0.575078905 0.585579038
0.720683277 0.761669993 0.760784149
0.783048987 0.764958978 0.785831869
0.871853054 0.788108706 0.861100376
0.885894835 0.763314486 0.784820139
0.969007015 0.706388116 0.689942718
0.966097414 0.865148842 0.931435764
0.977355897 0.869955778 0.942061782
0.996710598 0.869323134 0.957621574
1.000000000 0.871600270 0.966729581
0.997090101 0.864516139 0.915243864
0.003289416 0.468184829 0.715243816
0.004933705 0.359266102 0.718153059
0.400885403 0.164831981 0.670208395
0.703858554 0.192283258 0.642378092
0.902972400 0.270082414 0.633523405
0.000000000 0.607716680 0.735230684
0.004933705 0.531942070 0.730044007
0.374699831 0.334471673 0.681847036
0.696647763 0.323592424 0.649841785
0.902339816 0.365464985 0.649209201
0.006577994 0.699556947 0.717141390
0.154585361 0.696900427 0.727640808
0.487160236 0.631499052 0.716508806
0.699683845 0.523718953 0.676027834
0.903731585 0.534850955 0.682605743
0.373940766 0.705123127 0.693738401
0.457938164 0.713093102 0.707147121
0.667425513 0.723466098 0.753826439
0.852625191 0.749272287 0.826818347
0.934724510 0.730676949 0.776217341
0.901201606 0.873371005 0.911448598
0.930423737 0.868690789 0.927008212
0.989879608 0.866034448 0.959645808
0.997976005 0.875901401 0.986338019
0.998735011 0.867425621 0.946615815
0.000000000 0.599114120 0.910057008
0.004301290 0.553067863 0.909045160
0.000632584 0.389373600 0.900569558
0.568880260 0.265781134 0.853257298
0.882099748 0.259961963 0.842757940
0.004301290 0.676280677 0.916508436
0.000000000 0.650727272 0.909930468
0.004301286 0.517773569 0.893991172
0.575838149 0.375584692 0.860594749
0.896141648 0.354712248 0.852498293
0.000000000 0.838709414 0.922074318
0.235167295 0.813915372 0.924351871
0.436685860 0.726628542 0.918532372
0.603541791 0.564199388 0.877419293
0.902719617 0.510942101 0.854269505
0.473118216 0.853130996 0.906894088
0.537634313 0.856293440 0.913851857
0.653636515 0.841619134 0.905502856
0.789627135 0.798228920 0.909930289
0.929790795 0.688804269 0.855407953
0.556356609 0.868310988 0.877419233
0.602276981 0.862491965 0.881594062
0.745477200 0.863377512 0.891460896
0.966856301 0.865907550 0.951043546
0.998987854 0.870335281 0.983554661
0.000000000 0.671979964 1.000000000
0.001644708 0.652751267 1.000000000
0.001265167 0.576596975 0.997343183
0.000000000 0.409360945 0.997976005
0.754711747 0.351802647 0.991144776
0.001265167 0.730803192 0.998734832
0.000000000 0.705376148 1.000000000
0.000000000 0.642631412 0.998734832
0.037950624 0.492979348 0.993674994
0.755597472 0.424288571 0.994939983
0.156863004 0.836053252 1.000000000
0.200126469 0.820366979 0.997469783
0.326755136 0.770018756 0.996710598
0.457811654 0.668437600 0.998355269
0.782795370 0.558253944 0.994307399
0.628968894 0.917014420 0.993168831
0.666919649 0.916382015 0.994939804
0.740670145 0.889943302 1.000000000
0.780771434 0.832764149 0.998355269
0.862871885 0.721442163 0.990259171
0.779632747 0.908412039 0.985705018
0.795572519 0.910815835 0.986970007
0.851359725 0.904617190 0.987729371
0.945983648 0.895762265 0.996204793
0.997343183 0.878557861 0.997469962
