Assets/Shaders/EldamarStudio/100 Sci-Fi LUTs Pack/LUTs/cube/Erin LUT.cube
LUT_3D_SIZE 8
DOMAIN_MIN 0.000000 0.000000 0.000000
DOMAIN_MAX 0.903226 0.903226 0.903226
0.003922000 0.000000000 0.000000000
0.150031552 0.025047095 0.017204095
0.299304187 0.057937998 0.058697093
0.437191278 0.090828992 0.094749995
0.579000354 0.125237182 0.153320372
0.711195767 0.170271739 0.219228476
0.818216562 0.216950998 0.278052270
0.935104489 0.264262825 0.340164781
0.104617544 0.170398548 0.129664540
0.174319640 0.181784078 0.128905535
0.295383096 0.204174638 0.115117095
0.439215630 0.213535741 0.147627831
0.569006920 0.235673442 0.196837723
0.700948894 0.250727087 0.248323992
0.814674139 0.273877531 0.301201552
0.927766919 0.303099096 0.345098108
0.234282091 0.340797096 0.296142101
0.288298190 0.356103718 0.334092647
0.354079276 0.358887106 0.281088084
0.462239176 0.335736632 0.251486182
0.585325360 0.375332177 0.287539184
0.708286107 0.376091212 0.322327733
0.820493460 0.383175373 0.358760178
0.930423677 0.405439913 0.401391715
0.401011914 0.511827946 0.463630259
0.448956102 0.524477839 0.498924434
0.512460709 0.537128687 0.539658308
0.561669588 0.525743306 0.451359928
0.628842652 0.458823740 0.374446452
0.712333977 0.493232012 0.409361094
0.813788891 0.512839913 0.432763934
0.926881611 0.515623271 0.470082462
0.586211145 0.653763175 0.620366752
0.617330372 0.656419933 0.645920396
0.669196546 0.663883507 0.675522149
0.702213943 0.664262950 0.683870733
0.726502180 0.645035148 0.598861217
0.756103635 0.562302411 0.500695884
0.842378199 0.589247167 0.519418299
0.934977651 0.628462970 0.559772015
0.754332721 0.762428701 0.768247962
0.774320185 0.764832556 0.779506564
0.811132073 0.768247962 0.795825660
0.851866066 0.772169471 0.826059401
0.854522526 0.765464723 0.798102438
0.877925515 0.746615708 0.732700467
0.893485248 0.672991931 0.635293722
0.971916556 0.688804686 0.636938512
0.879317284 0.827071309 0.852877975
0.888045251 0.830613732 0.863757432
0.907653272 0.828715980 0.883365154
0.936369598 0.835420668 0.902719617
0.962681770 0.835041165 0.910183132
0.954838574 0.825173974 0.880076289
0.976091266 0.819228292 0.823150277
0.988867521 0.761417031 0.753320754
0.967615783 0.866793156 0.940037966
0.971157312 0.868057966 0.944845080
0.993042231 0.866160691 0.943200529
0.997469962 0.866919577 0.949652016
1.000000000 0.869702995 0.966223776
1.000000000 0.871220887 0.966096997
0.998355269 0.870967567 0.935483992
0.996078014 0.864136994 0.902213931
0.003542452 0.146109641 0.236179635
0.130044088 0.015306549 0.250347644
0.297280550 0.046932094 0.242884085
0.425427288 0.110436283 0.265655011
0.568500817 0.141429543 0.291208535
0.694876671 0.175078735 0.313851655
0.808348835 0.216950998 0.347248375
0.923339784 0.263251275 0.389373958
0.004301452 0.246426538 0.247185633
0.080328554 0.233523086 0.268058091
0.290702194 0.197470099 0.270335108
0.426312208 0.205692634 0.280202478
0.559012949 0.219481081 0.299431086
0.689689994 0.242125079 0.329538524
0.792915821 0.269576102 0.358507246
0.908539057 0.305629104 0.382416070
0.054775197 0.335357279 0.301328540
0.199367642 0.338899642 0.321315289
0.319544286 0.347122103 0.355724186
0.437191367 0.351422846 0.332574546
0.569259822 0.369133383 0.356103629
0.689183712 0.370651364 0.380898088
0.805565953 0.383934170 0.403921723
0.921821713 0.398734868 0.443643183
0.310942739 0.493105739 0.436432898
0.383174986 0.500189722 0.468437403
0.481467456 0.518279731 0.524351835
0.521062851 0.508412302 0.488045275
0.607337296 0.464642376 0.418343097
0.695382595 0.496901006 0.447691560
0.801138699 0.501834512 0.466919571
0.913852096 0.511575103 0.495382816
0.537508190 0.633649707 0.611511827
0.567995071 0.638709366 0.615559816
0.634155691 0.648576856 0.655787349
0.693864822 0.664389551 0.696394801
0.710436642 0.641113162 0.614800751
0.740923643 0.563820660 0.523212731
0.826692224 0.590892196 0.544971466
0.923465967 0.625932813 0.580897987
0.721189141 0.745983541 0.750790298
0.750284731 0.748892903 0.763441205
0.783807814 0.759266317 0.787982166
0.836938441 0.763693750 0.811891317
0.852751255 0.763820529 0.807463467
0.860088706 0.744212568 0.736242771
0.880708575 0.672106683 0.644402206
0.965717852 0.683617711 0.649968445
0.858191013 0.823529720 0.853257537
0.876407266 0.823276281 0.851359963
0.897912562 0.827198148 0.874763072
0.927261174 0.833016992 0.892726183
0.962049186 0.834534943 0.918405950
0.952055573 0.829095483 0.884503722
0.974826038 0.811891258 0.829095304
0.985072374 0.761417031 0.756103575
0.958760560 0.865781248 0.934218824
0.975711524 0.864516437 0.933839262
0.979380071 0.864895880 0.940038025
0.994939983 0.868690968 0.956230462
1.000000000 0.870082319 0.968880236
1.000000000 0.865907788 0.966097414
0.994939804 0.868057966 0.939658225
0.996457577 0.865148544 0.912713826
0.006325001 0.286780298 0.456040293
0.007084001 0.202150196 0.459582657
0.238963008 0.053890090 0.434914291
0.428209931 0.091967449 0.428716183
0.568121374 0.146489292 0.424668103
0.682479322 0.195192903 0.438962996
0.796331286 0.240607098 0.460088193
0.908286035 0.273497999 0.476154268
0.000379548 0.383934170 0.469829649
0.000000000 0.338140547 0.453637183
0.183681548 0.198608547 0.445414633
0.427071393 0.195066288 0.427071214
0.558254063 0.222517282 0.438456744
0.673497915 0.252751440 0.455787539
0.785704970 0.275774807 0.459076643
0.901960552 0.304996818 0.483111829
0.000000001 0.459962100 0.464642406
0.003542452 0.458444208 0.475268751
0.190259293 0.418469161 0.473371208
0.434534848 0.334218740 0.457937807
0.557115436 0.343200266 0.454522282
0.682226777 0.359013200 0.475395322
0.789120495 0.368248105 0.487413079
0.904237509 0.400885344 0.517141044
0.014548087 0.476281196 0.468564063
0.121568359 0.474004090 0.467046201
0.303352535 0.475522101 0.477925181
0.486147732 0.486527383 0.532447636
0.565211833 0.481973290 0.498545080
0.674636304 0.485009283 0.512713611
0.787349761 0.493990898 0.537887633
0.902846038 0.510816038 0.557495117
0.376597375 0.611385107 0.564959049
0.424415171 0.617710233 0.575205386
0.520936310 0.619228244 0.602656484
0.641745448 0.634914517 0.671979845
0.680961132 0.627830148 0.647312045
0.718152940 0.576470554 0.577482462
0.808728456 0.610626161 0.603542149
0.910942554 0.625806451 0.622391224
0.644781768 0.734092653 0.719544351
0.668690860 0.738772869 0.730550408
0.722580612 0.743959367 0.755471349
0.798482180 0.750158072 0.793421984
0.848576665 0.763187706 0.830866218
0.846679211 0.738013864 0.759266376
0.864263475 0.674889386 0.669955552
0.952308595 0.697533071 0.693990827
0.828336477 0.814548016 0.838709354
0.842504799 0.819102168 0.846805811
0.875395417 0.820620120 0.859835386
0.911068857 0.823402762 0.887160003
0.956230342 0.834155381 0.923466206
0.957115233 0.830993295 0.901328087
0.966350377 0.817710102 0.848071218
0.984060645 0.760657728 0.773940623
0.954458833 0.864136994 0.921821833
0.968374491 0.869576275 0.936495781
0.975837946 0.866160691 0.945603788
0.994686604 0.867678463 0.954205990
1.000000000 0.870841146 0.970651567
1.000000000 0.872359276 0.970271826
0.998734832 0.868564248 0.956356585
0.998102248 0.866034269 0.918785512
0.000000000 0.410246640 0.651739657
0.000758999 0.372296095 0.646299660
0.000000000 0.224920988 0.627704322
0.342441261 0.128399998 0.602403641
0.561922967 0.135104448 0.588994622
0.681340694 0.182922348 0.572549045
0.789120853 0.230992988 0.571663678
0.909297764 0.273497790 0.586717606
0.000759096 0.484882712 0.653257608
0.000379548 0.444781631 0.647312224
0.000759096 0.334598184 0.643517077
0.329158992 0.222517073 0.602276862
0.552940965 0.211511999 0.597470105
0.671220720 0.241239995 0.572675586
0.784566522 0.279443532 0.575964391
0.898924589 0.308791995 0.586717367
0.003162904 0.617584169 0.671347558
0.000000000 0.588994563 0.657052636
0.000000021 0.510689616 0.663630545
0.286906838 0.362808287 0.625679851
0.553194284 0.331436008 0.592410207
0.675901592 0.353447080 0.592030406
0.788361490 0.373054922 0.595319390
0.908286035 0.392789394 0.602909446
0.000000000 0.633270264 0.649589300
0.005945550 0.629348338 0.653130949
0.101454474 0.625427306 0.653510392
0.392535925 0.570018947 0.642883897
0.561796367 0.459962070 0.612144113
0.661986470 0.467805177 0.603415370
0.778494656 0.475901634 0.615939319
0.891461134 0.488677621 0.626692116
0.197469831 0.603921652 0.615812659
0.253130913 0.602783144 0.613409519
0.348640114 0.594940007 0.619355083
0.456546366 0.588361740 0.619102001
0.595192850 0.585072637 0.638709247
0.677799225 0.586337984 0.644781649
0.785705090 0.597722709 0.651739478
0.901580989 0.610373080 0.672485769
0.451866150 0.701075435 0.677545846
0.483744740 0.701075435 0.689689994
0.550917149 0.711828172 0.703858376
0.649968565 0.715623081 0.737887621
0.788740933 0.731562018 0.793421984
0.831119835 0.730550230 0.795951724
0.847817600 0.681088150 0.715875745
0.937254727 0.713978291 0.736748815
0.727640808 0.808096230 0.803542018
0.753194034 0.808981240 0.814294457
0.787728965 0.812903225 0.824920952
0.863124669 0.814800620 0.864769220
0.928526521 0.825806618 0.906514764
0.970525146 0.834155381 0.929032326
0.960025549 0.818089664 0.874889195
0.977609277 0.764579713 0.795698822
0.932321012 0.868057966 0.922833800
0.947501421 0.868437588 0.930044293
0.967994928 0.869323313 0.942441344
0.992536187 0.869323134 0.958759964
0.996584356 0.868816972 0.970778048
1.000000000 0.877039790 0.987349868
0.997469962 0.869702935 0.969386280
0.997216642 0.869576156 0.933459878
0.000000000 0.514990389 0.790765345
0.007084194 0.476534188 0.788235545
0.001518192 0.405186355 0.776723266
0.001138644 0.239215627 0.765338600
0.446552992 0.198228985 0.724731147
0.660594285 0.179759532 0.707400680
0.782795489 0.219354808 0.706135213
0.904870391 0.269449979 0.697786033
0.000379548 0.558001220 0.783048570
0.001138644 0.537761152 0.788108826
0.002403808 0.469450086 0.776344001
0.001517999 0.321694732 0.763061583
0.443010747 0.259456187 0.721062422
0.653637111 0.236938730 0.701581359
0.781277359 0.268817097 0.695256233
0.899177611 0.300189912 0.698544919
0.003162904 0.653637111 0.799620271
0.002783356 0.639215589 0.797976077
0.000000000 0.585452318 0.790133178
0.015180386 0.476913452 0.778747737
0.438077211 0.374446392 0.743074179
0.649209619 0.347627729 0.707273781
0.787476420 0.358886898 0.717900217
0.904111505 0.387096971 0.705249965
0.001138644 0.773687422 0.814041853
0.004301452 0.764326215 0.810752809
0.050094929 0.723466277 0.805439591
0.331182986 0.636432409 0.784187019
0.436812431 0.512839913 0.751928985
0.654522657 0.461226851 0.717900097
0.780645192 0.465907544 0.715116799
0.895888746 0.474003822 0.708032787
0.068311289 0.757242382 0.781404197
0.180771470 0.758127987 0.792283416
0.327640444 0.750284374 0.790006280
0.456420183 0.740038037 0.794560611
0.578368187 0.685136199 0.777735353
0.662871420 0.567615151 0.738140643
0.786717474 0.572169304 0.724351168
0.904617071 0.576470554 0.724984348
0.381656975 0.723212898 0.749525368
0.405945361 0.723086476 0.751549661
0.457052529 0.721568525 0.749778748
0.528905392 0.708285749 0.746489584
0.615306914 0.688677907 0.747122228
0.716635168 0.677040279 0.747375250
0.811638474 0.686906993 0.761669695
0.923086464 0.706135213 0.783048511
0.505755901 0.780518353 0.769386530
0.535863280 0.782922328 0.772043049
0.604427516 0.783048689 0.790765345
0.692599833 0.792030573 0.805186689
0.809108078 0.805692255 0.839974761
0.930676520 0.817836881 0.906514645
0.949146032 0.819987416 0.901201785
0.966223896 0.775205314 0.832637548
0.839215755 0.869449973 0.887412965
0.857684791 0.869829416 0.895888388
0.891461313 0.867172897 0.908412457
0.934092164 0.870335221 0.934345424
0.988867819 0.871853173 0.954333007
0.997723043 0.875142217 0.980391800
0.997343183 0.873371005 0.986970186
1.000000000 0.868437827 0.961163759
0.000000000 0.583933949 0.887792766
0.002024260 0.563061416 0.890828729
0.000000000 0.520176768 0.887286484
0.001897740 0.424541354 0.876533747
0.002024260 0.296141803 0.868058085
0.540543973 0.250600994 0.830992997
0.748640060 0.229854733 0.806071758
0.891460896 0.256166995 0.822770655
0.003922000 0.613030016 0.884250283
0.007084001 0.597343445 0.880455315
0.000000001 0.557621837 0.875774741
0.002403808 0.471347451 0.875648439
0.000000000 0.335989892 0.859709322
0.546110153 0.296521544 0.828715920
0.741682768 0.270714819 0.802909434
0.887286782 0.289943278 0.816445470
0.000000000 0.692220151 0.893990755
0.000758999 0.678431511 0.896521270
0.002024260 0.646173775 0.887918949
0.002024260 0.576091230 0.886147797
0.047059007 0.449715197 0.871726871
0.545477450 0.395319343 0.837065279
0.745477796 0.362428635 0.809993923
0.900695622 0.375964671 0.825426817
0.000759096 0.784566343 0.896521330
0.000379548 0.776091099 0.900442779
0.073244937 0.743453562 0.893611431
0.218595996 0.691713750 0.884629846
0.365970820 0.598608553 0.870082259
0.552688479 0.505755723 0.840227365
0.748766720 0.457178921 0.809614301
0.894497335 0.461227119 0.818216503
0.109298006 0.850853920 0.905882537
0.211005628 0.850474358 0.902340353
0.344339192 0.847185552 0.911574602
0.469829082 0.808222413 0.906261981
0.557115793 0.739152372 0.883111954
0.597596407 0.624541163 0.860847890
0.778494835 0.554838598 0.824920833
0.910436451 0.558887124 0.827703953
0.422517449 0.840986729 0.885641992
0.453889757 0.840480804 0.883238614
0.512586534 0.840860248 0.887792766
0.584566712 0.828209877 0.885009468
0.673497438 0.818595827 0.896521270
0.750158250 0.777988791 0.887665749
0.803415537 0.658823490 0.831246018
0.924477935 0.665021837 0.828842759
0.511448264 0.818722486 0.850221634
0.528020024 0.816065967 0.856040239
0.559266269 0.813662231 0.848576784
0.616192043 0.802656353 0.853383839
0.676660538 0.786970258 0.847058773
0.752561510 0.767235994 0.836432576
0.873750567 0.775585055 0.873245120
0.951549470 0.780391991 0.871220827
0.595825076 0.864768922 0.870082080
0.631878495 0.860973895 0.868690789
0.683491111 0.862239063 0.871220767
0.770651221 0.863757014 0.887919068
0.876027882 0.865907550 0.912966490
0.970145345 0.868690908 0.954585612
0.997722685 0.877039850 0.988235354
1.000000000 0.871853173 0.980012596
0.000000000 0.637191594 0.962049007
0.001644712 0.626312256 0.960784256
0.002403808 0.591777503 0.964452803
0.003921710 0.534092605 0.959266365
0.001518192 0.431246102 0.950284362
0.211511642 0.344845265 0.941049814
0.637823939 0.303225994 0.910689294
0.843769670 0.276913434 0.905503094
0.000000000 0.658949852 0.966476977
0.002277288 0.646805823 0.959266543
0.001644712 0.618469238 0.956483245
0.001138644 0.563314497 0.959266305
0.005566002 0.470335275 0.950537741
0.233143523 0.375711530 0.944465280
0.638836086 0.332447529 0.917773247
0.830107629 0.307147354 0.898545146
0.000000000 0.718912005 0.958759964
0.000000000 0.710310102 0.960404694
0.002403808 0.684377313 0.963441074
0.001644712 0.638456702 0.957621515
0.000000010 0.558001280 0.954079509
0.281214416 0.454901725 0.944718242
0.653510332 0.412776381 0.921062589
0.846679330 0.381530464 0.903858304
0.001644712 0.794560313 0.958127677
0.001644712 0.788614929 0.962175906
0.041872453 0.766730011 0.959266305
0.080834731 0.729538381 0.957115591
0.268184453 0.662998259 0.959898829
0.401138812 0.555597544 0.951169908
0.671979606 0.506135285 0.933079958
0.858697116 0.457685083 0.904364467
0.267046094 0.868691146 0.961290240
0.326502264 0.866160452 0.969133437
0.412776649 0.849083126 0.966730058
0.497280359 0.818848789 0.965085387
0.531815529 0.767615438 0.956609845
0.566730022 0.686654150 0.950537562
0.688425064 0.605439663 0.929411650
0.878051758 0.552308619 0.916508436
0.515243471 0.900695801 0.956609726
0.539152265 0.900948703 0.961290300
0.588614881 0.898797989 0.962808251
0.650094628 0.895129681 0.971537232
0.710815847 0.869955778 0.970904529
0.748893499 0.807969511 0.953067720
0.754206002 0.713725686 0.950411022
0.909930050 0.651739717 0.928779244
0.607336819 0.889816284 0.947627962
0.626059294 0.887160003 0.950917006
0.651359856 0.886780500 0.951043248
0.709044993 0.879696608 0.955850959
0.773054957 0.879696548 0.958759964
0.849335611 0.868057966 0.971663296
0.904743850 0.840480983 0.966982722
0.936116278 0.756356299 0.923592269
0.662112713 0.885515749 0.931308985
0.678304553 0.881214559 0.932574332
0.691587687 0.883238554 0.936749220
0.730170786 0.878937483 0.939025819
0.775458515 0.869829357 0.928146482
0.828083277 0.857432127 0.931182384
0.904490650 0.850348294 0.934218347
0.995192707 0.868564308 0.988867581
0.000000000 0.671979964 1.000000000
0.000000000 0.664137006 1.000000000
0.002656832 0.645667136 1.000000000
0.003795180 0.602150381 0.998861372
0.001518192 0.537381589 0.996331334
0.000000000 0.433902323 0.997216880
0.417584181 0.392662704 0.988362014
0.754711747 0.351802647 0.991144776
0.000000000 0.689184010 0.995192707
0.001265167 0.680961549 0.994180858
0.000000000 0.662998497 1.000000000
0.000379548 0.626438975 0.999620438
0.001138644 0.569639444 0.993674815
0.005060257 0.462998331 0.997596204
0.423782289 0.417710274 0.996078134
0.746995330 0.373814285 0.996204793
0.002530012 0.738393068 1.000000000
0.002909560 0.732068539 1.000000000
0.000000000 0.714231193 1.000000000
0.003415538 0.680961728 0.996457577
0.001517998 0.625173926 0.999240935
0.023276441 0.540797055 0.996963918
0.463377863 0.479443431 0.998734832
0.751296520 0.440481067 0.998734832
0.001265167 0.800505757 1.000000000
0.000000000 0.793168962 0.992915809
0.002783358 0.777861953 0.998102486
0.057052631 0.752308846 0.998734832
0.127893984 0.703605652 0.998861313
0.318405986 0.632257938 0.999240875
0.509804130 0.554965198 0.997216642
0.764326096 0.512839794 0.993674815
0.401138544 0.859329641 0.996963978
0.430360645 0.858191013 0.998355269
0.443516850 0.848829985 0.997975767
0.458950132 0.819734335 0.997090399
0.493991017 0.786084771 0.997343183
0.535104394 0.733459592 0.997469962
0.589879572 0.639215648 0.995951772
0.798102856 0.594181001 0.998734832
0.591018498 0.917267680 0.996204972
0.605186582 0.910183251 1.000000000
0.642378211 0.903731704 0.996457815
0.685768545 0.886148036 1.000000000
0.730297267 0.867552340 1.000000000
0.732194662 0.823403001 0.998102248
0.749525785 0.761543632 1.000000000
0.847691476 0.698671818 0.992789090
0.704111516 0.919038653 0.993547976
0.710309625 0.916887879 0.989120901
0.742441475 0.913598955 0.994813144
0.789373875 0.911448002 0.997469962
0.848829567 0.904743791 0.998481810
0.891966760 0.894750118 0.997722745
0.908032835 0.859455943 0.993927538
0.912840188 0.792916000 0.996457577
0.779632747 0.908412039 0.985705018
0.782289565 0.911448300 0.987602770
0.800379753 0.908538818 0.991017938
0.830107808 0.906135380 0.988740921
0.875648201 0.897659779 0.993801355
0.932574570 0.896774173 0.998482049
0.983174801 0.891208410 0.998734891
0.997343183 0.878557861 0.997469962
