Assets/Shaders/EldamarStudio/100 Sci-Fi LUTs Pack/LUTs/cube/Erin LUT.cube
DOMAIN_MIN 0 0 0
DOMAIN_MAX 1 1 1
LUT_3D_SIZE 32
0.003922000 0.000000000 0.000000000
0.037318386 0.006072000 0.003036387
0.077166542 0.014294773 0.010373225
0.115876161 0.020872839 0.015686000
0.150031552 0.025047095 0.017204095
0.189499930 0.037191868 0.029348871
0.228968963 0.046805676 0.041492999
0.265148699 0.052624710 0.050347995
0.299304187 0.057937998 0.058697093
0.335736990 0.070082009 0.073877484
0.372169733 0.076407000 0.071600132
0.404553980 0.082479514 0.080708250
0.437191278 0.090828992 0.094749995
0.473371029 0.102467000 0.107147031
0.506767392 0.108538993 0.122327402
0.542567551 0.114610992 0.135103986
0.579000354 0.125237182 0.153320372
0.614800513 0.139784977 0.175078973
0.648196995 0.151929021 0.187223017
0.681594133 0.158507019 0.202150375
0.711195767 0.170271739 0.219228476
0.738520145 0.182415992 0.236432865
0.765844524 0.188867494 0.251486003
0.793168902 0.204047918 0.263630807
0.818216562 0.216950998 0.278052270
0.845287919 0.226312339 0.290449291
0.875142038 0.233902931 0.301075131
0.902466416 0.249082521 0.319291890
0.935104489 0.264262825 0.340164781
0.966729939 0.277672410 0.357874751
0.990891576 0.290702373 0.372169226
1.000000000 0.305882007 0.384314001
0.025174389 0.039468389 0.027324386
0.043390386 0.051613159 0.024288775
0.076786771 0.055534385 0.025174389
0.114104934 0.065401547 0.032890774
0.150790647 0.075901158 0.040733777
0.195572704 0.082732253 0.047564868
0.232510760 0.087286711 0.057179317
0.269829005 0.093738154 0.063883677
0.303858191 0.096647680 0.067805097
0.335736990 0.097406395 0.073877491
0.372169733 0.109551132 0.086148001
0.408602506 0.115876153 0.093864374
0.439848423 0.120809734 0.106894284
0.470841438 0.127008036 0.119038768
0.509803832 0.135863379 0.131435797
0.540796995 0.139532194 0.144212380
0.574446559 0.144971773 0.157874584
0.609361112 0.154965371 0.175711557
0.645161390 0.167109400 0.190259412
0.675775111 0.179253399 0.207969382
0.707020998 0.183934122 0.221505463
0.736495852 0.194560513 0.235421002
0.765717983 0.206831247 0.248576880
0.790132523 0.216191918 0.263630807
0.822011471 0.224541575 0.278052270
0.849968612 0.237950742 0.296015292
0.878178418 0.250600994 0.311701059
0.905502796 0.258190900 0.322327495
0.932827175 0.268058211 0.337887406
0.963693976 0.280708343 0.353067547
0.988741338 0.294623584 0.370524555
1.000000000 0.311953992 0.393421590
0.044275999 0.078937322 0.063251317
0.056040775 0.086780548 0.062365931
0.085009545 0.094623774 0.050727770
0.118405931 0.095129386 0.050727770
0.153573543 0.105376087 0.057432223
0.192030251 0.118532546 0.058190998
0.232131764 0.124225095 0.073245093
0.270208478 0.125616774 0.077419773
0.305629194 0.131435871 0.081467450
0.335990012 0.133965850 0.087286487
0.370018959 0.139025748 0.096900769
0.406451732 0.147121996 0.107021026
0.441745847 0.150916994 0.116761543
0.471347302 0.153193831 0.127135038
0.505123377 0.160404950 0.141176760
0.543832839 0.169006810 0.157621756
0.574193656 0.172043189 0.169765770
0.607590139 0.177482769 0.183048576
0.644023001 0.186590791 0.195192993
0.677039981 0.194433793 0.211005777
0.699810207 0.204680517 0.225426763
0.729158461 0.209234759 0.238583341
0.759645700 0.220872983 0.252118975
0.790006042 0.232004881 0.269323140
0.814674079 0.238835782 0.280202508
0.848070860 0.247691557 0.296774209
0.877419353 0.262871712 0.316761136
0.906388402 0.270587981 0.330803216
0.933712780 0.279316813 0.345224589
0.962808371 0.291967154 0.358633727
0.986970425 0.304490745 0.372548759
0.997849226 0.320176780 0.396077991
0.070082322 0.122201324 0.098924994
0.076660380 0.125743330 0.105250157
0.097912766 0.128020167 0.097027376
0.128779158 0.136622474 0.085642152
0.162175640 0.132447541 0.082606152
0.195572257 0.141808867 0.073371381
0.228968963 0.154965311 0.080455638
0.264642835 0.162808314 0.093864992
0.302593231 0.163567409 0.096142091
0.333460003 0.171663806 0.105249852
0.369259864 0.173687607 0.113093033
0.404680490 0.177482322 0.122201085
0.439974636 0.182415962 0.132448137
0.473118067 0.183048472 0.139026120
0.503478825 0.189120978 0.152182251
0.535989761 0.198861510 0.167236149
0.578494370 0.199873179 0.186211318
0.608222544 0.204174563 0.197722733
0.642757833 0.210879177 0.206830978
0.675142407 0.216951177 0.220240518
0.704111278 0.223655730 0.233523145
0.726375282 0.230740115 0.245667160
0.756609499 0.236685663 0.260594487
0.787728906 0.247691333 0.277672142
0.814294577 0.255281299 0.290322274
0.840227664 0.262871474 0.299810141
0.873118162 0.273498088 0.317014158
0.903478861 0.281087697 0.333712727
0.932447612 0.291460812 0.348007798
0.960278392 0.304111153 0.366476953
0.987097025 0.316634983 0.380392194
0.997343183 0.328020006 0.398608327
0.104617544 0.170398548 0.129664540
0.109550700 0.170019090 0.144085929
0.124730863 0.168627322 0.144718319
0.146615699 0.170777872 0.137634099
0.174319640 0.181784078 0.128905535
0.207716808 0.169639319 0.104617544
0.236053318 0.178621188 0.099051543
0.265022427 0.192789540 0.103352539
0.295383096 0.204174638 0.115117095
0.328779519 0.207211033 0.124225490
0.366856426 0.208855554 0.131562546
0.403541952 0.210499838 0.138140276
0.439215630 0.213535741 0.147627831
0.472865045 0.216572061 0.160025507
0.503478825 0.222517535 0.169386119
0.532574356 0.232637525 0.180898145
0.569006920 0.235673442 0.196837723
0.613915086 0.229601115 0.215939507
0.641239583 0.238709524 0.225047141
0.670967758 0.244275555 0.235800162
0.700948894 0.250727087 0.248323992
0.730170965 0.255787224 0.260088533
0.760657430 0.258697093 0.272232533
0.788487911 0.267046452 0.287159920
0.814674139 0.273877531 0.301201552
0.839595199 0.280582100 0.311195195
0.867046118 0.290196478 0.321568549
0.897406876 0.293232113 0.333712518
0.927766919 0.303099096 0.345098108
0.956356466 0.316255182 0.363187909
0.981783986 0.329917520 0.385705173
1.000000000 0.335989535 0.403921992
0.125869930 0.215938926 0.163060933
0.144085929 0.212903306 0.172169328
0.157621637 0.214674085 0.184439942
0.172548860 0.216698021 0.187981874
0.189500019 0.221252471 0.183554322
0.219860807 0.224288866 0.156229943
0.248197317 0.209614426 0.142061934
0.277166396 0.211511940 0.135230929
0.306768119 0.220873028 0.136748925
0.334851503 0.234535426 0.148513496
0.365338743 0.246299922 0.163440868
0.397216916 0.248323932 0.164958656
0.430866361 0.249968514 0.167362213
0.466793060 0.253004819 0.175205886
0.503225803 0.256040454 0.190385491
0.538646579 0.261985928 0.202150539
0.573561311 0.267552137 0.215813130
0.611385465 0.268564224 0.231372908
0.644276023 0.272105902 0.243263915
0.671600342 0.272864938 0.246805519
0.699430764 0.279569656 0.258949816
0.725237191 0.286147982 0.271600157
0.748513460 0.289057851 0.281340927
0.781909943 0.289057851 0.293484926
0.814294875 0.295129925 0.312966287
0.840607584 0.299810261 0.324351609
0.863883972 0.305882126 0.330929935
0.891334891 0.320556492 0.348892927
0.921694934 0.323592782 0.355723917
0.950284123 0.331688613 0.368121237
0.976723313 0.343579590 0.385705173
1.000000000 0.357241929 0.403921992
0.159772635 0.264010280 0.214168280
0.175458327 0.263504326 0.220746353
0.193674862 0.262618959 0.232004955
0.206704795 0.265275121 0.241618961
0.217583954 0.267552167 0.242251426
0.235041186 0.266287565 0.223529011
0.265401959 0.274383307 0.206325278
0.291081637 0.255913943 0.181024879
0.320430100 0.253257424 0.167615637
0.351296514 0.261353821 0.172675654
0.384061038 0.268564343 0.185199201
0.412397563 0.282732576 0.198355317
0.441113263 0.289816648 0.200126275
0.472865343 0.297280312 0.205313310
0.504743516 0.302593201 0.218216196
0.545983255 0.300822437 0.230992630
0.584187269 0.303478956 0.243137375
0.619734526 0.305503041 0.256673306
0.649335980 0.308538675 0.268817335
0.677166343 0.311321974 0.272612602
0.708285689 0.311321974 0.277545959
0.736875117 0.316508502 0.288804501
0.761290014 0.319670975 0.297785997
0.787476182 0.324478000 0.305123001
0.816318572 0.326755285 0.317267567
0.849209309 0.332574308 0.337760955
0.876027703 0.337760717 0.349652380
0.903352082 0.348893076 0.365844637
0.928273201 0.353446841 0.378494620
0.958633661 0.360025197 0.389879823
0.982289612 0.370018601 0.405945629
1.000000000 0.383554310 0.424162000
0.197849691 0.304364711 0.258950412
0.206451729 0.306008965 0.263377696
0.223782241 0.307653695 0.275395423
0.241998687 0.310183704 0.286274552
0.251866072 0.313219398 0.291587591
0.261480391 0.311448604 0.281467170
0.287160337 0.313599080 0.266286999
0.309297979 0.319418103 0.246173695
0.333586186 0.298924625 0.213535994
0.364326239 0.295762181 0.207337409
0.396078616 0.293484986 0.210752696
0.425427258 0.302340239 0.219607696
0.453890264 0.317520618 0.229474679
0.481720746 0.329917729 0.233523011
0.510689378 0.337381423 0.244275689
0.547374547 0.341176510 0.256419688
0.586843371 0.342694700 0.267045885
0.623655796 0.342947692 0.277166575
0.650980294 0.344971448 0.286274731
0.678305089 0.343074054 0.295003355
0.711068690 0.347501695 0.304870695
0.743453264 0.346489578 0.309930533
0.771157205 0.348260194 0.317773193
0.793927848 0.352814406 0.325363398
0.822138011 0.356609702 0.335989535
0.848070681 0.363820374 0.349525630
0.879190147 0.369386405 0.367236048
0.905376136 0.375079125 0.377862424
0.934977651 0.382163286 0.392030686
0.964452624 0.388740897 0.407590181
0.987729251 0.396963686 0.420114011
0.998355269 0.407589704 0.435294002
0.234282091 0.340797096 0.296142101
0.241113573 0.343073815 0.299936801
0.253384203 0.346109957 0.312333852
0.270082206 0.350411206 0.323466241
0.288298190 0.356103718 0.334092647
0.295888871 0.356483281 0.334092379
0.315876424 0.356483281 0.323971957
0.333586365 0.357368886 0.300822318
0.354079276 0.358887106 0.281088084
0.378368080 0.340670317 0.259835690
0.406198740 0.328905523 0.249209419
0.433017254 0.325869441 0.245414197
0.462239176 0.335736632 0.251486182
0.491840929 0.350664049 0.257811219
0.518153310 0.360278487 0.266919583
0.552688062 0.368501067 0.278431177
0.585325360 0.375332177 0.287539184
0.622390687 0.380771577 0.297912568
0.650221229 0.380898088 0.301454991
0.676786959 0.376091182 0.309803993
0.708286107 0.376091212 0.322327733
0.740417242 0.379886180 0.334978044
0.770904422 0.377102792 0.338393152
0.794686913 0.380138993 0.348133981
0.820493460 0.383175373 0.358760178
0.850347936 0.387350082 0.371536732
0.875648141 0.398988158 0.385705143
0.900442898 0.399747193 0.389247537
0.930423677 0.405439913 0.401391715
0.961543083 0.415306956 0.417583942
0.990005970 0.425047159 0.434535086
0.996078014 0.431119174 0.440607101
0.261606514 0.386337519 0.335610509
0.279823273 0.386337519 0.341682494
0.293106019 0.388614774 0.356229991
0.305502981 0.392915994 0.367994696
0.318659008 0.398608536 0.373561054
0.336875021 0.401644915 0.394813448
0.349525660 0.402024478 0.394813150
0.357368797 0.402024478 0.373181522
0.369259685 0.401391894 0.344845325
0.405692488 0.398355514 0.338772476
0.427071393 0.380139500 0.308791995
0.448703259 0.364326715 0.285642236
0.474762648 0.359266341 0.275774986
0.507020593 0.368880093 0.282100052
0.528272927 0.381024837 0.291208416
0.561796069 0.393042475 0.302719980
0.590638697 0.403415680 0.310309798
0.616318703 0.411132395 0.316128552
0.655788004 0.414168060 0.331308961
0.680835009 0.411511898 0.332067996
0.709044993 0.410246998 0.338266730
0.736622632 0.410499990 0.347628117
0.758760452 0.410499960 0.356609941
0.792156935 0.413535565 0.368753970
0.815939248 0.416571796 0.378494769
0.843137145 0.418216527 0.389120936
0.875648141 0.420240581 0.400885552
0.906008840 0.429348946 0.409993917
0.930802941 0.430108011 0.418848634
0.955470920 0.437571466 0.431751668
0.978367984 0.449588954 0.447058558
0.996078014 0.461479992 0.461859494
0.306388617 0.426059604 0.377988726
0.307147652 0.431878626 0.375331879
0.325363874 0.431878626 0.385705411
0.341555864 0.435420752 0.396078438
0.358127415 0.440733731 0.401391417
0.378873736 0.441239774 0.422643811
0.399620056 0.441745847 0.443896204
0.411258578 0.443390548 0.437317908
0.417583615 0.443896651 0.412776738
0.432510853 0.440860242 0.393801481
0.457305610 0.440733731 0.370271742
0.472485721 0.418469250 0.341935456
0.488804519 0.399493873 0.318912119
0.511574924 0.392156780 0.309297919
0.543453276 0.396331698 0.318406314
0.569512665 0.408475846 0.329917848
0.601391375 0.419102043 0.334471673
0.628083408 0.429475278 0.336622000
0.658444047 0.441618919 0.349525720
0.681214511 0.444655240 0.353573382
0.705376446 0.443769872 0.359392613
0.732701123 0.443769872 0.368501008
0.758127987 0.443769872 0.377356350
0.788741052 0.444022834 0.381151021
0.819860697 0.442504466 0.391018271
0.843010664 0.444275677 0.400126636
0.869323015 0.446805865 0.410752863
0.897279978 0.453510433 0.422264457
0.922327757 0.459961981 0.434028983
0.951928973 0.460467994 0.445161283
0.978747606 0.468058199 0.457432121
0.998987854 0.480202734 0.468564004
0.347881228 0.465528220 0.418469220
0.353953481 0.473624498 0.423529357
0.364832759 0.477419257 0.427197784
0.381783575 0.477419257 0.439342231
0.399999589 0.480834812 0.445034564
0.422896683 0.479190499 0.458064675
0.440101087 0.485262215 0.477292836
0.454775453 0.488551646 0.490322530
0.463124752 0.489690304 0.476280659
0.469196767 0.485388726 0.453257442
0.488677979 0.483238488 0.428969264
0.508918226 0.483238488 0.404680490
0.521062493 0.457811356 0.377356112
0.535104454 0.435926676 0.353826731
0.556103647 0.419481397 0.341682643
0.586717308 0.427704245 0.347121954
0.609487534 0.435294062 0.357748151
0.635926545 0.443390310 0.358633488
0.660468042 0.455787331 0.367994934
0.684250653 0.465907335 0.377861887
0.703605235 0.472738743 0.386590719
0.728652894 0.473118246 0.393801391
0.756103754 0.473371238 0.400505990
0.786464274 0.477166235 0.401644349
0.810752511 0.478937447 0.405186534
0.842504621 0.475901067 0.417077899
0.867299020 0.477672309 0.427957237
0.894623399 0.482226491 0.440101236
0.923339605 0.484250486 0.446173489
0.947627902 0.490322471 0.458317459
0.977608919 0.492599517 0.470461965
1.000000000 0.502466977 0.480708241
0.401011914 0.511827946 0.463630259
0.406704664 0.516382039 0.471600294
0.420114040 0.521189153 0.481973290
0.433017373 0.524098277 0.487159908
0.448956102 0.524477839 0.498924434
0.472485751 0.522960186 0.505756140
0.489184231 0.525489986 0.521948278
0.503352344 0.531814992 0.533586264
0.512460709 0.537128687 0.539658308
0.518912256 0.532194555 0.521821380
0.528652966 0.529032111 0.495382935
0.546868920 0.528020263 0.475648403
0.561669588 0.525743306 0.451359928
0.573308289 0.498418868 0.423023492
0.583681285 0.468943745 0.392157137
0.604554236 0.456167072 0.376344115
0.628842652 0.458823740 0.374446452
0.646426201 0.462491930 0.383554667
0.666666687 0.471094280 0.390132636
0.690702140 0.482985288 0.400632292
0.712333977 0.493232012 0.409361094
0.732574224 0.501328290 0.421505630
0.759645641 0.501834273 0.425047278
0.787982464 0.507906258 0.427071273
0.813788891 0.512839913 0.432763934
0.837191641 0.514231622 0.436812282
0.869576037 0.511701286 0.450980693
0.896900415 0.514105082 0.462492257
0.926881611 0.515623271 0.470082462
0.955977201 0.520303607 0.479570240
0.975837648 0.527261198 0.490828663
0.998861372 0.533586264 0.502719641
0.473624051 0.566730022 0.516761065
0.473877102 0.563946605 0.523592830
0.483617783 0.565717757 0.535357296
0.496774167 0.568753958 0.544718206
0.507653594 0.570777595 0.548007607
0.528905988 0.573813975 0.557115972
0.544339299 0.573307753 0.574320018
0.560025394 0.573054790 0.586464107
0.573687136 0.575585067 0.593042135
0.582795560 0.578621447 0.599114060
0.581024945 0.576091170 0.572043061
0.591145039 0.574826002 0.552561581
0.605186701 0.573308110 0.536116064
0.615307093 0.567236125 0.512587011
0.621379077 0.539911687 0.473118693
0.632890821 0.513093293 0.440607488
0.649083018 0.494371057 0.417331040
0.667172611 0.489057988 0.408349484
0.682353079 0.495130032 0.417457104
0.705629110 0.506515086 0.425300390
0.728272796 0.516508698 0.431119770
0.749525249 0.524858057 0.436432987
0.773687482 0.531183004 0.448703498
0.797849834 0.537508011 0.455155015
0.824415267 0.544086039 0.465528071
0.850853920 0.547628045 0.474256694
0.875395060 0.547628045 0.478305131
0.902719438 0.547628045 0.487413466
0.932700634 0.550031841 0.498418987
0.962302387 0.556356788 0.512587190
0.987223446 0.565464616 0.526249468
0.996331036 0.574573040 0.535357058
0.510056853 0.591017962 0.553193808
0.513093233 0.591017962 0.568374217
0.515496433 0.596837163 0.575205386
0.526122510 0.602150559 0.578114867
0.541176498 0.603668690 0.575078964
0.565338731 0.595066369 0.578368306
0.573940814 0.608222723 0.600126386
0.590133131 0.609740496 0.616571784
0.607084155 0.607969522 0.627451241
0.616191924 0.605945885 0.638583183
0.622391164 0.606072426 0.630107403
0.626565754 0.603415549 0.604427516
0.632890821 0.603289008 0.582542539
0.636559427 0.603668869 0.561163723
0.657811821 0.597596824 0.545983374
0.654269814 0.575079381 0.511321962
0.661733389 0.548007786 0.477039814
0.677039981 0.525869787 0.451992393
0.697533369 0.513346016 0.447817832
0.718279779 0.522201300 0.443010807
0.742061853 0.530044436 0.449589163
0.761669695 0.537761092 0.455408275
0.776723921 0.546363354 0.460847497
0.797976315 0.558507383 0.476027906
0.824415267 0.569386423 0.484756678
0.853130937 0.576091051 0.495888799
0.881214142 0.577988803 0.505629480
0.905755818 0.577988803 0.514737844
0.935737073 0.577988803 0.518532515
0.960784614 0.582163393 0.532321334
0.983048975 0.589753389 0.548134387
0.999367416 0.598861814 0.559645832
0.551296592 0.624920547 0.582415760
0.551929176 0.622517407 0.592789173
0.554965556 0.624667645 0.603668571
0.563061178 0.629474759 0.612523615
0.578620851 0.630993009 0.614041567
0.598861635 0.627956867 0.615053713
0.612776756 0.634282112 0.618975580
0.622137725 0.639595032 0.638330281
0.639595091 0.637317777 0.651233792
0.651992083 0.635926485 0.663377821
0.660594523 0.638203800 0.667172730
0.664642990 0.636179566 0.658064306
0.666919947 0.632004738 0.634155571
0.666413784 0.630993009 0.611638367
0.679064214 0.629221976 0.592156947
0.693105757 0.620746732 0.574572802
0.691587567 0.602530360 0.547248363
0.698544979 0.575964689 0.513978243
0.707400143 0.550157845 0.486653805
0.723845541 0.538014114 0.473371565
0.746995687 0.547122002 0.467299104
0.773308098 0.552688122 0.473877311
0.793801785 0.558886945 0.479949296
0.808222890 0.566477001 0.490575701
0.831752002 0.578621030 0.505756080
0.853383839 0.590765357 0.513725758
0.879190087 0.597343802 0.523339748
0.909171045 0.601138830 0.532447636
0.933965802 0.610752761 0.541050017
0.959013343 0.608981550 0.545856774
0.980265796 0.612270594 0.563314378
1.000000000 0.618342996 0.581530809
0.586211145 0.653763175 0.620366752
0.593801379 0.653763533 0.627956927
0.592915773 0.651992440 0.630992949
0.603542149 0.655028343 0.635041356
0.617330372 0.656419933 0.645920396
0.628715813 0.659835577 0.650474370
0.641872406 0.661353469 0.653004348
0.655534565 0.666919827 0.661100864
0.669196546 0.663883507 0.675522149
0.685135841 0.663124382 0.687666178
0.696015060 0.666034222 0.695509374
0.702593207 0.669576347 0.697533071
0.702213943 0.664262950 0.683870733
0.699557185 0.658064365 0.659962177
0.707400441 0.656799138 0.637444973
0.715875983 0.652624965 0.620114028
0.726502180 0.645035148 0.598861217
0.729537964 0.628589809 0.578873813
0.730423570 0.598734856 0.544338584
0.739784718 0.574446559 0.517773509
0.756103635 0.562302411 0.500695884
0.778368175 0.568374157 0.496647358
0.806325316 0.571283996 0.503858149
0.822643936 0.580138981 0.508791864
0.842378199 0.589247167 0.519418299
0.861100197 0.598608196 0.529032350
0.879696131 0.609487832 0.535483837
0.914104640 0.615559816 0.544591784
0.934977651 0.628462970 0.559772015
0.957495153 0.637824178 0.567109168
0.978747606 0.638329983 0.575837731
1.000000000 0.642631352 0.598228991
0.616698086 0.676280558 0.663883984
0.629980922 0.678684354 0.669323564
0.634155333 0.677419364 0.669576347
0.638709307 0.678178132 0.670335114
0.657684684 0.680834949 0.668817520
0.657937706 0.689184308 0.680708528
0.668690562 0.688172221 0.685262382
0.682479620 0.688425124 0.691966951
0.697786510 0.690575898 0.702846587
0.716002524 0.687539518 0.714990556
0.729032099 0.690955400 0.724857807
0.736495674 0.694750547 0.731182814
0.738646090 0.697027504 0.727640450
0.733839095 0.688425124 0.706894040
0.740290701 0.685388684 0.683744490
0.744465113 0.681087732 0.665401697
0.750790358 0.678431511 0.647564888
0.759266138 0.671726942 0.621378541
0.762302518 0.650474489 0.606198072
0.768121541 0.623402953 0.575584710
0.777356267 0.599999964 0.549145937
0.792283535 0.586084545 0.531815112
0.810499609 0.585958064 0.531562090
0.831245899 0.595572174 0.530550122
0.851865828 0.604806840 0.536116242
0.871473551 0.613788545 0.543706477
0.885135651 0.619860530 0.547754228
0.920935869 0.625932574 0.556862593
0.940670371 0.638076782 0.574699342
0.960025132 0.650347769 0.587729156
0.978747606 0.659455955 0.595192552
1.000000000 0.668564379 0.610372961
0.659202993 0.703605056 0.688172042
0.665274978 0.703605056 0.691208482
0.672105968 0.701707840 0.692347050
0.678684115 0.703731835 0.698418856
0.688045561 0.711195052 0.711321592
0.691082001 0.711195052 0.720429957
0.703984618 0.709424376 0.724731326
0.718911707 0.709677279 0.729411960
0.734092116 0.711954057 0.735990047
0.749399006 0.711827576 0.742315054
0.764705837 0.717520773 0.754459023
0.771537244 0.719292045 0.764326334
0.772549331 0.719798028 0.766097307
0.770271957 0.718786001 0.755470932
0.779380381 0.715749621 0.740290582
0.778621137 0.707906246 0.719544172
0.779380202 0.705376267 0.701834261
0.783554971 0.705123425 0.682100236
0.789627016 0.696015060 0.648703039
0.795446038 0.677546024 0.622390687
0.799620807 0.652625203 0.596458077
0.806704998 0.629348695 0.575458825
0.819608033 0.613282561 0.561923027
0.837824047 0.610246956 0.555850983
0.856293619 0.615306973 0.557115734
0.877545893 0.624414921 0.563440681
0.900316000 0.635040939 0.572043061
0.921568394 0.641112924 0.581151426
0.946742654 0.647184968 0.592915952
0.970271885 0.657558441 0.604048193
0.989879608 0.668564379 0.612903357
1.000000000 0.677672029 0.622517049
0.715623081 0.739278734 0.737508118
0.724478424 0.742062092 0.734977782
0.726249456 0.742062092 0.735863388
0.731056392 0.740923762 0.739658535
0.737887561 0.743959546 0.749905109
0.740923345 0.741555750 0.751802683
0.749019682 0.741555750 0.755850434
0.763693750 0.742062151 0.760531425
0.776597083 0.744339108 0.767362654
0.785705209 0.744339108 0.775458395
0.800885558 0.752940714 0.790132761
0.812017977 0.750917017 0.794180751
0.818849087 0.750537634 0.798735023
0.822390795 0.751929402 0.796458125
0.821379185 0.748892963 0.788868010
0.818469763 0.743453383 0.776090860
0.819608092 0.739278734 0.757495105
0.823909163 0.739152431 0.738520205
0.827830434 0.732194722 0.709424615
0.842251718 0.723086357 0.695508718
0.842631519 0.704870403 0.666287124
0.845920622 0.683238745 0.643263936
0.855913937 0.665022433 0.627704084
0.860847712 0.648703277 0.605692387
0.876787007 0.641113102 0.595066428
0.895888984 0.643263698 0.592789412
0.918785691 0.651233375 0.596331716
0.942314804 0.661859334 0.605439425
0.958254218 0.673245013 0.614547849
0.978620946 0.677798808 0.624794602
0.993800998 0.686906993 0.638330340
0.997216642 0.697912335 0.656925738
0.754332721 0.762428701 0.768247962
0.759646118 0.761669636 0.763314307
0.767995000 0.762555242 0.771916449
0.769260168 0.763820410 0.773181319
0.774320185 0.764832556 0.779506564
0.777355790 0.764832556 0.777988732
0.785452008 0.768121481 0.782416165
0.796204686 0.766476750 0.788741171
0.811132073 0.768247962 0.795825660
0.820619702 0.768247962 0.804933250
0.833523333 0.771283865 0.812270582
0.842758000 0.775964499 0.824920774
0.851866066 0.772169471 0.826059401
0.859961808 0.773940682 0.828589737
0.856926143 0.770904303 0.824162006
0.859076738 0.765464664 0.813282847
0.854522526 0.765464723 0.798102438
0.858823597 0.765591323 0.782416284
0.861859500 0.760784447 0.763946712
0.866540134 0.751929104 0.739152431
0.877925515 0.746615708 0.732700467
0.875901759 0.729411542 0.702340186
0.882226527 0.712080956 0.682479262
0.887033701 0.693864703 0.659962118
0.893485248 0.672991931 0.635293722
