Assets/Shaders/EldamarStudio/100 Sci-Fi LUTs Pack/LUTs/cube/Ethan LUT.cube
LUT_3D_SIZE 8
DOMAIN_MIN 0.000000 0.000000 0.000000
DOMAIN_MAX 0.903226 0.903226 0.903226
0.074510001 0.066666998 0.070588000
0.095256448 0.070588000 0.078051552
0.144971102 0.079190098 0.083871000
0.204047635 0.097533353 0.108158998
0.283617973 0.126122802 0.136368990
0.356482983 0.162428737 0.166603252
0.443390280 0.209107995 0.205186576
0.558633745 0.252498806 0.248576805
0.078810550 0.107400090 0.079569548
0.108159088 0.104237996 0.088172443
0.156736091 0.119544446 0.100695640
0.215053752 0.135989636 0.119924091
0.279696375 0.156230554 0.140290990
0.356862515 0.189247549 0.171283737
0.441872090 0.220999092 0.213156000
0.544592083 0.264642358 0.244908437
0.120809905 0.182542995 0.122960091
0.142694101 0.188868105 0.132068455
0.184946194 0.192789197 0.141050085
0.241745740 0.202529743 0.160658091
0.310310066 0.222517282 0.177103192
0.380645066 0.244781822 0.207210734
0.470841289 0.278178215 0.234408796
0.588108718 0.311701179 0.274130076
0.165970996 0.269702643 0.181657284
0.183175176 0.270461738 0.189500287
0.225553274 0.279949546 0.197722629
0.279190630 0.292093277 0.207463279
0.335990071 0.300316423 0.226818442
0.403036028 0.319165021 0.247185647
0.477165908 0.339784980 0.261859924
0.592157066 0.376217425 0.306135476
0.225679994 0.365970969 0.246806189
0.235167891 0.373307824 0.248956546
0.273497909 0.376849979 0.253890097
0.316128820 0.381910026 0.263250977
0.375332177 0.397976190 0.275774986
0.441745460 0.408601940 0.294623792
0.527261257 0.429348379 0.314231277
0.630866826 0.465781212 0.349399000
0.307653248 0.493990988 0.325489998
0.306894541 0.503605247 0.324857533
0.337634385 0.506262124 0.329032004
0.380771488 0.506135345 0.338140666
0.433902681 0.515116751 0.346742719
0.499304205 0.522833765 0.362428725
0.578494489 0.541302979 0.384566575
0.676660538 0.574193537 0.428589612
0.368880272 0.614927530 0.384566277
0.382795542 0.619228125 0.409361035
0.407969356 0.621884704 0.407083988
0.450727642 0.625553608 0.419860989
0.496394753 0.628969312 0.429727972
0.560151756 0.632258296 0.439847827
0.624667585 0.644655287 0.464895844
0.711954534 0.668058515 0.491967082
0.509044766 0.758633733 0.539152622
0.528905511 0.767362177 0.534851372
0.543200612 0.767741621 0.550790787
0.576217651 0.771663606 0.554332614
0.620872617 0.773181438 0.566856623
0.668058455 0.778114974 0.585831642
0.724225223 0.783048511 0.597975612
0.788741589 0.795192599 0.632004738
0.069829002 0.074510001 0.094876997
0.094876997 0.067425996 0.095256448
0.149272546 0.080708101 0.105376445
0.204427183 0.113219641 0.125743359
0.272612393 0.141809195 0.156230554
0.348892897 0.176596925 0.184819996
0.434408516 0.212776542 0.211638287
0.543453336 0.251865834 0.257558346
0.083112001 0.107400097 0.108159088
0.107779540 0.104996994 0.097533539
0.156736091 0.123845994 0.116761193
0.210752904 0.144212186 0.144971296
0.277798831 0.163314357 0.167741910
0.356862545 0.193927556 0.195825279
0.433522999 0.223655835 0.220872790
0.535736620 0.261480272 0.258191109
0.113978542 0.178621188 0.139784649
0.144971192 0.185325652 0.152435541
0.179000646 0.190006554 0.160658002
0.235420644 0.206451654 0.172801644
0.301960766 0.222517282 0.194307283
0.370525002 0.244908452 0.215812743
0.453763723 0.272991806 0.244781837
0.570777893 0.310436219 0.281088263
0.165591642 0.262618631 0.188235626
0.181657180 0.267805189 0.196963638
0.214927644 0.272486001 0.203542188
0.267805189 0.284250289 0.215307087
0.324984163 0.299177974 0.233016729
0.391903818 0.312080801 0.250221431
0.475647926 0.335989982 0.276027650
0.583301425 0.369892508 0.308032632
0.215560004 0.359645993 0.240101352
0.229854539 0.364326179 0.255028546
0.262871742 0.368247986 0.258949816
0.309551090 0.377229542 0.272612274
0.365464807 0.386970162 0.288045555
0.430107355 0.400758833 0.296521425
0.513725340 0.419861168 0.320430160
0.622770369 0.462871552 0.356483191
0.288804740 0.483491480 0.320556283
0.300063074 0.488424748 0.328273267
0.326249003 0.490322262 0.335736722
0.369259924 0.497026920 0.341302842
0.426818281 0.504111707 0.350284487
0.489816517 0.518532276 0.366223723
0.569765866 0.533839107 0.388488293
0.674636245 0.569639444 0.423655987
0.352814525 0.598355293 0.392663002
0.377861828 0.606325269 0.393169075
0.395951807 0.610246360 0.401012093
0.437318027 0.613662302 0.411385000
0.486780614 0.619101942 0.427577257
0.549019396 0.626945019 0.441239804
0.621378779 0.639215529 0.461479813
0.704490960 0.657432079 0.496015191
0.500568867 0.755470872 0.534092426
0.526755095 0.759392738 0.543073833
0.538899362 0.762934923 0.549905062
0.570777655 0.764200091 0.557495117
0.613029599 0.765717983 0.562175810
0.662112474 0.772675276 0.584440053
0.718532741 0.776343942 0.601770937
0.782795727 0.795319438 0.624920726
0.058064900 0.071347095 0.139532089
0.083112001 0.074510001 0.133207008
0.145730197 0.088551901 0.150411099
0.206831187 0.117520191 0.170777991
0.274257004 0.151296899 0.192789197
0.350284487 0.185704991 0.217457339
0.436305970 0.220113903 0.245920181
0.548639894 0.255787730 0.282605827
0.091334544 0.104996994 0.135104552
0.118405998 0.115243092 0.141809002
0.157115638 0.128526092 0.161037549
0.211891547 0.148892999 0.178621098
0.284503371 0.175964534 0.201517999
0.354206175 0.203415647 0.230107531
0.433269978 0.234282196 0.251865834
0.545603871 0.267552227 0.294497073
0.123087004 0.184946194 0.173940077
0.141429543 0.182163551 0.185325637
0.188109100 0.197470099 0.195066079
0.242125079 0.205692649 0.209235087
0.302466899 0.229601368 0.228842273
0.375205368 0.250727087 0.250727087
0.452625185 0.278937131 0.271853179
0.569765866 0.314990073 0.315622985
0.170777991 0.269829631 0.218343183
0.183301896 0.270588547 0.231878281
0.223276272 0.278431654 0.237697750
0.271853268 0.287413180 0.248703539
0.328146458 0.299178094 0.259962201
0.390385747 0.316381991 0.274889171
0.472991675 0.337128550 0.300316423
0.582795680 0.371537000 0.332827359
0.224161997 0.362808287 0.270967960
0.237444803 0.365591526 0.280961633
0.264769107 0.373813987 0.284377068
0.304870158 0.375332177 0.297406554
0.363567173 0.382416070 0.303985059
0.428463161 0.397976100 0.320430070
0.516888201 0.423782468 0.339152366
0.620872736 0.458570451 0.379126966
0.293232083 0.482985616 0.345604092
0.300063252 0.485262513 0.347881019
0.326248914 0.490322351 0.347501755
0.370904744 0.490701824 0.364705712
0.422264278 0.499430746 0.370145649
0.486780643 0.510057032 0.379886001
0.566603005 0.527514040 0.406198651
0.669196784 0.564326346 0.443896443
0.352308482 0.598482072 0.405060291
0.369259834 0.602023780 0.410373092
0.392410100 0.604807258 0.423150122
0.435420573 0.607083976 0.429854274
0.487033546 0.613156378 0.436812282
0.550537527 0.624161720 0.457811534
0.620240211 0.636812270 0.472991854
0.698165596 0.662997901 0.509171367
0.497026920 0.747754693 0.542441487
0.509803772 0.755218029 0.550284505
0.530803025 0.756735981 0.561416626
0.563567579 0.762681782 0.566350102
0.608981788 0.764579535 0.568500698
0.655028224 0.766476750 0.584693432
0.711195052 0.776597023 0.604933500
0.783554733 0.792662621 0.631751835
0.059962351 0.076787002 0.193927646
0.090955094 0.079949193 0.190765530
0.148513541 0.096015446 0.206578359
0.210752994 0.121062636 0.218089640
0.282479614 0.153573811 0.238962993
0.358128011 0.186463997 0.262871742
0.441113293 0.222011641 0.294244349
0.557241797 0.257558823 0.331688613
0.092093639 0.116381638 0.202277094
0.121948354 0.118279189 0.202150181
0.154712439 0.132068455 0.214674190
0.211891547 0.150031641 0.226818547
0.281720638 0.175078735 0.247691289
0.352561295 0.204933554 0.264010102
0.436306208 0.238583252 0.290575296
0.548134148 0.268437743 0.331309080
0.131309450 0.186970457 0.233522996
0.152435452 0.191271201 0.240607083
0.189247549 0.203036100 0.251992643
0.241745740 0.210753009 0.261353642
0.304364651 0.234282091 0.275395542
0.370525092 0.255913734 0.291967332
0.459709108 0.283744276 0.316255540
0.573560774 0.314231187 0.346995354
0.171030641 0.272991627 0.269070625
0.193927631 0.271347642 0.271347612
0.223655730 0.281593740 0.284377098
0.271347642 0.287033647 0.290954918
0.324984193 0.299178064 0.299937099
0.394307733 0.316887736 0.318026364
0.478304833 0.343074024 0.338646322
0.589120567 0.372801811 0.368880451
0.228462741 0.362428814 0.327387631
0.234282091 0.369512826 0.314231277
0.264895886 0.370651305 0.320430100
0.309930444 0.380518615 0.334598184
0.363946706 0.387476653 0.344465613
0.434534907 0.402024001 0.357748449
0.518152893 0.425426900 0.378873825
0.626945078 0.460215092 0.411511809
0.284630001 0.482352734 0.376596749
0.296647638 0.483870924 0.384566367
0.326754987 0.490069628 0.389500171
0.366603464 0.494370341 0.395698905
0.423909068 0.504237831 0.401265174
0.489310741 0.513092995 0.419987261
0.568880141 0.529538512 0.434788078
0.670841277 0.569892585 0.473118454
0.353826553 0.599240959 0.445034981
0.369892716 0.604807258 0.454901904
0.391144931 0.609487414 0.453510553
0.433396637 0.609361291 0.461353570
0.490322560 0.618848562 0.472232640
0.548260212 0.628589749 0.486021727
0.619481564 0.638456523 0.505123258
0.705250084 0.666540325 0.534851432
0.498924732 0.748260438 0.562681973
0.504237711 0.756356776 0.565211892
0.526628613 0.756609499 0.574067175
0.558759987 0.762682021 0.582289577
0.604174733 0.762808383 0.587602615
0.657052517 0.769639373 0.601264656
0.713093102 0.777862191 0.620746613
0.779885769 0.794180810 0.645667136
0.073624000 0.079064190 0.259202987
0.105882190 0.088172346 0.257685184
0.147122085 0.106641099 0.271221012
0.211891636 0.128525987 0.276407182
0.287539393 0.161416799 0.299303979
0.359392732 0.191018373 0.320430189
0.441112995 0.224921092 0.341555983
0.558886766 0.257684976 0.387729168
0.105376445 0.128526181 0.269450188
0.117520183 0.130550355 0.256040394
0.161796451 0.139025643 0.275775075
0.221378729 0.161416903 0.286780387
0.282479614 0.182163343 0.300948977
0.354079247 0.207590088 0.313725650
0.439721733 0.238583446 0.342188269
0.553573430 0.268943518 0.381783813
0.135483980 0.195952103 0.289184093
0.150917351 0.201770738 0.296647638
0.188868001 0.208475992 0.298545092
0.240607083 0.221378639 0.310436100
0.304870069 0.235041171 0.322833210
0.376091003 0.257052362 0.342947543
0.460594475 0.283618003 0.365844280
0.578241527 0.315243632 0.404427707
0.179127261 0.272612184 0.327514112
0.193927735 0.274130166 0.329032183
0.224414825 0.281973273 0.334471971
0.271347642 0.295003444 0.338772833
0.327767015 0.303478628 0.351676166
0.398987919 0.324731022 0.367362142
0.481594265 0.343074024 0.386590600
0.594054341 0.367362261 0.419354618
0.224162191 0.363567203 0.367489159
0.243769988 0.368374169 0.375458181
0.268058091 0.374573112 0.379253358
0.313472301 0.380391836 0.380771369
0.369892389 0.388615012 0.391018152
0.434661657 0.406198621 0.402403623
0.521568298 0.424794376 0.416824907
0.632257760 0.453636974 0.455281287
0.286527544 0.482732475 0.427071184
0.296647757 0.484250277 0.431751966
0.324351460 0.490449160 0.434029073
0.365464926 0.493231893 0.436306268
0.419102192 0.499430716 0.449715167
0.491460711 0.511195719 0.459962189
0.572549224 0.532953978 0.479063809
0.674762785 0.565211773 0.514231443
0.349525273 0.600758970 0.484377265
0.367362380 0.605945706 0.495002985
0.390133202 0.611132085 0.495888472
0.427324712 0.613029778 0.499051273
0.484756291 0.618848562 0.509930372
0.549904943 0.626565456 0.520050228
0.620240450 0.643010557 0.536495566
0.713978708 0.666919887 0.570145249
0.476027757 0.748893142 0.585957944
0.490069628 0.753952920 0.593168974
0.512839854 0.759392560 0.601138651
0.550537348 0.759392858 0.606451571
0.593169034 0.765085459 0.613662004
0.650727630 0.771663606 0.627703846
0.713092983 0.781656981 0.646552682
0.779632747 0.796078265 0.668564618
0.084377259 0.096015260 0.327134728
0.104996800 0.106640995 0.329791099
0.154838637 0.115116991 0.339658648
0.216571733 0.139532000 0.346995473
0.283491403 0.167235926 0.360784560
0.358254224 0.195825472 0.379886001
0.437823981 0.222770736 0.400632441
0.554585755 0.260847569 0.444781572
0.110688999 0.135230541 0.317773461
0.125363797 0.135104552 0.335104287
0.168121547 0.146109730 0.343453735
0.219228297 0.165591538 0.347628087
0.282985449 0.184440538 0.364958972
0.358760297 0.215939462 0.375837982
0.437824070 0.239342257 0.399367273
0.553447068 0.268691003 0.440101475
0.145857096 0.203668386 0.353826433
0.152688280 0.205692649 0.361037463
0.192662999 0.207969740 0.362934798
0.245920286 0.219734356 0.375205368
0.307780057 0.238583341 0.386590838
0.374572814 0.259835720 0.398228824
0.460341454 0.283238620 0.418595850
0.576976418 0.314231187 0.460720897
0.177482545 0.275901526 0.381404102
0.188108996 0.280075759 0.384313554
0.221758276 0.282352835 0.392662913
0.270208955 0.293738276 0.396204978
0.329664558 0.308665156 0.408348918
0.398608357 0.322707266 0.422897071
0.480835259 0.339152157 0.440227568
0.594433725 0.366097420 0.481214643
0.220493451 0.365085393 0.416318744
0.231119379 0.371284157 0.427830845
0.263251096 0.373181432 0.429854542
0.305629253 0.379253179 0.433522910
0.368627429 0.388488382 0.441239893
0.433902472 0.400632441 0.456546456
0.523466051 0.419102162 0.479949266
0.635420620 0.448071092 0.510309994
0.281973481 0.474003971 0.475901723
0.293105811 0.482605994 0.481973708
0.322327614 0.487413019 0.487160087
0.361290306 0.490322351 0.488424867
0.416698366 0.497406453 0.496521384
0.487539738 0.511068702 0.511068761
0.570524991 0.525237024 0.523592710
0.674636245 0.552435219 0.556230247
0.341556281 0.597216785 0.539026201
0.352687836 0.600252986 0.531562507
0.379127175 0.603794992 0.543959737
0.417836785 0.609740794 0.546995640
0.472865433 0.616824806 0.553952992
0.541049719 0.628210247 0.565464556
0.621631861 0.640607297 0.584566712
0.721442223 0.667046189 0.611511528
0.457937926 0.746109843 0.641745746
0.481594235 0.749145925 0.634155512
0.493484765 0.748766482 0.634155631
0.530803204 0.753447115 0.635926485
0.577482581 0.761290193 0.640354037
0.636179626 0.767109334 0.657431722
0.704996765 0.778114915 0.673751116
0.784946382 0.795319438 0.703731537
0.082985573 0.114357993 0.431245983
0.113598801 0.119924285 0.432637721
0.164453000 0.128526181 0.436812282
0.230360284 0.149652287 0.445161223
0.301581293 0.171663374 0.451866269
0.376850009 0.197849736 0.461606532
0.461985976 0.228715986 0.481593996
0.562175870 0.262871832 0.511068821
0.102972545 0.142694101 0.425426841
0.119923994 0.149272740 0.430739999
0.170904294 0.159519553 0.441872090
0.230613649 0.176723644 0.444402307
0.301075548 0.195572466 0.454269558
0.382542729 0.220240086 0.469070464
0.462998062 0.240986541 0.486148000
0.557748139 0.270967931 0.510056794
0.126376003 0.202150196 0.449082941
0.148007363 0.211511999 0.449588805
0.188994095 0.218722388 0.454902291
0.249841988 0.227957100 0.465401918
0.320303321 0.245287791 0.472991854
0.399367362 0.259329379 0.486527532
0.481593966 0.283618182 0.503478885
0.578621089 0.312207252 0.532574356
0.155218303 0.282479346 0.476533890
0.174952716 0.280834645 0.472991437
0.209740639 0.290322363 0.477166206
0.272359639 0.293738306 0.483871013
0.341049850 0.309803694 0.495635539
0.411891341 0.320809513 0.504616916
0.500063241 0.341429293 0.525363624
0.595192790 0.367236048 0.544465303
0.195066482 0.375205249 0.501075268
0.211385369 0.377609193 0.504996657
0.241366386 0.379886180 0.515116990
0.290449172 0.377988636 0.518405974
0.361923099 0.386211157 0.525616407
0.442631483 0.400758922 0.539785206
0.530044258 0.416824907 0.551423073
0.627577186 0.442125022 0.581024647
0.254775465 0.488424718 0.558887005
0.273877472 0.492725968 0.562681973
0.298671782 0.492346615 0.559898555
0.341176450 0.491967082 0.565970898
0.406072199 0.497406483 0.575585246
0.480076194 0.503352702 0.575584948
0.574825943 0.521948040 0.593168795
0.677292645 0.546615899 0.613535702
0.333586276 0.601518214 0.599873543
0.343832999 0.598228812 0.600885272
0.368753999 0.603794992 0.603921413
0.414927244 0.606577933 0.609993577
0.467299461 0.614927590 0.616318882
0.538772464 0.623023033 0.626945019
0.621758223 0.640733838 0.638456523
0.720556617 0.663377583 0.660214961
0.460088611 0.742314577 0.676154375
0.467045873 0.747880876 0.678810596
0.488930881 0.744465292 0.683111966
0.521568537 0.749398768 0.689816296
0.567615330 0.758507192 0.694623351
0.627830327 0.768374503 0.702846348
0.700316310 0.776597023 0.713599265
0.787855923 0.795319438 0.745730042
0.069197014 0.132068157 0.580897927
0.106768005 0.128905833 0.575078785
0.173940092 0.140670255 0.573813677
0.249841809 0.155218005 0.584693372
0.334977835 0.181910187 0.599493742
0.420746297 0.203035906 0.607083738
0.515496433 0.234282285 0.616824627
0.614927471 0.268184811 0.634534717
0.074256562 0.156230539 0.574699461
0.111574724 0.161037266 0.573054612
0.174193531 0.166983008 0.581277549
0.252119064 0.181530833 0.586337566
0.333965719 0.199873388 0.593421578
0.423529267 0.222137734 0.609487772
0.515116930 0.247691080 0.619101882
0.616824567 0.280329257 0.636432588
0.087919101 0.212397203 0.583427906
0.125996038 0.215939552 0.587729454
0.183048934 0.220367014 0.594180584
0.258949637 0.232384533 0.599240959
0.347248465 0.248070836 0.608475447
0.434281737 0.267678738 0.616824687
0.525363445 0.290322542 0.632257760
0.629854321 0.319291830 0.652245462
0.075142428 0.286400646 0.607843220
0.121694997 0.282985479 0.611385107
0.189879820 0.291587800 0.612523615
0.270588458 0.302972645 0.619860530
0.351929039 0.312333852 0.620619774
0.441492558 0.325490117 0.627830386
0.539025903 0.343579918 0.638836384
0.636685252 0.370018810 0.657811403
0.118532591 0.379127175 0.632005095
0.133586407 0.383554727 0.634788096
0.189120933 0.377103031 0.635041118
0.265528291 0.380012363 0.638962567
0.360911012 0.388615012 0.642125428
0.455028564 0.405439556 0.655281305
0.556736350 0.423023164 0.664389670
0.660088539 0.449841797 0.678178430
0.212903097 0.505882561 0.666413486
0.229854643 0.507527053 0.673497915
0.264136910 0.507906616 0.672865093
0.313092768 0.503984809 0.673877120
0.379253566 0.498545319 0.672106206
0.478937626 0.506388605 0.687792480
0.587223470 0.526122808 0.698165774
0.691713750 0.549145877 0.711195409
0.330423564 0.625174105 0.704743624
0.337760925 0.630233765 0.704743922
0.364453018 0.626185954 0.702466726
0.405313134 0.632004976 0.711195350
0.457052410 0.635167539 0.718026578
0.531815231 0.632510781 0.718912244
0.619481564 0.643643558 0.723592401
0.726628602 0.667299509 0.743959367
0.464642584 0.749525607 0.742820978
0.474509746 0.753826499 0.754585862
0.492472976 0.756103754 0.752940834
0.519797444 0.761163771 0.759645581
0.563314140 0.763946772 0.764199793
0.624920726 0.769133568 0.769765675
0.697406471 0.779632747 0.781404018
0.791524649 0.799240708 0.803288519
