Assets/Shaders/EldamarStudio/100 Sci-Fi LUTs Pack/LUTs/cube/Ethan LUT.cube
LUT_3D_SIZE 5
DOMAIN_MIN 0.000000 0.000000 0.000000
DOMAIN_MAX 0.903226 0.903226 0.903226
0.074510001 0.066666998 0.070588000
0.132067993 0.078431003 0.084630288
0.243263826 0.112459995 0.117014416
0.376723260 0.174572989 0.170651257
0.558633745 0.252498806 0.248576805
0.110183701 0.165085703 0.110815704
0.164452702 0.172295704 0.125869706
0.269070089 0.195825279 0.158253983
0.396331400 0.239974990 0.209234998
0.580518663 0.301834255 0.269829094
0.198102415 0.325616837 0.207210585
0.231119275 0.336116374 0.225933120
0.329537988 0.351802796 0.251739413
0.440733820 0.370777965 0.275268972
0.625300646 0.425806373 0.338899642
0.318785131 0.508159280 0.330550134
0.344971269 0.534598589 0.345983416
0.419228256 0.538266957 0.362682104
0.531688988 0.555218279 0.382669240
0.685768664 0.599747241 0.447817951
0.509044766 0.758633733 0.539152622
0.539152622 0.769765615 0.548007488
0.593927801 0.767741621 0.559266210
0.682479680 0.777861953 0.588108778
0.788741589 0.795192599 0.632004738
0.061100710 0.070588000 0.128146991
0.132067993 0.081720419 0.133712709
0.243895978 0.130802989 0.174572989
0.376090974 0.196837261 0.218722120
0.552434862 0.256040692 0.278557837
0.117014416 0.162175983 0.154964983
0.168374702 0.176217705 0.172295704
0.265148699 0.202403277 0.201391414
0.394939840 0.242631406 0.241619542
0.566729784 0.300569087 0.303478986
0.203668714 0.313472688 0.239848003
0.231752113 0.323972106 0.255660981
0.322327793 0.344592392 0.275901407
0.440733969 0.363567412 0.299430579
0.616571844 0.419228196 0.355850399
0.301075131 0.505502999 0.351423144
0.339152515 0.518912137 0.364706129
0.412650257 0.527134717 0.375711709
0.521188855 0.538899362 0.399873555
0.678557754 0.594180644 0.457811564
0.501834035 0.749778450 0.537381351
0.529790819 0.758001208 0.556103766
0.590385914 0.765464962 0.566856325
0.668437660 0.773054779 0.591018379
0.782289565 0.793927848 0.635799944
0.066034414 0.075775005 0.224288404
0.135357410 0.095129706 0.226944983
0.240606993 0.135989994 0.256293803
0.374066830 0.198102266 0.291967273
0.552688241 0.255661249 0.348513395
0.122580700 0.172296122 0.252371967
0.167362407 0.179506287 0.261227131
0.263503999 0.209234819 0.282479793
0.385199428 0.249462128 0.314231545
0.564832449 0.298798382 0.364579111
0.202656835 0.314484417 0.307273984
0.234408692 0.323972136 0.322707087
0.321694970 0.343959808 0.344592392
0.436559528 0.366223663 0.365844101
0.614168167 0.415306389 0.419987619
0.300821960 0.502593100 0.414294541
0.330170870 0.515622735 0.414547861
0.404807389 0.522200942 0.429601401
0.514105201 0.541429222 0.448576838
0.682858765 0.588361800 0.504364371
0.480202615 0.750158072 0.573687196
0.510310054 0.754459023 0.580392361
0.571663618 0.757241786 0.585325360
0.664895773 0.772042871 0.616824627
0.774319768 0.792662799 0.662112594
0.084376998 0.101075128 0.347375244
0.141935408 0.114105128 0.355850816
0.255028814 0.152688131 0.375078708
0.384566993 0.204933867 0.404174238
0.557368577 0.263883710 0.462239087
0.131688699 0.189247280 0.377609134
0.178747699 0.195825279 0.382163286
0.274003834 0.219734401 0.396584123
0.397596240 0.251739413 0.420493394
0.574952364 0.304111242 0.474889219
0.198988289 0.321695387 0.424414843
0.232764244 0.331182659 0.437824517
0.322074533 0.344592392 0.446046650
0.443137527 0.367488831 0.466919661
0.619101882 0.405439824 0.517393827
0.295129865 0.501328111 0.504238009
0.324604273 0.510436535 0.511954427
0.396963835 0.521188796 0.521568358
0.520936131 0.542441130 0.543453276
0.688045621 0.584060609 0.587349653
0.463251024 0.744338751 0.648576736
0.492472827 0.752055347 0.651360214
0.546489358 0.755976796 0.650727391
0.652118742 0.770145416 0.671347082
0.784187317 0.795572519 0.709044755
0.069197014 0.132068157 0.580897927
0.153952867 0.138645992 0.574319780
0.293105811 0.167361990 0.590765178
0.444528937 0.212144300 0.609361053
0.614927471 0.268184811 0.634534717
0.085136056 0.195192859 0.585198879
0.164073572 0.203921586 0.590132594
0.302845955 0.226185992 0.603162169
0.454016477 0.258317560 0.617330909
0.627071321 0.309677690 0.650221407
0.071853176 0.326881826 0.621378779
0.164199904 0.331562400 0.622390866
0.315876216 0.344592392 0.638456762
0.480455279 0.373055100 0.649841785
0.652118981 0.414673954 0.669829428
0.238962561 0.540544093 0.679823101
0.272232711 0.536242843 0.681214333
0.365464836 0.532701135 0.684123755
0.513093114 0.538266838 0.695888758
0.702593148 0.576217234 0.717773438
0.464642584 0.749525607 0.742820978
0.486147612 0.754838586 0.751928627
0.535737038 0.760658026 0.763946772
0.643896103 0.772675455 0.772042751
0.791524649 0.799240708 0.803288519
