Assets/Shaders/EldamarStudio/100 Sci-Fi LUTs Pack/LUTs/cube/Ethan LUT.cube
DOMAIN_MIN 0 0 0
DOMAIN_MAX 1 1 1
LUT_3D_SIZE 32
0.074510001 0.066666998 0.070588000
0.074510001 0.066666998 0.070588000
0.074510001 0.066666998 0.070588000
0.080835164 0.067931838 0.073118001
0.095256448 0.070588000 0.078051552
0.104364060 0.070588000 0.075015940
0.118532315 0.075648002 0.082100317
0.132067993 0.078431003 0.084630288
0.144971102 0.079190098 0.083871000
0.160151511 0.082226485 0.089942999
0.175331876 0.082353003 0.093105868
0.188487992 0.088425256 0.100189731
0.204047635 0.097533353 0.108158998
0.225047067 0.106387995 0.113978028
0.243263826 0.112459995 0.117014416
0.263883799 0.118532605 0.127260983
0.283617973 0.126122802 0.136368990
0.302466542 0.135230571 0.143073574
0.323718995 0.144338980 0.152181983
0.339405358 0.150664002 0.161290362
0.356482983 0.162428737 0.166603252
0.376723260 0.174572989 0.170651257
0.400885493 0.181024492 0.177103460
0.422137916 0.196204901 0.192283094
0.443390280 0.209107995 0.205186576
0.467425615 0.218468979 0.214547992
0.495256126 0.225553125 0.221631989
0.525616825 0.237697884 0.233775988
0.558633745 0.252498806 0.248576805
0.593801320 0.265907943 0.261985958
0.631119549 0.278937578 0.277672201
0.670588017 0.294117987 0.301961005
0.074510001 0.072738998 0.073624387
0.080582000 0.066666998 0.064516000
0.076280996 0.070968002 0.070967779
0.075774841 0.071473837 0.076154388
0.085388772 0.070967548 0.081087843
0.110436060 0.073624387 0.078051552
0.117014639 0.073624387 0.080075935
0.135610372 0.077039681 0.084883325
0.151802391 0.080708101 0.086148284
0.160151511 0.088298485 0.089943007
0.172422737 0.094243996 0.098924868
0.189500377 0.098545000 0.102213733
0.205945387 0.105502613 0.107020639
0.225047067 0.112460062 0.111701384
0.243263826 0.118532769 0.123086408
0.261480004 0.124604769 0.126122802
0.282099783 0.132194802 0.134851187
0.301201552 0.141302571 0.143706143
0.317647010 0.150410980 0.155218363
0.336116016 0.159519359 0.153194040
0.355344355 0.167742133 0.159392610
0.373687148 0.178621262 0.166603267
0.392030090 0.187096491 0.177103460
0.419101506 0.202276900 0.192283094
0.442631155 0.210625991 0.205186576
0.467425615 0.222643644 0.217330977
0.494750053 0.234155461 0.227198064
0.522580445 0.243769884 0.236812383
0.555597365 0.255913973 0.254269332
0.596078157 0.270714790 0.266287178
0.635420561 0.283238590 0.278937370
0.670588017 0.294117987 0.298924595
0.076660231 0.074510001 0.070208997
0.082732767 0.074889228 0.076154388
0.080202229 0.070968002 0.064895771
0.082985394 0.077040002 0.074003838
0.091081321 0.077039778 0.080961324
0.111321703 0.078304939 0.083238617
0.125236869 0.080961771 0.083112091
0.134598628 0.084250771 0.086148068
0.153067693 0.087792449 0.089943230
0.160531014 0.094117492 0.094370529
0.178873971 0.102466770 0.101075098
0.193042487 0.106514513 0.108159222
0.211132288 0.112460285 0.111321643
0.228842542 0.118532546 0.114358030
0.243263826 0.124604829 0.120809764
0.263630778 0.132827222 0.132194802
0.281846762 0.138899609 0.136748984
0.301201552 0.148007527 0.143326774
0.316381991 0.158633754 0.149399176
0.336495787 0.165591359 0.158380643
0.354711771 0.172802001 0.159139737
0.373687148 0.180645213 0.165970907
0.389373481 0.188741013 0.177229971
0.416697919 0.201897696 0.194433868
0.441745549 0.214547768 0.207336798
0.470208615 0.222011432 0.218089893
0.498039067 0.234661713 0.229981065
0.522074401 0.243769675 0.242378443
0.556862533 0.255534738 0.250853986
0.590258896 0.272991925 0.272612393
0.630739987 0.288045764 0.283618152
0.664136767 0.298418999 0.298038989
0.078431003 0.084629998 0.070461839
0.081973448 0.083870769 0.078811005
0.087033771 0.085135929 0.081340998
0.087286167 0.083365157 0.072992161
0.102087095 0.089437157 0.081340775
0.116382092 0.091208160 0.086527705
0.130296990 0.093738154 0.087539837
0.141176254 0.097153991 0.090449288
0.153320834 0.100948900 0.093485095
0.162934527 0.102972522 0.099051170
0.182416037 0.110563032 0.103857994
0.198355258 0.118152902 0.111195154
0.214674294 0.121188805 0.116128802
0.232890993 0.127134994 0.119418159
0.247058988 0.133206993 0.123466417
0.262618631 0.139152512 0.131182984
0.282353133 0.149272382 0.140290990
0.301834106 0.155344993 0.146362990
0.318911999 0.166224018 0.147628009
0.337128371 0.174067169 0.158760011
0.356482983 0.180139154 0.165211737
0.375711143 0.187223285 0.171284005
0.391777009 0.193674803 0.180898324
0.417963088 0.204680651 0.197975993
0.440480381 0.214294836 0.209107995
0.462618619 0.225047499 0.218595490
0.496015072 0.234661832 0.228209957
0.520303428 0.244528532 0.242631450
0.552308559 0.257558495 0.249842003
0.590765297 0.271221161 0.264010072
0.623276114 0.290702373 0.285642266
0.656293690 0.303225845 0.295508981
0.078810550 0.107400090 0.079569548
0.079190098 0.102466546 0.082605936
0.087792546 0.102087319 0.087412998
0.099051379 0.104617544 0.090449154
0.108159088 0.104237996 0.088172443
0.120303869 0.110309996 0.091208056
0.134977773 0.114610769 0.092852548
0.147248253 0.117267251 0.095002994
0.156736091 0.119544446 0.100695640
0.168880105 0.116508067 0.103732027
0.186464205 0.121821739 0.106388219
0.201391548 0.129158840 0.113472246
0.215053752 0.135989636 0.119924091
0.232764453 0.139278993 0.122960478
0.250727415 0.145350993 0.128905997
0.265275002 0.149778813 0.134977996
0.279696375 0.156230554 0.140290990
0.298798501 0.167109549 0.147121996
0.323086590 0.173181564 0.153194025
0.339784920 0.182036802 0.164832100
0.356862515 0.189247549 0.171283737
0.376090705 0.195952132 0.177356005
0.397469550 0.205060482 0.189373508
0.421758354 0.214168102 0.204047918
0.441872090 0.220999092 0.213156000
0.459708780 0.228842214 0.218468979
0.480835080 0.238077089 0.226312131
0.514231443 0.250221074 0.238456890
0.544592083 0.264642358 0.244908437
0.580898345 0.277672410 0.257684946
0.620619953 0.290702373 0.275015593
0.650979996 0.305882007 0.290196002
0.081846938 0.119544871 0.088677935
0.084883317 0.122580484 0.091714323
0.093864866 0.119797707 0.094750166
0.106008992 0.121568933 0.098292157
0.117267482 0.125490382 0.100316450
0.126375869 0.122453995 0.103352055
0.141050309 0.131056324 0.111448318
0.154585868 0.134218872 0.112460226
0.165465027 0.135483831 0.113219187
0.174952880 0.137760445 0.118912414
0.190006003 0.140543804 0.119038932
0.207716569 0.144086257 0.125616595
0.222643927 0.148134232 0.131309003
0.235800058 0.151423007 0.132068098
0.247944042 0.157494992 0.135104477
0.268310845 0.165970802 0.141049996
0.283491373 0.171031177 0.144086003
0.298545539 0.176217914 0.147627980
0.320050955 0.182289943 0.159266025
0.341556311 0.191144586 0.170904726
0.359898925 0.198355541 0.177356124
0.379127055 0.204427928 0.183428004
0.400505930 0.211132482 0.195445508
0.424794734 0.220240101 0.204553917
0.446806222 0.227071568 0.216950998
0.464769185 0.235926852 0.222516999
0.483997196 0.247058988 0.226565123
0.520303428 0.256293863 0.244528890
0.548386812 0.268437862 0.248703152
0.579759657 0.279317111 0.259329230
0.615559995 0.290702373 0.275015593
0.650979996 0.305882007 0.290196002
0.095003322 0.144339323 0.100315996
0.095509388 0.144845262 0.100822061
0.100695997 0.145730644 0.103858449
0.112080991 0.144339323 0.106894158
0.123465993 0.147122324 0.109171227
0.130423605 0.146236703 0.107906386
0.144592002 0.148260325 0.113472320
0.159772381 0.154079720 0.117647000
0.174319997 0.155724227 0.118532412
0.188741162 0.158759832 0.126375973
0.196078777 0.161796182 0.126628995
0.213282630 0.164832577 0.132700741
0.231498986 0.169007316 0.139531642
0.246426061 0.173434600 0.141429320
0.258570641 0.177229315 0.146742418
0.275521636 0.183301315 0.149778813
0.295129299 0.189247191 0.157242119
0.311195225 0.193548575 0.161543146
0.332447678 0.201518342 0.169892654
0.351170391 0.207843289 0.176976725
0.368627727 0.216951370 0.191018730
0.387223452 0.222644180 0.197596639
0.408475816 0.227324501 0.206451640
0.430360794 0.236432746 0.213156223
0.452372283 0.245540917 0.219987318
0.477798969 0.253257632 0.230233982
0.501707494 0.264263123 0.235673636
0.536116481 0.275395751 0.249841884
0.567109108 0.287160307 0.264895797
0.599746644 0.301075488 0.275015801
0.636559188 0.314358294 0.288424999
0.676280618 0.331182629 0.300316006
0.110183701 0.165085703 0.110815704
0.106894284 0.165085703 0.117393695
0.114484698 0.165085703 0.116255470
0.121821538 0.167615697 0.118026696
0.132447541 0.167615697 0.119164862
0.137254700 0.165085703 0.113598935
0.150917023 0.170904383 0.121441990
0.164452702 0.172295704 0.125869706
0.180392191 0.174572989 0.127387702
0.198608413 0.176723212 0.135610476
0.208475724 0.179759562 0.139278993
0.219354987 0.182795539 0.142062142
0.236432642 0.185831919 0.147754416
0.254142702 0.191397995 0.150790662
0.269070089 0.195825279 0.158253983
0.286021709 0.201264694 0.161922798
0.304237694 0.205818892 0.164959177
0.322453856 0.210120276 0.174446389
0.342694432 0.219228685 0.182542950
0.357874721 0.223909006 0.188614994
0.379126996 0.231878728 0.197090730
0.396331400 0.239974990 0.209234998
0.417710274 0.244022682 0.215433508
0.440480888 0.254648894 0.223023698
0.461733252 0.262112558 0.227450997
0.485768646 0.271220922 0.234914660
0.516381800 0.279822707 0.244528994
0.549778640 0.289690167 0.256672978
0.580518663 0.301834255 0.269829094
0.611132085 0.314105183 0.286654174
0.649335921 0.330170989 0.300948977
0.691840708 0.348387003 0.310815722
0.120809905 0.182542995 0.122960091
0.118532419 0.181024998 0.132068083
0.124604449 0.182542995 0.132700771
0.132447928 0.182796091 0.131688893
0.142694101 0.188868105 0.132068455
0.147627935 0.184314087 0.124478161
0.157748327 0.187855780 0.130044088
0.172043085 0.192030102 0.138013721
0.184946194 0.192789197 0.141050085
0.203162983 0.192789197 0.147122085
0.217077985 0.196457967 0.153952986
0.230739981 0.200252935 0.158001259
0.241745740 0.202529743 0.160658091
0.257179111 0.205819100 0.160911053
0.275395066 0.211891100 0.169006661
0.293611526 0.217963099 0.173307896
0.310310066 0.222517282 0.177103192
0.328526050 0.225553498 0.181404576
0.346742868 0.234408855 0.193422109
0.360910922 0.238709822 0.200000092
0.380645066 0.244781822 0.207210734
0.403162122 0.252878100 0.214547902
0.424414486 0.259076595 0.220872909
0.448070705 0.270588219 0.230613902
0.470841289 0.278178215 0.234408796
0.494117558 0.285641640 0.240227565
0.521948040 0.294750065 0.250854015
0.555091381 0.301075071 0.263504088
0.588108718 0.311701179 0.274130076
0.616951287 0.325363427 0.289816320
0.652372062 0.337760985 0.307020962
0.694876909 0.355976999 0.319164991
0.117773533 0.206831023 0.144212484
0.126881912 0.200759023 0.144212484
0.135357201 0.203542009 0.140417486
0.139531672 0.205566183 0.138266847
0.139658496 0.204048514 0.141176075
0.157874480 0.210120499 0.144212469
0.162808344 0.208096176 0.144212499
0.172928706 0.207210511 0.148007497
0.187982589 0.207969606 0.153194115
0.203162983 0.211005986 0.156230479
0.221378997 0.216824979 0.165211603
0.239341974 0.222770482 0.170145258
0.252751261 0.226438984 0.173181653
0.260215491 0.227071494 0.176091447
0.278431475 0.233143494 0.179127067
0.296647489 0.239215493 0.182416290
0.311827898 0.243769690 0.186970487
0.325490445 0.246805906 0.193548590
0.343706489 0.249841511 0.202656999
0.361922532 0.255914211 0.209108502
0.383680999 0.261859953 0.215180486
0.405945480 0.268058479 0.220366865
0.424414486 0.274256974 0.223908529
0.445666909 0.283365369 0.236053333
0.469323069 0.290322959 0.238962993
0.493484944 0.297786266 0.243263796
0.518911660 0.306894064 0.253889620
0.549272418 0.316002429 0.272106379
0.587729454 0.324984312 0.279443502
0.617963374 0.339531898 0.292852432
0.649588704 0.355723977 0.310183108
0.697912514 0.368120998 0.325237006
0.135104001 0.219480991 0.153826877
0.138393387 0.222137868 0.150916994
0.138899222 0.222517639 0.150916994
0.148766324 0.227830738 0.151422992
0.158380881 0.228969321 0.155723870
0.166476861 0.222391009 0.156229943
0.177103192 0.233523011 0.161795989
0.182542875 0.234028876 0.164199710
0.193928093 0.234787971 0.167488873
0.209108502 0.237824365 0.168374479
0.224288866 0.237950876 0.174319997
0.238456860 0.241998598 0.181403860
0.256040514 0.244907990 0.184186995
0.271474004 0.245161027 0.185199127
0.284376979 0.248576865 0.185578585
0.302592993 0.254648864 0.193421811
0.319291174 0.260720879 0.200506195
0.334724665 0.265148580 0.207969859
0.355217993 0.268184781 0.214800984
0.370651364 0.271220386 0.221126020
0.388741344 0.279063880 0.227198005
0.409994006 0.284123987 0.231245995
0.430107713 0.286527514 0.232510865
0.448576778 0.295635879 0.239088938
0.472106427 0.300189734 0.244402409
0.497786522 0.307020783 0.250600964
0.523592710 0.316634864 0.261226922
0.549145877 0.328146428 0.272232890
0.579506636 0.334598005 0.287792802
0.614674270 0.350537300 0.301707834
0.645920217 0.368121207 0.317267478
0.686401010 0.380265743 0.328399867
0.149272516 0.239721507 0.164958984
0.154332653 0.240733638 0.165971115
0.157115474 0.245793760 0.165085509
0.156609416 0.245034993 0.166350350
0.170271993 0.248071000 0.171283796
0.179632992 0.247185305 0.172928512
0.188235313 0.251739264 0.173940510
0.198987976 0.255660981 0.178367794
0.205818981 0.256040424 0.179886088
0.217204228 0.259076476 0.178621247
0.232384607 0.261227250 0.184440255
0.249589249 0.263250977 0.188487977
0.262871891 0.266286910 0.194560289
0.281341225 0.267678529 0.196584478
0.291713983 0.272485673 0.198355258
0.308665514 0.271853507 0.205566049
0.325363338 0.276407301 0.211638048
0.341176152 0.281973243 0.218469322
0.361037254 0.286400974 0.223150015
0.378747374 0.291460901 0.231246263
0.390132755 0.294496983 0.233523250
0.407969713 0.302340239 0.238330126
0.428209960 0.304490775 0.239468515
0.448323727 0.309804142 0.243643269
0.469070017 0.318405956 0.251486540
0.497533441 0.324224889 0.257305562
0.526123047 0.333333313 0.269323081
0.551929235 0.343959481 0.281467438
0.579506636 0.352814257 0.291840822
0.611638129 0.364199430 0.307021171
0.644149184 0.382289469 0.324098647
0.678305030 0.394434243 0.335483730
0.165970996 0.269702643 0.181657284
0.169765994 0.269702643 0.183555037
0.173687518 0.272865266 0.185578987
0.180138797 0.276154250 0.186844125
0.183175176 0.270461738 0.189500287
0.193042278 0.274256647 0.191777587
0.201517954 0.279190272 0.191144988
0.213409275 0.281467348 0.193927914
0.225553274 0.279949546 0.197722629
0.232384279 0.282985151 0.195825472
0.246046513 0.286021531 0.199240997
0.259835511 0.289057642 0.203289017
0.279190630 0.292093277 0.207463279
0.294117987 0.294876635 0.212777033
0.304111212 0.299177647 0.214041874
0.320430249 0.300316453 0.221884787
0.335990071 0.300316423 0.226818442
0.351169854 0.303352207 0.230486631
0.368880600 0.308918267 0.234028965
0.387096643 0.314990252 0.240354359
0.403036028 0.319165021 0.247185647
0.415180266 0.321189284 0.247185647
0.433649272 0.327134758 0.250347763
0.455913842 0.332194895 0.255407900
0.477165908 0.339784980 0.261859924
0.503984571 0.347754270 0.270967931
0.536369681 0.356862694 0.280075699
0.563694060 0.365971059 0.293991059
0.592157066 0.376217425 0.306135476
0.625300407 0.388867468 0.321062803
0.656925857 0.404933274 0.334472001
0.687033653 0.417583972 0.349145651
0.188994035 0.307400078 0.204174966
0.188488036 0.307400078 0.204428002
0.192156807 0.309550792 0.207084224
0.197723001 0.311069012 0.209614173
0.208981514 0.311195493 0.213283002
0.212017909 0.308159113 0.213283002
0.217077956 0.310183346 0.210499719
0.228083655 0.312081009 0.212144047
0.242757991 0.312333941 0.217963025
0.254902005 0.315369546 0.224035025
0.266793013 0.318658918 0.224541053
0.277166247 0.321189284 0.226565257
0.290322632 0.324225426 0.230233997
0.311321974 0.327514052 0.236559033
0.323466003 0.327514052 0.233523414
0.340417624 0.329664856 0.239342228
0.355851024 0.332700849 0.243896037
0.368374586 0.335989565 0.245414063
0.383554995 0.339025974 0.251486033
0.401265025 0.344592035 0.255028367
0.419481426 0.348513752 0.261100769
0.437698007 0.351043999 0.267679006
0.456166983 0.351296991 0.267931998
0.480455756 0.360278130 0.276913136
0.502719700 0.369133294 0.283744544
0.529790938 0.377356052 0.291461289
0.561923027 0.383681089 0.300569057
0.589247406 0.392789453 0.309677422
0.619228601 0.404554009 0.324351847
0.654902101 0.418216199 0.342568129
0.691081583 0.434535027 0.360278398
0.718406022 0.452751040 0.369386047
0.198102415 0.325616837 0.207210585
0.192030415 0.325616837 0.210246980
0.206578180 0.327767044 0.216951221
0.213915229 0.328273118 0.219734147
0.215179995 0.326628864 0.219860986
0.221125513 0.329411447 0.231498986
0.221631572 0.331435710 0.226438984
0.231119275 0.336116374 0.225933120
0.246299669 0.338646293 0.229601726
0.260973990 0.336621910 0.233143404
0.270208836 0.342568129 0.236306280
0.281973422 0.341935545 0.238709569
0.294623613 0.342441618 0.240606993
0.311322004 0.345730811 0.242631033
0.329537988 0.351802796 0.251739413
0.346489608 0.351802796 0.251106977
0.363188207 0.353953183 0.253004402
0.377103388 0.357621372 0.254901975
0.389626980 0.363313973 0.263630807
0.404807389 0.366350353 0.269702822
0.422517419 0.368121386 0.271347404
0.440733820 0.370777965 0.275268972
0.459203392 0.375584960 0.280075997
0.483491421 0.381656975 0.286148012
0.507780135 0.388361365 0.292852372
0.537001789 0.397849292 0.301707536
0.570777655 0.407716811 0.312713057
0.595319450 0.414041817 0.321821421
0.625300646 0.425806373 0.338899642
0.660974085 0.437950343 0.354712129
0.697786152 0.453383565 0.369386166
0.727514446 0.474003375 0.378494412
0.212017789 0.346236795 0.227071598
0.205945805 0.346236795 0.225300387
0.210626021 0.348387033 0.226185992
0.224541515 0.350157768 0.234534964
0.226059601 0.348639995 0.235673785
0.232131600 0.349651843 0.235673800
0.242757589 0.355091304 0.242251799
0.247691303 0.354838699 0.239468798
0.259076595 0.357115805 0.241745889
0.269323260 0.355724126 0.244781509
0.285894841 0.361416727 0.247817859
0.292979002 0.361416727 0.248829991
0.305502623 0.361796260 0.251486450
0.320429981 0.365844786 0.253004551
0.334344953 0.367615789 0.257811397
0.352561593 0.373687774 0.262112796
0.369260162 0.373687774 0.265148789
0.384440571 0.375838012 0.266919792
0.398355812 0.380138785 0.270714968
0.413282573 0.385831356 0.279443800
0.434155673 0.388867736 0.285515785
0.452371925 0.391397774 0.287539661
0.469576478 0.397469759 0.292219996
0.496141821 0.403541774 0.298291981
0.513599038 0.409613788 0.302087277
0.541682661 0.417077422 0.310815752
0.575078905 0.428209990 0.322453856
0.599367678 0.438076973 0.331562221
0.626565635 0.442251772 0.334218860
0.658697128 0.463250935 0.357748359
0.695129514 0.476786584 0.378114998
0.727008164 0.490448803 0.394813597
0.225679994 0.365970969 0.246806189
0.224162191 0.367489189 0.243769795
0.225806415 0.369639426 0.247438371
0.228589192 0.372675359 0.241113216
0.235167891 0.373307824 0.248956546
0.245794192 0.374446183 0.250854194
0.252371997 0.376470178 0.251866192
0.264389515 0.379126698 0.253131002
0.273497909 0.376849979 0.253890097
0.280328989 0.376849979 0.256925911
0.293485165 0.379632980 0.259961843
0.306641191 0.382669121 0.260973990
0.316128820 0.381910026 0.263250977
0.330803216 0.387097180 0.266160846
0.341682374 0.387097180 0.266666740
0.355597615 0.390385985 0.271220803
0.375332177 0.397976190 0.275774986
0.390512556 0.397343606 0.281214565
0.405692995 0.398608238 0.282100171
0.420873046 0.402909398 0.287413150
0.441745460 0.408601940 0.294623792
0.466034234 0.412650198 0.300695777
0.482859164 0.418722183 0.304237485
0.506008923 0.424794167 0.308918178
0.527261257 0.429348379 0.314231277
0.546616256 0.435420364 0.321441948
0.577609241 0.444908172 0.334092051
0.600885868 0.457052171 0.345224410
0.630866826 0.465781212 0.349399000
0.663251340 0.473877132 0.360784322
0.695762157 0.501201570 0.384566754
0.728525996 0.511701167 0.406957984
0.237191573 0.384819537 0.261353970
0.240227804 0.389753371 0.260215163
0.243263796 0.391524374 0.263251185
0.246299550 0.393927723 0.264769405
0.240986541 0.397343546 0.253004551
0.257685274 0.400632203 0.267931908
0.263883650 0.401138127 0.269196987
0.271220565 0.400505543 0.268817455
0.283238083 0.401138127 0.267931640
0.292346478 0.401138127 0.270968050
0.300822258 0.401770711 0.272738695
0.312586963 0.403794795 0.275015563
0.325869620 0.406831175 0.276027560
0.340544015 0.409867495 0.282099575
0.349652380 0.410246968 0.280202389
0.361796558 0.411385328 0.283744544
0.377229750 0.416192144 0.288551569
0.397216976 0.424035549 0.293990999
0.412397385 0.420999169 0.297027379
0.428842783 0.423529357 0.300063193
0.447817981 0.427830547 0.303731561
0.470841259 0.433902562 0.309171170
0.495129973 0.439848065 0.315496147
0.514358044 0.445414126 0.320050478
0.534218848 0.449841827 0.325363576
0.557495296 0.455534518 0.332321137
0.582289994 0.462112606 0.344971120
0.603795409 0.474130124 0.360151410
0.634408772 0.485642046 0.367994577
0.668943763 0.496647894 0.381150961
0.702972949 0.507273555 0.398481995
0.733332992 0.534597993 0.413662434
0.246300027 0.406072050 0.273498058
0.249335602 0.418216020 0.279570043
0.252371848 0.418848813 0.278431237
0.259203017 0.417584002 0.276407212
0.268311024 0.418596029 0.274257004
0.268311024 0.424668044 0.286400974
0.274889052 0.425427020 0.283618033
0.282352746 0.423782319 0.282985747
0.292472988 0.422517121 0.286274940
0.304490536 0.425427020 0.292220473
0.310689032 0.428336889 0.289437115
0.323086292 0.431119680 0.292979002
0.338013649 0.434155643 0.296267986
0.352688074 0.437191963 0.297280014
0.361796439 0.440227568 0.303351998
0.375711828 0.438203841 0.306261837
0.390639186 0.438709795 0.308032990
0.406325400 0.442251623 0.309171408
0.421505034 0.445288032 0.312207043
0.442251444 0.447817653 0.315243423
0.459202796 0.450853795 0.316381991
0.476154268 0.455155015 0.317900121
0.495130002 0.461100549 0.321568936
0.519418001 0.464136928 0.333712965
0.538646638 0.469702989 0.340544015
0.561290681 0.478305012 0.345224679
0.588362098 0.489437073 0.351043910
0.615686417 0.498545438 0.366223484
0.642504811 0.507906139 0.376090825
0.673877120 0.519038498 0.390259385
0.705755591 0.530044377 0.407590359
0.733332992 0.540670097 0.422770083
0.286021739 0.466287106 0.310689390
0.277925372 0.467299074 0.308412731
0.283111721 0.470841080 0.305882186
0.286780536 0.470967919 0.304743528
0.293232173 0.472106546 0.305123389
0.295635372 0.470967740 0.307653397
0.300695360 0.471979737 0.312207699
0.308412075 0.473624438 0.308539033
0.316761345 0.473624468 0.309298128
0.324857354 0.474636585 0.313346386
0.339531749 0.472106278 0.316255480
0.349651754 0.473118365 0.317267627
0.362934649 0.474256724 0.320303738
0.375964701 0.475648403 0.320809722
0.385072410 0.478684664 0.326881707
0.398987830 0.481720299 0.328146726
0.415686399 0.480961382 0.332321376
0.431499332 0.482099742 0.334218770
0.444528788 0.482985377 0.332953423
0.462491751 0.486021727 0.341555715
0.483744115 0.490955085 0.342694372
0.502719522 0.494876593 0.343706489
0.522707045 0.499177396 0.346995831
0.541682780 0.504870653 0.356483042
0.563694000 0.510183752 0.364073604
0.585199296 0.516255736 0.372928709
0.610626101 0.525616705 0.381151438
0.635673761 0.537001848 0.391777605
0.662998140 0.546110213 0.406957239
0.692093670 0.556989074 0.421631783
0.722707272 0.570904613 0.444275945
0.750031710 0.585705459 0.470841080
0.307653248 0.493990988 0.325489998
0.300442606 0.497785985 0.330044389
0.298291981 0.501580954 0.330550194
0.303099155 0.501580954 0.324477732
0.306894541 0.503605247 0.324857533
0.312966555 0.502087057 0.323339760
0.320429713 0.509171426 0.327767313
0.329791129 0.504237771 0.330803275
0.337634385 0.506262124 0.329032004
0.342567742 0.507400751 0.330929726
0.355470866 0.506388605 0.333965838
0.368627489 0.507273734 0.335104227
0.380771488 0.506135345 0.338140666
0.392915994 0.505882442 0.339405745
0.403668314 0.510563135 0.345477730
0.415686280 0.513598919 0.346742719
0.433902681 0.515116751 0.346742719
0.450601161 0.515749335 0.352055728
0.461480021 0.517014444 0.352814496
0.482985467 0.517900109 0.357115358
0.499304205 0.522833765 0.362428725
0.518532336 0.526881754 0.364452720
0.538013518 0.529284954 0.368500978
0.558001041 0.537128568 0.375837833
0.578494489 0.541302979 0.384566575
