Assets/Shaders/EldamarStudio/100 Sci-Fi LUTs Pack/LUTs/cube/Evie LUT.cube
LUT_3D_SIZE 8
DOMAIN_MIN 0.000000 0.000000 0.000000
DOMAIN_MAX 0.903226 0.903226 0.903226
0.074510001 0.082353003 0.078431003
0.070588000 0.078431003 0.074510001
0.079949193 0.078431003 0.079190098
0.120556280 0.082353003 0.076787002
0.188614994 0.094117999 0.094750188
0.279822707 0.117393985 0.117520481
0.395951569 0.158127993 0.156483278
0.529917598 0.218595788 0.215938956
0.081594005 0.082353003 0.081973456
0.078431003 0.079190098 0.078051552
0.091714002 0.086654447 0.077672005
0.131182641 0.096395001 0.085768647
0.188741192 0.113598995 0.101201810
0.282226533 0.138266549 0.130043998
0.395319551 0.180518731 0.170651585
0.520050764 0.235040784 0.215812340
0.072865099 0.120682999 0.082226098
0.092093550 0.122201093 0.091334552
0.117520101 0.129285097 0.093991093
0.160910726 0.138266742 0.111322001
0.229475081 0.161290288 0.125363901
0.309677631 0.192662999 0.151802465
0.421252549 0.236559182 0.198988095
0.550790787 0.290322542 0.258064628
0.116634987 0.189626917 0.129538640
0.124351375 0.201012164 0.131815642
0.157621726 0.210878819 0.139658540
0.206957638 0.221505284 0.158127993
0.270082265 0.243010625 0.173055097
0.346363008 0.268058032 0.196837544
0.444148898 0.307906330 0.238962620
0.561669588 0.363440603 0.300822079
0.176217183 0.311701179 0.195192993
0.187856182 0.322707087 0.212270901
0.224035278 0.328146458 0.210626185
0.270841271 0.334345192 0.222391188
0.330423564 0.352435380 0.236558989
0.401770979 0.372422427 0.267425925
0.486274272 0.402530164 0.309171468
0.591018260 0.451486528 0.368501008
0.281973481 0.464262724 0.309677005
0.295635730 0.467173010 0.316887736
0.322454184 0.469955474 0.321821392
0.355091721 0.470841348 0.330044121
0.405186921 0.479443282 0.344465464
0.466034442 0.489436954 0.362049222
0.534092307 0.512207270 0.395319253
0.637571037 0.560278237 0.450221539
0.390765548 0.586464286 0.408096254
0.403288990 0.588108540 0.422644019
0.423529267 0.593548596 0.429854274
0.454143286 0.598734915 0.442884207
0.489184201 0.600759149 0.453257561
0.546995521 0.611259043 0.466160983
0.606704831 0.625679851 0.486780554
0.681973517 0.657305062 0.526881516
0.545730472 0.748260438 0.583681285
0.559772313 0.748133898 0.580012321
0.573813677 0.750284493 0.587982535
0.599873424 0.753446937 0.591144800
0.633775949 0.757748127 0.601770759
0.674762607 0.766350448 0.616318762
0.718912244 0.774952471 0.636053026
0.771789730 0.784819603 0.660720587
0.074510001 0.082353003 0.078431003
0.070967548 0.078810550 0.074889451
0.082732551 0.082732551 0.081973456
0.122200996 0.083491646 0.088551998
0.186717540 0.099936642 0.110056542
0.272738725 0.131688803 0.141555741
0.378874272 0.167994827 0.173055276
0.514611006 0.224162102 0.228210106
0.078431003 0.079190098 0.085895449
0.075648546 0.082732551 0.079190098
0.090449445 0.081087641 0.083491549
0.133965895 0.096015446 0.098418646
0.191524550 0.116761185 0.116002090
0.279822707 0.146489471 0.141302735
0.391018122 0.182795539 0.187096998
0.523971975 0.245161176 0.238456622
0.076787002 0.113599092 0.102213547
0.095256448 0.121442094 0.110183448
0.117520094 0.126882002 0.112460546
0.160151631 0.139784649 0.122580640
0.224288642 0.161669746 0.140164077
0.307779968 0.196204826 0.167994648
0.410246372 0.231372833 0.208222568
0.535483897 0.289057702 0.265654624
0.117014535 0.195192918 0.141302735
0.128399909 0.199114725 0.143200174
0.155724198 0.206198737 0.153826639
0.204174370 0.219102189 0.163441092
0.264516175 0.240227476 0.182289451
0.346742570 0.267678529 0.210120007
0.447058856 0.310309917 0.257179022
0.560531378 0.367741615 0.314990580
0.175078735 0.301834553 0.200885743
0.184313729 0.311701357 0.213029906
0.215306997 0.321441740 0.213662282
0.265148640 0.332827270 0.228589371
0.326248914 0.344971538 0.249462634
0.391144931 0.365718007 0.270082384
0.479569823 0.403668821 0.314737260
0.588741302 0.456672996 0.379127294
0.271347523 0.454775542 0.310562909
0.280961245 0.453510284 0.314737439
0.313598901 0.461732805 0.326881528
0.354205936 0.468437642 0.337001801
0.401644468 0.473497897 0.348766506
0.457432270 0.487919152 0.366350234
0.530550182 0.508286119 0.394180924
0.635167658 0.559013426 0.450600892
0.383048564 0.573434114 0.411385119
0.393928260 0.577229559 0.425806284
0.412143916 0.581783652 0.426312715
0.446299642 0.584946573 0.436306179
0.490196049 0.593042135 0.448323816
0.541808724 0.611132145 0.465781450
0.606325269 0.631498992 0.494370520
0.685515165 0.660847545 0.528652966
0.535863459 0.739152551 0.581151247
0.562681556 0.744592071 0.579506099
0.568880558 0.744338870 0.591397762
0.595572472 0.748386800 0.591650665
0.628968954 0.751422942 0.600759149
0.669070065 0.762175798 0.611891210
0.714484155 0.769765615 0.637824178
0.768247843 0.784946442 0.660341144
0.072992004 0.079190098 0.087793000
0.078431003 0.079190098 0.089310996
0.089310996 0.085515901 0.096394904
0.126881897 0.087033898 0.110436089
0.195066288 0.107399993 0.143453091
0.279443353 0.136748731 0.172422469
0.389879584 0.176976472 0.213788897
0.514104784 0.231625631 0.263377815
0.079696454 0.083112001 0.092093542
0.074003637 0.085895449 0.100695543
0.094750091 0.087792896 0.108538643
0.141809106 0.103478901 0.126122996
0.202909380 0.126122996 0.150790647
0.282985508 0.157874554 0.179759637
0.389374018 0.192156628 0.216825008
0.525869727 0.252498507 0.274636269
0.079949200 0.122960091 0.123845905
0.093611546 0.125364006 0.132068440
0.122960091 0.141809002 0.129918098
0.172675535 0.155092001 0.159013182
0.233396277 0.175458282 0.175458267
0.316381991 0.200505987 0.201138556
0.411005378 0.238709360 0.241113186
0.531815052 0.298292071 0.299683750
0.116634987 0.199114636 0.171410277
0.139025733 0.205060184 0.181277648
0.169512630 0.218343183 0.184313729
0.215686634 0.230866268 0.199240834
0.269955486 0.249335825 0.214421183
0.347501338 0.275142550 0.240733728
0.449462563 0.315875739 0.285768390
0.556609392 0.371789962 0.345983446
0.184946194 0.308412373 0.241239905
0.189120635 0.318279654 0.241240084
0.225553274 0.328146487 0.246552974
0.264262825 0.333206832 0.258444190
0.321821481 0.348513365 0.274130255
0.398987830 0.371157497 0.299810290
0.479949445 0.407210678 0.343706369
0.588994026 0.461986274 0.399620444
0.277925462 0.453637064 0.340670377
0.296774268 0.458317280 0.341429293
0.318532437 0.457052618 0.343453705
0.356609732 0.466919571 0.359012932
0.405818969 0.471600473 0.368500829
0.460594475 0.483617723 0.389247477
0.531309009 0.507400453 0.414294630
0.628842652 0.555218458 0.465907574
0.382795453 0.575458407 0.433017194
0.392283469 0.570018649 0.439468592
0.414294392 0.579632998 0.446552992
0.447058767 0.588108540 0.454648793
0.488425106 0.595825434 0.465907574
0.542567730 0.608855247 0.480708271
0.606957495 0.629601240 0.507400453
0.687918782 0.663756967 0.551549435
0.536748648 0.734345376 0.581783533
0.550031304 0.741303027 0.584693313
0.562428832 0.739784896 0.587602794
0.590891778 0.745477378 0.600379407
0.621884704 0.747627854 0.605566025
0.665401578 0.756483316 0.618342698
0.711574554 0.768627286 0.640354395
0.771916568 0.786211550 0.668690383
0.076154001 0.077292651 0.131182641
0.079569645 0.078431003 0.130043998
0.100316100 0.082353003 0.139911547
0.139025643 0.086274996 0.146868646
0.196963832 0.108917996 0.172675535
0.276660621 0.142188638 0.209487736
0.390765280 0.178241640 0.256167293
0.520682931 0.238329992 0.317393988
0.068690546 0.087792896 0.138140529
0.087033994 0.089310996 0.139025643
0.105756000 0.096774444 0.150411010
0.141682193 0.105376542 0.160910726
0.198861271 0.124857634 0.182416186
0.288045466 0.156230554 0.219228178
0.395319551 0.199241027 0.265022099
0.525110602 0.262112647 0.321947873
0.082353003 0.135989740 0.162555635
0.100695640 0.132700652 0.166730091
0.130803078 0.149272457 0.177355826
0.178620994 0.156610101 0.196204737
0.236432269 0.179759651 0.217330724
0.318279743 0.208728731 0.246679261
0.423276514 0.251739532 0.292093486
0.541935444 0.308412254 0.351675987
0.126122996 0.205819279 0.218089640
0.137761101 0.211764738 0.218469173
0.177735373 0.227830380 0.228589267
0.230486929 0.246173635 0.252371907
0.284883261 0.267298818 0.266413838
0.359266281 0.288551629 0.294370383
0.455281645 0.327514201 0.333712876
0.559645593 0.383554637 0.385958433
0.184819892 0.316887736 0.281973183
0.199620277 0.321441829 0.287792623
0.235420629 0.339658648 0.301328331
0.283870816 0.351676285 0.311701387
0.340290815 0.362682194 0.326122791
0.411258548 0.385325670 0.354332626
0.489183992 0.416571468 0.386084557
0.588614583 0.465402007 0.438456446
0.286906838 0.452498734 0.376343727
0.304996848 0.457178801 0.381530404
0.334851563 0.464642376 0.392410100
0.367615610 0.471979707 0.395192832
0.412776649 0.479443282 0.407716632
0.467931718 0.489690006 0.427324742
0.537254751 0.513345838 0.447944254
0.636053085 0.561796308 0.493358463
0.396457911 0.580265582 0.467045903
0.401264906 0.581656814 0.470968127
0.417457283 0.584187567 0.472232640
0.451359928 0.588108540 0.477672547
0.491334528 0.600505829 0.489689916
0.550031841 0.614294946 0.510816038
0.610626578 0.630233765 0.536622226
0.689436734 0.667678654 0.574952364
0.539025784 0.733839571 0.600379765
0.549145997 0.737254798 0.598861814
0.563693643 0.743706167 0.605565965
0.588488281 0.746868730 0.613535762
0.621125937 0.749905050 0.618975282
0.665907800 0.757368565 0.636053145
0.714104652 0.772169411 0.661859453
0.769006789 0.787729323 0.682605565
0.062744997 0.078431003 0.201264992
0.076786898 0.078431003 0.205565840
0.108032994 0.077545993 0.208222374
0.157748625 0.092852540 0.218342990
0.214548185 0.118279189 0.235673383
0.284123987 0.142947733 0.259835482
0.392156839 0.183301702 0.307653248
0.521315396 0.244528592 0.368753970
0.060467832 0.092473187 0.201138377
0.093358807 0.097912997 0.202656269
0.119544454 0.106135540 0.218469292
0.162428632 0.117899828 0.224288553
0.219987378 0.139531896 0.247185633
0.292093277 0.160910636 0.264136940
0.403289199 0.205186486 0.317014366
0.527893662 0.264895827 0.378874153
0.093991093 0.142567903 0.234914273
0.108033091 0.151170194 0.235673368
0.138646275 0.159013197 0.240480989
0.188361734 0.169512644 0.252119094
0.250601083 0.189500198 0.277166277
0.324604750 0.213029906 0.295888573
0.422897071 0.254396170 0.338140458
0.535610497 0.314610958 0.394813180
0.126375541 0.220620275 0.273245096
0.145730197 0.230613634 0.277545631
0.179253265 0.236811817 0.290828824
0.232890740 0.251612812 0.302466810
0.292473018 0.265654624 0.318532377
0.367109448 0.293864816 0.344339252
0.458823532 0.333965898 0.383681178
0.563314021 0.382415980 0.430360526
0.188614994 0.323466182 0.331941366
0.204427183 0.332827389 0.338013798
0.243643284 0.343074203 0.352435172
0.298039615 0.358380735 0.370525181
0.363314360 0.381404161 0.393169165
0.422897160 0.405313104 0.409234613
0.498798192 0.428463012 0.433902562
0.600379646 0.472359389 0.472611994
0.298924565 0.458064526 0.419734627
0.303478658 0.459582537 0.423149973
0.337507963 0.466540009 0.433902562
0.375964284 0.478304744 0.443010718
0.428462982 0.492725998 0.452751458
0.477798998 0.499304205 0.465401471
0.548134148 0.525996029 0.490701735
0.642125428 0.566476941 0.532574177
0.389879555 0.580392301 0.495635480
0.400758952 0.580771744 0.502466977
0.422138155 0.589879572 0.509171486
0.456546366 0.597596288 0.516508639
0.501834333 0.606198549 0.529411435
0.550790906 0.618595660 0.544971466
0.614041746 0.635041416 0.563061178
0.699304283 0.671094537 0.606451809
0.527134597 0.734977901 0.617330909
0.541555822 0.737381160 0.619987369
0.561416686 0.744085789 0.631119549
0.589120865 0.745983183 0.636685610
0.623529434 0.749652088 0.648323596
0.665275276 0.762808383 0.658570409
0.718279302 0.773434281 0.675269067
0.777482569 0.790132582 0.701454759
0.062872000 0.080328740 0.297406465
0.085009739 0.084630191 0.299683630
0.127640903 0.091714002 0.308791727
0.180897996 0.106894344 0.312966466
0.246173635 0.128399998 0.330297261
0.320809454 0.152687997 0.346489727
0.404680282 0.185831532 0.373434484
0.518785655 0.247311965 0.431245953
0.069323257 0.105249733 0.297785997
0.101581261 0.109297730 0.301201463
0.132700652 0.116761193 0.303984731
0.186337993 0.131182730 0.318532348
0.246932641 0.148766473 0.331941664
0.328779489 0.175332189 0.353067458
0.413535804 0.210246548 0.384060740
0.525363326 0.279316962 0.438203603
0.097407006 0.167109445 0.322580785
0.112587079 0.168247998 0.326249480
0.151802465 0.171789840 0.335230798
0.207337365 0.184819996 0.339911222
0.268057913 0.198861286 0.351802707
0.340923607 0.225932717 0.374572814
0.426312596 0.257937908 0.398861468
0.544465244 0.320556730 0.454395890
0.132953987 0.249462634 0.362049103
0.151043281 0.249335632 0.361163706
0.188614979 0.251233369 0.369892836
0.241872355 0.264516264 0.382036358
0.304996699 0.283365071 0.392156541
0.376343727 0.307653397 0.407716721
0.460468084 0.338266879 0.435041010
0.571663618 0.392283350 0.488551438
0.200632438 0.343453646 0.407716721
0.219607741 0.344718605 0.412776828
0.252371818 0.355471402 0.417330444
0.295888543 0.366477072 0.424035698
0.360151440 0.383301824 0.437444925
0.424288452 0.404048383 0.459329903
0.502087414 0.429601461 0.484883010
0.606451571 0.470967978 0.526755154
0.303352714 0.456419736 0.462112457
0.311575174 0.461353242 0.464895725
0.339785039 0.473118365 0.477798998
0.373561084 0.475015849 0.486527383
0.423023164 0.488677979 0.498924673
0.487412721 0.513092995 0.522833705
0.564579308 0.539531767 0.546995699
0.651612520 0.570145547 0.573307931
0.391397744 0.580519021 0.536369562
0.391144812 0.583428502 0.541429281
0.418469310 0.585831583 0.544718504
0.449335635 0.594307303 0.556989014
0.497280180 0.612397254 0.568753779
0.562934518 0.628842235 0.592156708
0.632384717 0.645287871 0.608096242
0.709930360 0.683617592 0.639848471
0.520682931 0.731815338 0.644655228
0.536242723 0.735230863 0.654648662
0.547374964 0.734345555 0.654395819
0.574572682 0.742820919 0.662112653
0.614547551 0.748766482 0.670335293
0.661606610 0.761922657 0.680581689
0.722707272 0.778494358 0.707779944
0.777355969 0.796710730 0.730423510
0.060468290 0.094749995 0.444275558
0.089816734 0.099051446 0.437444836
0.146489292 0.110436380 0.441492766
0.217583984 0.121694922 0.446932286
0.287160248 0.145477563 0.453889728
0.369386464 0.178873822 0.465022266
0.448576838 0.217583999 0.483871281
0.537001669 0.268437356 0.504996955
0.067805447 0.125996277 0.450474113
0.102213830 0.133206800 0.448576838
0.152181923 0.137887284 0.447311997
0.223782286 0.152308643 0.453130722
0.296647578 0.173687473 0.463757098
0.373687416 0.204174370 0.479569793
0.455534577 0.242884114 0.492852807
0.541176319 0.291840553 0.512333989
0.085262284 0.187982380 0.451486558
0.114104994 0.192536086 0.448071033
0.165717781 0.197216898 0.452877671
0.234029368 0.208601937 0.465022355
0.307653457 0.228463173 0.473750740
0.385578930 0.254648924 0.486148089
0.468943745 0.292599678 0.503478646
0.553700089 0.333712608 0.524098635
0.145350978 0.276407272 0.474889189
0.165970892 0.275142550 0.476407290
0.208602011 0.282985538 0.478810906
0.269702613 0.296015263 0.487792581
0.341302991 0.311575085 0.495129913
0.407969475 0.337760746 0.507400572
0.493864655 0.368374616 0.525869668
0.578621149 0.402530074 0.553826451
0.228462979 0.377356261 0.504743636
0.240227565 0.380518675 0.504870534
0.274763077 0.385958403 0.509677351
0.318279624 0.390259087 0.512840271
0.379759640 0.403162569 0.522327542
0.447817743 0.424161911 0.541429102
0.523719490 0.445540488 0.555091500
0.607463539 0.476154178 0.583934426
0.319797754 0.486780435 0.550664008
0.327387273 0.488298714 0.552435160
0.347501576 0.492473185 0.553573608
0.378241360 0.498039186 0.562302470
0.433017373 0.505375981 0.572675288
0.495762169 0.521189034 0.586717010
0.572801769 0.545098007 0.606072485
0.658949792 0.572042763 0.632384658
0.407716542 0.595951557 0.611638546
0.406072289 0.594307303 0.605945766
0.426438749 0.598987699 0.602909327
0.457558632 0.608855188 0.616192222
0.505629301 0.620999336 0.627324581
0.570271969 0.637444854 0.645414472
0.649209261 0.669449866 0.674383640
0.728020072 0.690828502 0.693990946
0.528146565 0.732574403 0.685768485
0.539531827 0.731815100 0.693484664
0.543453336 0.737254798 0.695509195
0.577988446 0.745097935 0.705123246
0.613662362 0.753573418 0.715369821
0.659582376 0.766224086 0.728273392
0.725490093 0.786717355 0.752814651
0.796963871 0.799240708 0.771536827
0.071979985 0.122959986 0.607210577
0.114737242 0.129538149 0.607590139
0.186843932 0.142061919 0.610499620
0.257811636 0.159266144 0.612397432
0.342947006 0.187982187 0.619228184
0.430487156 0.227197811 0.624161720
0.525996268 0.274762779 0.638203740
0.613662601 0.329917610 0.648956597
0.082479820 0.164199665 0.610878944
0.129538342 0.160910532 0.613662601
0.180771649 0.170904517 0.611132205
0.266287088 0.189373776 0.619355023
0.353953183 0.217077717 0.628842473
0.445414364 0.256040514 0.639342010
0.532574296 0.300189435 0.641618967
0.622517109 0.346995771 0.654269576
0.115496345 0.227198005 0.610752523
0.145856917 0.228968918 0.619101942
0.199240923 0.241492823 0.615939498
0.278431356 0.255154878 0.619481087
0.361416638 0.277292997 0.625806212
0.454016566 0.307779819 0.633396447
0.540796757 0.344592005 0.646932423
0.623023629 0.385958076 0.660214841
0.169512957 0.319671005 0.623149931
0.192789525 0.322074711 0.626185656
0.241998598 0.328273088 0.632763803
0.312966257 0.344085604 0.634787798
0.389753371 0.361543417 0.639595389
0.471094549 0.384693086 0.646932364
0.555850744 0.414168268 0.662745237
0.639595330 0.444275588 0.675142467
0.247437984 0.427071512 0.638709784
0.270967990 0.426312536 0.649968207
0.291967183 0.424541205 0.647311687
0.343200326 0.431246221 0.648956358
0.418848634 0.438583195 0.657305241
0.493105620 0.462238997 0.671347201
0.578115225 0.484630197 0.678431153
0.661353767 0.510309815 0.691967010
0.350284725 0.534218788 0.677925467
0.350284517 0.535104275 0.674003601
0.371157467 0.536116540 0.681087852
0.403036267 0.535104215 0.681846678
0.456420273 0.537887454 0.685768604
0.526122451 0.550411344 0.693864524
0.611511528 0.571157157 0.709044933
0.690954864 0.596457541 0.718532681
0.446679533 0.651233494 0.721694827
0.457432121 0.654142797 0.714104652
0.468564332 0.650474489 0.716255546
0.496015042 0.656419933 0.723972023
0.538013816 0.660721004 0.727893889
0.597343326 0.666666746 0.736242771
0.660468102 0.681340933 0.753194213
0.743579566 0.704743624 0.768247604
0.562808394 0.757495403 0.754585624
0.571283698 0.755977154 0.768248022
0.575458527 0.761416733 0.770018816
0.599240780 0.763820231 0.770398378
0.635041118 0.770777941 0.778620958
0.678557575 0.786084652 0.790765524
0.736369312 0.800632358 0.801011860
0.817583621 0.829474747 0.837191582
