Assets/Shaders/EldamarStudio/100 Sci-Fi LUTs Pack/LUTs/cube/Evie LUT.cube
DOMAIN_MIN 0 0 0
DOMAIN_MAX 1 1 1
LUT_3D_SIZE 32
0.074510001 0.082353003 0.078431003
0.071473613 0.079316616 0.075395390
0.070588000 0.076280773 0.078811005
0.070588000 0.075774841 0.079823002
0.070588000 0.078431003 0.074510001
0.070588000 0.078431003 0.074510001
0.073118322 0.080961324 0.077039681
0.076154292 0.080708295 0.078431003
0.079949193 0.078431003 0.079190098
0.086021975 0.078431003 0.082226478
0.092093997 0.078431003 0.076534003
0.104237735 0.080455258 0.074510001
0.120556280 0.082353003 0.076787002
0.138520032 0.082606032 0.082606032
0.153700411 0.085642412 0.085642412
0.168880790 0.091081992 0.088678189
0.188614994 0.094117999 0.094750188
0.212903142 0.096015409 0.103225991
0.237191960 0.105123036 0.109298006
0.255914003 0.108665355 0.112586647
0.279822707 0.117393985 0.117520481
0.306135237 0.129538000 0.124604866
0.330676973 0.141429022 0.133712500
0.361037016 0.147501811 0.142820910
0.395951569 0.158127993 0.156483278
0.429601312 0.170271978 0.170271978
0.460468054 0.182922065 0.182922065
0.493864417 0.198102444 0.198102444
0.529917598 0.218595788 0.215938956
0.566350341 0.239848167 0.239468589
0.603668571 0.261986196 0.269449949
0.643136978 0.286274999 0.305882007
0.074510001 0.076281004 0.075395390
0.077545613 0.079316616 0.078431003
0.074509770 0.080581777 0.077545613
0.073624387 0.079316840 0.081846938
0.073624387 0.078051552 0.082479835
0.073624387 0.075395390 0.074510001
0.073624387 0.080455393 0.077039681
0.079443701 0.082353003 0.076786712
0.083744675 0.080708295 0.074636295
0.082985595 0.078431010 0.073118098
0.097786486 0.084250741 0.081973478
0.108285993 0.084503770 0.078557745
0.120177031 0.085389383 0.077545613
0.133206993 0.085642353 0.080075644
0.156736031 0.088678025 0.088678025
0.169513226 0.091714412 0.089310609
0.188614994 0.095635802 0.091714188
0.211638138 0.098418608 0.098418988
0.231119961 0.105123051 0.109298006
0.255407989 0.119797364 0.115370005
0.276027739 0.123845734 0.118659124
0.302087247 0.131562263 0.124604866
0.330803484 0.141808495 0.133965492
0.364073396 0.156609431 0.148892909
0.394433945 0.164958894 0.160277992
0.427957028 0.176343977 0.173307940
0.460468054 0.188994065 0.185958460
0.493864417 0.204174444 0.201138839
0.529917598 0.222011641 0.218975350
0.564579129 0.242884547 0.237191334
0.601517797 0.266793340 0.262492001
0.643136978 0.295382619 0.296774387
0.076660231 0.074510001 0.070208997
0.075395383 0.079696387 0.073244609
0.074129999 0.076280773 0.080581777
0.073624387 0.080582000 0.079316616
0.074889451 0.080202229 0.082732543
0.076660231 0.077166170 0.082479835
0.078811005 0.077419229 0.072738677
0.077166297 0.081846938 0.070840999
0.084250547 0.083112098 0.069576219
0.086780526 0.082859069 0.070714518
0.099051096 0.084250741 0.075015865
0.114231475 0.086274996 0.082099997
0.127640635 0.087413348 0.081720419
0.139279038 0.088678256 0.083238550
0.157874748 0.091714352 0.090449184
0.172548831 0.094750032 0.092346773
0.187729597 0.097786419 0.093864575
0.210752755 0.102087185 0.097533219
0.232005179 0.109677017 0.106641233
0.253637016 0.119797364 0.115370005
0.277925462 0.129284993 0.121441990
0.302466750 0.134598345 0.126755357
0.332827210 0.143832758 0.135989755
0.364199907 0.156988919 0.149145901
0.393168777 0.167615280 0.162048995
0.424920857 0.180897966 0.175584644
0.457811356 0.195066065 0.188994288
0.489563406 0.210246429 0.204174653
0.527766824 0.225932866 0.215559959
0.562428772 0.247691602 0.242631122
0.597596347 0.271094561 0.263630360
0.638836026 0.300189763 0.291967213
0.079696164 0.077040002 0.071727000
0.071600229 0.079316840 0.070967771
0.074889228 0.080582000 0.079569779
0.073118001 0.075774841 0.081087843
0.075395390 0.081467390 0.078431003
0.076660223 0.080202229 0.082732543
0.080961324 0.079696164 0.077419519
0.084503457 0.081340872 0.072359003
0.083744168 0.082859069 0.066287003
0.092346489 0.084883325 0.070335001
0.103099160 0.087539837 0.074762709
0.116002247 0.088804998 0.078557998
0.131182641 0.091081999 0.085768647
0.146363035 0.094244130 0.088804998
0.161543414 0.097280249 0.092852995
0.174319997 0.100316353 0.096648000
0.188235208 0.104617186 0.095635802
0.207084388 0.108918563 0.100568987
0.230740041 0.118026361 0.107906014
0.256040543 0.124604359 0.116761364
0.279190302 0.131814986 0.123971991
0.304490954 0.139911249 0.131056115
0.334597975 0.149399146 0.140290976
0.364958823 0.161543176 0.152435005
0.394307435 0.171410441 0.164579317
0.421884775 0.180897966 0.175584644
0.454775304 0.198608071 0.189246997
0.485136032 0.213788435 0.202150270
0.523465872 0.231498793 0.217077658
0.560657561 0.249462381 0.235293955
0.594054580 0.274636567 0.266919643
0.632764041 0.301961005 0.288931161
0.081594005 0.082353003 0.081973456
0.068690605 0.080075711 0.077040002
0.070588000 0.080961324 0.082353003
0.078431003 0.081846938 0.086780384
0.078431003 0.079190098 0.078051552
0.075395390 0.082226485 0.078051552
0.080329001 0.083112001 0.076660320
0.085641995 0.083997712 0.075395294
0.091714002 0.086654447 0.077672005
0.097786009 0.083618075 0.071600005
0.107526869 0.088931002 0.077166095
0.118279532 0.092599705 0.080834806
0.131182641 0.096395001 0.085768647
0.146615997 0.102467000 0.094370969
0.161922857 0.105629124 0.094497450
0.175079003 0.109044798 0.098924994
0.188741192 0.113598995 0.101201810
0.205566108 0.119544566 0.100568987
0.226818562 0.128652960 0.112713017
0.256040752 0.132953644 0.122833356
0.282226533 0.138266549 0.130043998
0.307526678 0.145983264 0.137128130
0.334977537 0.158001512 0.146236509
0.365338385 0.169892550 0.158127561
0.395319551 0.180518731 0.170651585
0.424288630 0.189626858 0.180645302
0.453257591 0.200505614 0.190765098
0.483618319 0.215685979 0.196837097
0.520050764 0.235040784 0.215812340
0.557748318 0.255281419 0.237064704
0.594054580 0.275395572 0.259708792
0.627451003 0.302720010 0.287034005
0.075522006 0.082353003 0.078937069
0.078557611 0.085389383 0.081973456
0.072106004 0.085262865 0.081340998
0.074129999 0.085768931 0.083365001
0.078431003 0.085262865 0.081087939
0.078431003 0.085262865 0.075015940
0.085515380 0.088298611 0.080075942
0.089184001 0.087539710 0.076407298
0.091714002 0.087792993 0.073118001
0.097786009 0.092726454 0.077672005
0.112586871 0.095509067 0.083238736
0.122707248 0.097027004 0.085262865
0.133459941 0.098671705 0.088045932
0.146615997 0.102467000 0.094370969
0.164831981 0.108538993 0.097406581
0.180138856 0.114104927 0.099936865
0.194813192 0.119670987 0.103478804
0.211891145 0.125110567 0.106134996
0.235926926 0.128652975 0.112713024
0.262745321 0.137760654 0.127640352
0.286780745 0.145856738 0.136115998
0.310563058 0.154459059 0.143200129
0.338013917 0.164073512 0.152308509
0.368374765 0.173181906 0.161416918
0.396458209 0.187349647 0.175585225
0.424288630 0.198734730 0.184693322
0.453637064 0.209867001 0.191271126
0.492725939 0.230866373 0.208981872
0.517773688 0.243389904 0.225679830
0.551676333 0.264136374 0.246173084
0.588994563 0.286527604 0.268311113
0.627451003 0.308791995 0.293105990
0.074510001 0.089943320 0.078431003
0.075015932 0.090449385 0.078937069
0.078051552 0.093485229 0.081973456
0.078178324 0.092599832 0.082353003
0.083871096 0.091714449 0.081973456
0.086021319 0.093864672 0.078051686
0.091081321 0.096395001 0.079570003
0.098544993 0.097786322 0.083997712
0.103352189 0.097912997 0.081467539
0.112966649 0.103984997 0.085768327
0.120177187 0.104617447 0.089310743
0.133333325 0.109677315 0.091334999
0.145224646 0.111827962 0.092473350
0.159266323 0.115117319 0.096900709
0.177482307 0.121189311 0.099936903
0.193295121 0.129664510 0.107779510
0.208475515 0.135863379 0.112587065
0.224920869 0.141935632 0.117267631
0.247311965 0.146869302 0.123339660
0.269323379 0.155470967 0.130170688
0.300442725 0.164579049 0.145351052
0.324225128 0.173687443 0.154332504
0.348513484 0.182795823 0.163440496
0.376470476 0.191904232 0.172548905
0.411385238 0.203289315 0.181657284
0.439468622 0.218216285 0.194939986
0.467299134 0.230613708 0.202909321
0.500695705 0.247818068 0.217077553
0.537001967 0.266160637 0.237823948
0.566603422 0.283617795 0.256040394
0.602277219 0.308918506 0.275648296
0.640101314 0.335104644 0.296647668
0.072865292 0.103984989 0.078431003
0.079443701 0.099051282 0.080075711
0.079949647 0.099557221 0.078937069
0.082985260 0.105123155 0.084503457
0.087539837 0.103605442 0.085262544
0.088045768 0.104111053 0.082226485
0.093611710 0.105502605 0.082606032
0.104616992 0.111827992 0.085642003
0.110689193 0.111827992 0.090196386
0.121062979 0.116128989 0.095003225
0.132321283 0.118026696 0.096394867
0.140796989 0.120429985 0.100695990
0.154079631 0.125363633 0.100695990
0.169512987 0.128652990 0.103225671
0.187728986 0.134724990 0.106261700
0.205186501 0.141555890 0.112460606
0.221884698 0.150663897 0.120050408
0.238456547 0.157495573 0.126122981
0.259709001 0.164579719 0.132194996
0.279317081 0.171790063 0.136622280
0.301581442 0.179253429 0.146742731
0.332953840 0.189373687 0.160910994
0.355977178 0.199367493 0.170904204
0.386337638 0.211511895 0.183048606
0.413915277 0.219607994 0.190512285
0.448956341 0.231751963 0.201011971
0.478304833 0.246679351 0.213662058
0.510942578 0.261859715 0.226944685
0.544971585 0.279696643 0.248703197
0.577988863 0.302972853 0.268184394
0.614041924 0.322454274 0.288172185
0.651992738 0.349020004 0.307906389
0.072865099 0.120682999 0.082226098
0.083491676 0.113092802 0.083744489
0.087033898 0.111954190 0.083997324
0.089057840 0.113472253 0.084503263
0.092093550 0.122201093 0.091334552
0.089816935 0.120303258 0.087539837
0.093611903 0.118279189 0.087793000
0.103099376 0.121694699 0.090196386
0.117520101 0.129285097 0.093991093
0.123592883 0.129285097 0.103099480
0.136875227 0.132953867 0.103478998
0.149525344 0.135230839 0.107526995
0.160910726 0.138266742 0.111322001
0.176091120 0.141556099 0.111827999
0.193801165 0.147628099 0.115369670
0.212017596 0.153700083 0.120050609
0.229475081 0.161290288 0.125363901
0.248323649 0.170398504 0.133333459
0.269576102 0.179506883 0.139785007
0.288804740 0.186590999 0.143832743
0.309677631 0.192662999 0.151802465
0.332954019 0.200000077 0.162428990
0.360025376 0.212017596 0.174446493
0.390891820 0.225933000 0.188361913
0.421252549 0.236559182 0.198988095
0.448956698 0.245414168 0.207843065
0.481341153 0.258064240 0.220493153
0.517014861 0.273244619 0.235673532
0.550790787 0.290322542 0.258064628
0.580898166 0.313093126 0.280328929
0.615560055 0.337634504 0.301075101
0.658064902 0.352814913 0.325363904
0.081973493 0.132827014 0.097406492
0.088045485 0.129791394 0.094370879
0.090069517 0.132953987 0.095888712
0.092599519 0.136242986 0.098671645
0.098165557 0.137381494 0.100442946
0.101201944 0.143453494 0.091334552
0.103984684 0.139025986 0.092599854
0.110436231 0.138140276 0.097154014
0.120556489 0.141429111 0.103099495
0.132700503 0.144465506 0.109171487
0.141682401 0.150284499 0.109551005
0.155091748 0.152182013 0.113599002
0.170019120 0.153447151 0.117394008
0.185199514 0.156736493 0.117900006
0.200379893 0.162808508 0.123971991
0.218089953 0.168880492 0.127514288
0.234788179 0.176470697 0.130676806
0.251360059 0.185578912 0.136369094
0.272612482 0.194686562 0.151549518
0.293864876 0.203794897 0.158001021
0.316887975 0.210878998 0.165844232
0.342061639 0.217963129 0.174067006
0.369133025 0.227198005 0.180518508
0.390385419 0.236306414 0.189626917
0.425806344 0.250221759 0.203542292
0.460468292 0.263630956 0.216951460
0.490449548 0.276281029 0.229601547
0.517773926 0.291461378 0.244781926
0.550790787 0.306641102 0.265275270
0.578873932 0.327260882 0.288424939
0.609613776 0.349904954 0.313345551
0.655028522 0.367994517 0.340543509
0.093990996 0.144971743 0.106767870
0.097153872 0.147754386 0.112460382
0.092473090 0.146869004 0.102972999
0.095255993 0.151422992 0.103478871
0.104617000 0.154712006 0.107400447
0.110183060 0.155724004 0.103352055
0.115749769 0.156736001 0.114484310
0.124098733 0.158000991 0.117393993
0.133712873 0.161542863 0.120177090
0.141555890 0.162428483 0.124098867
0.153699875 0.165464878 0.124351867
0.164832503 0.169513136 0.124351867
0.177988872 0.172675744 0.127514213
0.191650987 0.177735865 0.129538029
0.209487528 0.183807865 0.132953867
0.224667922 0.187476069 0.141429678
0.246932179 0.194560200 0.146995857
0.267678559 0.202403590 0.152688146
0.284376979 0.206957787 0.163313985
0.305629373 0.216065392 0.170145720
0.328779459 0.227071464 0.180012733
0.352055877 0.236179590 0.189120859
0.375458717 0.245161012 0.195192859
0.399493754 0.251486778 0.201517910
0.425300121 0.260594577 0.210626274
0.456672758 0.274509788 0.223149985
0.486527383 0.289183974 0.237318128
0.521062553 0.306767553 0.259709299
0.543073952 0.319291800 0.274889678
0.579000711 0.335989684 0.295635581
0.609867275 0.360657573 0.318785191
0.643263996 0.388993859 0.344085872
0.104111254 0.161163986 0.115876250
0.101075388 0.172296122 0.117900252
0.107653216 0.169133499 0.119165249
0.102339990 0.169133499 0.112081252
0.111448087 0.172928512 0.116255701
0.120809503 0.172928512 0.116508313
0.126881629 0.176976502 0.122580312
0.132953987 0.178620785 0.127893701
0.143580079 0.183554336 0.129032254
0.150917262 0.184819505 0.133333474
0.162808254 0.189753115 0.135483727
0.176976502 0.190765247 0.139532253
0.189120993 0.193801627 0.139532253
0.201264992 0.198988244 0.141429514
0.215938985 0.205060244 0.142694667
0.237824053 0.210752696 0.152561799
0.251486242 0.215306491 0.158633798
0.275648147 0.222643837 0.164199889
0.295003265 0.225680232 0.171916559
0.313725382 0.234281898 0.178241700
0.331182718 0.243389979 0.186211258
0.355091989 0.253383994 0.196205005
0.377735972 0.261606276 0.202530250
0.405819029 0.271474063 0.212397262
0.432384282 0.283870965 0.226818278
0.461100310 0.294370592 0.235926658
0.489563376 0.308412492 0.248450249
0.522960067 0.323592484 0.269702613
0.552181780 0.340543628 0.286021531
0.580518603 0.356230378 0.306515098
0.617710531 0.375332087 0.328905463
0.647311985 0.404174507 0.353193998
0.116634987 0.189626917 0.129538640
0.113978639 0.200253025 0.130676985
0.116381869 0.203795284 0.131815642
0.123971924 0.201391622 0.131815642
0.124351375 0.201012164 0.131815642
0.134218857 0.200253278 0.134092346
0.141302988 0.201897636 0.137381285
0.150790632 0.206325203 0.139658362
0.157621726 0.210878819 0.139658540
0.166730136 0.214674115 0.146109983
0.179886267 0.217204288 0.149272397
0.191777244 0.221505284 0.152055502
0.206957638 0.221505284 0.158127993
0.219607711 0.224794641 0.158381030
0.233522922 0.230866626 0.159266636
0.249588579 0.236938626 0.165464982
0.270082265 0.243010625 0.173055097
0.284756243 0.248450220 0.177988261
0.309044957 0.251486599 0.185072944
0.326628655 0.260088563 0.190006644
0.346363008 0.268058032 0.196837544
0.364579290 0.278178275 0.205945417
0.388868004 0.284503281 0.212397620
0.417204291 0.294623792 0.224541634
0.444148898 0.307906330 0.238962620
0.469449311 0.321694970 0.255281299
0.499304056 0.333839625 0.265907645
0.529032171 0.345983624 0.284123629
0.561669588 0.363440603 0.300822079
0.593801200 0.385072678 0.322454005
0.628969193 0.404174864 0.345857233
0.662871659 0.425427288 0.369892269
0.134345055 0.233144030 0.150537997
0.137128428 0.235926673 0.153320655
0.140417278 0.239215806 0.155850738
0.144212320 0.241998911 0.157621965
0.150411457 0.244528577 0.158381000
0.153447062 0.241492972 0.158381000
0.159772038 0.239215747 0.158634037
0.169259742 0.239468709 0.158634037
0.183681086 0.243263930 0.160151958
0.192789495 0.252371550 0.169259563
0.207210869 0.250347883 0.172042862
0.218848795 0.253131062 0.173814029
0.230233699 0.257685035 0.176091030
0.245414034 0.257938057 0.181657031
0.263630807 0.264010042 0.184693411
0.274636239 0.269829005 0.187982231
0.288551390 0.275648057 0.191018224
0.307273984 0.281593651 0.195192978
0.331562042 0.284630060 0.207337007
0.348260373 0.292473376 0.211132362
0.369133472 0.300190002 0.216825023
0.392915964 0.307780027 0.223909080
0.417330503 0.319797546 0.233143970
0.441745847 0.325996041 0.245288044
0.465528011 0.336622059 0.257685065
0.489183694 0.348513365 0.271220654
0.511448145 0.361164004 0.286654025
0.538772523 0.373308003 0.304870009
0.573307633 0.390258998 0.323086679
0.607969522 0.413282543 0.345857143
0.643390536 0.439089596 0.372169614
0.682859004 0.460342020 0.393422008
0.146489829 0.254396379 0.168753982
0.146489829 0.254396379 0.168753982
0.151423410 0.259329826 0.167235628
0.154332832 0.262239397 0.166729569
0.156736448 0.262871832 0.167868122
0.165591046 0.262745351 0.176596984
0.178747311 0.267299384 0.179127306
0.182163119 0.269829094 0.179886401
0.188235417 0.272105962 0.179886401
0.204933479 0.273623914 0.181404337
0.214041859 0.276913255 0.178873956
0.228463247 0.278684646 0.185199246
0.242378458 0.284630150 0.191271409
0.257558763 0.291334391 0.196837410
0.272738397 0.294370800 0.196837410
0.283744365 0.298039019 0.202276990
0.298924595 0.301707596 0.206198603
0.318279564 0.306641370 0.209234834
0.334598452 0.314990789 0.213408992
0.358886451 0.315243810 0.217204347
0.381277472 0.324731380 0.227830723
0.403541982 0.333586395 0.239089265
0.423402488 0.341049880 0.248323575
0.450727701 0.350158274 0.260468364
0.470588386 0.360910803 0.274889678
0.495635718 0.371663451 0.289437115
0.523592889 0.382922381 0.304617047
0.550917268 0.400632381 0.320050389
0.578241646 0.412776381 0.338267058
0.611005545 0.431498557 0.356483340
0.647058785 0.454901755 0.380139172
0.688930988 0.478557974 0.408602417
0.161037177 0.282858968 0.184566796
0.158633992 0.285262793 0.179759800
0.160784215 0.283112019 0.179759800
0.166603506 0.289690137 0.184566751
0.169639796 0.292346776 0.189120844
0.176723659 0.288298786 0.186084732
0.186084315 0.295761973 0.204554096
0.201264694 0.298544973 0.197723076
0.205059975 0.300062776 0.194687083
0.216697991 0.300062776 0.196331799
0.228589669 0.302972645 0.198228925
0.239721790 0.303984791 0.199241057
0.253383994 0.308918625 0.205313146
0.267299205 0.317267597 0.210119992
0.282479346 0.318153203 0.214420989
0.300062776 0.323592782 0.216824785
0.310689390 0.329664767 0.221378982
0.329917759 0.333207011 0.225047782
0.350410998 0.335230947 0.229854643
0.369133621 0.343200773 0.240101144
0.389626592 0.345098019 0.243137524
0.413915128 0.354712129 0.256293654
0.436179280 0.362302274 0.268184274
0.454395920 0.371410668 0.278051794
0.481720477 0.378241777 0.292473257
0.504490614 0.391524434 0.307653636
0.533333242 0.403668851 0.323339611
0.560657620 0.419987589 0.340417206
0.587982595 0.430486768 0.351043642
0.617077708 0.451485932 0.371031135
0.649841785 0.473117977 0.393421978
0.687792778 0.494370788 0.423782796
0.176217183 0.311701179 0.195192993
0.177735373 0.316255391 0.199747175
0.175964609 0.319544792 0.194940180
0.181530535 0.315243214 0.198735014
0.187856182 0.322707087 0.212270901
0.193928182 0.321189374 0.208855450
0.201012060 0.324731052 0.211385116
0.210373089 0.328905374 0.222011477
0.224035278 0.328146458 0.210626185
0.230866194 0.327387571 0.212903485
0.242757931 0.330297053 0.214421317
0.256419986 0.334345192 0.220493451
0.270841271 0.334345192 0.222391188
0.283997416 0.341809005 0.224794373
0.299177796 0.343074203 0.228336379
0.312207162 0.347881198 0.230487004
0.330423564 0.352435380 0.236558989
0.341935605 0.360278606 0.240227953
0.361796021 0.359013200 0.246300191
0.382036507 0.362555325 0.254902184
0.401770979 0.372422427 0.267425925
0.418975115 0.377482325 0.271474183
0.444022477 0.386464179 0.285009354
0.461985916 0.394180894 0.295509070
0.486274272 0.402530164 0.309171468
0.512207329 0.411385149 0.324351847
0.538393259 0.426439047 0.339026183
0.563693643 0.441619426 0.355218172
0.591018260 0.451486528 0.368501008
0.623150110 0.469702333 0.384693354
0.654395700 0.493484765 0.405945778
0.687792778 0.511069000 0.434408993
0.191397563 0.340923101 0.206957549
0.198102146 0.345097721 0.218975365
0.199620321 0.351170093 0.220999554
0.201644704 0.353447378 0.219987392
0.209234998 0.348892719 0.228336096
0.214547992 0.354965419 0.234155849
0.220619977 0.357242227 0.231372491
0.227704093 0.359266132 0.228968695
0.237445056 0.358507067 0.231878564
0.246552676 0.355471462 0.231878564
0.258570701 0.357621670 0.231245980
0.272106290 0.362049133 0.236685812
0.288424850 0.367109120 0.243010983
0.306135565 0.367362142 0.243516982
0.320936382 0.370398551 0.244275972
0.331941754 0.375205547 0.245540962
0.344338804 0.379759729 0.248197362
0.362555534 0.382163554 0.256672680
0.371663183 0.385199159 0.262745470
0.389373541 0.386717111 0.268184960
0.410625905 0.393042117 0.279317141
0.430486709 0.403541684 0.292093992
0.446046561 0.412523538 0.298165977
0.467805058 0.418595552 0.309297979
0.492346287 0.426944852 0.323086709
0.517646730 0.438077122 0.340164632
0.543453574 0.450221121 0.355850965
0.565212011 0.465274990 0.368247956
0.591777384 0.476407379 0.383048773
0.623149931 0.493105501 0.400506139
0.658064544 0.515369713 0.421758562
0.691460967 0.530550122 0.443010956
0.206578031 0.377355993 0.240354031
0.215686396 0.374320388 0.240354031
0.222390965 0.378494948 0.243769825
0.228969172 0.382037014 0.246046871
0.236559466 0.382289976 0.249588564
0.233523071 0.388361961 0.252624959
0.238836050 0.386843711 0.253384054
0.244908050 0.387602717 0.251233280
0.252751291 0.388867885 0.250221133
0.264769524 0.385831535 0.253131032
0.276786983 0.385705054 0.250221133
0.288931012 0.387982279 0.253510565
0.303605288 0.392410010 0.258697391
0.321316004 0.397723019 0.261733055
0.333460003 0.400759399 0.267805070
0.345857024 0.403795183 0.273371071
0.357747972 0.407084197 0.275901049
0.371663183 0.409488022 0.277925164
0.389879972 0.409488052 0.283997953
0.398988307 0.415307015 0.287286669
0.416698694 0.420872986 0.296268046
0.436938941 0.427451015 0.307653248
0.455154985 0.433776021 0.316382051
0.479443789 0.439848036 0.322454065
0.501201630 0.448197305 0.333586067
0.522959709 0.460088670 0.351549387
0.546489298 0.474509984 0.374067008
0.579886377 0.486653954 0.392282993
0.606957734 0.501707852 0.407336861
0.636053324 0.518152952 0.422517210
0.666920006 0.536875248 0.439974606
0.697533071 0.554839015 0.461227030
0.252371758 0.430486739 0.287665755
0.253130794 0.430233777 0.287665755
0.260088384 0.429348409 0.289816499
0.264895558 0.434155732 0.290322602
0.270208925 0.436433017 0.289563298
0.271980137 0.432890385 0.287792683
0.276534081 0.433902383 0.290828437
0.282606095 0.432763755 0.291081399
0.289436996 0.434661478 0.289942741
0.299556971 0.435673594 0.290954888
0.306135744 0.435547084 0.293738246
0.318279713 0.435547084 0.294749826
0.331562370 0.437824398 0.297786027
0.347628355 0.441746116 0.299177408
0.359772354 0.442252159 0.302719742
0.369513154 0.445287943 0.308791757
0.385831922 0.448323935 0.316381931
0.401771069 0.450095147 0.320809513
0.415686339 0.447944403 0.324730963
0.431119740 0.450727761 0.325237036
0.444023103 0.458696991 0.333965868
0.461480498 0.464642525 0.344086081
0.477925688 0.468943745 0.351296753
0.496900827 0.475015730 0.357368737
0.523466289 0.483365029 0.370272011
0.547122061 0.492473036 0.384313732
0.570778191 0.504870057 0.402403742
0.599620700 0.519291341 0.416065723
0.627704144 0.528779209 0.431625545
0.653257251 0.547248542 0.446805894
0.685135782 0.567362309 0.465528280
0.723086357 0.587476432 0.490575731
0.281973481 0.464262724 0.309677005
0.280075729 0.464262724 0.313472480
0.286274463 0.466160476 0.321315527
0.292346478 0.463630468 0.319291592
0.295635730 0.467173010 0.316887736
0.297153920 0.467172593 0.321441919
0.302719980 0.466160476 0.317773402
0.315369964 0.469449461 0.320809424
0.322454184 0.469955474 0.321821392
0.330423743 0.471853197 0.322959721
0.334724724 0.470082462 0.323971868
0.342947751 0.471979707 0.327008188
0.355091721 0.470841348 0.330044121
0.369007021 0.472612739 0.331309199
0.379506707 0.475901723 0.335989892
0.393042535 0.476407677 0.341429472
0.405186921 0.479443282 0.344465464
0.424415141 0.483111978 0.352435321
0.437824041 0.483870775 0.358001262
0.450854093 0.486401111 0.362049222
0.466034442 0.489436954 0.362049222
0.479190588 0.494496852 0.371157616
0.493105739 0.496015251 0.376470506
0.516635001 0.503858447 0.384313732
0.534092307 0.512207270 0.395319253
