Assets/Shaders/EldamarStudio/100 Sci-Fi LUTs Pack/LUTs/cube/Evie LUT.cube
LUT_3D_SIZE 5
DOMAIN_MIN 0.000000 0.000000 0.000000
DOMAIN_MAX 0.903226 0.903226 0.903226
0.074510001 0.082353003 0.078431003
0.076154292 0.080708295 0.078431003
0.153700411 0.085642412 0.085642412
0.306135237 0.129538000 0.124604866
0.529917598 0.218595788 0.215938956
0.072865292 0.103984989 0.078431003
0.104616992 0.111827992 0.085642003
0.187728986 0.134724990 0.106261700
0.332953840 0.189373687 0.160910994
0.544971585 0.279696643 0.248703197
0.146489829 0.254396379 0.168753982
0.182163119 0.269829094 0.179886401
0.272738397 0.294370800 0.196837410
0.403541982 0.333586395 0.239089265
0.578241646 0.412776381 0.338267058
0.306261986 0.485515118 0.322833389
0.333586246 0.494750112 0.343073666
0.400379628 0.502972960 0.365717947
0.498418987 0.524857402 0.394434005
0.647184908 0.585072935 0.467678636
0.545730472 0.748260438 0.583681285
0.572042763 0.750537515 0.586717308
0.613535643 0.757368565 0.597217083
0.684882581 0.769133568 0.619860888
0.771789730 0.784819603 0.660720587
0.074510001 0.078431003 0.086274996
0.081720419 0.081720419 0.085009411
0.156356394 0.092852995 0.113851979
0.313599139 0.142567843 0.174952284
0.519417942 0.231625631 0.256799668
0.076154292 0.106261700 0.107906409
0.106261700 0.123592407 0.119291708
0.188994408 0.146489397 0.148766696
0.330044150 0.192915976 0.196837410
0.529538035 0.283364952 0.284250528
0.148134127 0.255660981 0.198482111
0.186084688 0.271726668 0.211258829
0.270081997 0.289057791 0.228589684
0.396710724 0.330929548 0.275015950
0.568374217 0.413788646 0.361163795
0.304237962 0.478684247 0.353573561
0.337255120 0.487918824 0.358886689
0.398987800 0.497406691 0.384313971
0.493485123 0.514990151 0.407463402
0.646299779 0.582795799 0.484123826
0.542061925 0.737381458 0.582542658
0.562934697 0.742314577 0.589373589
0.606704473 0.747880876 0.602150500
0.678051710 0.762302458 0.622137606
0.771157444 0.788741589 0.665654242
0.064010002 0.081087999 0.158253998
0.096141994 0.079443291 0.165844113
0.172675818 0.099430986 0.183807403
0.304490685 0.152055874 0.244655401
0.516761601 0.236179382 0.340164632
0.083365127 0.123592407 0.187349692
0.117394112 0.129158691 0.197849274
0.201138690 0.156609699 0.222011685
0.332953990 0.200126410 0.271094352
0.531056225 0.298039079 0.360404789
0.160278410 0.262239397 0.266160399
0.192283407 0.280581802 0.277925402
0.299556941 0.318532407 0.330297381
0.408096433 0.352561772 0.354838669
0.574319839 0.424541354 0.428463042
0.312966138 0.477799118 0.404174238
0.345603675 0.490449399 0.426691949
0.410373122 0.505882144 0.440227628
0.500063539 0.522580266 0.459455967
0.649082899 0.588108778 0.528526187
0.533839583 0.727260947 0.612270594
0.559392989 0.737760782 0.617583871
0.599114597 0.744212627 0.621378839
0.674762785 0.760657609 0.649968326
0.773181438 0.788867772 0.688298404
0.059835870 0.084376998 0.329791248
0.120303407 0.093232125 0.338646382
0.226438820 0.120050542 0.354965091
0.353194237 0.163820133 0.377862126
0.520050764 0.249335960 0.448703378
0.083997712 0.154964983 0.348640233
0.140923694 0.163187698 0.360025555
0.243643090 0.185452119 0.373181552
0.369007260 0.222137690 0.403921545
0.537381291 0.308159560 0.462492228
0.170398116 0.299557388 0.406831235
0.212903112 0.313978642 0.415939242
0.302845985 0.332574248 0.431625396
0.421884805 0.366603106 0.453004539
0.582542479 0.426818520 0.515749514
0.327640980 0.482732266 0.494497240
0.353699982 0.495382696 0.507147133
0.413282841 0.512713253 0.520935893
0.527893245 0.547501326 0.559266210
0.667046249 0.601771235 0.606704414
0.521441758 0.733839571 0.662871897
0.542314649 0.739911377 0.671600163
0.590638638 0.746868730 0.674003899
0.674509764 0.767235637 0.695256054
0.778367996 0.796963692 0.738772750
0.071979985 0.122959986 0.607210577
0.168121397 0.137760684 0.609234571
0.300442368 0.170778230 0.611132264
0.457052946 0.238330051 0.624920547
0.613662601 0.329917610 0.648956597
0.102086976 0.206451669 0.609487534
0.175964400 0.216951504 0.612650454
0.314737648 0.247311816 0.621505141
0.468184948 0.301707804 0.636938334
0.621252298 0.373307884 0.658443809
0.208222628 0.366983235 0.632637203
0.249968618 0.371916324 0.637950838
0.364453048 0.395192772 0.642504573
0.499810249 0.427197784 0.662112474
0.645667136 0.472992033 0.684250414
0.370019108 0.565844238 0.685515523
0.386084795 0.564199507 0.687413096
0.446173370 0.567868531 0.692725778
0.559013069 0.582795799 0.704743743
0.702845931 0.624035180 0.726375937
0.562808394 0.757495403 0.754585624
0.571916580 0.759645462 0.764705718
0.612397373 0.769259632 0.777102649
0.694750190 0.789120734 0.791777253
0.817583621 0.829474747 0.837191582
