Assets/Shaders/EldamarStudio/100 Sci-Fi LUTs Pack/LUTs/cube/Ewan LUT.cube
LUT_3D_SIZE 5
DOMAIN_MIN 0.000000 0.000000 0.000000
DOMAIN_MAX 0.903226 0.903226 0.903226
0.027450999 0.035294000 0.031373002
0.103984989 0.054901998 0.054269418
0.222390816 0.077798583 0.073244996
0.435673237 0.131435990 0.113851994
0.743073583 0.198861659 0.183174968
0.081087992 0.110183701 0.073876999
0.120303407 0.121947698 0.076154292
0.247564688 0.152688116 0.104617409
0.453004509 0.208348960 0.139278993
0.752308547 0.279316962 0.201517954
0.152941003 0.270714819 0.139910996
0.209614113 0.282859087 0.140923694
0.311954379 0.303478807 0.154332832
0.520683289 0.360404640 0.177229822
0.780265212 0.440859973 0.255154967
0.309045136 0.542568088 0.230487123
0.353573531 0.565717995 0.246679410
0.468311369 0.563440740 0.264010549
0.616065979 0.577862144 0.292473257
0.823276460 0.637065053 0.405060023
0.565338433 0.820113599 0.522327542
0.599873602 0.834155679 0.533333421
0.670462012 0.835799932 0.547754169
0.772675633 0.838076890 0.579759598
0.894623578 0.852751434 0.625553370
0.043136999 0.043136999 0.077799000
0.096773989 0.058190994 0.082732700
0.211890981 0.096141994 0.115749411
0.420240134 0.143453285 0.158886999
0.721568584 0.205059946 0.219481677
0.088931002 0.112460412 0.096773989
0.123592407 0.124224991 0.109550692
0.233523399 0.158254415 0.137001693
0.432384253 0.205312997 0.170651570
0.732321441 0.274762809 0.233270094
0.161163703 0.260215402 0.162428707
0.201391399 0.270081997 0.168374702
0.308412105 0.291334659 0.176596984
0.502719700 0.354838699 0.212650403
0.765591264 0.435673356 0.297785938
0.299936682 0.533333123 0.260088384
0.357115835 0.541303098 0.266287237
0.458191097 0.551043570 0.280961275
0.604301274 0.565085411 0.314358115
0.808349133 0.635041296 0.415559620
0.565338433 0.816824615 0.521189034
0.598355472 0.819354653 0.534977734
0.658949912 0.828842640 0.553826451
0.765464664 0.829221964 0.578747571
0.889436781 0.850853562 0.631119490
0.058191415 0.058823999 0.150410995
0.108538993 0.069955580 0.148134127
0.207337409 0.098039001 0.165464565
0.411132127 0.133712709 0.228969395
0.709803998 0.181909800 0.304364353
0.103351988 0.125869691 0.162175998
0.135357410 0.135989994 0.168753996
0.234788403 0.158253983 0.196204990
0.429095685 0.192283407 0.234788239
0.721188903 0.266287208 0.322580636
0.173308402 0.266160399 0.212523401
0.216192529 0.278937519 0.228209987
0.311321825 0.296900809 0.249841824
0.503099382 0.345350951 0.289816797
0.762049198 0.432384372 0.373561203
0.306767821 0.521315694 0.327134669
0.352182120 0.535737038 0.345730275
0.450347960 0.544844866 0.356230110
0.598102510 0.562555671 0.387982219
0.809361339 0.634788394 0.487792492
0.540290773 0.808981359 0.560658038
0.577355802 0.817457616 0.573940098
0.646806240 0.821378767 0.587476611
0.756736219 0.828968763 0.615686059
0.890828550 0.850221395 0.667425454
0.080455258 0.084376998 0.280708253
0.149778411 0.095129870 0.283997416
0.245414227 0.116381995 0.287286252
0.418090224 0.138266861 0.333712995
0.719544590 0.190512225 0.436938643
0.118911996 0.151422694 0.282859147
0.162428692 0.161543414 0.288804293
0.269196540 0.170651406 0.303605378
0.445540816 0.193548560 0.351676106
0.727640450 0.273877263 0.453763515
0.172549143 0.290702254 0.335610241
0.222643688 0.300189793 0.348007381
0.348007798 0.324731082 0.377735496
0.525616527 0.357115388 0.412144393
0.758380711 0.446173638 0.499810189
0.306261986 0.534725130 0.446679384
0.365971118 0.548386991 0.464136392
0.469576240 0.558254123 0.478431553
0.609234333 0.578874290 0.505376399
0.811005592 0.633143187 0.585198939
0.562049389 0.806957603 0.652498305
0.585958183 0.815812767 0.659329772
0.637697339 0.821758330 0.659708917
0.743706405 0.831625283 0.676533580
0.886147559 0.853889704 0.725490153
0.109803997 0.103351988 0.594180703
0.210626394 0.101961002 0.593168855
0.376849800 0.102593422 0.594180703
0.563441038 0.126502126 0.603415430
0.785072625 0.216192603 0.629474699
0.086148024 0.186717525 0.592915535
0.208349109 0.182162941 0.591271281
0.381530613 0.190638855 0.594560266
0.574446619 0.214927092 0.606831014
0.792156696 0.294876486 0.641113162
0.052878268 0.351296365 0.612523437
0.202023983 0.352941066 0.612523854
0.394434184 0.365718216 0.618975580
0.596078217 0.392283499 0.630487084
0.803921163 0.465907604 0.675900996
0.291081578 0.599999905 0.666413605
0.342188835 0.597469807 0.657052457
0.468311220 0.598861516 0.670588195
0.635420561 0.611258924 0.685515642
0.824414909 0.663883626 0.723845899
0.570651412 0.822770417 0.749525607
0.596710742 0.827956617 0.766982734
0.662745178 0.831246018 0.777229428
0.773054779 0.844908416 0.800505579
0.888171554 0.875142395 0.842631400
