Assets/Shaders/EldamarStudio/100 Sci-Fi LUTs Pack/LUTs/cube/Ewan LUT.cube
DOMAIN_MIN 0 0 0
DOMAIN_MAX 1 1 1
LUT_3D_SIZE 32
0.027450999 0.035294000 0.031373002
0.030487388 0.038330387 0.034408614
0.037824225 0.037065227 0.037444774
0.048197322 0.037823997 0.039216001
0.060721450 0.043136999 0.039974999
0.075901061 0.043136999 0.046046998
0.088551641 0.050727319 0.049588677
0.103984989 0.054901998 0.054269418
0.120682999 0.054901998 0.058823999
0.132827014 0.054902002 0.058823999
0.147880867 0.057811871 0.058823999
0.165085509 0.062871993 0.060847737
0.182163343 0.068944000 0.063883640
0.198102072 0.074762970 0.067172997
0.222390816 0.077798583 0.073244996
0.246679589 0.083238609 0.079316996
0.272486180 0.090828799 0.086907193
0.299810529 0.100568987 0.095382996
0.327135026 0.112713009 0.101455018
0.362808764 0.119291715 0.110309653
0.399240971 0.125363991 0.111827739
0.435673237 0.131435990 0.113851994
0.472358972 0.137760982 0.125869498
0.514863789 0.149905011 0.134977907
0.557368517 0.155218288 0.141809002
0.601264954 0.162428975 0.149272665
0.647818089 0.174572989 0.158886999
0.699430406 0.186716989 0.171030983
0.743073583 0.198861659 0.183174968
0.789120317 0.214547947 0.197090179
0.834155202 0.231878594 0.214041591
0.870588005 0.247059003 0.235293999
0.033523001 0.041366000 0.031373002
0.027450999 0.041366000 0.037445001
0.047691382 0.044402387 0.040480614
0.060847387 0.044402387 0.043516774
0.069449708 0.046932384 0.045288000
0.081973828 0.052245386 0.046046998
0.089563772 0.052245386 0.049588677
0.103984989 0.058190994 0.054269418
0.120682999 0.060973998 0.058064904
0.132827014 0.060974006 0.055787615
0.144971743 0.066792995 0.064516485
0.162049368 0.067931615 0.064895995
0.181404248 0.073118255 0.070335381
0.200632393 0.081087999 0.079064034
0.219354421 0.086906970 0.082353383
0.243643209 0.089943185 0.083618388
0.270967990 0.096900798 0.086907186
0.299177974 0.106008559 0.092979185
0.324098617 0.115749396 0.101455018
0.359772354 0.119544744 0.110309653
0.392410070 0.127261251 0.115622737
0.429601490 0.135483742 0.118912123
0.472232491 0.143706501 0.128526390
0.511828184 0.152941406 0.128905907
0.561163664 0.162808090 0.140290990
0.604553938 0.170145273 0.147880986
0.646806061 0.180139065 0.155850604
0.693358421 0.189753383 0.167994589
0.737001598 0.201897368 0.182795405
0.781277537 0.217584014 0.200632155
0.828589559 0.236685976 0.217457205
0.873624384 0.256167382 0.232258379
0.037444774 0.051739547 0.037824225
0.039974775 0.049588773 0.035294227
0.048956543 0.047437999 0.043517001
0.066160612 0.050474387 0.046552613
0.071346998 0.052118998 0.049968321
0.079949319 0.058190998 0.053510774
0.093485229 0.061353773 0.051739451
0.102846220 0.062998064 0.053130776
0.119291320 0.067805097 0.058191225
0.132827014 0.069196783 0.059329517
0.149272740 0.075015776 0.063630871
0.161416993 0.075015523 0.068690740
0.179379985 0.077166289 0.069955871
0.199873298 0.085009769 0.078811027
0.221884757 0.091081768 0.085642412
0.244908348 0.099051028 0.086274996
0.267678976 0.102087416 0.087792799
0.296774536 0.109930336 0.091460995
0.325616837 0.119038746 0.099051207
0.356735975 0.124731354 0.108159423
0.391271412 0.131562248 0.117267504
0.423909247 0.141682252 0.122833639
0.466034234 0.151802763 0.131562218
0.509550929 0.158886909 0.131562218
0.553827047 0.165844470 0.134218991
0.602656364 0.176343754 0.144971669
0.644149363 0.186717123 0.152814776
0.688045382 0.197470218 0.164958760
0.730929554 0.209234744 0.179759577
0.778747559 0.226691946 0.198481947
0.825047553 0.241745993 0.217077747
0.872359216 0.256673217 0.229222223
0.045541160 0.061353996 0.046932161
0.045288000 0.060847610 0.043390159
0.054016609 0.060341544 0.045540936
0.069196999 0.058570322 0.045793839
0.073371157 0.061606608 0.049968097
0.081214160 0.066792995 0.057811871
0.092346482 0.070335321 0.057558838
0.104616992 0.073371612 0.054901998
0.116761193 0.075648323 0.056419998
0.131435663 0.078178644 0.062492002
0.148260757 0.082859002 0.066919707
0.166224152 0.085389070 0.069955900
0.180645153 0.085768327 0.074130163
0.199114203 0.091840997 0.076786973
0.222390816 0.097912990 0.081847087
0.247944430 0.105123349 0.088804998
0.273245037 0.111195348 0.090322800
0.295129985 0.115496568 0.093990989
0.326629013 0.124604814 0.100063019
0.357242018 0.132195011 0.108918361
0.386970192 0.138899416 0.114231572
0.422391117 0.148007289 0.123339966
0.459456295 0.159645990 0.132321149
0.504996777 0.165718004 0.134598166
0.548007667 0.174319997 0.136875123
0.593548417 0.181910142 0.145224497
0.638077080 0.193548232 0.152308896
0.679822803 0.204933882 0.160658002
0.723592401 0.218343139 0.176723644
0.772675574 0.232005164 0.192916006
0.822517574 0.250600994 0.216825023
0.868058026 0.257432014 0.231246158
0.058064904 0.068943992 0.054143000
0.051233612 0.071600154 0.055660997
0.053257547 0.073497772 0.057432223
0.061986156 0.075648546 0.055661224
0.075648546 0.076027997 0.044655096
0.087792546 0.079063609 0.056799866
0.097406775 0.082479320 0.059582997
0.106894284 0.085136160 0.057938289
0.117140643 0.087413445 0.057178997
0.129285440 0.087413445 0.063251004
0.144718871 0.090702124 0.068943545
0.163188249 0.093738250 0.072991706
0.183301985 0.097153999 0.076407455
0.202024072 0.103225999 0.082985520
0.223402947 0.109297991 0.080581680
0.249082774 0.115749538 0.088045605
0.276407182 0.121062636 0.096774347
0.301960588 0.124604955 0.099683538
0.326249450 0.133712605 0.105755560
0.356862575 0.143200353 0.114231363
0.386464208 0.150410995 0.118405998
0.417457670 0.157115683 0.120683126
0.456926018 0.166224033 0.129791468
0.501960456 0.172548994 0.136116460
0.542947292 0.182795539 0.140290797
0.585958183 0.193548217 0.147754192
0.630866230 0.203036070 0.161416516
0.670335293 0.212144449 0.158380911
0.714737296 0.226186261 0.173181504
0.764452636 0.239974961 0.190006182
0.815686524 0.252878100 0.208096176
0.861226976 0.265022099 0.238456994
0.051992133 0.087159991 0.048071001
0.061100513 0.087159991 0.060214996
0.067172773 0.083364934 0.061732996
0.074509934 0.082606167 0.062239062
0.081720546 0.085136384 0.059835479
0.084756933 0.088171996 0.056799866
0.094370611 0.093737938 0.063883997
0.105123058 0.096014999 0.064010292
0.117520094 0.096521065 0.063250996
0.132321045 0.096521072 0.069323003
0.150284812 0.102340065 0.072485872
0.165971249 0.105882250 0.076027676
0.183301985 0.107779995 0.077925064
0.202024072 0.109297998 0.079949133
0.226312816 0.115369998 0.092093892
0.250094920 0.123845801 0.092093870
0.276407182 0.132447734 0.100189991
0.301201552 0.139278635 0.108285934
0.317141086 0.142820984 0.108791940
0.352561831 0.154711947 0.114863940
0.387982398 0.162555009 0.121441990
0.422897249 0.168627262 0.125490129
0.459962398 0.175332397 0.129791468
0.499430835 0.184440032 0.138899103
0.539911211 0.193042278 0.145224631
0.584945977 0.202656597 0.150790855
0.634029090 0.212270930 0.158886880
0.676407278 0.224288449 0.167488515
0.718532562 0.236052975 0.177735716
0.763314068 0.250474244 0.194433883
0.808601975 0.266034186 0.212144211
0.849083006 0.283238858 0.232384995
0.066160642 0.097786322 0.062238999
0.070208386 0.102846317 0.061733320
0.075015776 0.104996547 0.067425549
0.083365165 0.100062996 0.067805000
0.090702318 0.099304222 0.067425549
0.095888935 0.102340378 0.064389929
0.103984669 0.105375998 0.068944000
0.114737406 0.108158998 0.070082292
0.126881644 0.108918093 0.069322996
0.140290827 0.110689327 0.075395003
0.155850753 0.116508313 0.076027550
0.178114995 0.120556571 0.083111934
0.195951968 0.125869662 0.088298321
0.214674309 0.130297020 0.091334350
0.238962486 0.134092316 0.096647829
0.263251305 0.142568111 0.101581186
0.287539303 0.150158316 0.104743674
0.315116704 0.158254221 0.112966254
0.341682643 0.165085614 0.114864007
0.371283740 0.173940331 0.125489995
0.405819207 0.182289317 0.129664734
0.441619545 0.188361585 0.135104313
0.478178769 0.194687307 0.139532000
0.517647266 0.206198737 0.141429424
0.559392929 0.213029638 0.150537610
0.603288889 0.223276302 0.155471325
0.652245462 0.234029129 0.162428811
0.694750190 0.246173620 0.177609175
0.742314935 0.258317620 0.189373657
0.783048391 0.272232801 0.203289181
0.828842103 0.289184213 0.221631899
0.874889314 0.309045315 0.241493002
0.081087992 0.110183701 0.073876999
0.080835029 0.116255701 0.070841387
0.078937069 0.116887927 0.072106227
0.087033458 0.117393859 0.072612159
0.096521288 0.113219410 0.072991706
0.102593288 0.117520630 0.073750935
0.112840094 0.122201085 0.075015999
0.120303407 0.121947698 0.076154292
0.136243090 0.123465694 0.076913193
0.152814716 0.127387479 0.084756419
0.166223854 0.130043998 0.088298410
0.184187397 0.135736957 0.091081247
0.205059767 0.138773054 0.094496995
0.223276347 0.146868736 0.098798029
0.247564688 0.152688116 0.104617409
0.270208597 0.157242090 0.104364187
0.297533393 0.166350484 0.110436186
0.322074383 0.173181564 0.116002284
0.352435231 0.182289973 0.119038686
0.383048713 0.191398069 0.125490010
0.418595463 0.200252697 0.135230735
0.453004509 0.208348960 0.139278993
0.489690244 0.215686694 0.145350993
0.530676901 0.224794701 0.148387000
0.574067235 0.232384697 0.155218288
0.616572022 0.242631346 0.164326668
0.663630724 0.255028397 0.169386417
0.706135094 0.267172903 0.185325876
0.752308547 0.279316962 0.201517954
0.797216833 0.293232173 0.210499465
0.835799932 0.310183585 0.230993062
0.883617997 0.331435978 0.255281717
0.091713995 0.126122996 0.082226098
0.089437291 0.130677000 0.079949386
0.085768543 0.131056324 0.078937329
0.087792166 0.131056249 0.080202162
0.101834096 0.128400087 0.077546000
0.107906193 0.133713096 0.082858995
0.117520645 0.138267100 0.083112098
0.127134889 0.138646483 0.083744489
0.134725094 0.138646096 0.082226098
0.162049517 0.144718096 0.094370872
0.177862003 0.145730197 0.099936999
0.192536503 0.149019420 0.103225835
0.211132541 0.155471459 0.106641002
0.226312146 0.158507138 0.101075001
0.249082714 0.166603506 0.108665310
0.273244798 0.171663389 0.108918197
0.296015203 0.177735388 0.111195281
0.327640921 0.187476173 0.120303504
0.352435052 0.196711078 0.123592876
0.383048832 0.205060363 0.126628742
0.418342710 0.214168444 0.132700726
0.455281228 0.222770259 0.140038088
0.492093474 0.234788507 0.145983577
0.535230875 0.241493091 0.151423007
0.579253852 0.249083087 0.159772292
0.623403311 0.258570671 0.169639573
0.665908039 0.273245007 0.179759964
0.708411932 0.285389006 0.192156985
0.752055407 0.299051166 0.208855048
0.798861325 0.309930176 0.221505061
0.838077188 0.329158694 0.234787777
0.874509990 0.350411087 0.268185019
0.097786002 0.144339010 0.097406477
0.097786009 0.144339010 0.097406477
0.097659528 0.144592017 0.092979006
0.102466494 0.148260653 0.089816488
0.113978103 0.155724496 0.089690007
0.120050877 0.155724496 0.089690007
0.126122981 0.155977502 0.087413326
0.134092301 0.152941495 0.089437485
0.143832713 0.150790885 0.094370872
0.155977517 0.159898490 0.097406492
0.180391997 0.163061380 0.100822397
0.196078509 0.165970713 0.101961009
0.211891636 0.171410173 0.105502836
0.232384920 0.179759532 0.113219000
0.247564524 0.182795912 0.113219008
0.275142103 0.188488498 0.113598526
0.299050987 0.195952177 0.116508387
0.321568131 0.205692962 0.123339891
0.358000994 0.217836991 0.132447526
0.391145080 0.224288493 0.135736868
0.426312476 0.232384741 0.140670478
0.460847259 0.240480974 0.145857126
0.492093474 0.246932521 0.149019971
0.537634730 0.256040901 0.152055591
0.580771983 0.267299473 0.159772292
0.623403311 0.279190481 0.170271978
0.665908039 0.291460991 0.182795584
0.708411932 0.303604990 0.197975963
0.748260438 0.321062654 0.213029802
0.796837330 0.330170751 0.226565450
0.843896151 0.341682166 0.243769661
0.874509990 0.371663481 0.274257004
0.098039001 0.165464863 0.089310870
0.109677002 0.165464863 0.092220001
0.113978550 0.165464863 0.098671779
0.116761580 0.164199695 0.098924875
0.123592414 0.165970668 0.099304318
0.132194862 0.168500990 0.101833999
0.138266996 0.168500990 0.099304318
0.147627994 0.170145720 0.101201989
0.158760056 0.170145765 0.105756000
0.170904845 0.174952388 0.106641397
0.183048874 0.181150869 0.112586871
0.201265126 0.184187263 0.113599002
0.215433627 0.188361734 0.113599002
0.233396992 0.195192903 0.116887897
0.256546438 0.198229283 0.119544744
0.274130464 0.206072047 0.124351740
0.305502862 0.215686381 0.123845547
0.334597975 0.225553855 0.125743121
0.366476834 0.233143881 0.132574037
0.394560218 0.239721864 0.136116356
0.429601580 0.249588847 0.141049996
0.467045993 0.259709120 0.148134127
0.503478527 0.267805368 0.155092001
0.543453753 0.276913792 0.160910979
0.584440291 0.286021560 0.168501154
0.623529434 0.294749975 0.174826190
0.662492216 0.303858101 0.183934063
0.702592969 0.316002727 0.203921437
0.739784598 0.330802888 0.216444969
0.784313440 0.350537300 0.227830321
0.833143294 0.363946468 0.240607202
0.871600151 0.384186983 0.262871981
0.112207241 0.186717242 0.100442722
0.116255254 0.184692994 0.099430859
0.122074544 0.186717242 0.098671511
0.129411831 0.187982410 0.102719896
0.134724542 0.186464205 0.103099450
0.143832922 0.186211184 0.109424062
0.148387253 0.188741505 0.107400313
0.157748237 0.188741505 0.107653290
0.170651346 0.191398144 0.112586834
0.184060961 0.194433764 0.113851994
0.192157000 0.196331248 0.113598742
0.206325248 0.204427510 0.117647000
0.223782629 0.207463607 0.118785642
0.241240025 0.212903023 0.120177254
0.263757229 0.219481409 0.124984413
0.285262585 0.223276690 0.130423993
0.308033168 0.233902499 0.138014197
0.340417236 0.244781986 0.137001932
0.367994726 0.250854015 0.138899267
0.401644379 0.260973990 0.144212350
0.430866480 0.263250977 0.143453732
0.467046231 0.275901139 0.148134127
0.505502760 0.287033498 0.154965252
0.544971526 0.296141863 0.159140021
0.586464286 0.307273954 0.171537280
0.624541283 0.317773223 0.183428288
0.661986113 0.326122373 0.191524118
0.702972651 0.338267148 0.211258680
0.741808593 0.349019408 0.220493242
0.783554554 0.364199430 0.236179203
0.828336418 0.383174837 0.249588579
0.868564248 0.398355246 0.268943727
0.133459628 0.214800626 0.119417638
0.133459628 0.212902874 0.115243383
0.136748761 0.214168057 0.114484504
0.142315105 0.216065809 0.113725148
0.150663823 0.218343094 0.110309996
0.158254221 0.215306684 0.115622707
0.164579317 0.217330962 0.116887957
0.170271978 0.218722641 0.114863932
0.183934182 0.220240638 0.119417742
0.199494123 0.223655790 0.123213120
0.208222628 0.223782271 0.122706771
0.219228238 0.226438895 0.122580245
0.237824261 0.234408632 0.124477990
0.259076685 0.237444311 0.127514377
0.280329019 0.244781688 0.132700995
0.303858399 0.252498448 0.138772994
0.327008486 0.257811636 0.142947555
0.353700250 0.269323200 0.150158361
0.377988338 0.275901288 0.147628054
0.414547682 0.286400944 0.156356633
0.448323756 0.294370264 0.156736091
0.479696393 0.296394259 0.158760607
0.515876114 0.311068654 0.162049279
0.553320587 0.321189165 0.164073542
0.592789233 0.331435651 0.172802284
0.634787917 0.342441231 0.187982574
0.671726704 0.355091333 0.203162357
0.713598847 0.367868543 0.220746517
0.754585385 0.379633069 0.235167623
0.794180512 0.391144454 0.249462217
0.836179733 0.408095866 0.269449472
0.872359633 0.423782289 0.290954918
0.152941003 0.252498060 0.133838996
0.153447002 0.253004044 0.127008036
0.158254057 0.254648775 0.127387732
0.165085167 0.256673038 0.131435871
0.173687503 0.257052511 0.134345025
0.176723897 0.254016131 0.128273025
0.184819713 0.255534381 0.128526315
0.193548068 0.257179022 0.129285350
0.201391235 0.258444071 0.128020048
0.219608009 0.264516056 0.137128443
0.232005030 0.264769047 0.140417159
0.244655028 0.264769047 0.141429037
0.260594249 0.266793042 0.141429037
0.284630060 0.273118049 0.142188072
0.305882394 0.276154429 0.145224452
0.331688792 0.286148041 0.150158033
0.358001351 0.295256048 0.153953001
0.382036984 0.301960558 0.154459059
0.406325072 0.311068952 0.154459074
0.444782078 0.319924384 0.166603327
0.480202734 0.329032272 0.171157315
0.513852119 0.337634087 0.172675252
0.547248483 0.343832582 0.184946492
0.580644965 0.355850786 0.185579032
0.616318583 0.365970820 0.190133035
0.655281246 0.375584692 0.200379685
0.697533071 0.385452121 0.215307072
0.737001419 0.400632501 0.230487436
0.778367639 0.415306807 0.252624929
0.818089366 0.428716004 0.276154160
0.853383780 0.443516642 0.298798203
0.886780977 0.464769065 0.323087007
0.152941003 0.270714819 0.139910996
0.159013003 0.276786834 0.124731384
0.168121547 0.275142044 0.124351643
0.175205663 0.275901139 0.132447734
0.179885998 0.278684407 0.143959418
0.185831517 0.284376889 0.149525404
0.193927899 0.281341136 0.138393402
0.209614113 0.282859087 0.140923694
0.223149911 0.285262495 0.143706635
0.228716388 0.288804799 0.140164062
0.241113409 0.289057791 0.143453449
0.257305413 0.289057791 0.144465417
0.273118049 0.290196151 0.144465417
0.290702045 0.294370413 0.145224452
0.311954379 0.303478807 0.154332832
0.335610569 0.311322182 0.154965416
0.363567412 0.319544792 0.160784215
0.390765131 0.326249212 0.167362139
0.412397057 0.335356951 0.172675803
0.453383714 0.341682702 0.167109102
0.487666041 0.350284636 0.173055053
0.520683289 0.360404640 0.177229822
0.556356907 0.371157706 0.184946492
0.589753389 0.380265325 0.200126916
0.625427008 0.392283559 0.205313414
0.663251042 0.405186504 0.215560064
0.703858137 0.418595493 0.230234399
0.746109843 0.430993229 0.242631435
0.780265212 0.440859973 0.255154967
0.822643578 0.453004390 0.282226115
0.861859620 0.467805386 0.312207162
0.892853022 0.489057809 0.341302961
0.172169596 0.296141773 0.145983607
0.171030790 0.304617584 0.142821178
0.179253563 0.302087039 0.138393790
0.188614979 0.305123091 0.141176432
0.193927795 0.310816050 0.148387000
0.204047784 0.310815781 0.142315015
0.210246310 0.314105123 0.157241985
0.222643688 0.311069101 0.150031701
0.239342079 0.312586874 0.153067902
0.245667487 0.315623283 0.148639843
0.262238979 0.315749794 0.151296675
0.274383485 0.315749794 0.150284544
0.289563596 0.319165140 0.151043639
0.303731799 0.324477792 0.152308807
0.322833359 0.327134371 0.154965416
0.346489578 0.333839566 0.161669999
0.372296184 0.341429770 0.166224182
0.402403325 0.348766774 0.174699590
0.430739790 0.359645605 0.180771932
0.461859524 0.365970701 0.182922080
0.496774256 0.373940736 0.182542533
0.529158771 0.384060562 0.187096849
0.565591216 0.396078497 0.192030206
0.601264954 0.405186683 0.204933912
0.634661853 0.416571587 0.213282987
0.668184757 0.428715944 0.224920958
0.704617202 0.442883849 0.241619319
0.745224655 0.456925869 0.257558793
0.782162786 0.464009941 0.276913553
0.815559566 0.483743936 0.292599529
0.856799603 0.498165578 0.323718965
0.891714215 0.513345957 0.357115805
0.193421990 0.328020364 0.152055994
0.190385982 0.331056386 0.150537804
0.194433957 0.337002009 0.149020001
0.203542024 0.334724396 0.151549995
0.210246548 0.344592005 0.155597642
0.221252188 0.342694253 0.151422992
0.228336185 0.344718516 0.153953195
0.237824067 0.344465494 0.163693517
0.253004283 0.342947274 0.161416799
0.263630480 0.345983684 0.159139499
0.278431356 0.346110195 0.158886865
0.292599499 0.347628385 0.162428930
0.305882633 0.348766744 0.160531193
0.319418192 0.356356382 0.162681952
0.340164155 0.356356382 0.161416799
0.360151768 0.359645814 0.167741984
0.379886389 0.365718186 0.172296181
0.408475727 0.371790171 0.181404397
0.441872209 0.382163197 0.188361809
0.475521922 0.393295377 0.191650838
0.505882263 0.401265115 0.196204737
0.537255168 0.409361362 0.199241132
0.572801888 0.420493364 0.202529863
0.605060041 0.430993080 0.213282615
0.640733838 0.440860391 0.223909184
0.672738969 0.451612681 0.232764170
0.705123127 0.463124245 0.250221252
0.745604098 0.476280600 0.267425895
0.780897915 0.488045365 0.291334778
0.812523544 0.498924315 0.310815930
0.849462509 0.526248753 0.333459795
0.890196025 0.539152145 0.369260192
0.208475590 0.363820553 0.158128008
0.209867358 0.362681717 0.157621741
0.212017983 0.367615342 0.154585764
0.218089998 0.373560965 0.155977547
0.228336155 0.375837684 0.160152003
0.238203481 0.375584722 0.167741641
0.244149148 0.378114879 0.167994902
0.253510416 0.378494412 0.167615443
0.266414046 0.376976222 0.171157137
0.281593651 0.380012602 0.171157137
0.293864727 0.380139112 0.168247864
0.307273954 0.382795811 0.170651570
0.321189165 0.385199487 0.174446568
0.336369574 0.387982100 0.174952567
0.359519124 0.387982100 0.173054725
0.379000574 0.390385926 0.178367794
0.396964163 0.394307554 0.184440181
0.414042085 0.398482114 0.186843991
0.447438598 0.404554158 0.195951626
0.482985735 0.418342918 0.200758934
0.516255558 0.429728299 0.206324995
0.545730352 0.438456982 0.212650120
0.579000950 0.444908470 0.215812981
0.606831312 0.457558542 0.224414662
0.639721990 0.467425823 0.235800132
0.675268948 0.477166414 0.247311980
0.706641078 0.486274183 0.260468096
0.748892844 0.495382547 0.275774986
0.782795370 0.509171367 0.299683750
0.813282609 0.523845494 0.323592484
0.843390524 0.537254691 0.344971210
0.888931036 0.564579129 0.378368437
0.211512044 0.397217095 0.164200053
0.229728013 0.403289050 0.173308417
0.233270064 0.408602029 0.172802195
0.235041231 0.412397057 0.174826205
0.240480989 0.412270606 0.181404442
0.258696973 0.409234941 0.172296077
0.263504356 0.411511689 0.174826324
0.271726996 0.412903070 0.175712004
0.284630150 0.413409114 0.177482963
0.299810499 0.416445494 0.183301955
0.312080979 0.416572034 0.180392101
0.328273028 0.420620024 0.181404293
0.345983356 0.424162060 0.183554992
0.363694042 0.424415022 0.184060991
0.378874421 0.424414992 0.190132990
0.397216976 0.426818788 0.193042159
0.416951239 0.429854810 0.196584225
0.438330203 0.431878656 0.198988035
0.462619007 0.428843021 0.198988050
0.496015400 0.440481037 0.208096355
0.529664814 0.450980783 0.216698259
0.559772253 0.460088909 0.225553170
0.585073054 0.469196558 0.234029025
0.615433097 0.484376967 0.240101039
0.645540655 0.494750291 0.250980556
0.680581689 0.505250037 0.261733323
0.718785048 0.516635060 0.272612184
0.755217791 0.525743365 0.290828943
0.786843657 0.537508011 0.308791995
0.817457318 0.553447008 0.333080202
0.848450601 0.569386184 0.359645575
0.882858992 0.582795978 0.387476087
0.261859775 0.477925479 0.198102742
0.263377756 0.472865462 0.196078405
0.275142491 0.476786703 0.200885788
0.279570103 0.479696155 0.200379729
0.285262734 0.479696155 0.204174817
0.298671752 0.479063690 0.204680443
0.306767732 0.478557765 0.205692694
0.314990401 0.479696155 0.205439657
0.327134609 0.479696155 0.205060109
0.340291202 0.480708271 0.209108368
0.355345100 0.483618140 0.209234864
0.369512826 0.481593847 0.206198469
0.385831356 0.484250396 0.207716659
0.402150422 0.485389113 0.209614336
0.417330801 0.480329096 0.213156015
0.439721972 0.482732296 0.216824830
0.458697081 0.487286389 0.219860911
0.479316860 0.490322351 0.222264722
0.503605723 0.487286717 0.222264737
0.527893782 0.489816368 0.230613381
0.555597901 0.500063121 0.243516758
0.585325718 0.508159399 0.252371848
0.613282561 0.515496254 0.257938206
0.640987098 0.525363684 0.266666383
0.671347082 0.538266718 0.281846941
0.703099012 0.546489358 0.296395034
0.737760544 0.555344462 0.310310155
0.767362595 0.564452827 0.330803633
0.801138461 0.576217353 0.354332685
0.833396494 0.590132535 0.374572903
0.864769161 0.606451333 0.403415501
0.896268368 0.620493412 0.438330472
0.291840732 0.519291699 0.219354987
0.291840732 0.517014742 0.218216345
0.300189763 0.521188974 0.219481513
0.305502981 0.522959769 0.221252739
0.312966555 0.523339331 0.220873192
0.332700729 0.524857461 0.220872790
0.326501995 0.530550241 0.227704048
0.342441410 0.527261257 0.227451012
0.355597466 0.527514100 0.226691723
0.367741942 0.528652489 0.230866477
0.379000843 0.529664576 0.230992988
0.397976190 0.530550241 0.234661460
0.413156092 0.527514100 0.231625378
0.428842515 0.529032409 0.233649760
0.447311878 0.527893722 0.239974782
0.469702572 0.527134657 0.241113275
0.490955383 0.528652489 0.242631465
0.509804010 0.533333063 0.246553138
0.532827735 0.532827437 0.250348002
0.551423013 0.535357118 0.251107126
0.577609241 0.538393199 0.262112468
0.602909863 0.546489477 0.274256736
0.632131457 0.552561462 0.278557986
0.657684982 0.559898674 0.289436847
0.687286735 0.567488790 0.307273537
