Assets/Shaders/EldamarStudio/100 Sci-Fi LUTs Pack/LUTs/cube/Ewan LUT.cube
LUT_3D_SIZE 8
DOMAIN_MIN 0.000000 0.000000 0.000000
DOMAIN_MAX 0.903226 0.903226 0.903226
0.027450999 0.035294000 0.031373002
0.060721450 0.043136999 0.039974999
0.120682999 0.054901998 0.058823999
0.182163343 0.068944000 0.063883640
0.272486180 0.090828799 0.086907193
0.399240971 0.125363991 0.111827739
0.557368517 0.155218288 0.141809002
0.743073583 0.198861659 0.183174968
0.058064904 0.068943992 0.054143000
0.075648546 0.076027997 0.044655096
0.117140643 0.087413445 0.057178997
0.183301985 0.097153999 0.076407455
0.276407182 0.121062636 0.096774347
0.386464208 0.150410995 0.118405998
0.542947292 0.182795539 0.140290797
0.714737296 0.226186261 0.173181504
0.091713995 0.126122996 0.082226098
0.101834096 0.128400087 0.077546000
0.134725094 0.138646096 0.082226098
0.211132541 0.155471459 0.106641002
0.296015203 0.177735388 0.111195281
0.418342710 0.214168444 0.132700726
0.579253852 0.249083087 0.159772292
0.752055407 0.299051166 0.208855048
0.133459628 0.214800626 0.119417638
0.150663823 0.218343094 0.110309996
0.183934182 0.220240638 0.119417742
0.237824261 0.234408632 0.124477990
0.327008486 0.257811636 0.142947555
0.448323756 0.294370264 0.156736091
0.592789233 0.331435651 0.172802284
0.754585385 0.379633069 0.235167623
0.193421990 0.328020364 0.152055994
0.210246548 0.344592005 0.155597642
0.253004283 0.342947274 0.161416799
0.305882633 0.348766744 0.160531193
0.379886389 0.365718186 0.172296181
0.505882263 0.401265115 0.196204737
0.640733838 0.440860391 0.223909184
0.780897915 0.488045365 0.291334778
0.291840732 0.519291699 0.219354987
0.312966555 0.523339331 0.220873192
0.355597466 0.527514100 0.226691723
0.413156092 0.527514100 0.231625378
0.490955383 0.528652489 0.242631465
0.577609241 0.538393199 0.262112468
0.687286735 0.567488790 0.307273537
0.815180480 0.609993458 0.383554697
0.399241000 0.664895833 0.317520559
0.422264248 0.669323266 0.328906000
0.454143167 0.675015569 0.334724545
0.505123258 0.676660299 0.347248286
0.573308170 0.676660299 0.357495248
0.648956001 0.678684056 0.374319792
0.727640808 0.688425303 0.406072289
0.832510591 0.711827636 0.466160536
0.565338433 0.820113599 0.522327542
0.589626908 0.829221785 0.524478316
0.611258805 0.830613434 0.534598291
0.648450613 0.833143771 0.539025784
0.698418617 0.835799932 0.548260450
0.755724370 0.835040987 0.576976478
0.820493340 0.846805632 0.595699012
0.894623578 0.852751434 0.625553370
0.039216001 0.043136999 0.051739097
0.056799546 0.047438450 0.059582997
0.113219544 0.063124545 0.072865091
0.171536997 0.080708288 0.088172346
0.261226922 0.103731543 0.104996897
0.381910264 0.135483801 0.131562188
0.531435609 0.158253998 0.152055711
0.716381550 0.199241117 0.189879820
0.052118551 0.072106093 0.057938091
0.079569548 0.073244542 0.074889451
0.111574635 0.088172443 0.077166542
0.175458193 0.102213539 0.092852637
0.256419748 0.124984346 0.112586543
0.370651722 0.152435258 0.134471551
0.529791534 0.179253563 0.154964983
0.710436463 0.221631691 0.194560632
0.085768551 0.124984451 0.082605645
0.113725096 0.130044103 0.092473097
0.142188534 0.130803093 0.094370544
0.196963742 0.154712453 0.112839997
0.281467646 0.179000735 0.128526092
0.403541982 0.203921631 0.144086182
0.555218101 0.245414525 0.166350335
0.733459711 0.290702105 0.214927331
0.127134740 0.207337275 0.122453824
0.148007184 0.204680741 0.120176829
0.176470637 0.207716733 0.129159003
0.232384369 0.220620289 0.136622548
0.321189016 0.250348091 0.156356558
0.433902800 0.288424850 0.164958656
0.583554924 0.326249361 0.193295285
0.744212210 0.375332117 0.241619438
0.185199350 0.319418192 0.155850902
0.203162551 0.328905553 0.153953344
0.239595175 0.330043912 0.166856289
0.298292279 0.341049850 0.173560739
0.374446392 0.350790590 0.177355826
0.484123945 0.388361484 0.197975993
0.621758342 0.433396846 0.233270288
0.766350150 0.485389173 0.293611676
0.278684467 0.501707911 0.215686336
0.298292279 0.506261885 0.224667981
0.340544075 0.509297788 0.230107471
0.402024090 0.513599098 0.233143359
0.480835110 0.519165277 0.253257751
0.562175691 0.528905869 0.267172933
0.679822862 0.557621598 0.311828017
0.805439472 0.605692565 0.382036984
0.386717290 0.646426260 0.316635042
0.405439556 0.656673074 0.332194835
0.440860271 0.658190966 0.332827300
0.493105471 0.661353827 0.346110016
0.561796188 0.667299569 0.361922801
0.639468789 0.672359288 0.375331849
0.725490212 0.688425303 0.407590270
0.825932801 0.709045053 0.469070166
0.551423132 0.820113599 0.507906616
0.582036495 0.824415028 0.523592591
0.606957436 0.822137833 0.528652608
0.641366243 0.822896838 0.537887216
0.690702140 0.828463018 0.548134208
0.752055645 0.829348683 0.565970898
0.819228530 0.839848280 0.597469687
0.890195787 0.847564578 0.627703846
0.044654999 0.044654999 0.085389003
0.061859999 0.048956547 0.085389003
0.109677091 0.065022096 0.097153991
0.169512734 0.087413348 0.113219440
0.260847270 0.108917996 0.134851202
0.376470566 0.132827356 0.157115638
0.529791474 0.162175700 0.179253370
0.716761410 0.200758904 0.224035785
0.061480448 0.075648449 0.075901091
0.083491549 0.078305088 0.088172451
0.117140643 0.092473090 0.100695550
0.179000542 0.110942543 0.123086996
0.259203076 0.126502439 0.141176194
0.366476983 0.156736106 0.162175998
0.522074580 0.183302000 0.188741088
0.708412409 0.225427270 0.227577344
0.098798104 0.126122996 0.108918197
0.116002090 0.126502544 0.113978542
0.141808987 0.137887195 0.128526002
0.199747086 0.160658091 0.140290990
0.281088114 0.182542995 0.156736091
0.394180834 0.206831008 0.172675639
0.547880590 0.241240099 0.196457803
0.730044425 0.290449083 0.243642971
0.135484084 0.205819279 0.148007184
0.151549652 0.205819279 0.144845083
0.183175072 0.216824993 0.158633739
0.231245831 0.222643927 0.157748535
0.314990729 0.248450726 0.175458372
0.431119353 0.282479376 0.194940090
0.580392182 0.327640712 0.221884727
0.739278853 0.376090914 0.271726608
0.190385997 0.315496266 0.182542995
0.209487647 0.321441919 0.190385997
0.241999000 0.329664469 0.190385997
0.294876724 0.336369634 0.195066288
0.370525181 0.350031376 0.205313087
0.482732594 0.386717260 0.226312280
0.620113790 0.433017403 0.262238979
0.766603589 0.486527413 0.324983865
0.285515726 0.494623661 0.250727087
0.299557537 0.499936730 0.253257543
0.340923607 0.500063121 0.255660713
0.395698935 0.507400453 0.267805189
0.472232550 0.512460530 0.276027828
0.563820481 0.522327483 0.289816827
0.673877060 0.554079771 0.334851265
0.803288877 0.604174733 0.406451702
0.380392253 0.647691429 0.340164542
0.398102552 0.653763533 0.343832999
0.438456535 0.654775560 0.358380616
0.489690036 0.657052279 0.367235988
0.559013247 0.663251281 0.382542670
0.642125368 0.667046428 0.402782947
0.725996315 0.683617830 0.433396578
0.829222083 0.712207079 0.496647596
0.563061357 0.815559685 0.521948040
0.575837791 0.819481373 0.535230875
0.601897597 0.817583740 0.540796757
0.637318313 0.819354892 0.551296473
0.687792242 0.825300455 0.558001339
0.743200362 0.825426936 0.572422326
0.813788772 0.836559057 0.600758672
0.890195787 0.851359606 0.632890701
0.049335998 0.053257290 0.131688997
0.072485641 0.057558544 0.120176733
0.117140733 0.068944000 0.119797185
0.167615294 0.092473000 0.140670642
0.261985719 0.112839997 0.172296003
0.378747463 0.129411995 0.195825472
0.531562269 0.142947644 0.224288344
0.714737594 0.194560319 0.272738814
0.080835000 0.083491549 0.124604903
0.089816548 0.089310996 0.119924091
0.122201093 0.099556997 0.130044088
0.171537086 0.106894448 0.146868646
0.257305652 0.132447898 0.170904189
0.373054802 0.146868840 0.197470099
0.530803323 0.169892386 0.230739921
0.708285868 0.218342677 0.273750633
0.088045552 0.138773099 0.143706635
0.118658729 0.138646096 0.151929095
0.157874629 0.155218095 0.160151735
0.207969725 0.165338203 0.171537086
0.287792534 0.185325637 0.187602624
0.402023822 0.206831098 0.211005822
0.554206431 0.240101442 0.244402289
0.728146732 0.290828794 0.299050957
0.140164286 0.212523639 0.176596627
0.158633545 0.216445640 0.184820101
0.192662984 0.224288642 0.191397727
0.245034993 0.234408647 0.195698977
0.318785816 0.255155087 0.208601832
0.431499004 0.284883171 0.231372625
0.580898285 0.325237215 0.268564254
0.740923166 0.377609104 0.320809454
0.187096998 0.325743198 0.220999271
0.208728537 0.328146368 0.231246099
0.252751648 0.332827389 0.225173727
0.302719623 0.339784980 0.235420540
0.380645365 0.358254015 0.247185618
0.491840392 0.391018033 0.272991627
0.623276293 0.435041130 0.306388527
0.770904422 0.487033159 0.370398253
0.287033647 0.493231714 0.295003235
0.305376261 0.499683559 0.298671722
0.345097810 0.503605366 0.302719653
0.399746716 0.505882323 0.309677750
0.476660430 0.513345897 0.320303291
0.563946486 0.527640820 0.341429502
0.671600282 0.558380663 0.375585049
0.798481882 0.606957555 0.449082613
0.387476295 0.646932244 0.389246911
0.408222824 0.653636932 0.393169016
0.442125112 0.655534327 0.395192653
0.493358552 0.659202874 0.405945927
0.559898734 0.665275276 0.416698098
0.637823999 0.670714974 0.438077360
0.727640808 0.685641885 0.469449848
0.826945007 0.713092864 0.523845792
0.551169932 0.813915312 0.548639536
0.570145190 0.820240378 0.555850446
0.595446050 0.815813005 0.563947022
0.632005155 0.823023438 0.570271969
0.685894728 0.822896957 0.580265343
0.749145806 0.829474807 0.598228812
0.816571772 0.836559176 0.622770309
0.892093599 0.849462211 0.656799197
0.064263187 0.065780997 0.175332189
0.087033994 0.072485641 0.175837725
0.124478094 0.079949193 0.177102983
0.177355722 0.096774444 0.181656986
0.255281389 0.114358187 0.213029996
0.382162988 0.134851187 0.252119005
0.534471512 0.146489486 0.295888484
0.714484215 0.188487962 0.341302961
0.080202639 0.102213539 0.169512749
0.099430993 0.101833992 0.172801822
0.134977639 0.111321993 0.177355826
0.179380193 0.120682992 0.188488349
0.253637195 0.135610193 0.211385295
0.374572843 0.154712349 0.249335721
0.531941831 0.170398548 0.293611556
0.714231193 0.214294344 0.341935456
0.116761193 0.144845203 0.194434091
0.135230646 0.152814910 0.199367642
0.162935004 0.156609997 0.200506091
0.211891457 0.168501005 0.214674279
0.291208178 0.187350005 0.235673368
0.408602268 0.203288823 0.269829541
0.559772313 0.235800281 0.303099275
0.730929732 0.289563626 0.364452690
0.148513451 0.217710197 0.218848839
0.163694099 0.224668086 0.228209913
0.209108204 0.234029070 0.244275987
0.264895707 0.254901946 0.251992464
0.339278817 0.262618631 0.262998283
0.446299911 0.290449053 0.288678259
0.592536509 0.326755017 0.330929667
0.741049707 0.376343966 0.384946167
0.195193008 0.331941366 0.269196361
0.219607741 0.341049820 0.287159711
0.261606395 0.353320390 0.289057165
0.312460363 0.356356382 0.292093188
0.397090167 0.372675568 0.305376381
0.501201630 0.395446002 0.330550373
0.628083289 0.430613577 0.368754178
0.770398438 0.484629959 0.427071512
0.292599738 0.502593637 0.361796379
0.311069012 0.505123317 0.357495010
0.350917190 0.507906675 0.360910535
0.405313104 0.510689259 0.364073157
0.477545768 0.516381919 0.373940527
0.564705491 0.532953978 0.390638471
0.682226360 0.566223800 0.434788108
0.800379515 0.606577992 0.490069538
0.390006483 0.646046698 0.441492736
0.405439585 0.654775321 0.445034891
0.439342171 0.657179177 0.450980276
0.489057511 0.661100388 0.456293464
0.558380425 0.669702590 0.467425555
0.637571454 0.672738850 0.482099831
0.726628542 0.687665999 0.511068642
0.834661484 0.721315265 0.564199686
0.538899243 0.810626209 0.586210966
0.557368338 0.820746243 0.592283130
0.581530809 0.819734395 0.592662573
0.624668121 0.824161887 0.599620402
0.674256861 0.824161828 0.610499620
0.738519549 0.827324510 0.625300348
0.811006010 0.838077247 0.649083018
0.890828371 0.848829746 0.683111548
0.080455266 0.078304999 0.250347972
0.104996800 0.084756806 0.247311980
0.155091897 0.094117999 0.252371728
0.205186382 0.105755992 0.253130823
0.268564373 0.118026547 0.265654922
0.375585467 0.137254998 0.299304217
0.533839583 0.145730570 0.357621521
0.717520297 0.188487962 0.414168447
0.095256448 0.110942543 0.240607202
0.116635181 0.117267355 0.240733445
0.156230539 0.117520280 0.244908273
0.204174563 0.127767086 0.252245635
0.265275389 0.137507632 0.259076476
0.377988666 0.155977190 0.303605288
0.539658308 0.170777991 0.356483310
0.716761410 0.214168146 0.417710096
0.123212829 0.165085360 0.260847837
0.141808897 0.163187623 0.270588517
0.178114817 0.166097105 0.267552465
0.229727909 0.176217377 0.275395483
0.294244289 0.188361734 0.285262734
0.411638349 0.202403739 0.325616568
0.562302172 0.234155566 0.376217633
0.731688917 0.290322542 0.439848363
0.153067738 0.232004911 0.288551450
0.174319729 0.237191468 0.296521276
0.210499376 0.243390173 0.298291981
0.267299116 0.251612902 0.309930354
0.348766655 0.265401363 0.322327375
0.455028206 0.290828615 0.357242018
0.589753211 0.324351728 0.396205038
0.741429448 0.386084706 0.457178980
0.201517731 0.335357100 0.330423921
0.212270990 0.345983565 0.336242646
0.265148640 0.355724096 0.349905044
0.335863173 0.376597166 0.374193549
0.421252370 0.390638471 0.385072470
0.513472676 0.407084376 0.399746627
0.636685550 0.444655389 0.443137467
0.767615497 0.493485004 0.501707733
0.283997715 0.497280478 0.413282752
0.311195701 0.505755484 0.423149914
0.351296723 0.516761482 0.430233896
0.413156092 0.518785715 0.438709736
0.483111978 0.520683467 0.443137497
0.569765747 0.532321453 0.459835678
0.683111787 0.561037004 0.496900707
0.801644444 0.602276981 0.553826571
0.403415531 0.651486516 0.504111469
0.417077720 0.653510273 0.509677291
0.448070914 0.656166673 0.512333930
0.493232250 0.661353827 0.521315634
0.553826690 0.667678773 0.526502132
0.636685550 0.678178549 0.541302741
0.726249099 0.690575600 0.567995012
0.835926294 0.725490272 0.617204070
0.553194046 0.807210743 0.638077378
0.563820243 0.812523484 0.643769681
0.584693432 0.813029647 0.642125189
0.613788724 0.817330956 0.641872406
0.656925619 0.821252465 0.644275665
0.725490272 0.830613434 0.666919529
0.807463586 0.840354502 0.687539160
0.888930619 0.854142725 0.718152761
0.100316286 0.096394710 0.390385836
0.129664823 0.096141741 0.386211276
0.184820101 0.103478998 0.388108730
0.256799281 0.109297633 0.388741553
0.338013768 0.118406102 0.394307286
0.421758443 0.129284993 0.396584541
0.556988835 0.144086272 0.447564572
0.722833455 0.197343498 0.501707911
0.106008545 0.127007991 0.371916085
0.131562099 0.130550444 0.376723528
0.185072631 0.130550444 0.382289708
0.258697003 0.135989740 0.386211276
0.337887287 0.143453196 0.391903639
0.418215990 0.154332891 0.404048026
0.566097140 0.170777991 0.445540845
0.718532324 0.223150074 0.495761782
0.112966284 0.175332189 0.382163137
0.143706545 0.180771574 0.387855530
0.196584284 0.183301896 0.389626741
0.268690735 0.188235447 0.398861647
0.351929367 0.198229000 0.405819058
0.449209452 0.207969636 0.420240551
0.587729275 0.236432478 0.470967621
0.732447922 0.296521336 0.513345718
0.132194638 0.259076297 0.413282543
0.158633843 0.258696795 0.408475488
0.214294851 0.262239188 0.418090016
0.292726278 0.266919553 0.422897190
0.379000813 0.280328989 0.431372464
0.479063988 0.294370562 0.445161372
0.616192281 0.331435651 0.487918913
0.745224476 0.389247298 0.533080280
0.183554903 0.371031076 0.440354347
0.206704378 0.371410847 0.451739371
0.258444279 0.375711590 0.455281645
0.329411745 0.383174926 0.464389801
0.421252370 0.393042266 0.474256456
0.527387857 0.411005467 0.492220461
0.649335742 0.450094640 0.527640522
0.769892454 0.503352165 0.575711250
0.267805189 0.514357984 0.504743576
0.287159920 0.520683408 0.507147253
0.333965719 0.519924104 0.516128898
0.403668642 0.528146803 0.522960305
0.493864834 0.548893213 0.546995521
0.592915714 0.558380723 0.564579248
0.692472994 0.584946513 0.583301544
0.797090471 0.620872855 0.626944959
0.407716572 0.651486576 0.578621268
0.414041847 0.659076512 0.573181570
0.450853735 0.662492275 0.580265582
0.504616916 0.671600163 0.595445931
0.572422564 0.682858527 0.608349502
0.647564769 0.688045740 0.621378779
0.733839571 0.703099549 0.641998827
0.839216053 0.727135003 0.677546084
0.562049508 0.805818558 0.692599595
0.574572682 0.813156188 0.685135841
0.596078157 0.811764836 0.695129454
0.634155571 0.815686226 0.706514835
0.674383223 0.822011471 0.717394054
0.729411721 0.829474926 0.722201049
0.801897228 0.843010724 0.740164399
0.883871078 0.859582126 0.767868638
0.109803997 0.103351988 0.594180703
0.151929274 0.097027466 0.589247286
0.232890919 0.101961002 0.594939768
0.330676615 0.101961002 0.595319331
0.431119353 0.110183164 0.599620223
0.537128270 0.120682903 0.605186343
0.656167090 0.149399281 0.605692685
0.785072625 0.216192603 0.629474699
0.103099026 0.134345248 0.585072756
0.146362886 0.132321075 0.590511978
0.228589371 0.133080080 0.581151247
0.332194924 0.136369184 0.591397643
0.429221988 0.143326893 0.595319390
0.540417194 0.158886984 0.602150261
0.653257668 0.180645078 0.600885570
0.778873980 0.245034784 0.633649170
0.076028079 0.202150807 0.593674660
0.137760654 0.203668386 0.593295097
0.227071181 0.202909291 0.594813585
0.331815362 0.207463667 0.597596288
0.439342082 0.214800730 0.598481596
0.548893273 0.232131824 0.606324971
0.659962177 0.251612723 0.618089855
0.793927550 0.316129148 0.644908547
0.036306202 0.290069640 0.595698953
0.118279383 0.293611467 0.598355412
0.226691723 0.296394736 0.604427814
0.330550104 0.302846462 0.608096242
0.444908291 0.313852280 0.605059922
0.555850208 0.327640623 0.613788545
0.668817043 0.350664288 0.627197981
0.794433713 0.410246611 0.652751386
0.121821754 0.418342799 0.606324971
0.163061291 0.422137976 0.623149872
0.234029472 0.415559828 0.620619535
0.339152306 0.416318655 0.621378779
0.458444208 0.425806373 0.626818597
0.571789861 0.442125440 0.640480638
0.689816177 0.462239116 0.648956358
0.803415418 0.517140985 0.678178370
0.262238979 0.567362547 0.657811403
0.283744633 0.564958513 0.653889835
0.331562310 0.562808275 0.651992500
0.401265115 0.562049329 0.653889775
0.491461217 0.563314199 0.661859632
0.594686747 0.574320316 0.671600461
0.709930182 0.594307244 0.689310133
0.820113659 0.634282410 0.715749502
0.389880002 0.697406709 0.692979038
0.408222526 0.702340245 0.687539577
0.441492647 0.697912693 0.693611264
0.500316381 0.699557126 0.703225970
0.572043002 0.702719808 0.711321771
0.656040430 0.713219523 0.723972023
0.748007238 0.725996554 0.741809070
0.846805573 0.753700376 0.768627107
0.570651412 0.822770417 0.749525607
0.573940396 0.823782325 0.758760631
0.598987818 0.823402882 0.768500865
0.643010795 0.826691806 0.770398378
0.685135782 0.834534705 0.778367579
0.754838526 0.842884541 0.795698702
0.811258852 0.853383780 0.812144101
0.888171554 0.875142395 0.842631400
