Assets/Shaders/EldamarStudio/100 Sci-Fi LUTs Pack/LUTs/cube/Fastbald LUT.cube
LUT_3D_SIZE 8
DOMAIN_MIN 0.000000 0.000000 0.000000
DOMAIN_MAX 0.903226 0.903226 0.903226
0.000000000 0.000000000 0.000000000
0.007716997 0.000379548 0.000758999
0.125996098 0.000000000 0.007084098
0.268564284 0.003922000 0.006704646
0.417330354 0.001518192 0.001518192
0.575585485 0.001897740 0.002024260
0.758001506 0.003922000 0.000000000
0.948386550 0.000000000 0.000000000
0.003922000 0.016319092 0.000000000
0.023023546 0.023403093 0.011006001
0.137761086 0.024162093 0.003162905
0.274889201 0.017457543 0.002783356
0.416191906 0.013535736 0.000000000
0.574446738 0.019101642 0.000000000
0.759519279 0.007969638 0.000379548
0.941808760 0.009867080 0.000000000
0.000000000 0.151929095 0.001517998
0.050727189 0.152308643 0.000000000
0.158127993 0.146363184 0.007842999
0.285009384 0.165212005 0.000379548
0.426818460 0.178494275 0.000759096
0.592789471 0.190638825 0.003162904
0.769765556 0.205186188 0.000759096
0.950537503 0.207083926 0.000000000
0.005566002 0.272485971 0.008349358
0.083238542 0.279569983 0.006325098
0.193042442 0.279949546 0.000000000
0.302213997 0.280328989 0.000000000
0.447691649 0.302719623 0.001138644
0.601644158 0.321442008 0.000000000
0.777103186 0.345350981 0.000000000
0.955597401 0.356356472 0.000000000
0.010626183 0.425174356 0.003035997
0.120935738 0.424920708 0.003162807
0.227071285 0.422897071 0.002403808
0.342062265 0.425174356 0.000379548
0.469196379 0.429095358 0.001518192
0.625679851 0.453763813 0.001897740
0.806704462 0.482479364 0.003289004
0.970398366 0.495382518 0.000000000
0.080075733 0.597216725 0.002024260
0.160784334 0.599494040 0.003035997
0.278684288 0.597723067 0.001897740
0.400505900 0.604174852 0.001138644
0.531308889 0.606831431 0.003542452
0.667552233 0.610752463 0.001897740
0.822390854 0.632890761 0.000000000
0.976217508 0.641745567 0.000000000
0.138519987 0.779253840 0.006831284
0.205819264 0.782795846 0.000379548
0.318026185 0.779253840 0.000000000
0.447311997 0.784187555 0.001644712
0.574193597 0.784060657 0.001644712
0.715496719 0.782542825 0.001897740
0.850853562 0.781910300 0.003289004
0.974193633 0.779253483 0.003289004
0.196331635 0.931182742 0.005186845
0.264136523 0.926628828 0.000000000
0.348893017 0.931182742 0.002024263
0.471347630 0.932700992 0.000000000
0.595572352 0.932574451 0.000000000
0.732574463 0.928525925 0.000000000
0.856799662 0.927260756 0.002656833
0.988614798 0.921947777 0.011891142
0.000758999 0.000758999 0.012397092
0.007337546 0.003542452 0.014800997
0.129918009 0.000759096 0.023023546
0.258317351 0.002783356 0.030993357
0.406830907 0.001138644 0.021884901
0.562934756 0.000379548 0.009361096
0.748260379 0.001644712 0.002656546
0.948007107 0.000000000 0.001138547
0.000379548 0.022643996 0.014800997
0.031625547 0.023023546 0.026185546
0.133839175 0.028083190 0.023023449
0.267805189 0.031625543 0.019481093
0.413156033 0.016319092 0.014168099
0.572422504 0.004174544 0.005313286
0.748134255 0.003036287 0.000758999
0.939152598 0.001265167 0.000000000
0.000000000 0.133839190 0.014421449
0.055154741 0.141302645 0.015180546
0.153447196 0.134598181 0.014421545
0.276786745 0.153826654 0.007337449
0.419734180 0.167489186 0.003415544
0.576344252 0.179633006 0.001138547
0.764958680 0.189120635 0.000379548
0.946995497 0.189879641 0.004554085
0.000000000 0.270082265 0.004174544
0.069576189 0.268943727 0.001897547
0.182795644 0.270461738 0.002277095
0.295508921 0.273624629 0.001138644
0.438962728 0.290449172 0.000379548
0.591144800 0.310436517 0.000000000
0.773181498 0.332447648 0.000000000
0.945983469 0.343453526 0.002024264
0.001518192 0.420113832 0.000000000
0.110689543 0.415053368 0.000379548
0.223529547 0.418595850 0.000000000
0.339026272 0.421758533 0.000379548
0.461986154 0.423656166 0.000000000
0.617330849 0.447438091 0.000000000
0.797216713 0.478937566 0.002783356
0.959772289 0.492726058 0.001138640
0.054395933 0.589500308 0.000000000
0.147501543 0.590259254 0.000379548
0.271347433 0.593042076 0.001518192
0.395825744 0.595446050 0.000000000
0.527387738 0.601012170 0.004048004
0.661606431 0.602782905 0.000000000
0.818216264 0.625047266 0.001897740
0.973434150 0.638962924 0.000379548
0.110815540 0.766729653 0.001897740
0.188741103 0.771410823 0.002277288
0.297659904 0.766350269 0.002024261
0.433522940 0.766856492 0.001897740
0.559392571 0.767741859 0.002277288
0.703605175 0.771536827 0.000758999
0.839215577 0.770904303 0.003668552
0.968754053 0.763820231 0.000379544
0.189879626 0.929285049 0.001265167
0.241998687 0.931941748 0.002530012
0.335610539 0.922706783 0.000000000
0.458697021 0.922580540 0.000759096
0.587349772 0.926501989 0.002403812
0.721948087 0.924984097 0.000759092
0.853383899 0.924604654 0.002277285
0.987349629 0.919165254 0.006831273
0.000000001 0.004680903 0.122074291
0.011258643 0.006704549 0.116255544
0.142441183 0.000000000 0.127640992
0.271347642 0.000000000 0.147248194
0.414294541 0.000000000 0.148007289
0.566856325 0.000759096 0.147248283
0.753194094 0.003922000 0.148007289
0.945350707 0.000000000 0.141303033
0.000379548 0.037950642 0.119797193
0.046932090 0.028083188 0.118153185
0.148386747 0.025806095 0.130044192
0.270208985 0.013282999 0.139025643
0.409108013 0.001138547 0.135483995
0.570524931 0.000000000 0.138899446
0.754079759 0.001644712 0.135610387
0.943200290 0.000379548 0.138266832
0.000000000 0.137001991 0.120556280
0.049715545 0.140164092 0.130803093
0.161290094 0.144845188 0.132321090
0.282732189 0.148007289 0.128779456
0.419734359 0.152688190 0.133206904
0.582289815 0.159392834 0.132700741
0.764326334 0.152688012 0.138519794
0.954838634 0.147122085 0.129411831
0.000000000 0.274130285 0.137507647
0.058697093 0.276154548 0.130803093
0.185958445 0.274509728 0.129918098
0.296774268 0.270967990 0.124857642
0.438203812 0.286527365 0.125237197
0.597090125 0.304617375 0.126881704
0.779633224 0.319797635 0.112333737
0.956862569 0.327767134 0.102846652
0.003035997 0.413535446 0.129411995
0.092852548 0.414168358 0.122960098
0.221632093 0.415053457 0.119797193
0.335863382 0.415432900 0.117014550
0.458950341 0.422137976 0.113599099
0.617710412 0.442378283 0.100695640
0.799620330 0.469955474 0.075142197
0.962428987 0.484377086 0.072612181
0.007463646 0.592409849 0.063756816
0.122580536 0.594686985 0.074256659
0.258823723 0.595951617 0.064010359
0.387476295 0.600253105 0.055913813
0.528272927 0.601771176 0.047311820
0.664895594 0.603289187 0.034661643
0.823529184 0.623022974 0.016318832
0.976217508 0.636938453 0.018216375
0.040480994 0.771410465 0.003036204
0.154332712 0.776344240 0.001518205
0.286654174 0.777862370 0.000000013
0.428083628 0.777609110 0.000000013
0.567236185 0.774826169 0.002277300
0.704870641 0.772801876 0.000000011
0.843137264 0.774952292 0.003036008
0.979379892 0.769006789 0.001265180
0.174066707 0.929664731 0.007590199
0.234029248 0.931941986 0.001265183
0.338520110 0.928399563 0.000759111
0.459455907 0.928905666 0.002277109
0.594307542 0.928905666 0.010879204
0.724225163 0.927007914 0.011385290
0.856420279 0.926122487 0.019481443
0.986717045 0.918532550 0.014927359
0.002783356 0.000000000 0.248956278
0.009487636 0.002783356 0.241745561
0.171663627 0.000000000 0.249715373
0.275901616 0.002783356 0.248324007
0.412270814 0.001518192 0.258696914
0.574067295 0.002783356 0.275521994
0.755218148 0.000000000 0.289310634
0.949272633 0.003922000 0.295762271
0.003794996 0.027324190 0.242631271
0.054649092 0.025680091 0.240986362
0.171410292 0.018722190 0.241113186
0.270461649 0.004933640 0.241113186
0.414168268 0.001138547 0.256799370
0.565717936 0.002783356 0.272232711
0.755091548 0.000379548 0.280581713
0.944971263 0.002277285 0.282099992
0.000000000 0.151043281 0.243390173
0.045161087 0.143453628 0.245414630
0.170145631 0.149145827 0.250601083
0.290069640 0.143959284 0.247817725
0.425933182 0.141302839 0.257305652
0.579759896 0.129538357 0.262998283
0.766350448 0.076533556 0.269702613
0.955091476 0.022517543 0.277419627
0.000000000 0.260214925 0.245034993
0.057811286 0.264642268 0.243137538
0.186338097 0.273624629 0.245034978
0.310057282 0.273624629 0.243896633
0.442378372 0.280708432 0.252119094
0.597343326 0.291208178 0.252119184
0.774826169 0.297153622 0.259709269
0.949778378 0.295382440 0.259076267
0.002276998 0.411511719 0.250980437
0.059835639 0.412903011 0.244149372
0.207463384 0.413409352 0.250600994
0.339405626 0.414168179 0.249715477
0.463124812 0.416950911 0.242251813
0.622011125 0.436938554 0.247185439
0.800379634 0.459709078 0.253763288
0.968121409 0.469449729 0.253384113
0.003415739 0.586843848 0.239595279
0.042631105 0.587602854 0.243896440
0.232764095 0.590006113 0.244022727
0.376217544 0.593421698 0.240101457
0.518785775 0.596963942 0.235420540
0.662871778 0.599367201 0.235420540
0.825047135 0.616318583 0.235294014
0.974572778 0.626691997 0.248830274
0.002783356 0.770271897 0.221378639
0.038583275 0.772295773 0.213029906
0.246173427 0.762428939 0.215559721
0.402023911 0.767488837 0.212523624
0.552182376 0.766350150 0.209740564
0.698798478 0.770777583 0.207716718
0.835167527 0.769639194 0.202403337
0.971157134 0.761922717 0.214800626
0.130170375 0.926881611 0.242630899
0.208349138 0.928399384 0.236558914
0.316888183 0.927261174 0.235546991
0.447312295 0.924098492 0.237191707
0.582289755 0.926881611 0.242125154
0.723213255 0.924604654 0.245034993
0.850853860 0.922201097 0.251106799
0.985957980 0.922201157 0.253004223
0.003035997 0.000000000 0.393169194
0.074130282 0.002403808 0.389374197
0.203668386 0.000759096 0.377482563
0.316382289 0.003922000 0.379886389
0.431499183 0.000000000 0.372928381
0.578367949 0.000379548 0.396964192
0.768121302 0.002277288 0.415812552
0.956356823 0.000000000 0.431119740
0.006325195 0.019355088 0.386211187
0.077798642 0.018722288 0.370525062
0.200885639 0.012144353 0.381150901
0.319671065 0.002656546 0.372802079
0.427197993 0.001138644 0.368374616
0.579886019 0.001897740 0.386464119
0.767488658 0.001644712 0.411764860
0.946615756 0.000000000 0.425047368
0.000759096 0.162935004 0.375331998
0.058190830 0.161796555 0.376470506
0.198988095 0.161290288 0.366477102
0.315243632 0.153067544 0.368880302
0.434661478 0.144086093 0.371284097
0.595951736 0.122453928 0.386084557
0.777608812 0.057431910 0.408855200
0.963820457 0.017457282 0.422896981
0.002403808 0.285388917 0.373687357
0.068564355 0.284629852 0.370525181
0.206451654 0.283111840 0.369006991
0.330423385 0.282606274 0.370777845
0.455028355 0.282732189 0.371283978
0.605945647 0.281088114 0.380898029
0.790512264 0.274763077 0.397216916
0.961416721 0.266287208 0.405566365
0.005439805 0.412776560 0.372042984
0.088425189 0.417077839 0.360151380
0.213789091 0.418975294 0.373561174
0.349651814 0.421758533 0.372802198
0.487033367 0.429095358 0.375079364
0.643010676 0.433017373 0.384946138
0.809867322 0.444149196 0.387729377
0.969512999 0.448829979 0.399746805
0.007463549 0.589753270 0.388741106
0.012397287 0.592789292 0.379000485
0.203668207 0.593168855 0.380898118
0.361037165 0.597469747 0.379379898
0.521189153 0.595951557 0.381024629
0.669449508 0.599746883 0.375838369
0.836179972 0.614421010 0.390258938
0.984566569 0.618089676 0.402024120
0.000000000 0.770904362 0.382289559
0.007590090 0.771663249 0.387223125
0.214294761 0.771031082 0.388488263
0.377609283 0.770145476 0.377609104
0.543833077 0.774067044 0.378241450
0.696267843 0.771410704 0.373307735
0.839974582 0.769386530 0.374446362
0.973687530 0.765085161 0.392789453
0.156736329 0.929664552 0.419481158
0.215180203 0.926628590 0.422896802
0.324478120 0.928146780 0.411258817
0.456167102 0.926628530 0.418722451
0.588994145 0.925742984 0.420619816
0.725616455 0.923845351 0.426185906
0.855534494 0.923339784 0.422264516
0.982036650 0.919165134 0.423908591
0.028842725 0.000000000 0.540164471
0.131056353 0.000000000 0.538140178
0.248450428 0.001897740 0.536369503
0.369133621 0.000000000 0.532194734
0.493232369 0.001897740 0.528905928
0.620493174 0.000000000 0.520683467
0.775585294 0.003668552 0.542187989
0.961922646 0.000000000 0.566097498
0.010119998 0.008475899 0.534471691
0.122074284 0.005313091 0.526755214
0.241872177 0.002656545 0.526248991
0.362302452 0.000000000 0.521315575
0.492473364 0.001518192 0.527767420
0.616192281 0.000379548 0.519165277
0.775585234 0.001518192 0.536369383
0.953699946 0.000759092 0.559519231
0.003794996 0.166730091 0.526881576
0.091460988 0.170271844 0.531055987
0.225806534 0.161669925 0.523086727
0.360025287 0.150663823 0.520936131
0.493611783 0.139025733 0.522327662
0.622011244 0.113345854 0.517773807
0.788108826 0.041872554 0.541049540
0.964705825 0.019861283 0.562808275
0.002276998 0.302846372 0.519038558
0.029854711 0.303731978 0.524604499
0.211258575 0.295888454 0.518153250
0.359772116 0.293105602 0.520177186
0.495002925 0.286527276 0.520177007
0.629601300 0.276407272 0.519797564
0.797343373 0.263251036 0.533839166
0.965717614 0.264516085 0.552688301
0.003542452 0.449715286 0.519924343
0.020493099 0.449082822 0.521062791
0.207842842 0.448323816 0.524225116
0.357748270 0.439342171 0.524478436
0.508918524 0.435673624 0.530297041
0.658823192 0.433902383 0.530044258
0.820113540 0.439468622 0.539278805
0.972422659 0.457052618 0.557115734
0.001897740 0.587223470 0.522580743
0.014168290 0.596964240 0.524604499
0.212270916 0.601264894 0.527134717
0.372296035 0.598861516 0.530423701
0.527008414 0.606831491 0.530803263
0.685262442 0.612650275 0.540290475
0.845161319 0.617457211 0.542947233
0.980139017 0.630487502 0.565844357
0.006072285 0.772169530 0.538266897
0.051359989 0.769133568 0.534345210
0.232890815 0.769133389 0.538646579
0.401264757 0.773434222 0.542188168
0.556230068 0.772295594 0.544465184
0.697279990 0.768374503 0.542062223
0.839089572 0.767995000 0.539405465
0.970777631 0.768880308 0.557368755
0.302846104 0.925869823 0.581151426
0.341429204 0.922454000 0.576850116
0.417836577 0.920935929 0.588108718
0.519417882 0.923971832 0.592536509
0.612017572 0.919165134 0.588235080
0.735104322 0.920682907 0.590638697
0.858317435 0.920303404 0.589626670
0.977482677 0.917393982 0.585578501
0.085262284 0.002277288 0.718153000
0.167488784 0.002277288 0.714610994
0.292979389 0.001518192 0.717267334
0.417710185 0.001644712 0.717014611
0.556862473 0.003795093 0.713472486
0.689943492 0.000000000 0.708032846
0.826312244 0.001644712 0.700822234
0.969513059 0.000000000 0.703225553
0.054016188 0.004554092 0.702340543
0.152182087 0.004174738 0.709930062
0.280455291 0.001644712 0.714484274
0.412650287 0.001644712 0.706767917
0.545983374 0.002024260 0.704870462
0.685515404 0.000379548 0.699051142
0.823656023 0.003542452 0.698545516
0.961290479 0.001644712 0.695129693
0.000000000 0.174573094 0.710942507
0.116128899 0.168247983 0.705882311
0.262365639 0.159646183 0.703225672
0.406830996 0.147880897 0.706261635
0.547501445 0.122074291 0.708032608
0.689563751 0.077166259 0.708032608
0.832510769 0.018216377 0.702087462
0.971157432 0.015686454 0.700695693
0.002783356 0.310057282 0.708665490
0.002656546 0.310815990 0.710056782
0.233649820 0.312713712 0.705502808
0.387349635 0.303352356 0.708032548
0.541935384 0.297533303 0.702340245
0.687792659 0.280328900 0.698924720
0.828589499 0.268058211 0.696394920
0.969386220 0.265781343 0.694623530
0.001517999 0.471473664 0.700063527
0.003921710 0.474889368 0.707147479
0.204300985 0.469829202 0.705376267
0.370018929 0.460847735 0.703605235
0.535736442 0.450980455 0.702466547
0.686906993 0.445540458 0.700063527
0.837444842 0.442504644 0.696394384
0.977482438 0.457684904 0.697406471
0.000000000 0.627451003 0.702719986
0.006704550 0.626818478 0.710436583
0.209108025 0.628463089 0.706768036
0.383554578 0.626945019 0.705629528
0.553952873 0.625300229 0.710183442
0.698292017 0.623402476 0.707527041
0.845287800 0.628589690 0.704870224
0.973813891 0.644402385 0.712586939
0.000000000 0.774699271 0.696268320
0.004174544 0.778367877 0.698924959
0.222896889 0.773308158 0.699557304
0.399114639 0.775205672 0.700695932
0.556989372 0.769386530 0.691714227
0.710057199 0.771537006 0.700821996
0.842378557 0.771157563 0.705123544
0.961163461 0.783175051 0.715876222
0.318279088 0.917520583 0.720683098
0.360657841 0.919165254 0.717646778
0.429727852 0.919924140 0.721821547
0.539405406 0.920556426 0.723719299
0.650094628 0.922960222 0.737507999
0.762428880 0.913978457 0.746742189
0.859835446 0.918406188 0.738013804
0.969006777 0.919291615 0.738267064
0.093991183 0.001265167 0.892219722
0.177988708 0.000000000 0.877672434
0.305629194 0.000000000 0.885262370
0.430866480 0.001265167 0.881467640
0.569639206 0.001518192 0.878937602
0.714231610 0.001265167 0.877798796
0.853889942 0.002656833 0.877672434
0.984692812 0.001265167 0.877672434
0.063124932 0.007210638 0.881593764
0.158380717 0.009614543 0.876028061
0.293864995 0.002656545 0.885768294
0.426565647 0.000759096 0.878557742
0.564452708 0.000000000 0.877292633
0.709171236 0.000000000 0.874636173
0.845793962 0.001644715 0.872865140
0.983048499 0.000379548 0.867299438
0.000759096 0.192789420 0.875901341
0.128146723 0.191903710 0.881973326
0.269955903 0.181150913 0.883997440
0.419101804 0.169133514 0.881973445
0.565211892 0.150411025 0.879949272
0.709804058 0.118912190 0.875901341
0.847944379 0.067172430 0.879569709
0.987349629 0.027071536 0.876913369
0.005060354 0.334092259 0.883744240
0.044655241 0.333080202 0.883491397
0.253890008 0.336875290 0.880328596
0.407210261 0.328526258 0.881720603
0.556862354 0.323465824 0.872738957
0.701454699 0.309171110 0.870208681
0.846426189 0.299051106 0.872232974
0.982162774 0.284882724 0.869323432
0.000000000 0.491334707 0.876280785
0.041492783 0.492346853 0.875268877
0.248197004 0.489184171 0.878051579
0.408475727 0.487286806 0.877545953
0.558380544 0.482226163 0.872106433
0.702213883 0.480075985 0.874889553
0.848576844 0.478937358 0.872232914
0.989879608 0.477925539 0.874509931
0.049589001 0.643896401 0.879443407
0.144085765 0.647691429 0.881087720
0.297912955 0.646552742 0.872106314
0.444528818 0.650727272 0.877292752
0.585325778 0.655028403 0.875015795
0.721442401 0.654775560 0.874636352
0.854902148 0.655787587 0.875395179
0.974319756 0.658697367 0.874256849
0.139278769 0.788235366 0.884123564
0.235293955 0.790259540 0.868184745
0.344465315 0.788235366 0.869702995
0.472612083 0.791144788 0.872991920
0.600505948 0.788361788 0.867931604
0.728526115 0.791144848 0.873624444
0.844402432 0.787602723 0.866919875
0.963693917 0.790512323 0.867046237
0.326249242 0.936495781 0.876280785
0.371536642 0.926375508 0.881720126
0.439974666 0.925869823 0.878304839
0.536116362 0.926122427 0.875142395
0.644022942 0.924604654 0.874256730
0.753447533 0.920682967 0.874509633
0.858190954 0.920303524 0.877672434
0.954585671 0.923339784 0.886906803
