Assets/Shaders/EldamarStudio/100 Sci-Fi LUTs Pack/LUTs/cube/Fasthelm LUT.cube
LUT_3D_SIZE 5
DOMAIN_MIN 0.000000 0.000000 0.000000
DOMAIN_MAX 0.903226 0.903226 0.903226
0.000000000 0.003922000 0.000000000
0.081467696 0.017963292 0.027450999
0.271473378 0.007210577 0.027450999
0.526881397 0.075521871 0.022644127
0.872612417 0.108538829 0.085135974
0.003922000 0.115116984 0.016319003
0.088298418 0.122959986 0.010120292
0.275395393 0.158254400 0.015053997
0.528272986 0.203415394 0.037318416
0.869323432 0.234408692 0.096014924
0.003922000 0.291713953 0.034661576
0.113219395 0.295635402 0.042884283
0.275395393 0.303478807 0.045161411
0.548260272 0.358380377 0.073624283
0.891461015 0.411385208 0.130929813
0.191524118 0.534851372 0.091208130
0.277799129 0.541935325 0.093864709
0.435547352 0.546868861 0.107653119
0.641745567 0.559266269 0.109930255
0.933586299 0.618089795 0.181783766
0.458190560 0.864642620 0.259455740
0.510815740 0.870841265 0.281720579
0.638456583 0.871853173 0.289563566
0.808349192 0.875395417 0.312460423
0.983554721 0.879063725 0.353700250
0.000000000 0.025173709 0.089942701
0.070714399 0.021252289 0.091587409
0.231878683 0.057938114 0.116129108
0.464769572 0.112460420 0.150158122
0.836685538 0.117647000 0.197216690
0.002277292 0.098798402 0.086021706
0.075901397 0.114484400 0.101075694
0.222390816 0.150790706 0.123339683
0.469449550 0.196837559 0.160531700
0.844149411 0.229854524 0.206704393
0.014421413 0.268817395 0.136748821
0.113219395 0.275015682 0.136748821
0.253889769 0.283870816 0.140670404
0.515622795 0.345983535 0.176976681
0.875521898 0.404554069 0.222137943
0.198987842 0.524604678 0.194560274
0.273244560 0.526628673 0.180265531
0.422770232 0.529285073 0.196204990
0.618342459 0.542315185 0.197849691
0.924098790 0.611891329 0.264136523
0.472865283 0.857811451 0.328273296
0.516255200 0.860468090 0.335989982
0.639848113 0.862365723 0.350031435
0.806324840 0.867299438 0.371157169
0.980897963 0.871726751 0.410879284
0.000000000 0.024161585 0.262239397
0.105629280 0.029474990 0.255660981
0.226945400 0.068057984 0.238709390
0.466793120 0.114104711 0.283238411
0.823655963 0.115116984 0.356483221
0.010499994 0.144212693 0.224920988
0.095129706 0.148134112 0.227577820
0.218468979 0.155977115 0.224288404
0.451739550 0.204047978 0.283870965
0.826565444 0.235167682 0.354585648
0.050474398 0.266160429 0.234788403
0.137761101 0.282859117 0.249841809
0.277419806 0.304743826 0.264262974
0.498292506 0.341429234 0.299557388
0.856293142 0.408222765 0.378874004
0.207843125 0.501707971 0.318279535
0.270335257 0.509550869 0.320177108
0.412903219 0.513472259 0.324098527
0.608728409 0.532827377 0.338140398
0.911068559 0.613915086 0.420620203
0.504491031 0.840986788 0.467805028
0.542061865 0.847311914 0.462618589
0.650854170 0.850854039 0.477039993
0.809361339 0.860467732 0.493738025
0.973054588 0.870462000 0.530803204
0.035673246 0.070714995 0.490575224
0.184566826 0.082099706 0.480075836
0.353067935 0.102340288 0.465780854
0.511448383 0.119544744 0.443643242
0.848703265 0.130296975 0.521568537
0.055028256 0.198861554 0.449841976
0.175079107 0.200758830 0.450474530
0.337381065 0.207336828 0.443516850
0.505503118 0.208981529 0.439595252
0.848450124 0.242125213 0.522960067
0.104364283 0.348640382 0.432763994
0.200885653 0.349019527 0.431119233
0.356609792 0.351549566 0.434408218
0.539152682 0.356483370 0.444528520
0.866667032 0.428842485 0.541935146
0.245414242 0.516129255 0.458317369
0.313093126 0.527893662 0.468690962
0.475901097 0.541935503 0.495762229
0.667299271 0.569133282 0.521062434
0.909044623 0.639342129 0.592030227
0.584060669 0.840607285 0.624035180
0.618848979 0.843390465 0.635800064
0.701201618 0.849588990 0.650094748
0.811638236 0.856546283 0.650221050
0.958886504 0.872865379 0.673118591
0.176723644 0.180771783 0.807210565
0.299683630 0.179127067 0.800758600
0.500442326 0.181404203 0.800632536
0.727893770 0.180897921 0.790259421
0.940543592 0.191524580 0.777229548
0.206324935 0.290575802 0.788235605
0.310815632 0.291840643 0.792283416
0.507021189 0.291208208 0.790259421
0.730676770 0.288931072 0.784946263
0.941935360 0.296647608 0.781530499
0.317140549 0.470461845 0.775711596
0.390258968 0.471094012 0.775584877
0.548386753 0.471094459 0.774572730
0.741555750 0.474130303 0.774572968
0.936622381 0.476407409 0.776597023
0.461226702 0.660214901 0.781530678
0.506641388 0.662365675 0.776976705
0.629727900 0.665022373 0.780139148
0.770777881 0.664642572 0.779126942
0.937254608 0.676786900 0.785072446
0.602023780 0.862112582 0.803415358
0.630613565 0.861100495 0.802276731
0.716887712 0.856799543 0.805945396
0.838330030 0.865907788 0.818722308
0.945351005 0.893484592 0.855534375
