Assets/Shaders/EldamarStudio/100 Sci-Fi LUTs Pack/LUTs/cube/Fasthelm LUT.cube
LUT_3D_SIZE 8
DOMAIN_MIN 0.000000 0.000000 0.000000
DOMAIN_MAX 0.903226 0.903226 0.903226
0.000000000 0.003922000 0.000000000
0.014041998 0.008222548 0.001138547
0.108033001 0.014927097 0.028210094
0.207463279 0.003922000 0.027450999
0.333459556 0.023276186 0.027450999
0.483364701 0.068437733 0.025680264
0.667805552 0.094749995 0.051612996
0.872612417 0.108538829 0.085135974
0.000000000 0.042251997 0.007463549
0.021505548 0.042251997 0.016065547
0.111574642 0.059456091 0.023149548
0.214168549 0.076280639 0.020493003
0.329158723 0.101707898 0.019101640
0.480708450 0.133080274 0.024667740
0.668690860 0.155851007 0.053636834
0.862997890 0.160910547 0.083491549
0.003922000 0.140923187 0.010247002
0.034408998 0.143327087 0.010499545
0.108792096 0.146489084 0.009360999
0.215053737 0.166097105 0.010246906
0.328020155 0.190259293 0.023403093
0.481467456 0.218848839 0.037065253
0.673244774 0.243643284 0.060215287
0.870841503 0.258444190 0.098291963
0.009488002 0.233775914 0.023023643
0.018975541 0.244402289 0.028589644
0.123212837 0.242758080 0.024921091
0.211385280 0.245540649 0.029727997
0.335989982 0.273750603 0.044528995
0.483997166 0.306261867 0.057178997
0.680834830 0.333586305 0.075268634
0.882099986 0.355218112 0.114484429
0.022391185 0.350917190 0.054901998
0.088931181 0.352814823 0.064136997
0.165844291 0.354712278 0.061733086
0.253004819 0.358254015 0.059708733
0.353067547 0.361796170 0.069702998
0.518785417 0.399746925 0.081846930
0.713978529 0.433902562 0.091587707
0.900189936 0.461859554 0.140543953
0.160151467 0.495382756 0.084123738
0.196837455 0.499683648 0.089183994
0.268690735 0.502972722 0.089563735
0.353320718 0.504617155 0.094750091
0.461226910 0.508538902 0.099936739
0.583048463 0.512713432 0.105881996
0.754079521 0.549778461 0.127640694
0.925996244 0.585705400 0.171410784
0.295635283 0.680581808 0.121821269
0.324731261 0.679316998 0.125110283
0.390512377 0.677166522 0.128905565
0.473877192 0.683491230 0.138646632
0.576850057 0.684250474 0.143200472
0.691713989 0.688677788 0.154205993
0.810246587 0.690701962 0.150916979
0.944844663 0.714357972 0.223782361
0.458190560 0.864642620 0.259455740
0.481720477 0.869576156 0.269323587
0.527261019 0.869829416 0.278431475
0.595319271 0.868564606 0.274636388
0.683237910 0.875268936 0.297153562
0.781530619 0.874383330 0.309677333
0.881594062 0.877292871 0.330423683
0.983554721 0.879063725 0.353700250
0.007084001 0.009360999 0.018722095
0.014041998 0.011765000 0.022643996
0.102593191 0.023908548 0.050094996
0.185579076 0.035926998 0.061100900
0.303478748 0.062618993 0.072738998
0.443896264 0.089184187 0.098671801
0.637571275 0.108538732 0.116634987
0.853636742 0.114104547 0.143579826
0.007463549 0.026944643 0.023782544
0.021125998 0.038709544 0.034029547
0.091587901 0.060215089 0.050853997
0.181277737 0.085009545 0.065022096
0.295129567 0.110056728 0.076280542
0.443896264 0.137001812 0.098292351
0.635167599 0.156230554 0.114610828
0.845667541 0.167362556 0.145477265
0.000379548 0.122200996 0.052372091
0.032511454 0.124478094 0.061100900
0.095509090 0.131182641 0.061859995
0.186717540 0.151929200 0.067299090
0.299810171 0.181277633 0.087792702
0.453510314 0.210626289 0.103225984
0.647944450 0.241240099 0.116888016
0.854269385 0.255660832 0.151296809
0.005945550 0.220746279 0.075901188
0.032005187 0.222011641 0.076280639
0.113472089 0.226312175 0.073118538
0.190512612 0.229348272 0.078557737
0.314737290 0.263124377 0.097153895
0.465654671 0.299557567 0.112080991
0.660088360 0.326881915 0.128652826
0.863883197 0.348134130 0.154838368
0.030993184 0.343453646 0.104617544
0.080834925 0.342567801 0.102593184
0.163187757 0.342567742 0.103605531
0.240986466 0.348133802 0.108032897
0.334092349 0.354459018 0.113598891
0.498418570 0.388361484 0.125237182
0.699430883 0.432763934 0.137128189
0.891207576 0.461353660 0.177229524
0.155344650 0.482605994 0.136875272
0.191397756 0.484250724 0.128905535
0.257179081 0.485389262 0.131435990
0.343326867 0.490449101 0.131815538
0.447185308 0.497153461 0.135483995
0.568880618 0.502972722 0.142947540
0.742820978 0.543453276 0.159519076
0.920176685 0.581783533 0.207463786
0.287286520 0.664642513 0.158886805
0.319544524 0.665022075 0.166223824
0.377482623 0.665401638 0.164073557
0.463251173 0.669323564 0.169007093
0.558886707 0.672485530 0.170019016
0.675268769 0.676281095 0.177229539
0.804174840 0.680961251 0.195952028
0.933459759 0.704364240 0.241745576
0.454775125 0.864010334 0.284376591
0.476154596 0.864515781 0.290575385
0.514105022 0.855660796 0.289184004
0.583428085 0.860468149 0.297027141
0.674003541 0.862365305 0.307653487
0.776344240 0.867172480 0.331056267
0.877419531 0.871853590 0.345603824
0.974067211 0.875521839 0.368753582
0.000000000 0.029728094 0.111954190
0.018342642 0.027071452 0.108033001
0.102593191 0.025047194 0.115875989
0.184440538 0.042251900 0.124478191
0.289816290 0.075142190 0.144212201
0.414927453 0.106894352 0.160531089
0.599493802 0.119165190 0.198861375
0.832131565 0.119671263 0.221252248
0.003162904 0.058317546 0.093990996
0.042757548 0.062618993 0.098292448
0.080961548 0.072865091 0.098671995
0.175458193 0.095635898 0.122960091
0.280834824 0.121062636 0.141808897
0.410499811 0.145730376 0.167615101
0.608601987 0.163061097 0.191777289
0.828209877 0.168247849 0.219354808
0.000759096 0.125363901 0.106514998
0.039468549 0.136748642 0.116635092
0.098671995 0.143326998 0.125363901
0.175837740 0.155471444 0.136748642
0.279570103 0.184820086 0.151169986
0.426186144 0.212271005 0.172169387
0.618975341 0.234155372 0.195066273
0.839595377 0.253384024 0.225426972
0.014041901 0.219734639 0.141429543
0.053131092 0.219355091 0.133459643
0.115496539 0.227198079 0.139025643
0.182795733 0.229095548 0.140923291
0.295888573 0.261226922 0.157368988
0.443769574 0.289690286 0.183934182
0.644022644 0.322580576 0.199114636
0.854395986 0.345350951 0.231625378
0.061606377 0.331309199 0.165211901
0.091334276 0.334851652 0.169133365
0.158001095 0.334472090 0.168374375
0.236685812 0.339152306 0.172296092
0.324857473 0.340670377 0.172296003
0.482479185 0.379759520 0.193548188
0.685641944 0.420493305 0.211385295
0.881214440 0.458570629 0.251233250
0.164326206 0.477545530 0.206198722
0.195825636 0.479569912 0.206704274
0.261606723 0.480328709 0.198987991
0.343580157 0.483112067 0.200885534
0.443643272 0.485768735 0.207210630
0.554079413 0.492473364 0.208728731
0.737001836 0.538772643 0.239974737
0.913472414 0.580518663 0.280834943
0.295762181 0.663251162 0.238836274
0.325363547 0.667046309 0.242504463
0.382669181 0.667172551 0.240354091
0.472359270 0.667931437 0.241745368
0.565211713 0.672612548 0.246679291
0.678937197 0.672612548 0.251613021
0.797849774 0.682858765 0.261480093
0.937128246 0.707273960 0.314737409
0.480202556 0.856040537 0.344971448
0.500821948 0.864516079 0.357874602
0.535483778 0.863504350 0.362049490
0.604301095 0.862365544 0.366350442
0.688171804 0.867425859 0.374066859
0.785831869 0.865781248 0.385831654
0.875268877 0.869323492 0.402530015
0.981151044 0.875774682 0.428336561
0.000000000 0.027450999 0.211385280
0.018596090 0.015306548 0.215306997
0.118658736 0.026185645 0.204806730
0.184440643 0.046552639 0.196204633
0.288930982 0.078684643 0.213788986
0.417204469 0.108538643 0.237950459
0.599493802 0.114863642 0.270841271
0.817583621 0.119038664 0.306008965
0.003542452 0.071094178 0.191524625
0.026059641 0.085768640 0.186211169
0.107653543 0.086907089 0.186717540
0.165464625 0.089943185 0.178494364
0.270714372 0.119797282 0.205060184
0.408222824 0.146868929 0.236811906
0.597849548 0.160278350 0.267678559
0.808728456 0.168500990 0.299936771
0.012650100 0.143579826 0.186590731
0.043263733 0.152308643 0.171789825
0.107147090 0.155851007 0.188361630
0.176470727 0.164832547 0.187096983
0.277040064 0.187097088 0.214548081
0.409234434 0.212650448 0.243517086
0.601770818 0.236179724 0.270588428
0.827450633 0.254522175 0.311069012
0.016318996 0.215306997 0.189500287
0.063251093 0.219228283 0.195825279
0.131436080 0.238077193 0.210626274
0.197976261 0.247817636 0.209108293
0.293485284 0.260341644 0.227830261
0.425173998 0.288551629 0.248956367
0.616951168 0.319544584 0.279822648
0.836685538 0.345603883 0.314484268
0.085135989 0.323339403 0.233143643
0.115623079 0.330043912 0.232511073
0.172928482 0.332447737 0.234914482
0.237444818 0.335989982 0.236052826
0.322833806 0.340544164 0.240354285
0.471094459 0.378241569 0.266666651
0.662871540 0.418595821 0.291334480
0.872106016 0.454902083 0.330803126
0.168374732 0.462239206 0.265401453
0.193801358 0.462998122 0.267425716
0.257179081 0.468058437 0.274003983
0.333965778 0.474762827 0.271726966
0.431499124 0.479190290 0.278304726
0.548007190 0.484503359 0.291334510
0.725237072 0.531182766 0.314357907
0.908032775 0.579759777 0.370018840
0.303605199 0.649335921 0.321821272
0.327134699 0.650854051 0.321315646
0.376090944 0.649335921 0.316887975
0.461100489 0.653257489 0.323086560
0.558001399 0.654902160 0.322833508
0.667425871 0.662745178 0.333459467
0.783934176 0.667805254 0.337634206
0.924730957 0.702466667 0.393674463
0.499936610 0.855534434 0.429222286
0.513345957 0.853510618 0.421378583
0.548640132 0.851613045 0.428336471
0.612650096 0.855154634 0.436685443
0.693485081 0.854648769 0.443137228
0.781024456 0.860720634 0.452751577
0.878810644 0.868184984 0.471094012
0.978494406 0.873244762 0.485389054
0.000000000 0.032890804 0.327387571
0.037824541 0.031245997 0.314484537
0.137001991 0.047691189 0.308665186
0.226312175 0.067678541 0.298039436
0.293611377 0.089310989 0.285136193
0.429601461 0.114737645 0.317141175
0.611890793 0.116887897 0.359392762
0.834028900 0.122959986 0.399493992
0.001518192 0.106894538 0.296267927
0.052751541 0.106135346 0.300948799
0.139025733 0.110436179 0.290195733
0.210626170 0.115876079 0.284377187
0.280581713 0.126502544 0.276786834
0.420366555 0.148766279 0.312839717
0.605692625 0.163440645 0.358001292
0.823655784 0.165211707 0.394687176
0.021885095 0.176091090 0.278810978
0.069955736 0.179759637 0.278431535
0.132954091 0.186464190 0.271853358
0.203542084 0.187982202 0.273371279
0.278684258 0.195825189 0.277293175
0.421884656 0.215433106 0.310815960
0.607969582 0.236559182 0.356356382
0.828209519 0.259076536 0.399620414
0.041239992 0.248703450 0.278937370
0.089563541 0.250221640 0.278431624
0.154965281 0.255281270 0.276786834
0.226945087 0.265148640 0.290195733
0.306008995 0.270588428 0.298419058
0.439721644 0.300696075 0.326881826
0.628842473 0.322327644 0.365718007
0.829980910 0.354079515 0.406830996
0.092093185 0.335231185 0.287286192
0.130676895 0.334345192 0.292220175
0.192536190 0.341429293 0.302214056
0.286401182 0.368500739 0.322201043
0.369386345 0.371157378 0.326502174
0.492220163 0.386970192 0.337507963
0.666034102 0.420619965 0.375078976
0.865907729 0.458191186 0.429348499
0.194560453 0.469323009 0.347628176
0.218975276 0.471726835 0.345477253
0.279696614 0.474509567 0.355850846
0.352055550 0.479569733 0.357494920
0.444149107 0.483112186 0.357494950
0.555977046 0.491587669 0.369133443
0.728020310 0.537128448 0.405060023
0.903731883 0.585199296 0.460594684
0.336875379 0.642884254 0.411764652
0.354332656 0.645667136 0.407843262
0.395951748 0.647564709 0.409614474
0.466160923 0.649462223 0.410499901
0.562808514 0.656166673 0.412523538
0.667299271 0.658190906 0.417583704
0.780771792 0.664010227 0.430487484
0.929158628 0.709930301 0.483744442
0.519670725 0.845920622 0.508158982
0.540164232 0.846173227 0.513092995
0.567994535 0.850980222 0.516887844
0.631372452 0.849715352 0.518658817
0.702086985 0.856799603 0.524478316
0.786717176 0.860467911 0.539025724
0.880581856 0.864136517 0.551043451
0.966476798 0.869702876 0.566350400
0.011384989 0.058570478 0.452118725
0.091208279 0.068817183 0.447691262
0.189120561 0.079064094 0.439089388
0.283997387 0.090449259 0.432637721
0.371284097 0.105376445 0.416571468
0.457811445 0.119544744 0.405186713
0.634282231 0.117647000 0.443516999
0.843643427 0.127514079 0.497027546
0.016065989 0.131435990 0.429348707
0.092852473 0.131941542 0.427956730
0.184566468 0.137381345 0.427071601
0.274256647 0.142061830 0.416571468
0.357495368 0.148386821 0.405945718
0.453004420 0.156356737 0.403668553
0.626059651 0.162934989 0.440860212
0.831752002 0.169765979 0.491966784
0.048703346 0.211764738 0.400253117
0.104617082 0.212903187 0.409740716
0.177356079 0.216951102 0.402403355
0.262365818 0.215306893 0.397596478
0.349652261 0.220113993 0.397596359
0.443770200 0.222896829 0.395572186
0.626186013 0.241366193 0.439089388
0.845414162 0.263630658 0.500948548
0.074762985 0.292726278 0.389500469
0.125489816 0.289943129 0.394180834
0.190765277 0.291967362 0.389373720
0.272106260 0.294370383 0.387349457
0.357748300 0.295129478 0.390891701
0.461226851 0.301075518 0.394433558
0.642251730 0.326375574 0.442125261
0.842124939 0.365338266 0.499304235
0.134092450 0.373434454 0.392915666
0.159266368 0.373813987 0.394054115
0.226312742 0.376597285 0.401518285
0.311701626 0.385705143 0.408728659
0.412144393 0.394939929 0.417963445
0.523972094 0.404807150 0.435294151
0.692220032 0.434155643 0.467425525
0.866919875 0.480581760 0.524351776
0.208981708 0.473624468 0.424920708
0.235926464 0.473497450 0.421125650
0.303984731 0.481087714 0.427451074
0.386843979 0.493611723 0.441366374
0.504743874 0.519924343 0.472485900
0.604554236 0.524604440 0.481593996
0.748766541 0.551549733 0.505882502
0.900442660 0.602656543 0.555850506
0.350411087 0.643769979 0.494623512
0.384060591 0.638582945 0.495002985
0.429475188 0.647058964 0.495762289
0.504997075 0.650474429 0.509804010
0.587602913 0.658064425 0.517394364
0.682226479 0.662744939 0.519418180
0.780012846 0.673118234 0.528399765
0.922707021 0.720683277 0.581783652
0.581530273 0.837824225 0.606072009
0.600505948 0.839721441 0.605692685
0.621378601 0.840860128 0.613788605
0.660341501 0.843643427 0.618469119
0.713092864 0.848450422 0.618848681
0.787602484 0.855534434 0.619607568
0.874130547 0.862618387 0.633270323
0.958633780 0.871094406 0.651612997
0.109424278 0.109424278 0.618469238
0.170525283 0.108791701 0.616192579
0.261353374 0.111068994 0.615433276
0.367868543 0.112713285 0.607843161
0.482858747 0.115117095 0.596457779
0.596584260 0.108538732 0.582163155
0.708285511 0.105881996 0.587096870
0.864389837 0.132194966 0.595192969
0.102087274 0.165970787 0.595572114
0.168374091 0.161669835 0.608475745
0.256293803 0.165591240 0.602782905
0.361922801 0.167615086 0.593548596
0.471094161 0.163694009 0.587223411
0.589753151 0.159772098 0.574952304
0.695129395 0.156862810 0.566729784
0.852498293 0.174826190 0.590638936
0.111701570 0.249715090 0.588614643
0.166603282 0.251992375 0.589626729
0.250221372 0.252877980 0.584693313
0.359519184 0.251359791 0.580771744
0.470967650 0.249715090 0.575964689
0.586590707 0.245414525 0.570524812
0.702593088 0.243643299 0.568121493
0.857811272 0.272991717 0.594180942
0.135356918 0.343200624 0.570904136
0.177356079 0.341429293 0.569765508
0.259962022 0.344085842 0.570651352
0.361796200 0.339784980 0.562428951
0.469955742 0.339784980 0.566982865
0.582921982 0.334345281 0.561543167
0.697027147 0.335357189 0.561416864
0.862238884 0.372042805 0.600759089
0.192789465 0.442251474 0.560404539
0.228842556 0.443643034 0.570272088
0.304996848 0.439974576 0.567488611
0.388741553 0.438456774 0.563567281
0.491966933 0.435420781 0.565844297
0.599241018 0.436559021 0.566729784
0.722454071 0.438456774 0.573940337
0.872738779 0.488045603 0.619101882
0.287665963 0.541302741 0.573561132
0.315116972 0.546489477 0.580898523
0.365085453 0.543706059 0.579126835
0.450221300 0.546616077 0.584566832
0.550916910 0.556609452 0.592662811
0.655914068 0.561037064 0.595698535
0.770904303 0.576723874 0.612650275
0.911321759 0.627956808 0.657811344
0.378621280 0.652118564 0.586464286
0.397849560 0.653763235 0.588994086
0.446046531 0.652245402 0.590385854
0.520430267 0.659835637 0.597722948
0.613156199 0.666540563 0.609993815
0.721948028 0.694496810 0.638582945
0.816192508 0.698545516 0.651486576
0.928525925 0.740543783 0.687033355
0.589373708 0.837950587 0.688551426
0.602656484 0.842884123 0.692346334
0.632637501 0.839595318 0.689183831
0.684123874 0.841745734 0.697912574
0.753573477 0.850600898 0.715622842
0.807210624 0.857558310 0.725996077
0.877040029 0.862618446 0.727514029
0.957621336 0.875648618 0.750284612
0.176723644 0.180771783 0.807210565
0.232890517 0.179759338 0.803668141
0.325237006 0.181404054 0.802529693
0.440354109 0.182036623 0.804553747
0.561796188 0.183427945 0.796584189
0.689690113 0.184187040 0.792283475
0.821378946 0.184440061 0.788614690
0.940543592 0.191524580 0.777229548
0.181277335 0.228715882 0.786716998
0.239215627 0.223909169 0.792536139
0.321695358 0.227198094 0.798229039
0.443010628 0.227071494 0.789879858
0.562302232 0.228589684 0.791018188
0.684629738 0.225426778 0.785325766
0.812270582 0.222264454 0.778114855
0.937634110 0.230107605 0.770271838
0.216951132 0.311574876 0.781657338
0.254016608 0.313219577 0.791777134
0.336875230 0.314863980 0.790765464
0.453510165 0.312080979 0.785578549
0.566983044 0.314990520 0.784440219
0.695003092 0.317520618 0.783428073
0.818596065 0.317141056 0.781657338
0.938393533 0.317646980 0.772928357
0.275395185 0.413282573 0.777735531
0.312966406 0.417330801 0.774952650
0.382795483 0.414547801 0.776470423
0.472865075 0.418469429 0.773687363
0.582289696 0.415433139 0.772169232
0.701075077 0.409867346 0.770145476
0.816698432 0.410626173 0.764199376
0.931562245 0.415053874 0.762428582
0.358633578 0.519923985 0.780139148
0.385325611 0.522453964 0.777988672
0.440606952 0.525110781 0.772675455
0.520303428 0.522327781 0.771789730
0.613029480 0.520809948 0.767741561
0.718785346 0.524098575 0.768121183
0.827830315 0.524098575 0.767235696
0.933839202 0.527893782 0.770904422
0.445540488 0.630613327 0.780265450
0.465021938 0.633269787 0.780645132
0.508159399 0.635041237 0.774952531
0.578114927 0.633649409 0.774825811
0.657052338 0.639468491 0.774952412
0.743453264 0.637571275 0.776850224
0.839974761 0.641492784 0.778747201
0.934471667 0.646932244 0.779000521
0.512207508 0.743453443 0.789373398
0.534598291 0.743706346 0.783427954
0.566097140 0.741302788 0.778368115
0.625553310 0.742820621 0.782795846
0.692725837 0.743327081 0.779759586
0.772422373 0.745730162 0.785831869
0.851739347 0.748893023 0.792536139
0.939784706 0.769765854 0.802529633
0.602023780 0.862112582 0.803415358
0.615559995 0.860847414 0.797343373
0.643516660 0.858823478 0.801517606
0.687412560 0.858190596 0.804806769
0.749145925 0.859202802 0.805692375
0.821125746 0.863883495 0.815180421
0.888804495 0.876913488 0.838203728
0.945351005 0.893484592 0.855534375
