Assets/Shaders/EldamarStudio/100 Sci-Fi LUTs Pack/LUTs/cube/Fastbald LUT.cube
DOMAIN_MIN 0 0 0
DOMAIN_MAX 1 1 1
LUT_3D_SIZE 32
0.000000000 0.000000000 0.000000000
0.000000000 0.000000000 0.000000000
0.000000000 0.002150774 0.000000000
0.001265161 0.002656839 0.000000000
0.007716997 0.000379548 0.000758999
0.038076993 0.003415935 0.006830999
0.065907322 0.001391678 0.007843000
0.094876409 0.000000000 0.007843000
0.125996098 0.000000000 0.007084098
0.159392521 0.000000000 0.004048485
0.198608607 0.000000000 0.006831129
0.234029248 0.002024256 0.007843000
0.268564284 0.003922000 0.006704646
0.304997057 0.003922000 0.003668968
0.341429800 0.003922000 0.000632584
0.377861977 0.001518196 0.000000000
0.417330354 0.001518192 0.001518192
0.459835112 0.003922000 0.004554414
0.502340019 0.003921997 0.007590029
0.536496103 0.001138643 0.005060352
0.575585485 0.001897740 0.002024260
0.620114267 0.003922000 0.000000000
0.668437958 0.003922000 0.000000000
0.710942805 0.003922000 0.000000000
0.758001506 0.003922000 0.000000000
0.806578279 0.003922000 0.000000000
0.854649067 0.003415936 0.000000000
0.900189400 0.000379552 0.000000000
0.948386550 0.000000000 0.000000000
0.981024146 0.000000000 0.000000000
0.996078014 0.000000000 0.001770991
0.996078014 0.000000000 0.007843000
0.003036387 0.000000000 0.000000000
0.000000000 0.000000000 0.000000000
0.000000000 0.000000000 0.000000000
0.002529999 0.000885613 0.001265161
0.010373157 0.000000000 0.002656839
0.038076993 0.000379548 0.000758999
0.068437643 0.003415935 0.001771000
0.097912796 0.001391679 0.001771000
0.129032493 0.000000000 0.002530097
0.162428916 0.000000001 0.004048487
0.201644257 0.002909870 0.009741000
0.237065360 0.001012131 0.004807135
0.270462036 0.002024257 0.002909645
0.305250049 0.003668968 0.004174968
0.344465405 0.000885613 0.006704584
0.378494382 0.000885613 0.001265004
0.417330354 0.000000000 0.000000000
0.459202707 0.000885613 0.001518189
0.499304384 0.000885613 0.004554416
0.539025784 0.000885612 0.002024030
0.578621089 0.001897740 0.002783353
0.622137964 0.003922000 0.002024259
0.668564439 0.003922000 0.000126512
0.713978410 0.003922000 0.003036387
0.761037171 0.001644712 0.000759099
0.808222592 0.002277286 0.001391672
0.854649067 0.003415936 0.002530323
0.900189400 0.000379552 0.000000000
0.945730448 0.002656833 0.002656833
0.979759276 0.001265170 0.001265170
0.994307041 0.001770991 0.000000000
0.990006030 0.006072000 0.001771000
0.003922000 0.000000000 0.000000000
0.003036387 0.000000000 0.000000000
0.002150774 0.000000000 0.004300999
0.007210773 0.001265161 0.004300999
0.016951319 0.001771226 0.005313226
0.040733706 0.000000000 0.000506065
0.070588410 0.000379548 0.004300999
0.099304467 0.001771226 0.001012003
0.129918098 0.000000000 0.001517998
0.163314521 0.000000001 0.005945709
0.200379640 0.000759097 0.003289226
0.237824261 0.001771226 0.005313226
0.272485971 0.000000000 0.002276998
0.307147294 0.001771226 0.005566226
0.344718397 0.000632584 0.002909578
0.381530553 0.002150774 0.005186778
0.416445136 0.000632582 0.000632582
0.457684875 0.000000000 0.000632576
0.498671949 0.000000000 0.003668967
0.535990179 0.000000000 0.003289417
0.577356279 0.000000000 0.000253034
0.620872855 0.001771226 0.001771226
0.666540205 0.001771226 0.000000000
0.714104891 0.001771226 0.001012130
0.759772301 0.003795486 0.001644712
0.809740365 0.000759102 0.000000000
0.855787456 0.002277290 0.001771226
0.898039162 0.002530326 0.000379552
0.945730448 0.002656833 0.002656833
0.978873909 0.002150783 0.002150783
0.995192647 0.000000000 0.000885608
0.990385771 0.003542000 0.002150774
0.003922000 0.003795161 0.000000000
0.002656839 0.006325160 0.000000000
0.002656839 0.006325160 0.001771000
0.008981999 0.006325160 0.009108162
0.022643998 0.009361450 0.007969614
0.044781774 0.008096064 0.001012001
0.074889638 0.008855159 0.002529999
0.103605695 0.006325160 0.005819164
0.132448092 0.006325160 0.000506065
0.165844515 0.006325159 0.005059998
0.200885594 0.005059999 0.003289162
0.237318337 0.003795161 0.001265161
0.272612482 0.003795161 0.000126517
0.309171110 0.003542129 0.005313001
0.346615970 0.002529999 0.001265006
0.380518436 0.003668643 0.001138643
0.419481218 0.003668969 0.002403808
0.455913961 0.001897577 0.000000000
0.497153819 0.002530002 0.002403807
0.535357714 0.005059999 0.002656839
0.574320316 0.002529999 0.002024260
0.617837191 0.001518129 0.000000000
0.663504183 0.001138649 0.000000000
0.712080956 0.000000000 0.000000000
0.760910690 0.001012127 0.000000000
0.805439591 0.002530328 0.000000000
0.856040180 0.000000000 0.000000000
0.897027314 0.002277287 0.000000000
0.943200409 0.005186839 0.001391671
0.980139077 0.004680783 0.002150783
0.994686604 0.001644617 0.000000000
0.990891814 0.001265161 0.002656839
0.003922000 0.016319092 0.000000000
0.000885613 0.021632092 0.000000000
0.000758999 0.023023546 0.000000000
0.005945612 0.023403093 0.002656613
0.023023546 0.023403093 0.011006001
0.047311544 0.026438707 0.001897614
0.078810960 0.029095417 0.000000000
0.109298147 0.027957095 0.001265160
0.137761086 0.024162093 0.003162905
0.171157494 0.024162091 0.000126518
0.204933405 0.021631770 0.003289322
0.239595026 0.018975351 0.003542452
0.274889201 0.017457543 0.002783356
0.308285594 0.017963544 0.000253032
0.347501665 0.015306674 0.000379548
0.381277531 0.014674090 0.000000000
0.416191906 0.013535736 0.000000000
0.458190680 0.011765054 0.000000000
0.494623542 0.014800678 0.000000000
0.534219086 0.020240191 0.000000000
0.574446738 0.019101642 0.000000000
0.615559816 0.014421220 0.000379548
0.661100984 0.011385578 0.000253036
0.709424853 0.008349186 0.000000000
0.759519279 0.007969638 0.000379548
0.808095872 0.006831090 0.000379548
0.850727201 0.006451639 0.000379548
0.896268308 0.006451639 0.000379548
0.941808760 0.009867080 0.000000000
0.977735341 0.011258545 0.000000000
0.998102427 0.009993615 0.000000000
0.988994002 0.006957997 0.000000000
0.003922000 0.052751865 0.000000000
0.000885613 0.052751865 0.000000000
0.004300999 0.051613092 0.000000000
0.009360999 0.051613089 0.000000000
0.019987158 0.053763866 0.001897614
0.050347928 0.053763866 0.004934001
0.079696573 0.054269802 0.000885613
0.110562980 0.054775868 0.000000000
0.140417248 0.055281863 0.000506066
0.171157509 0.060594864 0.000126519
0.207463726 0.060594864 0.005818998
0.239342436 0.060088798 0.003289068
0.271853566 0.060721219 0.000506065
0.305249959 0.063503928 0.000253032
0.338646293 0.069575928 0.003289416
0.380265653 0.069322862 0.001012131
0.414674312 0.069322862 0.000000000
0.449589044 0.069449507 0.000000000
0.491587907 0.072485842 0.000000000
0.533586681 0.075522155 0.000000000
0.577482700 0.075268991 0.000000000
0.620999277 0.072738804 0.001012128
0.664136589 0.072106354 0.003289423
0.709677815 0.069069959 0.000253031
0.755724251 0.070588149 0.002277288
0.805059969 0.067552134 0.003415935
0.853637099 0.060973927 0.003415935
0.896268308 0.058064796 0.003415935
0.941808760 0.050094977 0.000759102
0.974952400 0.043516666 0.000000000
0.994054377 0.036811940 0.000000000
0.995065987 0.031245997 0.000000000
0.003922000 0.089183994 0.005059999
0.003415935 0.084123999 0.002530322
0.002530322 0.084123999 0.000379548
0.012903322 0.082732320 0.000000000
0.027071413 0.084123999 0.000000000
0.057432186 0.084123999 0.000885613
0.087792315 0.084123999 0.001391678
0.119797789 0.085768700 0.000000000
0.151043639 0.088172317 0.002277094
0.181403980 0.094244316 0.007590319
0.215054065 0.099557310 0.000759000
0.247438312 0.099557310 0.004807258
0.280075967 0.099557310 0.001391678
0.314864039 0.101201668 0.000000000
0.348260373 0.104996957 0.000759094
0.386464387 0.108665146 0.001391678
0.425806701 0.111827634 0.000000000
0.460088849 0.113851637 0.000000000
0.500696003 0.114990294 0.000000000
0.543200791 0.120556347 0.000000000
0.585705459 0.121694990 0.001897740
0.629601538 0.120303318 0.003542192
0.672232747 0.120303318 0.006325196
0.717773438 0.119670734 0.003289418
0.767868519 0.118911639 0.000253034
0.812523603 0.121694982 0.004174667
0.860215127 0.118152887 0.005945742
0.906767845 0.115116775 0.003922000
0.949399054 0.109297812 0.001265167
0.979000270 0.105502635 0.000000000
0.994686663 0.102213562 0.000000000
0.996078014 0.101075277 0.000000000
0.002277292 0.122327402 0.004554003
0.002277292 0.117899694 0.003162679
0.008855285 0.114484400 0.003415934
0.017710444 0.117014408 0.000379547
0.037824087 0.117014408 0.000000000
0.068184860 0.114484400 0.000000000
0.095255993 0.116128691 0.003288997
0.123972110 0.114484400 0.003288997
0.155851096 0.119038790 0.001770999
0.185325727 0.125996411 0.006451777
0.218595892 0.128779411 0.004680838
0.251612991 0.134092405 0.000379548
0.284250289 0.136369407 0.003415936
0.320936054 0.137381405 0.001897676
0.357115388 0.139026105 0.003288997
0.390385687 0.142061874 0.000000000
0.429854870 0.145097882 0.001518192
0.467046529 0.151043385 0.002277122
0.506515026 0.153067410 0.003288995
0.548766792 0.155344397 0.001644708
0.591271460 0.159266114 0.001897740
0.633776248 0.161290109 0.002909872
0.676407456 0.162681594 0.004554003
0.721947908 0.164199397 0.003036194
0.770398080 0.164199397 0.001644712
0.820619881 0.164199397 0.000000000
0.863630772 0.166476697 0.004554003
0.909930110 0.164578944 0.002656747
0.951549649 0.163820118 0.001265167
0.984819710 0.158001110 0.004933705
0.997722745 0.158001110 0.003162714
0.997722745 0.160278395 0.001644708
0.000000000 0.151929095 0.001517998
0.000000001 0.149651796 0.000000000
0.009361097 0.148133963 0.001391678
0.029095348 0.146616086 0.002656839
0.050727189 0.152308643 0.000000000
0.080328874 0.147375181 0.000000000
0.106388092 0.147374868 0.003542000
0.130044118 0.147880808 0.007842999
0.158127993 0.146363184 0.007842999
0.185452402 0.155471578 0.001770999
0.218595952 0.157369092 0.002909870
0.251233220 0.159899101 0.001897744
0.285009384 0.165212005 0.000379548
0.321189135 0.171284065 0.003162904
0.359645486 0.172296196 0.005692579
0.393421680 0.175458476 0.003036005
0.426818460 0.178494275 0.000759096
0.468817592 0.182163075 0.003162904
0.508792102 0.188235089 0.006072031
0.550284803 0.188741088 0.005060352
0.592789471 0.190638825 0.003162904
0.634535134 0.193928182 0.002909872
0.677166402 0.200000182 0.000000000
0.722706974 0.203668386 0.000000000
0.769765556 0.205186188 0.000759096
0.818342626 0.205186188 0.000000000
0.865908027 0.206198186 0.000506064
0.908411980 0.206704184 0.000759096
0.950537503 0.207083926 0.000000000
0.977609158 0.208602220 0.003036104
1.000000000 0.203542084 0.009234914
1.000000000 0.203542084 0.003162904
0.000000002 0.179253489 0.007589998
0.000000005 0.179253489 0.001518000
0.010752780 0.181277752 0.000000001
0.034661811 0.181530818 0.000126517
0.068943962 0.179633051 0.000000000
0.093231976 0.182669431 0.000000000
0.120303318 0.180265665 0.000000000
0.142567903 0.179126978 0.003541995
0.164200008 0.179759592 0.007842996
0.194560021 0.182795972 0.007842997
0.227704123 0.188994497 0.004680870
0.259076476 0.190765500 0.001897744
0.290701926 0.192156851 0.000000001
0.324225515 0.195572078 0.000126516
0.357621878 0.201644853 0.000126516
0.393675089 0.207463980 0.000253002
0.428336680 0.211891279 0.000000003
0.465781182 0.215559483 0.000126518
0.517394483 0.221631497 0.000126518
0.557368875 0.222137496 0.003036355
0.598861456 0.224035233 0.002024259
0.640354097 0.227071628 0.000126516
0.680202007 0.230360970 0.000000002
0.725743234 0.236432984 0.000000000
0.771283746 0.240101188 0.002277287
0.818342626 0.241618991 0.002403811
0.865908027 0.242630988 0.000506066
0.908411980 0.248702973 0.003542448
0.956230283 0.243896008 0.001138653
0.979633510 0.247058719 0.000000002
0.988361955 0.251992404 0.000379518
1.000000000 0.249082506 0.000126516
0.002909871 0.209487736 0.004933871
0.008728869 0.209487736 0.001771000
0.021631870 0.209487736 0.002150774
0.040101156 0.211764708 0.001644709
0.068690673 0.212776408 0.000000000
0.105628997 0.215812802 0.000000000
0.127387315 0.213788539 0.000000000
0.153953105 0.210752577 0.000000000
0.177482873 0.209487736 0.002024001
0.203541890 0.210373357 0.002024001
0.230992734 0.213408977 0.002024001
0.264389873 0.217457265 0.003036386
0.294497371 0.220619872 0.001771227
0.324352026 0.225426778 0.000000000
0.357748389 0.228842705 0.000000000
0.391144782 0.232511073 0.004806995
0.436179489 0.238076985 0.004301194
0.479316682 0.242504448 0.003542284
0.517268002 0.246299744 0.005818993
0.557748377 0.252371728 0.000252996
0.597216725 0.256419718 0.001012129
0.638709426 0.260468006 0.001012128
0.680328488 0.263630867 0.002783358
0.725869715 0.269702882 0.000000000
0.771410286 0.275774866 0.000000000
0.816950977 0.279443413 0.002403802
0.864010274 0.280961603 0.002909871
0.911321819 0.282226592 0.003542448
0.953826487 0.282985598 0.003922000
0.985958338 0.277419627 0.002909871
0.995066404 0.279949754 0.002024262
0.997090161 0.282985598 0.000000000
0.005945740 0.239848495 0.007969996
0.012017740 0.245920241 0.002909869
0.028715996 0.243896499 0.000126518
0.049462318 0.243896499 0.004427744
0.072612248 0.245793760 0.003668545
0.107146934 0.247185439 0.002024256
0.135483831 0.249209180 0.002024256
0.160025209 0.246173218 0.000379548
0.187350094 0.244655401 0.000000000
0.212903276 0.245920241 0.000000001
0.242125377 0.246805623 0.002024256
0.265401751 0.245793760 0.000000000
0.298798651 0.248829857 0.001897744
0.328147024 0.253763288 0.000000000
0.359772116 0.256799668 0.000000000
0.403289288 0.265907705 0.000758999
0.435167491 0.267425507 0.003795004
0.481973112 0.272485495 0.002530320
0.516761720 0.276913226 0.005566288
0.555724144 0.282732248 0.002276996
0.598987937 0.286906958 0.000000000
0.637697518 0.292852491 0.000000000
0.678431273 0.297153741 0.001897744
0.725869715 0.305123508 0.000759096
0.769386530 0.309171259 0.000000000
0.821884513 0.313851923 0.000000000
0.869070113 0.316888154 0.001897744
0.911574841 0.318405986 0.001897744
0.952814341 0.320430219 0.001897744
0.984693110 0.320430219 0.005439725
0.999114394 0.315749615 0.005060358
0.996078014 0.318405986 0.002024256
0.005566002 0.272485971 0.008349358
0.013915000 0.278178245 0.004554356
0.031878415 0.280961394 0.001771226
0.057811316 0.280328989 0.001391646
0.083238542 0.279569983 0.006325098
0.114357628 0.278052002 0.003289292
0.139911309 0.279443324 0.002783356
0.167236045 0.281467348 0.002277292
0.193042442 0.279949546 0.000000000
0.219607860 0.282985151 0.000000002
0.250980735 0.284250289 0.002909871
0.277546257 0.282226264 0.003036388
0.302213997 0.280328989 0.000000000
0.335610449 0.283364654 0.000253032
0.366856247 0.286401063 0.001138644
0.405945569 0.293232262 0.001138644
0.447691649 0.302719623 0.001138644
0.479949176 0.303984612 0.000506068
0.516887963 0.310056627 0.002530321
0.557242036 0.314990252 0.001138643
0.601644158 0.321442008 0.000000000
0.645161390 0.324478149 0.001012128
0.682226658 0.330423623 0.001012132
0.730803430 0.338519901 0.000000000
0.777103186 0.345350981 0.000000000
0.819987237 0.348386943 0.000000000
0.878178179 0.351423204 0.000000000
0.916508496 0.354458839 0.000000000
0.955597401 0.356356472 0.000000000
0.982795358 0.358760267 0.001264984
0.999114394 0.359645665 0.005566002
0.996078014 0.357115269 0.002783356
0.000000000 0.308918059 0.000000000
0.013156063 0.308918059 0.000759032
0.033902545 0.311068833 0.000000000
0.061480157 0.313851923 0.001265161
0.095129579 0.316508055 0.003795484
0.128525972 0.310436070 0.000759097
0.151296362 0.309171110 0.000000000
0.176343739 0.310815752 0.000000000
0.202403158 0.313345999 0.000253032
0.223655552 0.316381603 0.000253034
0.256040633 0.319164932 0.002656839
0.285642236 0.318405837 0.003668968
0.313852072 0.317014098 0.002783356
0.344212055 0.317014068 0.000000000
0.377609193 0.320050478 0.003036384
0.410752803 0.322833836 0.003668968
0.446173370 0.328652859 0.003668968
0.482985556 0.337128043 0.003289424
0.522454023 0.343200058 0.000253032
0.564958751 0.347248405 0.000000000
0.610752463 0.353573769 0.000253032
0.656546354 0.360657960 0.001012128
0.696268499 0.363946557 0.003795488
0.744718790 0.370145053 0.000759096
0.793042481 0.377988338 0.000253032
0.837950647 0.384566694 0.000505999
0.878431141 0.387855977 0.000000000
0.923972249 0.390891612 0.000000000
0.963946760 0.391271055 0.000000000
0.988741159 0.392536283 0.000000000
0.999367416 0.396078438 0.000759032
0.996331036 0.399114043 0.000759032
0.000000000 0.345350802 0.000000000
0.024288775 0.345350802 0.009108387
0.046046823 0.347501576 0.003415636
0.071600147 0.349272788 0.001265161
0.101328090 0.350284666 0.003922000
0.137634352 0.352940798 0.003795481
0.155850738 0.349399120 0.000759094
0.182163119 0.350284487 0.000000000
0.212017611 0.351802468 0.000759096
0.235800326 0.349778742 0.003289415
0.262871683 0.349905223 0.000379546
0.293484986 0.350537807 0.000632584
0.322074503 0.352182239 0.000632584
0.350284845 0.356483221 0.000000000
0.380644798 0.356483221 0.000000000
0.411638170 0.357115805 0.000632584
0.448703378 0.360784382 0.000632584
0.488678098 0.367488801 0.000632584
0.525490403 0.373560816 0.000253032
0.570524812 0.385198802 0.000000000
0.613535464 0.389753133 0.001897740
0.657305241 0.394054502 0.003289416
0.699304104 0.397343695 0.003795488
0.744845331 0.406451344 0.000759096
0.791018248 0.410373092 0.002277288
0.837191522 0.416065812 0.004680734
0.881467462 0.421505392 0.005565995
0.927007854 0.427324355 0.000000000
0.964579165 0.427703798 0.000000000
0.985705197 0.425933033 0.000000000
0.995192945 0.427704185 0.002656599
0.999367416 0.435546786 0.009867410
0.000000000 0.384187400 0.000000000
0.031498961 0.384187400 0.001897587
0.057937961 0.384187400 0.004554200
0.083744153 0.386970431 0.001265161
0.110309541 0.387729317 0.003542452
0.136622056 0.386717469 0.001518196
0.169766113 0.389500082 0.003795482
0.189879775 0.386464477 0.002403804
0.220240176 0.387223393 0.001644708
0.247817993 0.385832071 0.001391679
0.277419657 0.385705590 0.001012129
0.300696045 0.385705590 0.000000000
0.329917610 0.385705590 0.000000000
0.359013289 0.388994545 0.000000000
0.391524553 0.391144782 0.000000000
0.426691592 0.391144782 0.000000000
0.458570570 0.392662972 0.000000000
0.497786313 0.398481995 0.000000000
0.535989940 0.406324774 0.000000000
0.575964391 0.413156420 0.000000000
0.619607508 0.423402637 0.001897740
0.663124323 0.429474920 0.003922000
0.707273781 0.435420752 0.004048480
0.755091727 0.442251712 0.005566091
0.796078265 0.449082583 0.000253000
0.841365933 0.452245444 0.001518196
0.885389090 0.456293613 0.003036004
0.925237179 0.458570600 0.000759007
0.972422361 0.461732775 0.000000000
0.987602770 0.465275198 0.000000000
0.993927956 0.465022564 0.000000000
1.000000000 0.469576389 0.004554200
0.010626183 0.425174356 0.003035997
0.036432385 0.423656166 0.000000000
0.067045964 0.423656166 0.001518192
0.094370350 0.422390997 0.000253031
0.120935738 0.424920708 0.003162807
0.142188132 0.424162090 0.003542062
0.172042951 0.424668044 0.001012130
0.202024177 0.424414694 0.002403808
0.227071285 0.422897071 0.002403808
0.256673008 0.423656166 0.000126517
0.287033737 0.423656166 0.001518192
0.317394227 0.425174356 0.001518192
0.342062265 0.425174356 0.000379548
0.372422397 0.424668282 0.000000000
0.404554009 0.423908740 0.000000000
0.437318146 0.424541175 0.000000000
0.469196379 0.429095358 0.001518192
0.503225982 0.431499183 0.001518192
0.541809022 0.437950402 0.001518191
0.582795560 0.445793897 0.000000000
0.625679851 0.453763813 0.001897740
0.670208633 0.461859554 0.003922000
0.716002703 0.470335364 0.003795488
0.760404825 0.476407379 0.004048101
0.806704462 0.482479364 0.003289004
0.846173167 0.488551378 0.000000000
0.889437258 0.492726266 0.000000000
0.924857855 0.495762378 0.000000000
0.970398366 0.495382518 0.000000000
0.992156982 0.498671591 0.000000000
0.993927956 0.503858566 0.000000000
1.000000000 0.504490972 0.000000000
0.031245977 0.465148985 0.008475575
0.050094552 0.464010149 0.001771002
0.073750541 0.463757098 0.001518198
0.104743719 0.462491930 0.002656839
0.130929559 0.460214645 0.000000000
0.151928917 0.463251024 0.005566008
0.180771619 0.463757098 0.002783002
0.210120261 0.462744981 0.000000000
0.236812085 0.460594207 0.000000001
0.264136493 0.463630587 0.000000002
0.295635700 0.463124543 0.003542284
0.327387810 0.465148777 0.003922000
0.360278249 0.467678964 0.004048346
0.390891999 0.467426002 0.001012023
0.421631515 0.461732864 0.000632576
0.450727165 0.460467696 0.000000001
0.479569763 0.464389294 0.002150606
0.508791685 0.470967531 0.003289424
0.545224547 0.470967531 0.003289421
0.585958362 0.478051901 0.001138643
0.629728198 0.485895276 0.001897740
0.674383700 0.495256513 0.003289424
0.722707391 0.501455069 0.003289424
0.762681901 0.508033097 0.000759096
0.807716548 0.514105141 0.001264990
0.852751374 0.520177126 0.000632576
0.891208470 0.525237143 0.000632576
0.924604833 0.533965945 0.000632576
0.967362344 0.533080280 0.000000000
0.991271198 0.532953739 0.000632576
0.993927956 0.535989881 0.000000000
1.000000000 0.539025545 0.000000000
0.049462020 0.495509058 0.011511961
0.070714407 0.501581073 0.002403588
0.087412760 0.504743814 0.000000006
0.112713337 0.504996836 0.000253034
0.146109968 0.502719522 0.000000000
0.164325967 0.505755901 0.000000000
0.192915663 0.506262004 0.000506002
0.223276421 0.506262004 0.000000002
0.251865983 0.506008983 0.000000001
0.276280552 0.506135464 0.000000005
0.312333763 0.503352165 0.005818994
0.344212532 0.504617333 0.005566288
0.375964642 0.507653415 0.005060350
0.409108043 0.509930074 0.007084026
0.442504376 0.506894469 0.004048422
0.468437582 0.506008983 0.001265166
0.494750202 0.509044945 0.003035998
0.523972154 0.513472438 0.006325038
0.560404956 0.510435998 0.000253032
0.596837699 0.513219416 0.000253032
0.637571454 0.516761780 0.001897738
0.679317117 0.523340046 0.002909869
0.719671011 0.534851491 0.000253032
0.762175798 0.543959916 0.000253032
0.804427505 0.550538003 0.004553991
0.847438276 0.556609988 0.005945678
0.888172090 0.561670005 0.003668968
0.921568453 0.561670005 0.003668965
0.960278451 0.562429070 0.001012135
0.987855911 0.562175989 0.001771215
0.999494016 0.563314438 0.002783357
1.000000000 0.566350043 0.000000000
0.064895369 0.550917089 0.006198995
0.083365105 0.548639715 0.011005971
0.104617491 0.552561522 0.004048362
0.123592883 0.554332733 0.001518196
0.151296899 0.552814543 0.000000000
0.176723704 0.551043332 0.000000000
0.202530026 0.551549375 0.002530322
0.234282061 0.549905121 0.001138649
0.268058121 0.549525678 0.002277094
0.302466393 0.551549375 0.008349356
0.327261090 0.559772253 0.000252998
0.357621610 0.556736350 0.002276996
0.388361663 0.558254480 0.001138643
0.421505094 0.561037123 0.002530028
0.452371746 0.560531139 0.004554422
0.485768169 0.557495534 0.003922000
0.515749574 0.558633924 0.002783357
0.546236694 0.562808335 0.004427777
0.578368008 0.564073443 0.000505999
0.614800751 0.561037123 0.000000000
0.649335742 0.564073503 0.000000000
0.689183891 0.569133580 0.001138643
0.730549991 0.579379857 0.000000000
0.773054779 0.588488281 0.000000000
0.817836821 0.593042672 0.000000000
0.858064651 0.598608792 0.003668668
0.897280395 0.604174674 0.003415936
0.935230792 0.606451392 0.001138643
0.968627155 0.603795230 0.001138643
0.990132868 0.603668749 0.000000000
0.998229027 0.604554117 0.001138643
0.994433999 0.607589781 0.000000000
0.080075733 0.597216725 0.002024260
0.100189760 0.597975791 0.004301263
0.118659019 0.599240959 0.015053993
0.139911413 0.599747002 0.007716832
0.160784334 0.599494040 0.003035997
0.183554932 0.599493980 0.000000000
0.216572046 0.598987937 0.000632582
0.245540708 0.598987937 0.003668968
0.278684288 0.597723067 0.001897740
0.315875977 0.600758731 0.007590485
0.344591737 0.603921354 0.004933870
0.370904237 0.604933739 0.000000000
0.400505900 0.604174852 0.001138644
0.433649480 0.606957495 0.001897740
0.464009821 0.606957495 0.003289416
0.494876564 0.608349264 0.002024260
0.531308889 0.606831431 0.003542452
0.566097379 0.608855188 0.003922000
0.598987818 0.610626459 0.002150772
0.633017242 0.609993815 0.001897740
0.667552233 0.610752463 0.001897740
0.701960742 0.612776697 0.000885612
0.742441416 0.619101465 0.000000000
0.781403840 0.626438618 0.000000000
0.822390854 0.632890761 0.000000000
