Assets/Shaders/EldamarStudio/100 Sci-Fi LUTs Pack/LUTs/cube/Fastbald LUT.cube
LUT_3D_SIZE 5
DOMAIN_MIN 0.000000 0.000000 0.000000
DOMAIN_MAX 0.903226 0.903226 0.903226
0.000000000 0.000000000 0.000000000
0.094876409 0.000000000 0.007843000
0.341429800 0.003922000 0.000632584
0.620114267 0.003922000 0.000000000
0.948386550 0.000000000 0.000000000
0.002277292 0.122327402 0.004554003
0.123972110 0.114484400 0.003288997
0.357115388 0.139026105 0.003288997
0.633776248 0.161290109 0.002909872
0.951549649 0.163820118 0.001265167
0.000000000 0.345350802 0.000000000
0.182163119 0.350284487 0.000000000
0.380644798 0.356483221 0.000000000
0.657305241 0.394054502 0.003289416
0.964579165 0.427703798 0.000000000
0.098292246 0.639721513 0.000000000
0.259709239 0.648577094 0.000632580
0.477166086 0.650474370 0.002909872
0.717141092 0.658317327 0.002909872
0.973940432 0.674889266 0.000000000
0.196331635 0.931182742 0.005186845
0.324098676 0.929917574 0.005566128
0.530929804 0.933839619 0.000000000
0.765717804 0.927260756 0.000000000
0.988614798 0.921947777 0.011891142
0.002277292 0.006198711 0.093231693
0.099177681 0.000000000 0.094244406
0.335863531 0.001644708 0.115116984
0.609614253 0.000000000 0.112839699
0.943832755 0.000000000 0.102087401
0.000000000 0.104364693 0.093231693
0.125616401 0.109930396 0.098165400
0.339784682 0.120050691 0.100442693
0.618469357 0.120683275 0.095256276
0.951296449 0.097786278 0.089437097
0.000000000 0.334850967 0.082732275
0.173687696 0.340796798 0.086400986
0.376723379 0.343074083 0.085389115
0.649209380 0.381024510 0.060847823
0.960404932 0.415306538 0.036179807
0.017583586 0.638709366 0.003794997
0.237824112 0.641745508 0.006072286
0.469576210 0.645920336 0.002909872
0.708665311 0.652118862 0.004554419
0.977988482 0.669576406 0.001265167
0.174573064 0.928905487 0.002277292
0.307147354 0.925869584 0.003542137
0.526375413 0.927261233 0.004554165
0.758127868 0.924984038 0.001012128
0.982162774 0.919291615 0.000000000
0.003289416 0.000000000 0.315243810
0.160910815 0.000000000 0.316508800
0.350537777 0.000000000 0.306767374
0.620114267 0.000000000 0.339784950
0.947628021 0.000000000 0.364326209
0.006198711 0.120050274 0.305755705
0.150790691 0.116761692 0.301201671
0.352182090 0.109551109 0.299177706
0.624288559 0.055660803 0.332194835
0.958128035 0.000632584 0.352561384
0.003289416 0.331562370 0.308032393
0.163188115 0.339152485 0.303478807
0.391777396 0.352561355 0.313978791
0.664895356 0.363314122 0.322454393
0.967868447 0.380012393 0.330297381
0.002656582 0.634408653 0.310689390
0.163820535 0.632764101 0.312966079
0.453890234 0.642251849 0.308412254
0.714231253 0.646173656 0.307779670
0.979253650 0.660088360 0.320809484
0.099683784 0.923212945 0.317267388
0.267931491 0.924604774 0.316002637
0.510056794 0.922580361 0.323086828
0.756609619 0.923972189 0.340670317
0.986717165 0.918026626 0.348893046
0.052119125 0.000000000 0.586717248
0.230486691 0.000632580 0.583681583
0.444781810 0.003289416 0.569133282
0.674130380 0.001012128 0.566224098
0.962428868 0.001012128 0.601771235
0.005312995 0.133080274 0.575964570
0.207337245 0.128526121 0.577482641
0.448070645 0.093864538 0.574066937
0.676407695 0.022011559 0.563820720
0.969512939 0.001644704 0.595192790
0.003542294 0.381024688 0.561543524
0.168374270 0.377735674 0.570525289
0.439215511 0.368247777 0.571030796
0.698924780 0.353573501 0.570398629
0.976343989 0.370904356 0.595825255
0.002909872 0.637824237 0.568121433
0.153320685 0.644528985 0.568627417
0.453510523 0.651739538 0.573940337
0.731815279 0.661227286 0.582795262
0.978368044 0.671980143 0.607842982
0.312713206 0.925110638 0.616824627
0.403415382 0.924478233 0.624288499
0.584819794 0.921568513 0.633776248
0.769006848 0.920682907 0.630866528
0.977229595 0.918658912 0.632890403
0.093991183 0.001265167 0.892219722
0.275015682 0.000000000 0.883238494
0.496268362 0.000632584 0.878178239
0.751675963 0.000000000 0.877292931
0.984692812 0.001265167 0.877672434
0.006577994 0.151296377 0.875648439
0.242884696 0.142441332 0.882985473
0.496521115 0.105250083 0.880961180
0.742947400 0.041998964 0.877672434
0.987855613 0.002277292 0.878937602
0.000632584 0.417330801 0.884883046
0.196837485 0.413788527 0.886148036
0.484630227 0.411511362 0.878305018
0.742821276 0.403415501 0.880708277
0.987982213 0.395319462 0.876407504
0.068564206 0.678810954 0.875395417
0.272865146 0.684503496 0.874130428
0.520050347 0.687412858 0.872738838
0.755344748 0.690702081 0.871347308
0.975584924 0.693611920 0.872232735
0.326249242 0.936495781 0.876280785
0.416444987 0.926881731 0.878304601
0.588741601 0.927260756 0.879063725
0.783048809 0.921695054 0.876786768
0.954585671 0.923339784 0.886906803
