Assets/Shaders/EldamarStudio/100 Sci-Fi LUTs Pack/LUTs/cube/Fasthelm LUT.cube
DOMAIN_MIN 0 0 0
DOMAIN_MAX 1 1 1
LUT_3D_SIZE 32
0.000000000 0.003922000 0.000000000
0.000000000 0.003922000 0.000000000
0.000000000 0.001771226 0.000000000
0.003795161 0.002529999 0.000000000
0.014041998 0.008222548 0.001138547
0.032257996 0.011258936 0.010246934
0.055534638 0.016825000 0.021884996
0.081467696 0.017963292 0.027450999
0.108033001 0.014927097 0.028210094
0.132321015 0.011891481 0.031246481
0.156609744 0.005946001 0.028463129
0.180897981 0.003922000 0.027450999
0.207463279 0.003922000 0.027450999
0.238077030 0.004174968 0.027450999
0.271473378 0.007210577 0.027450999
0.300062776 0.012649995 0.027450999
0.333459556 0.023276186 0.027450999
0.371663541 0.037823986 0.028083576
0.405060023 0.049968012 0.031119969
0.441239744 0.059329361 0.031373002
0.483364701 0.068437733 0.025680264
0.526881397 0.075521871 0.022644127
0.566856503 0.078810506 0.031878985
0.618469715 0.087918907 0.044023003
0.667805552 0.094749995 0.051612996
0.717773616 0.099430673 0.057684988
0.769386172 0.102466933 0.064263061
0.820999265 0.105502538 0.073371440
0.872612417 0.108538829 0.085135974
0.922454298 0.111574762 0.100821942
0.964832544 0.115496218 0.119923577
0.992156982 0.121569000 0.141176000
0.000000000 0.000885613 0.000000000
0.000000000 0.000885613 0.000000000
0.000000000 0.005186612 0.000000000
0.003795161 0.004807161 0.005059999
0.015180546 0.005566387 0.013662095
0.041366383 0.011258936 0.025427323
0.054522384 0.014294676 0.016824745
0.081720300 0.018216321 0.028210022
0.110309705 0.018722387 0.034282293
0.132321015 0.017963484 0.028210096
0.153699875 0.017836999 0.028336613
0.181910113 0.016066000 0.027450999
0.209361032 0.017204354 0.026312355
0.238077030 0.019354645 0.024414614
0.271473378 0.022390964 0.024414614
0.297659576 0.030234186 0.022011422
0.328905761 0.039974768 0.019860808
0.366856515 0.053004369 0.020240180
0.405060023 0.065148398 0.028083580
0.446805745 0.071726397 0.028336613
0.483744472 0.080581740 0.028336613
0.524857640 0.089690126 0.026692128
0.566856503 0.096900769 0.031752475
0.618469715 0.103099294 0.040986616
0.670082271 0.112207673 0.050853897
0.720809579 0.114864103 0.057684988
0.772422612 0.114105001 0.064263061
0.824035645 0.114610925 0.073371440
0.867679000 0.114990383 0.082479820
0.914611101 0.119417973 0.097786330
0.959266186 0.122833386 0.116887964
0.995192647 0.124604613 0.138140380
0.004300999 0.004300999 0.008601999
0.000000000 0.004300999 0.002150774
0.002150774 0.002150774 0.000000000
0.005945612 0.013282773 0.000000000
0.016192321 0.016445450 0.008981548
0.038203932 0.017204225 0.022897096
0.065780997 0.018595677 0.023403130
0.077925406 0.024920706 0.019481063
0.107020766 0.028969096 0.032131646
0.132447496 0.030360777 0.029981293
0.158000872 0.034661774 0.031751998
0.181277514 0.034661774 0.027704004
0.211385280 0.036938772 0.027450999
0.239974767 0.040733546 0.025173776
0.271473378 0.041872188 0.021378774
0.301960588 0.049715571 0.021125808
0.329285383 0.057305772 0.019608000
0.365085512 0.068184763 0.017204199
0.404554009 0.080328785 0.020240201
0.444655508 0.089057557 0.027450999
0.483364761 0.095129542 0.029348740
0.521821499 0.103984900 0.030613644
0.564579248 0.112966768 0.033776220
0.614168167 0.119038776 0.040860098
0.663631022 0.120936282 0.047817510
0.719417989 0.127261326 0.056925885
0.771790147 0.126249000 0.064263061
0.818469465 0.126249000 0.073371440
0.872865617 0.126249000 0.086780824
0.917141080 0.133333415 0.106515147
0.958254158 0.138393551 0.122327760
0.993927777 0.138393551 0.137254998
0.005313001 0.017963320 0.013156001
0.003036161 0.014168159 0.009108387
0.002150774 0.018342771 0.005566387
0.008981999 0.015307159 0.005059999
0.019228159 0.031246159 0.005439547
0.037444707 0.029095389 0.017077934
0.061985992 0.033649322 0.019608000
0.088804245 0.034787863 0.021252289
0.103985026 0.043896254 0.024288096
0.133333176 0.047944646 0.029854808
0.158254027 0.052624997 0.030486969
0.186084673 0.054648999 0.029980842
0.212650165 0.058064643 0.023908840
0.242504910 0.064263158 0.023908872
0.270841122 0.066287160 0.020873006
0.299936593 0.070967957 0.018342840
0.334092230 0.079822995 0.022138000
0.365717947 0.086527564 0.021505423
0.404554009 0.098039173 0.018469037
0.442757934 0.106135361 0.022770200
0.482859164 0.114611149 0.028083578
0.522327304 0.118659154 0.033143967
0.565464437 0.127008498 0.036938634
0.615179956 0.134219155 0.044149000
0.662492096 0.138267159 0.048956156
0.710310102 0.139658481 0.055154663
0.770018995 0.141176164 0.065275058
0.815559685 0.139658153 0.075901441
0.866287231 0.142188162 0.083997644
0.921948254 0.146742254 0.103731990
0.963061154 0.156230450 0.131056413
0.993421853 0.156609997 0.139784992
0.000000000 0.042251997 0.007463549
0.002656839 0.034661707 0.011258839
0.004681000 0.037950546 0.012903451
0.009361451 0.044528708 0.012650387
0.021505548 0.042251997 0.016065547
0.039721549 0.042251997 0.019101935
0.061226867 0.051612996 0.019987451
0.085388690 0.057558544 0.020872839
0.111574642 0.059456091 0.023149548
0.135863438 0.068564482 0.026185934
0.158001319 0.072232679 0.024161680
0.184946507 0.073244549 0.022770001
0.214168549 0.076280639 0.020493003
0.244528547 0.085135996 0.015432999
0.269070268 0.091207989 0.018595869
0.296900779 0.095635802 0.016445195
0.329158723 0.101707898 0.019101640
0.367994666 0.110436112 0.026438972
0.404427528 0.119544521 0.023402583
0.440860212 0.125869542 0.023149550
0.480708450 0.133080274 0.024667740
0.523845673 0.139911547 0.029728126
0.569639027 0.140291050 0.038836475
0.621252179 0.149399459 0.047944102
0.668690860 0.155851007 0.053636834
0.714990616 0.160531417 0.057684988
0.762049139 0.162808105 0.064895511
0.816697836 0.156736106 0.080075890
0.862997890 0.160910547 0.083491549
0.914484441 0.166603073 0.095509164
0.965717971 0.172169149 0.117394023
0.996078014 0.175205544 0.144718453
0.000000000 0.066539995 0.004427936
0.000000000 0.069576383 0.013535547
0.006957839 0.061986089 0.019481063
0.014547838 0.061480090 0.018216226
0.024541160 0.063504383 0.013029937
0.036685936 0.066539995 0.019101935
0.062492251 0.071599998 0.022137677
0.087159924 0.077039704 0.021378776
0.111195087 0.080328934 0.019354841
0.132827044 0.086780488 0.017077550
0.160024926 0.092978999 0.020113936
0.186337814 0.094496936 0.018089680
0.211891636 0.096773930 0.014421003
0.235420927 0.103351995 0.009360999
0.265780926 0.109423995 0.015432993
0.299936682 0.117899790 0.011385069
0.331815392 0.125996187 0.011890998
0.364959031 0.134471864 0.017836642
0.401391894 0.140796915 0.020366969
0.437823951 0.147121936 0.020113936
0.476154268 0.151296675 0.020113936
0.517141283 0.156356931 0.023656128
0.560531437 0.161543444 0.032764476
0.612143874 0.170651838 0.041872099
0.661480188 0.175205633 0.053257573
0.710942626 0.178747669 0.059709251
0.762049139 0.181277871 0.064769000
0.816697836 0.181024879 0.077039503
0.860720634 0.182922035 0.089563720
0.907273352 0.186464146 0.103225879
0.955597281 0.190891862 0.121947974
0.996078014 0.196457937 0.141682059
0.002530322 0.090828642 0.014041997
0.002530322 0.091334708 0.015559935
0.006831322 0.094370544 0.018216323
0.018090161 0.090575315 0.020999324
0.030866643 0.092346542 0.016066000
0.047311865 0.095382698 0.013536001
0.064516000 0.095888637 0.014548002
0.088551380 0.101960637 0.015939325
0.112713091 0.106641315 0.016066000
0.137507498 0.112713315 0.018342840
0.162049189 0.116255634 0.018595871
0.185325563 0.120303378 0.017583745
0.212776959 0.124224961 0.014547646
0.239216030 0.131435663 0.010373322
0.271853298 0.135230958 0.011891317
0.302213907 0.141302958 0.015559513
0.335357308 0.150284439 0.011385194
0.366982788 0.158760145 0.014421314
0.403415680 0.164832652 0.019354971
0.439848334 0.170904636 0.022137677
0.481973022 0.175078899 0.025933158
0.523718953 0.179126993 0.029222319
0.566729724 0.185072511 0.036812473
0.620746553 0.189373910 0.045920100
0.667804897 0.196205005 0.052751575
0.717520654 0.199494004 0.062998310
0.768627405 0.203036323 0.068816997
0.819228172 0.207084313 0.076912992
0.870841265 0.207210794 0.094117656
0.915116727 0.212017611 0.109803945
0.959392488 0.216698304 0.126248986
0.998608351 0.222770318 0.141176000
0.003922000 0.115116984 0.016319003
0.003922000 0.116761699 0.011385298
0.004934003 0.118911922 0.017963292
0.017331162 0.119417854 0.015433293
0.032891002 0.119417854 0.014674295
0.048576999 0.122453921 0.011132292
0.071726702 0.122959986 0.015053997
0.088298418 0.122959986 0.010120292
0.112586804 0.129032180 0.011638290
0.141682222 0.135104403 0.017710291
0.162808016 0.138266861 0.014674295
0.190006241 0.142947435 0.015939455
0.211258635 0.144844696 0.011764714
0.240607351 0.152435035 0.009488002
0.275395393 0.158254400 0.015053997
0.301454872 0.163693979 0.015812900
0.336369455 0.171284184 0.020366704
0.367109120 0.179759398 0.018975571
0.401517987 0.185831949 0.024035707
0.441239744 0.191903993 0.025680065
0.481720418 0.199367657 0.032257766
0.528272986 0.203415394 0.037318416
0.572295725 0.209487393 0.042757988
0.623908877 0.214041606 0.050347809
0.675015986 0.217710406 0.058823571
0.721948028 0.222390726 0.064895988
0.773308218 0.225427046 0.073244706
0.823023558 0.230360687 0.079316705
0.869323432 0.234408692 0.096014924
0.920683086 0.234661669 0.107653245
0.960910559 0.238962695 0.128526092
0.995066285 0.243516698 0.144465417
0.003922000 0.140923187 0.010247002
0.004680902 0.143959582 0.004174612
0.003162904 0.143959418 0.009361094
0.012777157 0.145224258 0.016951093
0.034408998 0.143327087 0.010499545
0.048070993 0.146742254 0.009360998
0.069070227 0.145730197 0.013915322
0.091334604 0.145730197 0.013915394
0.108792096 0.146489084 0.009360999
0.142188504 0.152561873 0.015432998
0.162554994 0.157242224 0.010626098
0.185831502 0.160784096 0.009867257
0.215053737 0.166097105 0.010246906
0.236812130 0.166603103 0.005186903
0.271726817 0.175205410 0.016318891
0.299936712 0.183428183 0.019608002
0.328020155 0.190259293 0.023403093
0.368121088 0.198735088 0.027577521
0.398988008 0.204807118 0.030360874
0.440480739 0.211638212 0.032891002
0.481467456 0.218848839 0.037065253
0.525237203 0.226945087 0.044149127
0.574066937 0.233017087 0.047564983
0.623908877 0.239089087 0.054901998
0.673244774 0.243643284 0.060215287
0.724984169 0.246679515 0.070208892
0.773055077 0.250221193 0.076786965
0.824162185 0.253510535 0.083111994
0.870841503 0.258444190 0.098291963
0.916382074 0.260974199 0.110183075
0.960910559 0.264010191 0.121694796
0.988234997 0.264010191 0.149020001
0.003922000 0.171283975 0.004175003
0.006957610 0.174320370 0.007210615
0.003415515 0.168754205 0.014041772
0.010246834 0.163946986 0.022011478
0.034408990 0.164579496 0.025679933
0.058696985 0.170651495 0.016571548
0.072358996 0.166476995 0.012903322
0.090069219 0.163946986 0.008729005
0.111827716 0.164705887 0.006325390
0.136116505 0.167741492 0.015433000
0.160784006 0.176723406 0.012776874
0.180771500 0.179506496 0.011638487
0.204048276 0.182036504 0.010626359
0.233776510 0.187855497 0.008222520
0.261100888 0.193927497 0.014294511
0.296014994 0.204933614 0.018216325
0.328778893 0.213788986 0.024162196
0.362049103 0.219987482 0.030613910
0.404553980 0.226059511 0.027577525
0.446552753 0.234914854 0.035926878
0.485262483 0.241998985 0.040860258
0.524984121 0.248197496 0.044149127
0.571030557 0.254269481 0.047564987
0.625680149 0.260341465 0.059709009
0.673244715 0.266413480 0.060215302
0.723212779 0.270967692 0.066034310
0.776090682 0.274509996 0.079822592
0.821631789 0.280581981 0.088930964
0.875395119 0.283871323 0.100568980
0.922453821 0.285262972 0.111195207
0.960910559 0.288804948 0.124604680
0.988234997 0.300442964 0.149020001
0.003922000 0.190006003 0.009741000
0.001138615 0.193042397 0.009867484
0.002024001 0.196078777 0.008602097
0.006325160 0.192536578 0.013409129
0.025680127 0.190891877 0.017963130
0.049968123 0.191903874 0.011385066
0.074256770 0.190385550 0.009867001
0.096141562 0.191271424 0.013788834
0.118405968 0.193042651 0.014800902
0.136242986 0.191777259 0.015306516
0.157621861 0.191903740 0.015686000
0.183934107 0.198987871 0.014674129
0.209361285 0.203035876 0.015812773
0.238963038 0.209107861 0.016318839
0.260974407 0.215179861 0.014420995
0.295508981 0.223655671 0.027703796
0.331941366 0.232257992 0.029728193
0.366982698 0.239595145 0.033270407
0.407210857 0.250221729 0.039342027
0.444149613 0.256293744 0.036306351
0.486400843 0.265275121 0.041113257
0.527893484 0.270334989 0.046173126
0.573687315 0.272738487 0.053383984
0.625553608 0.281593889 0.065528005
0.680202544 0.287665874 0.075395286
0.729032099 0.293737859 0.080455661
0.780644953 0.297785997 0.091081738
0.833396316 0.299050987 0.097786307
0.876280606 0.305122972 0.109550849
0.924604535 0.306641132 0.123466045
0.964705825 0.307526737 0.135736853
0.994054019 0.313598990 0.151929125
0.007969996 0.210246250 0.015812997
0.000885613 0.215306893 0.015812997
0.000000000 0.216319025 0.015686478
0.003795161 0.219355091 0.016445251
0.020493548 0.217836782 0.021378703
0.053004246 0.216192499 0.016950993
0.073244900 0.215686440 0.017963247
0.095888540 0.214294761 0.014674251
0.120935835 0.219608247 0.020366903
0.138646245 0.220367014 0.019860514
0.159645602 0.218216240 0.019733995
0.182922244 0.218216255 0.021758251
0.209108278 0.224288255 0.021758251
0.237697989 0.230360240 0.023909029
0.264263123 0.236432239 0.024415094
0.299557507 0.244908050 0.029728051
0.329917520 0.252498239 0.040354252
0.364326119 0.259202838 0.039468993
0.402403712 0.269955933 0.044402294
0.441113234 0.278558224 0.048450343
0.483238697 0.282732487 0.047311991
0.527893543 0.290575236 0.050221380
0.574572980 0.292978764 0.057052735
0.624288499 0.302087158 0.063504003
0.680202544 0.308918238 0.075395033
0.734851241 0.314990222 0.083112091
0.784187138 0.321062237 0.092093997
0.834282100 0.324098259 0.101201996
0.878304899 0.327387482 0.110562719
0.922580361 0.329917490 0.120935939
0.963693917 0.331688493 0.137381330
0.994054258 0.335863262 0.152941003
0.009488002 0.233775914 0.023023643
0.002656613 0.238709763 0.023023643
0.000000000 0.241619632 0.021884998
0.008349156 0.241746128 0.023276644
0.018975541 0.244402289 0.028589644
0.053889930 0.242125571 0.026312355
0.079063989 0.240480989 0.027197966
0.101201922 0.240480989 0.028715998
0.123212837 0.242758080 0.024921091
0.144844785 0.249209628 0.027956799
0.166097149 0.246552765 0.024667645
0.187096506 0.245540634 0.025553256
0.211385280 0.245540649 0.029727997
0.235927030 0.251612633 0.030233996
0.265401602 0.257684618 0.034155767
0.301834404 0.266160429 0.038456995
0.335989982 0.273750603 0.044528995
0.363440692 0.281087607 0.049335998
0.400379658 0.290701956 0.049336005
0.441872030 0.299810350 0.053763647
0.483997166 0.306261867 0.057178997
0.528526247 0.311321765 0.059202995
0.576976478 0.317646772 0.062492345
0.626565456 0.326755166 0.066540092
0.680834830 0.333586305 0.075268634
0.735989869 0.340796918 0.084629700
0.790132701 0.346362829 0.091714345
0.836938620 0.351802260 0.103858344
0.882099986 0.355218112 0.114484429
0.924098730 0.357621640 0.125869483
0.962555230 0.359392643 0.139405251
0.992156982 0.365464628 0.160910636
0.003922000 0.261353999 0.031625967
0.000885613 0.264136612 0.032384999
0.001265031 0.266666800 0.030487256
0.009867159 0.268691003 0.029222161
0.031119544 0.268944025 0.032637969
0.052371927 0.268944025 0.032637969
0.078684315 0.266413689 0.031879000
0.105249725 0.265528023 0.034029286
0.132574186 0.266540110 0.036306065
0.156862989 0.275648504 0.039342448
0.178241864 0.273624182 0.031752162
0.197469994 0.272865027 0.028968997
0.217710242 0.273118079 0.030993028
0.241999030 0.273118079 0.036053032
0.269323409 0.279190063 0.042125028
0.303352594 0.287412822 0.046046801
0.337255001 0.295256048 0.049841963
0.369512677 0.302340001 0.054901998
0.408981979 0.314484030 0.054902002
0.453510404 0.324098408 0.058191355
0.497659475 0.331056029 0.061480287
0.540670276 0.337887138 0.065274999
0.583554506 0.346995503 0.071220510
0.635167718 0.356103897 0.077166036
0.689057589 0.362935007 0.085768282
0.741808951 0.370651692 0.093232021
0.793169081 0.378747970 0.100569062
0.844781399 0.381783575 0.112713054
0.893231630 0.385325849 0.124857649
0.936495543 0.388108820 0.138014138
0.971410573 0.392789096 0.156103969
0.992662966 0.398861080 0.180391997
0.003922000 0.291713953 0.034661576
0.000885613 0.291713953 0.043769963
0.010752774 0.290196151 0.044528987
0.024035402 0.290955216 0.041366406
0.043263532 0.293358535 0.039089441
0.064515918 0.296268404 0.047817566
0.090828307 0.293738067 0.040227890
0.113219395 0.295635402 0.042884283
0.137128502 0.297406375 0.046931989
0.169006974 0.293864459 0.042378064
0.190385863 0.297153831 0.045414448
0.209613979 0.298924536 0.045920145
0.228968620 0.301328033 0.048323624
0.251106620 0.303478807 0.051233403
0.275395393 0.303478807 0.045161411
0.305123568 0.309550792 0.051233411
0.339784980 0.317773581 0.052118801
0.375584692 0.326249242 0.052245162
0.415053964 0.335736424 0.054902010
0.454522371 0.347881109 0.063251361
0.500948429 0.353700042 0.069196984
0.548260272 0.358380377 0.073624283
0.595698476 0.365211487 0.077292509
0.647311687 0.374319881 0.080328904
0.701201558 0.381150961 0.090828411
0.751675963 0.390006304 0.098165669
0.798988104 0.400000304 0.103858478
0.847817838 0.403035939 0.118785821
0.891461015 0.411385208 0.130929813
0.933459520 0.413915396 0.139531970
0.970271766 0.418975383 0.153700158
0.998735011 0.432258219 0.180391997
0.008728996 0.322074592 0.047311794
0.012903408 0.319670767 0.044402387
0.022770569 0.323971778 0.053510774
0.043010954 0.321695119 0.054269798
0.064642593 0.322454035 0.050854247
0.083870724 0.325489908 0.051865868
0.100569114 0.328273267 0.053004317
0.127893493 0.323592603 0.048829991
0.148387179 0.325869501 0.054142904
0.173561305 0.324730784 0.053004608
0.200126678 0.324983835 0.055660862
0.217331052 0.325995982 0.050600741
0.237444595 0.327513784 0.054395642
0.260214835 0.329031974 0.059456028
0.284503609 0.329031974 0.055534802
0.313598782 0.331435770 0.059076793
0.340923578 0.335989982 0.060594603
0.375078917 0.345857352 0.058823381
0.416318953 0.362049431 0.061859779
0.462998182 0.366729707 0.070461549
0.508159220 0.376976728 0.075774923
0.556736052 0.383048713 0.078304864
0.605439246 0.390638858 0.078684025
0.657052517 0.399746716 0.083997712
0.706388295 0.406577796 0.087033518
0.758001089 0.415433109 0.098797984
0.804554164 0.426565766 0.106388316
0.851233661 0.431499153 0.119671434
0.896900594 0.435040802 0.137001961
0.939405322 0.440607190 0.150917172
0.974193394 0.444781750 0.161543384
1.000000000 0.458443969 0.182795808
0.022391185 0.350917190 0.054901998
0.031499177 0.350917161 0.059456185
0.047058951 0.349778384 0.058064576
0.064769335 0.354585558 0.064642966
0.088931181 0.352814823 0.064136997
0.102593184 0.355850458 0.059962254
0.119797312 0.357368499 0.059456188
0.140037879 0.358507186 0.062492184
0.165844291 0.354712278 0.061733086
0.184819967 0.357748091 0.063251287
0.204174668 0.354838580 0.061733127
0.235547438 0.359392375 0.068817124
0.253004819 0.358254015 0.059708733
0.276913375 0.357621551 0.065780997
0.301201791 0.356356382 0.064010225
0.325743169 0.357241988 0.063630991
0.353067547 0.361796170 0.069702998
0.379886299 0.366097569 0.068564177
0.420620173 0.383807957 0.072485968
0.467172742 0.389879823 0.076533847
0.518785417 0.399746925 0.081846930
0.566350341 0.407843173 0.084883064
0.614421189 0.416571975 0.082985193
0.664642751 0.427071303 0.086274609
0.713978529 0.433902562 0.091587707
0.761163950 0.438582897 0.097406663
0.809614301 0.450347990 0.108918250
0.856167257 0.458443969 0.120050892
0.900189936 0.461859554 0.140543953
0.942441344 0.467931598 0.155470982
0.977862000 0.473624349 0.174193606
0.998481810 0.485768378 0.191904187
0.047438532 0.380139112 0.058064558
0.058317542 0.382542938 0.070714809
0.075015746 0.382542759 0.071726814
0.094370723 0.380771697 0.072485581
0.115243562 0.384187549 0.074762970
0.122327544 0.387476176 0.068943992
0.137887135 0.387349516 0.067931995
0.158127382 0.387982100 0.069955997
0.182289645 0.387476057 0.074383482
0.203542054 0.390512466 0.071347088
0.217963129 0.385452539 0.067931563
0.245793730 0.388235271 0.072865248
0.279696584 0.394054174 0.081467502
0.300948977 0.391524553 0.072865114
0.324857533 0.389247268 0.072485566
0.347374916 0.387349516 0.070714794
0.370145380 0.389753103 0.071600564
0.395699084 0.395192713 0.076407567
0.432131946 0.404301107 0.082479581
0.475648373 0.411891133 0.083617993
0.524351418 0.422390878 0.085515730
0.576596737 0.435167551 0.088551864
0.622264385 0.441366047 0.091334514
0.670841396 0.453004152 0.090828583
0.719418108 0.460594535 0.096647561
0.767235935 0.467172861 0.104111239
0.812271118 0.470714539 0.113725565
0.860594809 0.482605517 0.122960426
0.904490948 0.487412959 0.143453538
0.945857108 0.493358731 0.161922529
0.978494585 0.502087533 0.175964221
0.996710598 0.514231563 0.203289434
0.086907014 0.416571975 0.073244974
0.092979014 0.416571975 0.076280594
0.103858009 0.418975264 0.071726821
0.116761364 0.418975174 0.070714824
0.130424008 0.417584032 0.077798590
0.148640007 0.423656046 0.074762978
0.163314342 0.421884656 0.074004017
0.180391967 0.422390729 0.074004017
0.200632244 0.423655927 0.074510008
0.224794492 0.420872539 0.074383497
0.246046886 0.418089926 0.080075979
0.270588219 0.418848753 0.081087977
0.298924655 0.422390670 0.083491646
0.325237066 0.424921066 0.085009895
0.346489429 0.427957445 0.081973530
0.370398581 0.423276335 0.081593983
0.394433975 0.422264218 0.082859211
0.419987202 0.425553590 0.085515976
0.450347990 0.428589970 0.085515983
0.489563435 0.440480977 0.088804625
0.531435490 0.450221717 0.091587752
0.576976299 0.459835857 0.094623879
0.625300050 0.468690515 0.097406536
0.673877716 0.477798879 0.094370931
0.722454548 0.484882981 0.102972977
0.771031260 0.493738055 0.113219641
0.818343163 0.504111052 0.122833975
0.860847831 0.510182977 0.134977967
0.906514764 0.516761720 0.149525821
0.950031340 0.522580981 0.167235926
0.984313607 0.528905988 0.184060574
0.999746978 0.535484016 0.200253069
0.126375377 0.458570749 0.077292651
0.129664734 0.461353362 0.080328971
0.137887508 0.461353362 0.083365135
0.149399087 0.462491721 0.079317205
0.161922917 0.460973918 0.081214361
0.177735731 0.459835768 0.080581948
0.195951730 0.455787748 0.082606323
0.216318786 0.457432091 0.081214651
0.235294104 0.461606652 0.080076009
0.251486361 0.462618232 0.080076016
0.283997238 0.462365270 0.091461010
0.303225905 0.461353362 0.089437015
0.325996369 0.461353362 0.085642010
0.350031734 0.461100727 0.083744675
0.376344115 0.464136422 0.085768938
0.402403533 0.467172861 0.092346542
0.428589582 0.466793299 0.095003203
0.454775304 0.468564510 0.096142016
0.482985377 0.467299372 0.091841020
0.518912137 0.467552394 0.100189656
0.556483209 0.481594086 0.097533017
0.598228872 0.492473245 0.100948647
0.645160854 0.501580894 0.109424032
0.696394682 0.510689259 0.114358276
0.744971514 0.522074401 0.115876079
0.790765285 0.529158711 0.125110671
0.834535122 0.537508130 0.134219065
0.872485816 0.543580115 0.144086346
0.917646706 0.552308261 0.164200142
0.959645569 0.558507442 0.181404307
0.990512311 0.565465093 0.203162551
1.000000000 0.573434412 0.227830738
0.160151467 0.495382756 0.084123738
0.165085122 0.500316083 0.089057378
0.180012479 0.501201451 0.088298768
0.186590880 0.499936610 0.091334835
0.196837455 0.499683648 0.089183994
0.210499659 0.499683648 0.086147994
0.228210196 0.497912705 0.086780578
0.246426195 0.498418719 0.089816965
0.268690735 0.502972722 0.089563735
0.283111721 0.504869998 0.091840737
0.304237574 0.503099203 0.093990996
0.335104227 0.506894171 0.099683739
0.353320718 0.504617155 0.094750091
0.374826074 0.501328409 0.090448990
0.405439854 0.504364073 0.095129661
0.430866510 0.505502522 0.095382921
0.461226910 0.508538902 0.099936739
0.489310294 0.510310113 0.101961002
0.516634762 0.507273734 0.098419003
0.550411165 0.512713432 0.104364388
0.583048463 0.512713432 0.105881996
0.619481266 0.522833705 0.102846123
0.662238717 0.529284954 0.112080730
0.708538711 0.538393378 0.118153073
0.754079521 0.549778461 0.127640694
