Assets/Shaders/EldamarStudio/100 Sci-Fi LUTs Pack/LUTs/cube/Fatrar LUT.cube
LUT_3D_SIZE 8
DOMAIN_MIN 0.000000 0.000000 0.000000
DOMAIN_MAX 0.903226 0.903226 0.903226
0.000000000 0.000000000 0.000000000
0.085768551 0.003542452 0.007843000
0.214674100 0.000759096 0.025047194
0.338013649 0.003922000 0.064516351
0.438077182 0.022391185 0.111068994
0.509550989 0.101580985 0.168247983
0.573814034 0.174446568 0.234282285
0.615938962 0.251233637 0.290448964
0.024667548 0.101075098 0.025426548
0.122580543 0.098292544 0.041492999
0.235800177 0.101454549 0.065781094
0.353447199 0.099051446 0.099430896
0.438836306 0.122960187 0.148007393
0.508791983 0.159645990 0.192662999
0.556989253 0.216571823 0.243010804
0.614168406 0.274636358 0.290575653
0.108792096 0.220114097 0.132321090
0.169512749 0.230739728 0.129538551
0.272739023 0.225553274 0.149525285
0.372296095 0.231878281 0.176976278
0.447565079 0.241998985 0.207590193
0.509550989 0.264769197 0.244781822
0.554206192 0.299304157 0.286654174
0.608601928 0.341303051 0.323971927
0.209740281 0.344212651 0.234914273
0.250980526 0.344212651 0.233270273
0.312207639 0.348133922 0.250600994
0.378873914 0.352055639 0.259582639
0.444149345 0.352435082 0.278557628
0.495129615 0.363440871 0.297280520
0.538519979 0.381783664 0.322327644
0.594940007 0.416951299 0.358633637
0.279064178 0.444402397 0.309551179
0.298671991 0.444655538 0.315749407
0.334851176 0.449842185 0.324478090
0.380392075 0.454016536 0.328273177
0.425932825 0.465528190 0.340923160
0.472738802 0.466539919 0.350158006
0.522074223 0.482605904 0.376850188
0.578621209 0.511574984 0.410119802
0.288298756 0.562428713 0.393801719
0.297406793 0.567109704 0.392789096
0.322454095 0.569259882 0.401644737
0.354585886 0.571284115 0.404806823
0.397975922 0.574446261 0.413029790
0.448956251 0.581783712 0.427071482
0.498165727 0.594307780 0.441492707
0.567615747 0.621125519 0.463756979
0.247438714 0.665907562 0.459076285
0.245414451 0.671473861 0.461985826
0.273244828 0.674509645 0.462998271
0.308032632 0.678178668 0.469070375
0.349146098 0.681594014 0.464769095
0.407590151 0.683491766 0.479063988
0.464642584 0.701834559 0.497279972
0.566603065 0.718659043 0.514484525
0.126249239 0.807083726 0.528272986
0.148640215 0.806704521 0.551423192
0.191777259 0.808981657 0.546236694
0.247564852 0.810878932 0.548134029
0.321315169 0.815053940 0.549651802
0.402782917 0.821378767 0.557748020
0.493864238 0.823908806 0.571031034
0.596584618 0.833143771 0.587222755
0.000379548 0.003922000 0.157495096
0.146109641 0.000000000 0.154333100
0.236559182 0.010120097 0.160531089
0.334092647 0.043010999 0.202150196
0.435420632 0.081973374 0.237065345
0.503478765 0.143959284 0.264010310
0.558507442 0.197217271 0.300442845
0.610373199 0.257178813 0.331815243
0.000000000 0.133966088 0.175078630
0.130044088 0.111195087 0.190006539
0.255787551 0.114737540 0.195825189
0.348007292 0.120935827 0.217837110
0.433522999 0.145224750 0.246552736
0.504869998 0.186337993 0.275774807
0.554206014 0.238077089 0.309171528
0.614041507 0.292220265 0.351043373
0.129159093 0.230739743 0.232005090
0.183301985 0.237444997 0.240227535
0.261985719 0.235800087 0.236938640
0.362049282 0.238963097 0.258570284
0.439848095 0.249083087 0.282100081
0.498292476 0.268311530 0.302972645
0.543200254 0.298418790 0.328273267
0.596837759 0.342188358 0.357494920
0.229475081 0.337128639 0.291334361
0.250980616 0.338393271 0.287033737
0.304744095 0.339911282 0.294876635
0.373813987 0.344592214 0.307780087
0.438203901 0.354458928 0.328652740
0.489563733 0.363946646 0.341302693
0.537381589 0.393801451 0.369133204
0.595319510 0.428209931 0.400885731
0.280708194 0.438456744 0.344845176
0.298418552 0.439215750 0.349652171
0.328146547 0.445920318 0.356989354
0.377229840 0.447058827 0.362808287
0.426185846 0.454522163 0.371537179
0.467678577 0.466666818 0.383554637
0.514611006 0.483238161 0.407337159
0.581404150 0.515749633 0.437318295
0.287413239 0.551296771 0.415306777
0.293738425 0.557621479 0.418089539
0.323719203 0.560151577 0.425173849
0.351043582 0.564579546 0.424668193
0.394054413 0.567236006 0.428968906
0.438836455 0.573813736 0.445794165
0.490069807 0.588361561 0.461859733
0.561289907 0.616571605 0.485262632
0.236685440 0.659709096 0.467805266
0.246679708 0.666287124 0.471726805
0.272485822 0.666287124 0.473244786
0.307779878 0.668943822 0.477545887
0.348260701 0.674130082 0.486906797
0.401897550 0.684503317 0.502213776
0.470208704 0.706894279 0.521315575
0.567236066 0.730423987 0.545856953
0.127767369 0.796331227 0.555850804
0.147501484 0.807716608 0.561290264
0.192410022 0.803162515 0.554332495
0.245414302 0.808981776 0.558253884
0.317899883 0.811511517 0.565844178
0.398987740 0.817457438 0.571030974
0.493105233 0.820999324 0.582416058
0.595319450 0.834155262 0.602656484
0.029601190 0.000759096 0.301581293
0.159013093 0.003542454 0.307526708
0.297027111 0.021758191 0.311828107
0.386337996 0.089184098 0.314610749
0.436559200 0.137761086 0.326628268
0.488677740 0.185199440 0.353320479
0.544085920 0.223150089 0.389374077
0.598734915 0.274889171 0.417078108
0.022517189 0.127261549 0.314610749
0.124351181 0.122580640 0.314990193
0.278178096 0.127261534 0.329159111
0.379759640 0.156609997 0.320050746
0.439468652 0.187982082 0.345857024
0.488804519 0.219228178 0.364326298
0.543074012 0.259203106 0.402403623
0.602782786 0.304237545 0.434408903
0.111828096 0.260847300 0.344718277
0.186464086 0.259329259 0.347881198
0.274257004 0.255408108 0.348640114
0.382163346 0.255028635 0.360531181
0.437444806 0.273498118 0.362808317
0.485389084 0.284376979 0.388109118
0.537634194 0.310183376 0.408222377
0.588361800 0.350537926 0.435420930
0.222011551 0.356356263 0.375964284
0.257811159 0.353699833 0.383554727
0.304870099 0.362302631 0.390638739
0.365591645 0.358380735 0.394813359
0.431625634 0.361543536 0.403162628
0.480582088 0.370904624 0.417583913
0.526881874 0.394433618 0.436938852
0.586464107 0.434281915 0.465148717
0.286148101 0.435673386 0.419987202
0.300822437 0.440354407 0.418469191
0.322200984 0.445034981 0.424668074
0.369765759 0.445794106 0.429854721
0.417963117 0.451359987 0.439721912
0.460215092 0.465021908 0.448956281
0.506388068 0.487160057 0.470841259
0.570904732 0.524984062 0.493611366
0.284124017 0.551296651 0.477798849
0.290702432 0.554838300 0.480582088
0.310689092 0.555850744 0.475268722
0.347501814 0.557495117 0.482606173
0.386211425 0.561796308 0.486274749
0.431752264 0.571536779 0.498292178
0.484882891 0.583175123 0.505629539
0.552814662 0.615306795 0.520556748
0.221884832 0.661100388 0.516888142
0.241998732 0.662998199 0.520556390
0.264895558 0.661985993 0.518153071
0.297912776 0.669449985 0.526248991
0.347627908 0.675901353 0.536622286
0.400252789 0.685768545 0.544339299
0.467046201 0.708032846 0.567235947
0.571157336 0.732827246 0.588994324
0.104238130 0.795192659 0.581024826
0.130677044 0.803668499 0.587349832
0.185325935 0.798608363 0.579633057
0.250221491 0.806072235 0.591650963
0.319544256 0.807210565 0.600759029
0.402023792 0.813535750 0.601138711
0.495761991 0.819228590 0.621378779
0.600126445 0.828083634 0.634408653
0.089690350 0.024161996 0.443263650
0.177482635 0.036685996 0.435673386
0.296647727 0.065655090 0.439215660
0.393422008 0.121694639 0.450600982
0.469576091 0.188741282 0.450980425
0.506514907 0.225932732 0.444655627
0.531815350 0.256167293 0.455660909
0.583681345 0.300569355 0.492599815
0.092979185 0.136242986 0.434408635
0.179506987 0.140543818 0.440481007
0.285641640 0.154332906 0.440354198
0.384061009 0.183302000 0.446679294
0.456167102 0.216192082 0.446426541
0.502087474 0.254142761 0.452878058
0.533333302 0.285515547 0.469575942
0.582795560 0.321062475 0.508285820
0.191650733 0.272738993 0.470335275
0.225680083 0.270714641 0.456799388
0.286907017 0.260594636 0.468690991
0.378621072 0.271473736 0.472232729
0.453889996 0.293485343 0.470209002
0.495129615 0.318911970 0.472612202
0.522201002 0.343579620 0.486653984
0.574193537 0.362302363 0.511827767
0.199493647 0.388994634 0.485388905
0.230866551 0.386211276 0.490069747
0.293231994 0.386717647 0.484629840
0.363061011 0.370525271 0.494876623
0.424921185 0.373687446 0.491587639
0.480202734 0.393168986 0.504617393
0.514484644 0.411385298 0.509424269
0.571789801 0.441492617 0.537887633
0.259582967 0.464389533 0.509803832
0.269449532 0.469829530 0.515749216
0.299177617 0.472612292 0.519671082
0.343579799 0.470588535 0.522453725
0.392915964 0.474130392 0.529032230
0.452372015 0.475142628 0.532447815
0.495129555 0.497912914 0.546995580
0.561036944 0.525743246 0.565212011
0.252625108 0.562808275 0.553826630
0.268817276 0.561163962 0.557748616
0.286148190 0.566223919 0.557748497
0.324731022 0.569386601 0.558127999
0.368247747 0.569386601 0.564452887
0.417204022 0.578368008 0.575078785
0.473118335 0.590259314 0.574320078
0.549651980 0.621125519 0.596837521
0.192789391 0.663756907 0.588994682
0.208096087 0.665274978 0.586717308
0.235926449 0.665907562 0.584693193
0.277672380 0.669829249 0.592915952
0.328273445 0.675901413 0.595951676
0.386843741 0.690069437 0.609740615
0.468057930 0.706388593 0.626059234
0.564073384 0.733080566 0.642125130
0.020240422 0.799367249 0.630866706
0.047818225 0.798608363 0.632511139
0.141555637 0.802277207 0.632131517
0.231878653 0.804300785 0.639088809
0.318658888 0.809993327 0.648323774
0.407843173 0.811638057 0.657052815
0.502087057 0.822137952 0.666919708
0.611005783 0.834914565 0.685389161
0.154205993 0.080581993 0.553953171
0.202909291 0.092979185 0.553573728
0.297912896 0.121189088 0.561163962
0.386337996 0.159645990 0.562682152
0.462492198 0.210626185 0.569892347
0.513219416 0.257052541 0.563946843
0.553574026 0.304743975 0.563567221
0.583554804 0.335610539 0.582795560
0.164832652 0.172422186 0.553699970
0.219860524 0.175837725 0.563567221
0.299810529 0.183301985 0.563567340
0.383048415 0.208349183 0.564705849
0.449968189 0.238456532 0.563946784
0.509297550 0.282732487 0.559519172
0.543200433 0.326628476 0.566982865
0.585072577 0.358001351 0.593801320
0.195825189 0.273497909 0.571157396
0.226185739 0.265907735 0.580518484
0.298038989 0.274257004 0.579253376
0.372042835 0.290322542 0.579253376
0.437571079 0.307906061 0.577609301
0.490449250 0.332954079 0.578873754
0.535357058 0.369006991 0.579127133
0.568501115 0.395192891 0.600253046
0.236685991 0.389753640 0.590259314
0.256799549 0.394054264 0.590006232
0.305882096 0.389753550 0.586970270
0.343706638 0.372043073 0.587349772
0.411637992 0.383427829 0.584819853
0.470967650 0.405439734 0.599493980
0.519670963 0.439974904 0.603035808
0.567235827 0.460468024 0.618849039
0.203288823 0.496268004 0.601897240
0.229222000 0.506388247 0.614168644
0.262871712 0.498545080 0.616192222
0.321948439 0.492979199 0.614800870
0.381910175 0.481214195 0.609740496
0.438709736 0.485641956 0.620746195
0.501707792 0.510056913 0.620620191
0.561923146 0.528779209 0.633649409
0.195319280 0.583554506 0.638583243
0.198861718 0.585831702 0.638583362
0.235673711 0.585831761 0.646299779
0.271600008 0.590891957 0.641999006
0.324857950 0.592789710 0.646299779
0.389373541 0.597469747 0.646679163
0.468817085 0.598482132 0.648450434
0.548007727 0.627198040 0.661606312
0.080708712 0.679443598 0.664389610
0.109550983 0.677419543 0.662744820
0.160151735 0.677799046 0.662365258
0.221126169 0.678937674 0.661859632
0.290196180 0.690196037 0.669955671
0.370651484 0.694876313 0.678558230
0.457179159 0.712081015 0.692599475
0.572169304 0.733460009 0.711575031
0.003035997 0.796331286 0.689310551
0.001644715 0.799493790 0.695003152
0.008728683 0.804933608 0.689057589
0.170778066 0.806957603 0.698418736
0.289816678 0.813282430 0.704364419
0.402529806 0.813282430 0.714357913
0.510436356 0.825553417 0.722580314
0.615306616 0.832257748 0.733839214
0.190006256 0.142820731 0.658570468
0.234282181 0.149398983 0.660341740
0.303099245 0.170651376 0.660847783
0.375584990 0.196078733 0.661480069
0.434029460 0.236052722 0.658570528
0.491967261 0.279949725 0.662238955
0.540543795 0.326754987 0.662618458
0.593801320 0.376470834 0.675521970
0.205186293 0.200252742 0.656040311
0.243896008 0.202403545 0.655914187
0.296268284 0.218216538 0.658064544
0.364452988 0.237318277 0.659329712
0.434914649 0.265907526 0.660973847
0.487286717 0.311069012 0.668184757
0.534345448 0.351296514 0.671220958
0.600000024 0.399873734 0.690828502
0.212144285 0.281720340 0.660973847
0.239975005 0.288298458 0.670588434
0.297533214 0.291713804 0.666413784
0.358633637 0.306767702 0.666286945
0.417583644 0.329411626 0.665275216
0.469702899 0.350917101 0.669702768
0.517394304 0.392156720 0.676281095
0.586969912 0.432511061 0.687539637
0.248323649 0.404806912 0.689689994
0.258444339 0.398482025 0.682985604
0.275269091 0.389500171 0.673624635
0.333712727 0.389120609 0.682732463
0.394054353 0.405060261 0.681847095
0.447944462 0.427956969 0.689436734
0.506388247 0.454901904 0.694117665
0.588488102 0.492220074 0.709550858
0.208095804 0.495635539 0.692473352
0.225806370 0.501834452 0.691208184
0.263883889 0.499557525 0.689942837
0.314737707 0.496268094 0.688804269
0.360024989 0.482226431 0.696773946
0.418722302 0.498292387 0.698798180
0.494750082 0.522580504 0.712334037
0.578494668 0.552435338 0.714737236
0.098924540 0.601517737 0.713219523
0.125616729 0.603415489 0.712460279
0.163820624 0.607336998 0.718405843
0.222770259 0.603288949 0.716002643
0.293485165 0.605312765 0.716761529
0.382416248 0.597343743 0.719164729
0.463630825 0.605945766 0.728525996
0.575584948 0.632257998 0.728779435
0.005692737 0.688298702 0.746236205
0.017078018 0.685895026 0.733586371
0.045793995 0.687033415 0.743453264
0.143453747 0.694244146 0.743706346
0.237824023 0.705123484 0.747248590
0.336748987 0.712587059 0.753700495
0.443896562 0.732827127 0.759772360
0.593168795 0.744844913 0.777355969
0.006325008 0.804174781 0.777861714
0.001265167 0.808602035 0.779506445
0.000000000 0.808095932 0.774066865
0.006071987 0.809614003 0.768880546
0.219860777 0.812397122 0.770525098
0.377609104 0.821884751 0.775964439
0.516508341 0.827197731 0.788235426
0.631878614 0.840986788 0.801644504
0.221252292 0.201264992 0.753826261
0.244275555 0.203288838 0.750537515
0.298798263 0.217710093 0.751549542
0.354712367 0.238835976 0.752687871
0.407590181 0.274130464 0.750031352
0.456799746 0.312080711 0.759139478
0.510435998 0.357115299 0.759392560
0.575205326 0.401771277 0.763440967
0.224921003 0.246552989 0.755091786
0.247058809 0.249841988 0.751675904
0.296015263 0.253889889 0.757495105
0.354585797 0.277545899 0.760910630
0.406198621 0.304237813 0.764073253
0.459709197 0.341303170 0.763693988
0.513978481 0.380518556 0.771790028
0.579253316 0.420113891 0.771790087
0.223403096 0.312460095 0.758507371
0.245287746 0.311195523 0.759898603
0.286274791 0.315496475 0.761669874
0.342694074 0.330929846 0.761290073
0.391397685 0.357242167 0.763314188
0.441366076 0.383048356 0.765212059
0.502340138 0.413662195 0.769386530
0.567994893 0.450474262 0.777355969
0.207716361 0.403541982 0.776217639
0.227957070 0.397216976 0.774699688
0.262365550 0.401264995 0.773561060
0.316508353 0.411385298 0.772801995
0.368880540 0.429980725 0.779253542
0.423782557 0.452877998 0.779380023
0.490322649 0.479190618 0.782289267
0.572549045 0.504996538 0.789879799
0.204300910 0.527134597 0.785831511
0.221252471 0.521821678 0.782036543
0.248197630 0.515370190 0.788361609
0.279064178 0.505882561 0.788741052
0.331815004 0.506894410 0.793042302
0.400632292 0.520556629 0.794560492
0.474889368 0.544465482 0.792915761
0.568627536 0.569386423 0.803162217
0.050221369 0.621505260 0.794940054
0.068817541 0.621758521 0.796584785
0.144465551 0.615433276 0.795825601
0.216318652 0.616192281 0.798482239
0.296141684 0.619607508 0.805312991
0.361923188 0.604048014 0.803541839
0.454142988 0.623656034 0.809866965
0.575079083 0.643390298 0.818089604
0.001644712 0.717520535 0.826691985
0.002403711 0.712966561 0.815433145
0.003162904 0.715243280 0.816824913
0.054649018 0.720303655 0.829474926
0.204048350 0.732574582 0.825300515
0.344086051 0.736749053 0.835420251
0.478557825 0.741049528 0.844022870
0.619354725 0.749651968 0.844022870
0.004553996 0.811637998 0.855407894
0.003668556 0.810246646 0.846552670
0.000000000 0.814674377 0.846805632
0.020493271 0.819354653 0.854016244
0.203795090 0.833522916 0.857432008
0.350663811 0.838077247 0.860594511
0.512966633 0.849968493 0.865022242
0.657179058 0.858570635 0.868184686
0.222264156 0.253763646 0.849968791
0.240607172 0.258823514 0.846805811
0.277925462 0.271600068 0.848829985
0.324098825 0.287286460 0.844781637
0.378494561 0.319418162 0.849715471
0.431625724 0.354838580 0.853510559
0.496521175 0.394939810 0.856293321
0.564958930 0.429095626 0.857937932
0.223276362 0.288425088 0.857937932
0.234788015 0.296268195 0.848070979
0.267805248 0.303478628 0.850474119
0.319165289 0.325996101 0.851359785
0.374319911 0.349651992 0.858064413
0.430613607 0.379759669 0.860468030
0.491461009 0.413029611 0.862745225
0.570525229 0.454269350 0.867425382
0.216192260 0.348513663 0.858443916
0.230740204 0.349272668 0.859456182
0.267425776 0.354712069 0.859961927
0.315876186 0.370018721 0.857432187
0.362302095 0.389247179 0.854143143
0.417963177 0.418216079 0.859961867
0.488171995 0.447691232 0.863504112
0.565211773 0.480455786 0.867804885
0.182669178 0.427071482 0.866413772
0.204301208 0.428209811 0.863630474
0.237065092 0.431625575 0.867046058
0.287286818 0.444149464 0.869070351
0.342567891 0.457431942 0.868690789
0.401011825 0.481973469 0.871220827
0.478811085 0.504996836 0.877292991
0.569133580 0.534724653 0.873497784
0.158001021 0.539911151 0.876154661
0.168753907 0.536495626 0.879316926
0.190006107 0.521189094 0.878558159
0.237444744 0.517773330 0.876407266
0.304617167 0.534218609 0.878937602
0.385325462 0.550284624 0.878810823
0.471726894 0.570651412 0.882479548
0.577482641 0.592536032 0.887033641
0.103605077 0.657052457 0.879317045
0.127008051 0.651612699 0.881214619
0.180391997 0.648450375 0.889057815
0.234408811 0.648956299 0.881973743
0.276407629 0.630613506 0.884756446
0.360404819 0.630233705 0.896267891
0.471600294 0.645414531 0.894243956
0.585452497 0.666287243 0.898165643
0.006198708 0.758001208 0.904237628
0.000379544 0.755091846 0.904111266
0.037571214 0.752941251 0.904237628
0.190006211 0.751549602 0.908286273
0.303352237 0.758633912 0.912334144
0.425932735 0.762049496 0.915370166
0.504237771 0.749651909 0.920429766
0.644908309 0.771536946 0.916634977
0.003922001 0.834408641 0.916761637
0.000000000 0.836179435 0.914610922
0.050853670 0.837823868 0.916002691
0.163820431 0.841239810 0.918279469
0.296900541 0.850347936 0.919038594
0.426944971 0.861226857 0.923339784
0.563314140 0.877925336 0.939152122
0.732068181 0.886906743 0.940290570
