Assets/Shaders/EldamarStudio/100 Sci-Fi LUTs Pack/LUTs/cube/Fatrar LUT.cube
DOMAIN_MIN 0 0 0
DOMAIN_MAX 1 1 1
LUT_3D_SIZE 32
0.000000000 0.000000000 0.000000000
0.006072000 0.000000000 0.003036387
0.027197771 0.002150774 0.001771226
0.055787321 0.003922000 0.002529999
0.085768551 0.003542452 0.007843000
0.113092929 0.000506065 0.007843000
0.145477325 0.000000000 0.012902999
0.180518404 0.000000000 0.018974997
0.214674100 0.000759096 0.025047194
0.241998494 0.003795482 0.031119976
0.275142610 0.001012129 0.040101126
0.306514978 0.002024256 0.051233508
0.338013649 0.003922000 0.064516351
0.370651066 0.003668968 0.078937069
0.394939810 0.000632584 0.085009828
0.416824788 0.007210800 0.095888987
0.438077182 0.022391185 0.111068994
0.459329545 0.043643553 0.128652558
0.480581999 0.064895988 0.143832982
0.496268362 0.083365008 0.153447360
0.509550989 0.101580985 0.168247983
0.523719013 0.119797252 0.186464250
0.541935027 0.138013974 0.204680979
0.560151815 0.156230003 0.222897008
0.573814034 0.174446568 0.234282285
0.583175004 0.194054648 0.246173650
0.589753091 0.214800999 0.260847986
0.598861456 0.233016983 0.272991985
0.615938962 0.251233637 0.290448964
0.632384181 0.267678738 0.303352177
0.648450196 0.283744186 0.315116972
0.666666985 0.301961005 0.333332986
0.000000000 0.015180387 0.009108387
0.012143999 0.015180387 0.000000000
0.035420544 0.019481385 0.003036387
0.064895704 0.020872839 0.006831225
0.095256388 0.019101612 0.014294548
0.125236928 0.018722065 0.016951386
0.147501320 0.020746320 0.016951386
0.183807403 0.019607678 0.025300380
0.220746085 0.015939098 0.033396482
0.248070493 0.009867486 0.037191976
0.278304756 0.012903128 0.049082998
0.309551120 0.012143999 0.054269642
0.341050029 0.013029613 0.063377991
0.373687446 0.013535611 0.076407388
0.397976190 0.018848583 0.088045441
0.415053576 0.025426798 0.098924600
0.435040802 0.037571184 0.112586796
0.456925750 0.055154979 0.129917547
0.480581999 0.074003607 0.149904981
0.499051034 0.098039329 0.165085360
0.514484346 0.114864118 0.178494722
0.528779149 0.130929902 0.192536518
0.544591904 0.147122368 0.204554468
0.554079831 0.165338382 0.219860613
0.567742050 0.183554381 0.235799879
0.578494668 0.201770931 0.247817948
0.587729394 0.220367059 0.260341942
0.601897836 0.236053377 0.269955605
0.616318524 0.251613200 0.284756422
0.630613446 0.272991925 0.295508981
0.646299958 0.291966975 0.307779789
0.666666985 0.308032990 0.330297381
0.010752774 0.034661774 0.016066000
0.018595774 0.041113544 0.011258612
0.043643318 0.038962770 0.010752773
0.071473770 0.043769933 0.012523999
0.100822322 0.042504773 0.018216224
0.134724766 0.040733546 0.021252161
0.161796093 0.038962323 0.021758227
0.189626470 0.040353999 0.028336640
0.225300089 0.040100966 0.038203679
0.249841511 0.037951030 0.041239720
0.282226503 0.038330451 0.053004771
0.312586755 0.037318062 0.067172505
0.341808856 0.037191544 0.072991863
0.372422278 0.037697542 0.084123999
0.396711022 0.043769538 0.096267991
0.422390968 0.052245349 0.110562764
0.437570959 0.061353736 0.122706771
0.456293344 0.075901523 0.135989577
0.476027995 0.094117567 0.151169986
0.492599785 0.111448504 0.166856363
0.512713492 0.128146768 0.182036728
0.526375592 0.144085988 0.197217122
0.539152265 0.160404712 0.208855495
0.550284922 0.176597014 0.224035650
0.563820243 0.194813535 0.237065047
0.575964570 0.210246518 0.250853747
0.586844027 0.226439059 0.262492299
0.602024436 0.241619423 0.271600306
0.615053892 0.258950055 0.286021590
0.628462732 0.277672380 0.295888752
0.644149423 0.298924565 0.307273716
0.666666985 0.314105004 0.331562221
0.020872839 0.063504159 0.020872839
0.032005161 0.066287383 0.020366773
0.054016545 0.069323547 0.020366773
0.083112150 0.067552321 0.025933161
0.108538702 0.070209160 0.027451158
0.144085869 0.068058386 0.033143386
0.174193472 0.066287160 0.032384161
0.199746862 0.066160321 0.037697412
0.232384354 0.066160321 0.048323996
0.255154818 0.071220964 0.051865682
0.285515606 0.070209160 0.061100576
0.318153113 0.069450065 0.074004054
0.345097780 0.068690673 0.086906679
0.371916234 0.069323152 0.096268058
0.396204978 0.075395152 0.108412303
0.419101775 0.083870955 0.122959793
0.444149345 0.090449348 0.136622310
0.459329545 0.100190140 0.148766309
0.474509865 0.117141180 0.158507138
0.490955383 0.130044520 0.170651525
0.506135583 0.143327147 0.184566721
0.523339987 0.157495141 0.199747115
0.532700658 0.175584644 0.214927495
0.545983791 0.190765053 0.230107903
0.557874739 0.204427570 0.239215821
0.574193358 0.219860971 0.251360148
0.586844027 0.232511058 0.264010102
0.602024436 0.247691438 0.274636269
0.614547968 0.266793132 0.287792802
0.625427067 0.282985151 0.300189972
0.639342129 0.303352177 0.309803993
0.662871838 0.318912178 0.333332986
0.024667548 0.101075098 0.025426548
0.043263774 0.096521094 0.029601481
0.067931771 0.096141770 0.029727997
0.095256157 0.098671995 0.033143707
0.122580543 0.098292544 0.041492999
0.155976921 0.098292544 0.053636994
0.186464190 0.099051543 0.054269224
0.212650254 0.099557385 0.057431705
0.235800177 0.101454549 0.065781094
0.266161025 0.101454549 0.071853101
0.293232322 0.098924868 0.078304544
0.324225247 0.098292544 0.088424958
0.353447199 0.099051446 0.099430896
0.374446571 0.102340095 0.108538575
0.398482263 0.108412087 0.120556824
0.418342978 0.116508342 0.134724736
0.438836306 0.122960187 0.148007393
0.461986423 0.127134979 0.160151988
0.477166057 0.139279008 0.172296017
0.494750172 0.149019897 0.182036802
0.508791983 0.159645990 0.192662999
0.520683169 0.172675550 0.205439582
0.530044496 0.190765038 0.220619947
0.545224905 0.205945462 0.235800371
0.556989253 0.216571823 0.243010804
0.568753719 0.227451071 0.250221342
0.586084902 0.239721611 0.262492448
0.601265311 0.254901975 0.277672082
0.614168406 0.274636358 0.290575653
0.624921203 0.291334510 0.302340478
0.636685967 0.304490626 0.315875977
0.654901981 0.322707444 0.334091991
0.033775933 0.125363857 0.040606931
0.055028319 0.131435871 0.052751705
0.080075771 0.129032090 0.050474323
0.107400157 0.130802989 0.050474320
0.134724542 0.134724542 0.056673385
0.162048921 0.131688923 0.059708994
0.190385967 0.136748940 0.066793002
0.218216643 0.135230929 0.071346931
0.244529024 0.131435767 0.077925190
0.272233009 0.128778934 0.083997875
0.296774000 0.128778934 0.092978999
0.325616568 0.130297244 0.103604920
0.354206264 0.131688923 0.114610702
0.377482951 0.132700861 0.123718962
0.395698905 0.138772860 0.132827342
0.417330861 0.144844860 0.144844994
0.436558992 0.151422933 0.155977130
0.456419677 0.156988993 0.166223988
0.477166057 0.163567007 0.178368017
0.492346376 0.175711706 0.190512016
0.504237771 0.185452193 0.200252801
0.515876174 0.195066124 0.210878998
0.530044496 0.205945432 0.223655552
0.545224905 0.221125841 0.238835976
0.562681973 0.231752217 0.251739651
0.573813915 0.243643582 0.262365848
0.582922041 0.257811844 0.274509996
0.595192552 0.270082355 0.286780477
0.610372961 0.285262734 0.301960737
0.623276472 0.303225875 0.313093185
0.636685967 0.318658918 0.324478298
0.654901981 0.331815064 0.340164006
0.058064319 0.162302315 0.068437643
0.071727023 0.168374315 0.075521767
0.092978865 0.167995095 0.079063997
0.120809317 0.168753952 0.078810640
0.148639873 0.173687413 0.084503546
0.171663254 0.170651257 0.087539703
0.201517954 0.170145318 0.095635317
0.230487391 0.171284035 0.100063026
0.258697420 0.168374538 0.104490735
0.286021829 0.168880150 0.108792298
0.312966645 0.168753639 0.117773443
0.333206654 0.168753639 0.124857314
0.359266281 0.170145318 0.134850964
0.383808017 0.170145318 0.143959358
0.408855289 0.171663314 0.153067738
0.429475099 0.177735314 0.169386312
0.449209303 0.183807701 0.180265516
0.466160476 0.189879954 0.189373896
0.481720626 0.195951983 0.199620649
0.494876683 0.205059707 0.204174325
0.508159339 0.217204466 0.216318786
0.519924164 0.225932956 0.226059511
0.534851491 0.233523145 0.236558825
0.545224905 0.243896544 0.246932238
0.558127999 0.256799638 0.259835333
0.573055029 0.267552316 0.271980017
0.582415998 0.281087995 0.284124315
0.594559968 0.293231994 0.296268314
0.609360814 0.305503130 0.303478807
0.624541163 0.320683062 0.318659186
0.641872227 0.338140190 0.331056595
0.665022016 0.353573650 0.346236646
0.083744407 0.193548411 0.100442693
0.097533472 0.201264694 0.103225693
0.112839922 0.200885475 0.103352405
0.131561860 0.200379536 0.103352405
0.159645543 0.204553977 0.108285859
0.183427930 0.200252756 0.111321926
0.213915333 0.206325114 0.121062376
0.239342391 0.199746698 0.125236705
0.270462096 0.199747071 0.129791096
0.299557507 0.204553917 0.134598479
0.320303887 0.204680398 0.141808823
0.346489727 0.203035697 0.148892686
0.364705712 0.203035697 0.154964983
0.387982339 0.203541756 0.163820401
0.413915396 0.206325114 0.174320117
0.433143765 0.207843110 0.184060693
0.452877998 0.213915110 0.197722897
0.470461577 0.220620111 0.206198692
0.483618259 0.227703989 0.214294970
0.497407019 0.233270064 0.222770348
0.509550989 0.240986452 0.229854465
0.520683169 0.252119124 0.243011117
0.534471989 0.259076685 0.253257394
0.545098186 0.269702882 0.260847598
0.558127999 0.277798980 0.273877412
0.568880677 0.288551629 0.281846732
0.581277609 0.299936771 0.293232262
0.594559968 0.310942411 0.305376261
0.609360814 0.326375633 0.313851982
0.622896850 0.338646412 0.323592454
0.638962686 0.354711890 0.337887496
0.664009988 0.372928709 0.352308989
0.108792096 0.220114097 0.132321090
0.122454479 0.228462800 0.130803093
0.136875421 0.228968963 0.130170867
0.153573349 0.228463024 0.129159003
0.169512749 0.230739728 0.129538551
0.196078137 0.225047275 0.132574260
0.223908961 0.231119737 0.141682193
0.251486629 0.233902767 0.147248194
0.272739023 0.225553274 0.149525285
0.306135416 0.234661669 0.158633679
0.325869858 0.235800087 0.166350201
0.348387182 0.233776018 0.170904189
0.372296095 0.231878281 0.176976278
0.390512109 0.231878281 0.183048993
0.413788706 0.236938924 0.194180995
0.432384700 0.238962993 0.202277094
0.447565079 0.241998985 0.207590193
0.466413647 0.246805996 0.217963561
0.481847107 0.255534112 0.224415109
0.496268362 0.259835541 0.235294193
0.509550989 0.264769197 0.244781822
0.521442056 0.271094233 0.254396021
0.530423880 0.280076087 0.269196928
0.541302919 0.290955096 0.275269121
0.554206192 0.299304157 0.286654174
0.568121612 0.306767642 0.298545301
0.578747928 0.316382140 0.302087098
0.594180524 0.325743526 0.313725173
0.608601928 0.341303051 0.323971927
0.622770429 0.355977029 0.333333045
0.638963044 0.369892269 0.347754210
0.657179058 0.388109088 0.359898984
0.136116505 0.253510535 0.159645498
0.145224884 0.259582520 0.153573513
0.156736493 0.259329766 0.154206276
0.172802135 0.258823842 0.156989336
0.193801522 0.261100531 0.159898564
0.215053916 0.258064926 0.162934959
0.231499299 0.257432461 0.168500975
0.252371997 0.259582788 0.171536982
0.275774628 0.261986077 0.173814073
0.297027022 0.265022486 0.182922482
0.327514231 0.268311143 0.194939986
0.353193998 0.267172784 0.198734984
0.375331819 0.265275478 0.201264992
0.393548489 0.265275478 0.207337022
0.411764473 0.265275478 0.213409007
0.432637304 0.267931730 0.222137809
0.449082911 0.272359043 0.226565495
0.463378042 0.277166039 0.230107576
0.484630466 0.277166039 0.245287985
0.497280508 0.283112228 0.254522860
0.509550989 0.289057970 0.261859953
0.521695018 0.295129955 0.269070357
0.533459544 0.301328480 0.278304547
0.539531529 0.307400465 0.284377337
0.548133850 0.316002756 0.292726189
0.560278177 0.324984252 0.303478479
0.575711548 0.334598124 0.314231098
0.593927503 0.346742898 0.320303887
0.606704652 0.358760476 0.331941962
0.620746672 0.371157438 0.340417475
0.639342546 0.385072649 0.351170063
0.666287482 0.403289467 0.372042984
0.154712006 0.278178751 0.184060737
0.172549263 0.284250736 0.186716869
0.179506868 0.286021739 0.180644870
0.188868031 0.287539870 0.180139005
0.204301417 0.291081727 0.181530416
0.230613798 0.285515785 0.184566811
0.246806175 0.287539542 0.190132871
0.263630867 0.291207999 0.194560587
0.284629971 0.293990970 0.195825741
0.305882365 0.292726368 0.198482364
0.332953721 0.292852879 0.207589984
0.355217993 0.293864757 0.215685993
0.375458300 0.292852879 0.219734281
0.393674999 0.292852879 0.225806743
0.411890984 0.292852879 0.231878728
0.425300598 0.295256078 0.237950742
0.445035070 0.298292071 0.246553048
0.460721433 0.302972734 0.250727743
0.472865254 0.307526737 0.254522830
0.494117647 0.307526737 0.261353880
0.502846181 0.311448723 0.272233009
0.512966394 0.315496743 0.280328989
0.524984300 0.319797486 0.287539363
0.533838987 0.328652889 0.296394825
0.549019575 0.332447588 0.304743707
0.560025156 0.340290785 0.313851655
0.571663260 0.349904865 0.324477851
0.585072815 0.362049043 0.335357040
0.600632668 0.371536940 0.338772953
0.614800751 0.385199189 0.348387182
0.629980803 0.396710873 0.355597854
0.649209261 0.406831115 0.366730005
0.179000244 0.308539242 0.208348989
0.191144764 0.308538973 0.205312863
0.206831232 0.312334239 0.209993243
0.214168400 0.312334239 0.205186397
0.224415243 0.316508710 0.206325039
0.246805921 0.315369964 0.215939432
0.264010310 0.316888183 0.217457503
0.279190689 0.316634804 0.220240504
0.297786355 0.320809335 0.224415138
0.319038749 0.320303738 0.228209972
0.338014126 0.322200984 0.230866358
0.357241988 0.320177257 0.231878489
0.376596630 0.320177257 0.235673502
0.395192772 0.320430219 0.239974990
0.409867257 0.322200984 0.246046990
0.429348588 0.320556700 0.256166995
0.441492975 0.323592305 0.259202987
0.459962308 0.326628566 0.266160727
0.471853316 0.331309229 0.268943727
0.486021370 0.333839506 0.274510235
0.497786015 0.335736752 0.278684497
0.504870176 0.337760985 0.290448993
0.516129255 0.340037763 0.298418522
0.529032350 0.349146158 0.303731889
0.540923297 0.355724216 0.312840223
0.559139669 0.360151470 0.319164842
0.570651114 0.369133234 0.327513993
0.582795858 0.381277233 0.339657992
0.595572591 0.392789334 0.349905074
0.612523735 0.405439675 0.358254194
0.628842235 0.418848872 0.368500948
0.645161271 0.426059246 0.376850009
0.209740281 0.344212651 0.234914273
0.217710018 0.342314869 0.232257918
0.228842407 0.343580037 0.231372267
0.242631152 0.344212651 0.235926434
0.250980526 0.344212651 0.233270273
0.265401661 0.346489340 0.244655579
0.281087965 0.348386943 0.248323992
0.296268344 0.350411236 0.250600994
0.312207639 0.348133922 0.250600994
0.333080471 0.350790769 0.258570164
0.347375214 0.351549387 0.262365282
0.362555385 0.351675898 0.260341555
0.378873914 0.352055639 0.259582639
0.399367273 0.352055639 0.260088623
0.411511809 0.354205847 0.266160607
0.428589791 0.354712069 0.272485614
0.444149345 0.352435082 0.278557628
0.456925929 0.354838282 0.279822618
0.472106367 0.357368618 0.285894662
0.483365029 0.361543328 0.291967064
0.495129615 0.363440871 0.297280520
0.502213478 0.367488891 0.299304277
0.511574864 0.367994905 0.310815752
0.526755273 0.376091182 0.315875888
0.538519979 0.381783664 0.322327644
0.551169932 0.387855649 0.329791605
0.568374097 0.393927753 0.333839208
0.580518842 0.404806912 0.345350623
0.594940007 0.416951299 0.358633637
0.611764610 0.430866808 0.370777935
0.629095256 0.446047217 0.380265594
0.647059023 0.455660909 0.391650647
0.244149059 0.381910056 0.264010012
0.249968022 0.382163018 0.267046422
0.257684797 0.383807778 0.266034305
0.268311054 0.384819865 0.265275180
0.279569596 0.382163018 0.268185019
0.282605976 0.382163018 0.268185019
0.295762300 0.381910056 0.270714760
0.310942680 0.384060681 0.274889052
0.326376021 0.386085033 0.279696018
0.344592005 0.386085033 0.279696018
0.356483042 0.383681178 0.287918895
0.370904237 0.382669032 0.289184272
0.386970252 0.384440035 0.288678378
0.404428005 0.390512019 0.291967005
0.416571975 0.390512019 0.298038989
0.430866748 0.392409831 0.299557060
0.443516850 0.392409831 0.299810022
0.453636587 0.390512019 0.300568998
0.468816996 0.390512019 0.306641012
0.478937358 0.395825058 0.312207043
0.491334736 0.398355097 0.318785429
0.504237890 0.399873286 0.322580993
0.513598561 0.405946016 0.323213488
0.528778970 0.412018031 0.332574159
0.539405286 0.416065782 0.338646024
0.550410986 0.420240045 0.345224321
0.562808096 0.426818132 0.351802945
0.574952841 0.432890922 0.360910565
0.592156947 0.443770021 0.374825835
0.612397194 0.457432181 0.387982011
0.631625593 0.472612590 0.397722632
0.646806002 0.487792999 0.400759041
0.256293833 0.400126815 0.279190421
0.259329438 0.403162420 0.282226801
0.262998164 0.401265144 0.283112407
0.272359580 0.402024239 0.282479823
0.285768837 0.403415382 0.283491850
0.291714340 0.403415382 0.286400974
0.304870099 0.400885701 0.288931280
0.320050269 0.405060112 0.290322810
0.334471762 0.409867078 0.292346716
0.347628415 0.407337397 0.294876397
0.354206413 0.410246521 0.297786266
0.369639397 0.409993410 0.300063401
0.386084616 0.409993410 0.301707983
0.401391625 0.411764413 0.307147413
0.410499990 0.417836398 0.313219398
0.422644019 0.415433198 0.316888213
0.436938763 0.413662195 0.319291621
0.450221419 0.412523389 0.321062386
0.462745011 0.417836398 0.321821392
0.477925360 0.420619756 0.322327405
0.488045752 0.424288541 0.331182390
0.497407019 0.425680220 0.337001681
0.504490972 0.427198380 0.335357487
0.519671381 0.433270365 0.350537896
0.530297160 0.439342380 0.350790530
0.543579876 0.443390131 0.356609374
0.560025454 0.448576510 0.366982639
0.574952841 0.460215300 0.376090944
0.589753091 0.466287404 0.385199219
0.610878944 0.477166355 0.395572573
0.630993009 0.490828544 0.404427826
0.643769562 0.506008983 0.409867406
0.268437982 0.423149973 0.294370800
0.276281208 0.421379209 0.292599589
0.272865057 0.426565588 0.297786206
0.278937519 0.423023760 0.298292190
0.292220443 0.422644049 0.299051195
0.300316185 0.424667776 0.304111063
0.304364473 0.429348290 0.304743499
0.321188778 0.426312685 0.307779878
0.335610092 0.430866510 0.310056984
0.346110135 0.431119472 0.314737290
0.359645993 0.429095715 0.312966645
0.369765967 0.430107594 0.311954528
0.383807629 0.431245953 0.313851982
0.396205008 0.433016807 0.319417983
0.407463580 0.439088762 0.321188986
0.421379000 0.442757577 0.327261001
0.430487007 0.441239774 0.327261388
0.443010777 0.439089000 0.328526229
0.456926018 0.439847767 0.330296993
0.467046380 0.440733343 0.332700789
0.480329007 0.443769723 0.336495787
0.491967350 0.447817981 0.346615940
0.502340436 0.450727493 0.349525779
0.512966275 0.454522789 0.357874900
0.528146684 0.458317488 0.366223991
0.538899362 0.465654641 0.367741764
0.555092037 0.471726656 0.377861798
0.572169602 0.481973678 0.388867408
0.584946096 0.488804787 0.397975802
0.607210100 0.500189960 0.408854932
0.628589392 0.513852000 0.415053785
0.640733778 0.529031992 0.416572005
0.279064178 0.444402397 0.309551179
0.285136193 0.447438389 0.311068982
0.285009831 0.446300179 0.309930176
0.286527365 0.448577017 0.314737350
0.298671991 0.444655538 0.315749407
0.308918238 0.449968457 0.321821392
0.312966496 0.449462384 0.322833389
0.318153173 0.452118903 0.322959870
0.334851176 0.449842185 0.324478090
0.344718486 0.452118903 0.328272998
0.355091691 0.452371866 0.328652859
0.368247807 0.452878177 0.330170900
0.380392075 0.454016536 0.328273177
0.390132993 0.456546217 0.333333194
0.402276993 0.458823383 0.334598392
0.415306628 0.460974008 0.337887198
0.425932825 0.465528190 0.340923160
0.433902383 0.466160774 0.338519990
0.449082792 0.464895576 0.340670228
0.458697170 0.467678577 0.345224321
0.472738802 0.466539919 0.350158006
0.483870953 0.469576329 0.355218112
0.498039335 0.474889398 0.363187969
0.509930313 0.476534098 0.369259983
0.522074223 0.482605904 0.376850188
0.537254632 0.484250188 0.382922173
0.548007846 0.493485123 0.388994187
0.561163962 0.503605604 0.399114162
0.578621209 0.511574984 0.410119802
0.598102152 0.518405974 0.417963326
0.625426590 0.534472048 0.427450776
0.640733778 0.550284386 0.425679982
0.286907405 0.463251561 0.324731410
0.289943188 0.472991765 0.328906000
0.289310753 0.473497748 0.330423802
0.291334987 0.471094370 0.330550134
0.303099453 0.468817085 0.333206981
0.314990431 0.477419496 0.338772982
0.319544733 0.474509984 0.338519990
0.323593020 0.471726984 0.338519990
0.331815422 0.472991973 0.340291053
0.343959391 0.472991973 0.337254643
0.349652022 0.474636257 0.339405417
0.360404611 0.477672249 0.344465554
0.373181283 0.480708510 0.348260552
0.385325998 0.483238101 0.348513514
0.397469997 0.480202407 0.351549834
0.407716572 0.479570001 0.353953183
0.418722004 0.481973559 0.355470985
0.424794167 0.486780584 0.356103569
0.439974576 0.489816964 0.356103569
0.450853765 0.494370967 0.361669570
0.463757008 0.496647805 0.366476566
0.480202138 0.495635688 0.372169107
0.489310503 0.498545557 0.375205487
0.503478944 0.498545557 0.380771577
0.516381979 0.505376279 0.388488263
0.529917657 0.513472140 0.398102552
0.545604050 0.513978183 0.403668493
0.549272835 0.525743425 0.409613967
0.568248153 0.535230696 0.419734150
0.591271460 0.543200135 0.428336412
0.614547551 0.551549196 0.436053544
0.641871989 0.569765985 0.439089149
0.289943039 0.484504014 0.339911073
0.292979419 0.496648014 0.336875468
0.293864965 0.497786224 0.341050029
0.296141982 0.496015072 0.346363008
0.303099453 0.496141553 0.351423025
0.312207043 0.499177933 0.351423025
0.316508353 0.497659713 0.346869022
0.319544733 0.496015072 0.344592005
0.325869918 0.497533083 0.346869111
0.340923011 0.503352106 0.355471462
0.344338894 0.500442922 0.355344951
0.355724275 0.501960754 0.359646022
0.370651603 0.504996717 0.363440990
0.385325998 0.507526994 0.363693953
0.397469968 0.504490614 0.366729558
0.402403802 0.503858089 0.367362082
0.412270784 0.505376279 0.367615044
0.424794167 0.508033037 0.368247628
0.430866987 0.508033037 0.371284008
0.446046650 0.508286059 0.376850009
0.456925780 0.512587070 0.379126996
0.468817145 0.516888142 0.381656975
0.483238518 0.519798040 0.387349546
0.492346883 0.519798040 0.390385926
0.504238009 0.526628733 0.395951986
0.517773628 0.538519681 0.406451672
0.533460021 0.550411046 0.418848932
0.551676035 0.553447425 0.421884567
0.571283817 0.562555194 0.427830696
0.594307423 0.571663260 0.434408933
0.616824985 0.581404030 0.443137586
0.635800064 0.594054043 0.457305968
0.290196002 0.533586383 0.371790081
0.293232381 0.537381768 0.374319762
0.296268225 0.543074012 0.373434395
0.298165798 0.541302919 0.375711381
0.301581442 0.539405584 0.377608925
0.301075041 0.537634373 0.375205725
0.310183287 0.540670753 0.377735406
0.318659008 0.538140416 0.377356082
0.326628745 0.537001789 0.377735645
0.337760866 0.539025724 0.378747523
0.344085872 0.544718266 0.384692997
0.351170242 0.541682661 0.384692997
0.363694012 0.542062104 0.385831654
0.376470625 0.543200731 0.384440333
0.383554608 0.542694688 0.387475938
0.395698607 0.544465303 0.392915994
0.404427677 0.544844747 0.392156899
0.418975323 0.545983374 0.392156720
0.433649570 0.545983374 0.397343338
0.442505032 0.548766792 0.403162390
0.457685083 0.550664008 0.409234375
0.467552364 0.553826392 0.412017524
0.477292985 0.555218041 0.416065753
0.489057541 0.560531735 0.416445285
0.504996657 0.565085769 0.421758354
0.518153012 0.572296083 0.429222018
0.531942010 0.581277668 0.439089388
0.547881365 0.584313452 0.439848274
0.568754137 0.592662811 0.445540696
0.588235319 0.605312884 0.453384191
0.618469417 0.615559697 0.464010358
0.657558739 0.623908758 0.481088012
0.288298756 0.562428713 0.393801719
0.291334659 0.561669648 0.394940078
0.292473227 0.572296023 0.397722721
0.294243991 0.570271909 0.393927574
0.297406793 0.567109704 0.392789096
0.300442815 0.568627536 0.394307643
0.299936563 0.568754077 0.396331400
0.312333941 0.571790040 0.399367422
0.322454095 0.569259882 0.401644737
0.329285502 0.568121493 0.399746984
0.339278996 0.570145488 0.403541744
0.345477492 0.572043002 0.403668463
0.354585886 0.571284115 0.404806823
0.365465015 0.572043002 0.403795004
0.371536970 0.572043002 0.406831026
0.384313732 0.574446678 0.408475608
0.397975922 0.574446261 0.413029790
0.409867436 0.574699342 0.411385000
0.424288273 0.575964451 0.414927006
0.437950611 0.578747392 0.424794465
0.448956251 0.581783712 0.427071482
0.462112665 0.583807468 0.432131350
0.469323248 0.584060431 0.434914529
0.481467247 0.590132773 0.433143735
0.498165727 0.594307780 0.441492707
