Assets/Shaders/EldamarStudio/100 Sci-Fi LUTs Pack/LUTs/cube/Fatrar LUT.cube
LUT_3D_SIZE 5
DOMAIN_MIN 0.000000 0.000000 0.000000
DOMAIN_MAX 0.903226 0.903226 0.903226
0.000000000 0.000000000 0.000000000
0.180518404 0.000000000 0.018974997
0.394939810 0.000632584 0.085009828
0.523719013 0.119797252 0.186464250
0.615938962 0.251233637 0.290448964
0.083744407 0.193548411 0.100442693
0.239342391 0.199746698 0.125236705
0.413915396 0.206325114 0.174320117
0.520683169 0.252119124 0.243011117
0.609360814 0.326375633 0.313851982
0.256293833 0.400126815 0.279190421
0.320050269 0.405060112 0.290322810
0.410499990 0.417836398 0.313219398
0.497407019 0.425680220 0.337001681
0.589753091 0.466287404 0.385199219
0.282226741 0.581657112 0.406957865
0.299177557 0.594054520 0.412523568
0.362428844 0.598355293 0.425047398
0.450980008 0.609108150 0.445288002
0.565591514 0.646426260 0.477925241
0.126249239 0.807083726 0.528272986
0.180644870 0.805945516 0.544971704
0.282985598 0.814168215 0.552561343
0.419987381 0.822643638 0.562049091
0.596584618 0.833143771 0.587222755
0.021252289 0.000000000 0.271979988
0.267425388 0.006577994 0.274636388
0.401138693 0.099810109 0.290701687
0.514484227 0.187729254 0.347248375
0.601517797 0.272359103 0.395572394
0.076913692 0.232763976 0.308285683
0.243896395 0.224288404 0.314484388
0.413535684 0.240986675 0.335737109
0.503352046 0.267425835 0.365844667
0.592915833 0.333839536 0.410626411
0.270335287 0.391271263 0.383428127
0.311827987 0.401138693 0.386717081
0.405313402 0.412903100 0.405059695
0.485389143 0.422770381 0.420746118
0.581530511 0.468943357 0.457052559
0.280329168 0.577355981 0.468438119
0.297027290 0.586211145 0.476281136
0.360025167 0.589879990 0.481214404
0.437571287 0.602909267 0.498797983
0.552561820 0.642884195 0.527387798
0.114611223 0.797216594 0.568880498
0.173687607 0.805692613 0.573814034
0.285768569 0.807590187 0.583554566
0.424541235 0.814800620 0.601644337
0.599367559 0.827577472 0.626818478
0.114484400 0.048449989 0.495635808
0.272359520 0.082479395 0.497280121
0.432131410 0.164199397 0.504743814
0.518406034 0.258317828 0.498292387
0.573434412 0.312586814 0.521821797
0.171031117 0.239342406 0.523086369
0.266793400 0.237697706 0.519165397
0.419354707 0.269070089 0.525996089
0.505629182 0.319164991 0.514231563
0.565464795 0.365844250 0.545350969
0.217710406 0.439341962 0.551170409
0.264010012 0.443643093 0.552814722
0.375205874 0.430233955 0.558380842
0.474889725 0.439721704 0.558001101
0.555091381 0.481973201 0.578621268
0.218722597 0.593674958 0.597849548
0.245920300 0.595319152 0.604048371
0.314610869 0.600252807 0.607716680
0.410879284 0.611764967 0.614294529
0.551802933 0.646426499 0.641492665
0.003795180 0.793295205 0.653763831
0.054143265 0.795825601 0.655155182
0.252371997 0.810246348 0.666160583
0.434788108 0.816825032 0.686527371
0.611764789 0.831878603 0.710816205
0.199114129 0.159013256 0.678810954
0.285389125 0.176976278 0.684883118
0.402656406 0.225679830 0.686527252
0.499051154 0.299177855 0.685515106
0.588741243 0.380265534 0.696267962
0.224541694 0.270335138 0.694117963
0.283617824 0.279822975 0.692979395
0.391903847 0.306388110 0.692726254
0.479822844 0.351170272 0.687159836
0.585198760 0.421125978 0.706514895
0.239468873 0.452119112 0.711954296
0.271853000 0.453510702 0.707400382
0.342820853 0.438709378 0.712333739
0.445414156 0.466919839 0.710436523
0.574446619 0.516002655 0.721568346
0.054395754 0.624794126 0.737507999
0.106641337 0.629601300 0.743706524
0.226565138 0.634914696 0.739784718
0.386464238 0.631752253 0.745477259
0.578621089 0.656546235 0.757874787
0.003288990 0.804427564 0.799367309
0.000000000 0.812903166 0.799114645
0.078305095 0.816445470 0.794054568
0.400379747 0.826691628 0.802277267
0.633902550 0.841998994 0.816065609
0.222264156 0.253763646 0.849968791
0.266287297 0.268563926 0.847058892
0.355597824 0.305502385 0.847438633
0.446806133 0.362428814 0.851739466
0.564958930 0.429095626 0.857937932
0.220746338 0.330297381 0.854902089
0.260088831 0.334218651 0.852624774
0.340417594 0.362934798 0.855155230
0.436432540 0.411638200 0.859456122
0.562681675 0.469576389 0.865021825
0.168501183 0.464262962 0.880202472
0.200506032 0.464642674 0.861732960
0.299303979 0.483365029 0.871600211
0.412903547 0.513725519 0.872485697
0.567741573 0.553193927 0.878178239
0.041619185 0.682858944 0.886906981
0.131561935 0.677545965 0.890828490
0.265401542 0.678431511 0.892220080
0.385704935 0.657558382 0.896774113
0.596078396 0.687033653 0.900948822
0.003922001 0.834408641 0.916761637
0.027324516 0.835799873 0.919038475
0.233902171 0.846299767 0.918659210
0.460594386 0.865527928 0.926375806
0.732068181 0.886906743 0.940290570
