Assets/Shaders/EldamarStudio/100 Sci-Fi LUTs Pack/LUTs/cube/Fendred LUT.cube
LUT_3D_SIZE 5
DOMAIN_MIN 0.000000 0.000000 0.000000
DOMAIN_MAX 0.903226 0.903226 0.903226
0.043136999 0.070588000 0.101961002
0.188361391 0.072865292 0.132700995
0.389752954 0.066666998 0.128779411
0.635673285 0.100062996 0.199114129
0.924730778 0.145224825 0.264137000
0.082353003 0.187349692 0.146489412
0.185705408 0.190259412 0.145477697
0.380265683 0.203668699 0.172928706
0.642251849 0.237064958 0.224920988
0.929917574 0.272738636 0.282099873
0.130170405 0.370145828 0.221631572
0.224035516 0.371790111 0.234408706
0.393042386 0.377356231 0.243896410
0.635420501 0.424414814 0.267425984
0.933207035 0.474130213 0.312586814
0.209993988 0.640607119 0.297153860
0.306767970 0.645541251 0.295129716
0.486021817 0.650474370 0.309171408
0.689690113 0.656293392 0.310815871
0.944591761 0.694117963 0.337128103
0.417583585 0.921947777 0.376596808
0.475648463 0.921062469 0.369259924
0.608981371 0.925363362 0.378114939
0.782416105 0.924984097 0.385831803
0.963820636 0.929917574 0.397722960
0.000000000 0.090195999 0.269702703
0.168374687 0.087919287 0.265781105
0.341050088 0.117014416 0.283111960
0.592157125 0.151296869 0.326881588
0.903225780 0.173307985 0.375331819
0.073244996 0.180771694 0.255660981
0.183428109 0.191271678 0.281467736
0.336495697 0.213536114 0.299810112
0.589374006 0.239341959 0.336748838
0.912333608 0.280581981 0.379885972
0.140923291 0.354458958 0.317394108
0.218090117 0.360657692 0.318405986
0.371536791 0.363946706 0.327261120
0.617077708 0.412397116 0.355977118
0.923086464 0.478431314 0.390385807
0.221758410 0.636052966 0.368374288
0.310436517 0.637064874 0.365844548
0.480834782 0.638709366 0.370398253
0.680835247 0.644908607 0.370018840
0.937128186 0.694876790 0.401138514
0.466666579 0.922706723 0.415812999
0.505502462 0.915116906 0.417710483
0.627956748 0.917773426 0.426691681
0.792283177 0.920050800 0.431625813
0.963567376 0.923339844 0.439974636
0.016445404 0.093485415 0.459582418
0.200505689 0.106894284 0.457684994
0.371536791 0.131435573 0.445287377
0.599114299 0.152308583 0.459329516
0.900569141 0.197596803 0.493611574
0.108285695 0.227577403 0.438076973
0.207336977 0.224920988 0.433776110
0.361669391 0.230486691 0.430866390
0.589626968 0.253383845 0.456293583
0.899936736 0.303225517 0.493232280
0.171410814 0.372801781 0.431498975
0.246552825 0.371157497 0.433776110
0.416698217 0.404807240 0.460341781
0.622390985 0.425806820 0.468817383
0.901834130 0.497153640 0.504869938
0.285262406 0.617836952 0.464010119
0.353320390 0.624920905 0.468184799
0.500063121 0.628842354 0.478937507
0.682479501 0.642251849 0.477545708
0.930550277 0.703099251 0.511575103
0.543073773 0.904364228 0.529664755
0.573055029 0.908032715 0.524731040
0.669070184 0.910942316 0.528399765
0.809614241 0.915496767 0.534345210
0.971789598 0.922707260 0.548766315
0.236559123 0.151169986 0.620873153
0.333585978 0.156609714 0.625426710
0.501960933 0.165464848 0.620873153
0.696521282 0.167742133 0.604301274
0.921189070 0.212776780 0.622264087
0.260973841 0.276027977 0.610499561
0.336116403 0.278304696 0.611764967
0.498039514 0.278304696 0.605566025
0.686147809 0.280581981 0.599620402
0.924351692 0.321568668 0.626565516
0.301581234 0.448703378 0.594686747
0.367362529 0.453004122 0.596457899
0.515116513 0.457558692 0.597343147
0.687413275 0.457558692 0.591397703
0.920809746 0.520050228 0.623529494
0.371031255 0.646553099 0.596331298
0.424288511 0.645161569 0.588235557
0.561922789 0.650474429 0.595066249
0.746489406 0.684756279 0.614041984
0.931815088 0.734092116 0.650980294
0.585578740 0.906641304 0.664516091
0.624035180 0.906641364 0.668184876
0.712839723 0.906388581 0.679569781
0.833143771 0.911321759 0.691714048
0.962808490 0.919797659 0.700315952
0.357115656 0.273624629 0.898671746
0.421125978 0.276533753 0.889183700
0.573434353 0.289310753 0.887539148
0.769892097 0.319165051 0.881973326
0.955976903 0.364073575 0.876407623
0.400379628 0.383428365 0.883997321
0.452624619 0.385072649 0.881973326
0.596078515 0.396204472 0.878684342
0.774825811 0.417457193 0.878431439
0.957241774 0.449082553 0.877419472
0.511701584 0.590132773 0.872359395
0.545603752 0.583807468 0.876786888
0.652119160 0.589374006 0.871853173
0.797849357 0.598608196 0.877039552
0.955976784 0.611005604 0.873244822
0.577861965 0.754712045 0.877925396
0.613535762 0.757368803 0.873497725
0.708285749 0.765844047 0.873877466
0.818975329 0.771790028 0.877798557
0.956609786 0.778620899 0.877166390
0.652877629 0.919417739 0.881593764
0.682099700 0.917773485 0.890195608
0.744212568 0.920682907 0.892219722
0.850094795 0.924604595 0.889816225
0.966350615 0.937634468 0.905249596
