Assets/Shaders/EldamarStudio/100 Sci-Fi LUTs Pack/LUTs/cube/Fendred LUT.cube
LUT_3D_SIZE 8
DOMAIN_MIN 0.000000 0.000000 0.000000
DOMAIN_MAX 0.903226 0.903226 0.903226
0.043136999 0.070588000 0.101961002
0.105376549 0.070967548 0.114863545
0.220999092 0.070588000 0.137254998
0.331815630 0.061100997 0.128273353
0.459835559 0.077546000 0.149652198
0.599240959 0.093990996 0.190006256
0.759645820 0.120556280 0.228715986
0.924730778 0.145224825 0.264137000
0.058444452 0.124984547 0.118026547
0.116761088 0.117140643 0.121948451
0.213915095 0.132068440 0.132953554
0.325110286 0.135989547 0.142314643
0.451233178 0.145350739 0.160151541
0.593674660 0.161416814 0.195951805
0.759392858 0.177862272 0.235041291
0.923465908 0.202783376 0.268437535
0.083112098 0.212397203 0.164706007
0.122201093 0.209994003 0.148134008
0.209235102 0.209994003 0.159898996
0.318405926 0.218975544 0.170019001
0.439468473 0.238077193 0.192662895
0.597216725 0.253763288 0.222390980
0.763693690 0.278052092 0.250727177
0.930676699 0.300822079 0.287413090
0.105376355 0.309424281 0.203415647
0.150031641 0.313345999 0.205312997
0.228336722 0.309044719 0.206451535
0.323466271 0.318911999 0.219101638
0.445667386 0.331309170 0.229601189
0.591650724 0.363440871 0.246426642
0.761290312 0.389626920 0.267931998
0.929791391 0.415433109 0.304490626
0.143326998 0.440227568 0.254649192
0.191144899 0.439468384 0.257937998
0.258317381 0.437824368 0.254016370
0.359012812 0.445287853 0.255028635
0.462871552 0.448703378 0.257052362
0.603542030 0.474256933 0.274383008
0.773940384 0.508286059 0.293231994
0.935483932 0.535736859 0.321062446
0.199873477 0.597090185 0.294117987
0.233902544 0.598228753 0.289816558
0.311321914 0.602530181 0.293105900
0.412650257 0.602150559 0.296268016
0.524224937 0.610120475 0.299430788
0.642125487 0.614800453 0.299683720
0.794180810 0.635546982 0.312713295
0.942820787 0.663504422 0.337127984
0.279317260 0.770777822 0.324478298
0.311448276 0.772422552 0.328146726
0.383681089 0.770651579 0.326881886
0.479316980 0.775837898 0.322707355
0.579633117 0.775458336 0.320556283
0.698039472 0.776344001 0.330929726
0.821758270 0.778621256 0.338519990
0.941555798 0.787223279 0.350284576
0.417583585 0.921947777 0.376596808
0.444149166 0.923719227 0.368121266
0.487539589 0.920809746 0.370018989
0.564073086 0.920682907 0.371284187
0.656040311 0.923339784 0.379506618
0.755850554 0.925237000 0.383048654
0.863757074 0.924984038 0.392409980
0.963820636 0.929917574 0.397722960
0.036179908 0.085895449 0.183428094
0.100695550 0.075268999 0.180265993
0.204933554 0.090575546 0.192789093
0.293358743 0.104237996 0.215180561
0.415559739 0.116381735 0.238583356
0.563820243 0.132194743 0.264516324
0.741555512 0.138266549 0.295382798
0.918785572 0.159013003 0.320050806
0.055281546 0.120683096 0.173560634
0.111321993 0.124605000 0.183807537
0.189247549 0.137128100 0.203415647
0.297406644 0.146995455 0.226185739
0.415939182 0.158633545 0.242125198
0.565338254 0.173560828 0.267299294
0.741555512 0.187982082 0.292726457
0.918406010 0.207969546 0.324604809
0.091334544 0.191904083 0.220240086
0.131688997 0.204174548 0.219860539
0.197090551 0.198608547 0.226565182
0.292979091 0.214294747 0.230360270
0.418216288 0.233016923 0.251486182
0.571790099 0.255787551 0.278937310
0.746236503 0.279696316 0.302466959
0.918406010 0.301960617 0.330550075
0.113599092 0.300822198 0.254269660
0.153574005 0.301201731 0.256672740
0.217710197 0.304364532 0.253890097
0.307400525 0.305882633 0.253890097
0.432384402 0.326628447 0.268311441
0.577482700 0.355977029 0.292346895
0.756230235 0.383681387 0.314231277
0.918153107 0.411891371 0.337887377
0.154079556 0.427956998 0.288804650
0.185199529 0.427197993 0.292473018
0.255281389 0.433522940 0.293485433
0.349651903 0.434282005 0.294244349
0.452245831 0.440101355 0.297786087
0.599494040 0.465528011 0.311574727
0.766603291 0.505502760 0.328020543
0.927514136 0.535357296 0.349399269
0.199999914 0.589753270 0.324478209
0.237697542 0.594686925 0.326755077
0.311195612 0.591903508 0.322580546
0.409487367 0.597090185 0.323339731
0.518026769 0.604174852 0.324604779
0.639848292 0.608981729 0.323719114
0.787096560 0.628083408 0.337381244
0.936116397 0.661480188 0.361416698
0.286274552 0.762934804 0.354332983
0.315243542 0.768880129 0.341429263
0.379253805 0.763693690 0.342820823
0.472232550 0.768627167 0.344339013
0.582289815 0.769892454 0.350663930
0.698671520 0.770777762 0.350284398
0.816192508 0.774446726 0.351549536
0.939784884 0.786590815 0.372675747
0.435420573 0.920430183 0.384693235
0.462492317 0.920809746 0.395825088
0.495382637 0.919417739 0.392156512
0.565211713 0.919797301 0.389753431
0.656420171 0.922960222 0.391650677
0.758127809 0.919038594 0.403795004
0.860215008 0.926881373 0.411638081
0.964832187 0.926501751 0.416445315
0.000000000 0.089437097 0.299304187
0.081467099 0.078431003 0.297406644
0.192663088 0.090955094 0.294624120
0.288677633 0.111701444 0.294244438
0.408855170 0.130170897 0.320430160
0.550158203 0.147248477 0.340543836
0.712586820 0.155977190 0.370651096
0.898671746 0.178873911 0.392283261
0.043516643 0.139911547 0.277798653
0.104617544 0.137507543 0.282985091
0.178241640 0.147754550 0.284503192
0.280075729 0.156356648 0.300190002
0.402276844 0.174319744 0.323592275
0.545098186 0.192536354 0.349145949
0.718279362 0.199367553 0.369512916
0.906767666 0.220619634 0.390765548
0.083871007 0.198988080 0.285262108
0.132068440 0.206451640 0.293105990
0.209993988 0.217837006 0.309551030
0.282732189 0.226818547 0.307906210
0.399494171 0.243643284 0.332321107
0.545857191 0.260088563 0.349145919
0.720303535 0.281214178 0.372169286
0.905755877 0.310942173 0.397343069
0.119417638 0.300063193 0.317014545
0.161417007 0.302846551 0.323339641
0.223655641 0.304364562 0.327640980
0.304364651 0.305123538 0.331182659
0.414294481 0.325489938 0.346489280
0.562175453 0.355597466 0.364832431
0.738393545 0.383048505 0.375584900
0.912839890 0.418216288 0.399493933
0.165970996 0.426945210 0.341682076
0.196331441 0.420493275 0.361922741
0.259203166 0.430866390 0.356610000
0.341429293 0.425300270 0.355851084
0.444022447 0.434788376 0.355091989
0.583681107 0.462491930 0.368753731
0.756483316 0.500442624 0.385705262
0.921568751 0.534218431 0.406324923
0.218469173 0.584946394 0.386338085
0.249209285 0.582542479 0.374699295
0.316255540 0.585705519 0.373181194
0.412270695 0.590132713 0.377862096
0.515243530 0.592789412 0.378747910
0.631499112 0.597090185 0.381404251
0.779633105 0.628083408 0.391904086
0.934598565 0.660215378 0.414041817
0.309171468 0.759772539 0.389753371
0.338899463 0.760657549 0.394686818
0.403162569 0.764452696 0.399746984
0.487033457 0.762049258 0.396204621
0.585705340 0.766097367 0.398988098
0.701075435 0.766856492 0.401265174
0.816951394 0.772422552 0.405945271
0.949525297 0.784693062 0.423655748
0.475268573 0.922453880 0.428716093
0.488804460 0.917014480 0.426691651
0.528273106 0.913599014 0.435927004
0.594433963 0.916002572 0.437317997
0.675774693 0.918658853 0.444276094
0.770524561 0.918785691 0.443516999
0.863630772 0.921315491 0.450347960
0.963820636 0.924098670 0.452119082
0.002783356 0.076280639 0.423655629
0.074509732 0.086906999 0.413409621
0.202783197 0.101454645 0.403668255
0.300442636 0.113219641 0.398988008
0.413662195 0.132447988 0.402403623
0.550031722 0.145730376 0.420114011
0.721568882 0.159139708 0.439974636
0.900189936 0.193421781 0.463124663
0.040986639 0.154332891 0.388994634
0.106767729 0.160278454 0.389120698
0.205186382 0.163061187 0.392663002
0.291713834 0.162555441 0.389879704
0.401771277 0.175078735 0.400505960
0.547375381 0.192789182 0.418595970
0.723592579 0.204933837 0.443263948
0.889689624 0.238456726 0.463630736
0.091967344 0.229601175 0.385831624
0.137002096 0.234661639 0.385958552
0.218975455 0.234282181 0.387097090
0.295256317 0.231878385 0.385578990
0.402530193 0.251106650 0.400885522
0.544591784 0.265654981 0.423276365
0.718279183 0.289816678 0.442378610
0.895635545 0.326881737 0.468564063
0.125616640 0.311068982 0.383934289
0.168753728 0.308285624 0.391524553
0.236052826 0.315749198 0.397343278
0.327387273 0.338013649 0.407969624
0.425933272 0.341556013 0.416065961
0.558633685 0.357242376 0.423276365
0.729411900 0.387476295 0.446679294
0.901075184 0.429475099 0.468564153
0.184313819 0.418216377 0.416698456
0.215306997 0.422137976 0.415812820
0.277925283 0.427704096 0.417457551
0.361669660 0.433143407 0.419607610
0.453384161 0.437697589 0.416066051
0.585705340 0.463630587 0.432384551
0.748639822 0.501201451 0.446805894
0.909677625 0.545730352 0.469829351
0.247058719 0.576850116 0.432384640
0.272486001 0.579127133 0.439722002
0.338267177 0.581403971 0.439468622
0.421884656 0.585325718 0.438203990
0.521948040 0.585325718 0.436938733
0.632637501 0.592409849 0.445161402
0.773687601 0.628083408 0.448956192
0.923592627 0.666919708 0.474509716
0.359013259 0.750664234 0.460594654
0.383681089 0.748766482 0.455660820
0.427704006 0.751423359 0.453889996
0.508032799 0.751802862 0.454522282
0.597090065 0.756989121 0.455028355
0.700822353 0.760910988 0.456546545
0.815686226 0.764073133 0.461226910
0.938899219 0.784946501 0.477545828
0.521695077 0.911827803 0.489816457
0.534218788 0.908159196 0.500568926
0.569765866 0.912207365 0.489563555
0.623908937 0.912713408 0.493737757
0.695382595 0.915116906 0.502466798
0.781530678 0.916761637 0.501201630
0.874636114 0.918152928 0.510183334
0.967615426 0.923213005 0.512207448
0.092726372 0.110436186 0.503225982
0.157115564 0.112839997 0.506388307
0.258317381 0.125363901 0.503099263
0.357874453 0.134851187 0.497280329
0.452625364 0.144212380 0.488425016
0.567868173 0.152181998 0.486274719
0.735483825 0.159898818 0.510183215
0.910436451 0.200632796 0.530170619
0.120303378 0.179000735 0.492472738
0.169386551 0.181404546 0.499810457
0.258317381 0.182163537 0.494497091
0.353953272 0.182922348 0.492220193
0.452625155 0.185705096 0.486780345
0.559392869 0.193927541 0.481467634
0.736875534 0.208981752 0.507526815
0.905376375 0.243010506 0.529285312
0.156609997 0.259329468 0.491461188
0.193422094 0.258190721 0.480834752
0.258191079 0.257685184 0.479696363
0.347248733 0.264895976 0.474889189
0.440101296 0.258570373 0.474130303
0.559898555 0.270208985 0.483870924
0.732068300 0.292220324 0.512840033
0.903984785 0.332320899 0.527893841
0.174952537 0.345477253 0.476913631
0.211258382 0.345856816 0.473245114
0.278684348 0.348260641 0.476913542
0.365338624 0.349652022 0.473750740
0.458064377 0.349651992 0.486780345
0.576597035 0.366982639 0.489057392
0.743200421 0.395066530 0.509044886
0.903858304 0.445793897 0.526755035
0.208222389 0.441113204 0.472486198
0.240480989 0.441745371 0.485641748
0.302973002 0.445794106 0.482732207
0.393674552 0.454269439 0.480329186
0.519291401 0.480075985 0.500822186
0.620619893 0.491081595 0.502846420
0.759013474 0.516129076 0.511827886
0.910689473 0.561416626 0.539531767
0.266919643 0.581024647 0.486148179
0.303225815 0.578747690 0.489057362
0.358886838 0.586969972 0.495003343
0.451739341 0.592030287 0.498418868
0.548893154 0.598355472 0.504364610
0.653510392 0.603036463 0.501581192
0.787096560 0.635546982 0.520682693
0.927514136 0.675521791 0.542567790
0.394433767 0.749652088 0.517394185
0.418595761 0.751423299 0.516128898
0.471220821 0.746489406 0.515749454
0.540670156 0.751929343 0.520430028
0.624161661 0.759898841 0.525110304
0.714737475 0.755597889 0.522707283
0.819481552 0.762175560 0.527261496
0.940037847 0.792030334 0.547248602
0.562175751 0.909044743 0.556483150
0.582289517 0.906768024 0.560025394
0.608728647 0.905123174 0.564579248
0.658570647 0.907273591 0.564325988
0.715243280 0.909171283 0.565084994
0.795698643 0.914737701 0.574446499
0.875395358 0.917899966 0.584313810
0.970271945 0.919038594 0.592789412
0.211258471 0.143073738 0.597596765
0.261859715 0.146868736 0.601012170
0.340670377 0.150031641 0.599367440
0.433396637 0.153826639 0.592283368
0.535610199 0.156736001 0.586464167
0.647944212 0.160658002 0.577988744
0.761669755 0.166856289 0.577988744
0.918405712 0.211258546 0.596963942
0.218595728 0.200885728 0.587349772
0.264389664 0.204554290 0.583175004
0.335357219 0.203288928 0.589247286
0.430613458 0.204806834 0.584060788
0.530423701 0.208475903 0.580645084
0.643010497 0.209994003 0.581151068
0.759266257 0.209614366 0.573687434
0.915749311 0.251107156 0.602656722
0.241998717 0.295762420 0.582668841
0.271853000 0.292472899 0.572043002
0.339658469 0.286147922 0.573054850
0.425806463 0.290195942 0.573434472
0.532068014 0.292979091 0.574446261
0.635041356 0.290195942 0.574066758
0.759139895 0.297660112 0.572802186
0.916761220 0.344339073 0.598987758
0.255787373 0.387223005 0.565591455
0.291967154 0.385705024 0.565718174
0.352687985 0.385199279 0.566856623
0.438456476 0.386464119 0.567236125
0.526375711 0.389120579 0.568500936
0.630992830 0.389247268 0.568374753
0.754838705 0.400379628 0.567868233
0.913092673 0.458317399 0.600505829
0.290575713 0.493358463 0.568121314
0.316761464 0.492599487 0.572548926
0.374826074 0.492978990 0.564199984
0.459582388 0.499304056 0.566223860
0.556609631 0.504743934 0.567615569
0.648703396 0.506641150 0.564199984
0.777735770 0.526628911 0.576343954
0.920935810 0.577482462 0.605945587
0.330550224 0.603036463 0.567995012
0.355344653 0.602530003 0.567488730
0.413409173 0.604933739 0.564452827
0.488551468 0.606957495 0.564199984
0.585705161 0.624920845 0.575205445
0.698924720 0.644275725 0.587729454
0.811132014 0.662618458 0.596078515
0.924224734 0.698165715 0.619607568
0.419987530 0.746868789 0.585326016
0.448703289 0.749652088 0.582922339
0.492220163 0.751423299 0.585325658
0.564073265 0.754585862 0.586843550
0.651233196 0.759519041 0.597216785
0.740164280 0.768121123 0.606198728
0.829474926 0.764200032 0.606704712
0.943833053 0.797723055 0.636938691
0.581024468 0.904870391 0.639721513
0.594939649 0.909550726 0.641872168
0.630107522 0.902340412 0.647691429
0.679190278 0.905629456 0.652118564
0.744465351 0.907653451 0.660847545
0.809614360 0.910309613 0.662618399
0.880581558 0.915117204 0.676786780
0.963314354 0.922074616 0.675268710
0.299936980 0.189499989 0.731562257
0.330297232 0.192156821 0.727640808
0.397976011 0.193421990 0.722074509
0.493864626 0.202403635 0.721441984
0.600885451 0.202783182 0.717520535
0.710436463 0.205818981 0.715749741
0.819481492 0.215939268 0.707400262
0.938773036 0.234155804 0.706261992
0.303857982 0.244655237 0.717140973
0.342694730 0.242504552 0.730170786
0.402656674 0.244781733 0.718785703
0.496774256 0.244781837 0.717647195
0.599241197 0.248956367 0.714358151
0.706641495 0.251992255 0.706135094
0.821252286 0.260973811 0.705755532
0.931309581 0.273624539 0.700948834
0.323339671 0.335104287 0.714484394
0.361669630 0.329664677 0.713599205
0.418848574 0.330423594 0.713599205
0.500821888 0.337001741 0.707273722
0.603162646 0.338140279 0.709677339
0.710563123 0.341303170 0.699810266
0.820113540 0.349019468 0.700948715
0.929791391 0.358380765 0.695003092
0.366729915 0.442884207 0.697912574
0.390765280 0.441998720 0.702593446
0.439595103 0.442757815 0.700189829
0.520809531 0.444022566 0.699557304
0.613156497 0.446173429 0.697153449
0.711574912 0.450853527 0.694370747
0.813915491 0.453636914 0.689563632
0.927008092 0.467299193 0.697153449
0.406198531 0.553067744 0.694623590
0.428842455 0.554079771 0.698545277
0.478304744 0.555977285 0.691461205
0.545350909 0.560784400 0.691966772
0.625806391 0.559898615 0.686907053
0.722580910 0.562175572 0.689943254
0.819354653 0.566982567 0.691587567
0.925489902 0.586211205 0.702087283
0.450348020 0.656419933 0.699430764
0.469576448 0.663757026 0.696774006
0.509298027 0.666413546 0.695762157
0.577103436 0.667299509 0.691207886
0.656166792 0.675015569 0.691840768
0.740290761 0.677545786 0.693105340
0.830234051 0.681467295 0.697279990
0.937887371 0.706767738 0.715369999
0.490701973 0.769133508 0.698545575
0.500569284 0.768754005 0.697912574
0.549019456 0.768374443 0.701075494
0.601518273 0.769133568 0.698545516
0.679190159 0.770904362 0.693990946
0.765085042 0.780265570 0.705376029
0.860974312 0.802150249 0.724351823
0.942441523 0.820240498 0.747248292
0.600252867 0.905376196 0.740670502
0.604427457 0.906388581 0.743959546
0.634534955 0.905376196 0.747627854
0.688298643 0.903984785 0.749525309
0.749146223 0.909550726 0.757242262
0.822137773 0.912207365 0.765464783
0.887413085 0.915117204 0.773687243
0.959519088 0.920682967 0.784440339
0.357115656 0.273624629 0.898671746
0.381151199 0.271347344 0.890195787
0.440101355 0.279569864 0.891713858
0.529664457 0.283871114 0.890575409
0.630486786 0.298671424 0.889310241
0.737760603 0.313345701 0.885515451
0.851866245 0.333206743 0.878431439
0.955976903 0.364073575 0.876407623
0.374446362 0.318659157 0.895888567
0.385831535 0.318911910 0.891207755
0.447691530 0.321948051 0.885768294
0.534977734 0.329285264 0.883997202
0.631119788 0.338393271 0.888171852
0.740417302 0.352940947 0.883870840
0.848323822 0.370524675 0.874762893
0.964452565 0.392030120 0.876407623
0.409993589 0.407210886 0.881214321
0.433143467 0.409740806 0.882858694
0.479696304 0.411131889 0.886021495
0.556103468 0.416698188 0.880708098
0.647817671 0.424415082 0.883111775
0.750537515 0.438456863 0.880202353
0.853384256 0.450600892 0.876407623
0.957241774 0.468564004 0.875901341
0.468943566 0.520050585 0.873624206
0.488931179 0.522074699 0.874383390
0.531941891 0.525869429 0.877166510
0.593295097 0.528146625 0.873877585
0.674003839 0.535230875 0.878305078
0.764073312 0.538393438 0.870082557
0.857684910 0.549272418 0.869070232
0.953573406 0.558633626 0.871094227
0.531435788 0.635673642 0.872232914
0.547122061 0.639468789 0.875648379
0.587855756 0.642125189 0.871347249
0.636306047 0.641366124 0.874256909
0.701328158 0.642504752 0.869576395
0.780518591 0.647438169 0.869702935
0.863504231 0.647564828 0.866034269
0.959013343 0.655787349 0.865528166
0.571536660 0.729917526 0.879696310
0.585072875 0.731815219 0.874130607
0.616318703 0.737381160 0.875268936
0.674889266 0.740923405 0.875648499
0.732068181 0.744338691 0.871220767
0.795698762 0.748260319 0.874762595
0.875142574 0.749525487 0.873118579
0.959139466 0.754585683 0.871600449
0.604427576 0.826692045 0.878431439
0.623276353 0.826565266 0.877672255
0.651106775 0.823655844 0.879696310
0.695382595 0.827577055 0.873877287
0.750537634 0.831625581 0.875901401
0.820619762 0.838077545 0.877293050
0.885389268 0.837065101 0.876280785
0.954585612 0.845287621 0.881593764
0.652877629 0.919417739 0.881593764
0.666540265 0.912587047 0.892346144
0.687665999 0.916255653 0.882605791
0.722959936 0.919417739 0.893358350
0.773560941 0.922201097 0.889436722
0.835420728 0.922327518 0.888804495
0.897280276 0.924984038 0.891587377
0.966350615 0.937634468 0.905249596
