Assets/Shaders/EldamarStudio/100 Sci-Fi LUTs Pack/LUTs/cube/Fendred LUT.cube
DOMAIN_MIN 0 0 0
DOMAIN_MAX 1 1 1
LUT_3D_SIZE 32
0.043136999 0.070588000 0.101961002
0.049209002 0.067552388 0.101961002
0.063883550 0.068817228 0.101961002
0.083365157 0.070588000 0.105755836
0.105376549 0.070967548 0.114863545
0.132700935 0.074003935 0.123971932
0.157494992 0.074510001 0.128020316
0.188361391 0.072865292 0.132700995
0.220999092 0.070588000 0.137254998
0.242251500 0.070587993 0.137254998
0.275142610 0.064769000 0.131435990
0.304491252 0.060721260 0.129411995
0.331815630 0.061100997 0.128273353
0.359393001 0.066666998 0.125743032
0.389752954 0.066666998 0.128779411
0.424920589 0.071473993 0.139025986
0.459835559 0.077546000 0.149652198
0.493864954 0.083617993 0.158760414
0.530297041 0.089690000 0.167868048
0.563947082 0.090195999 0.179759711
0.599240959 0.093990996 0.190006256
0.635673285 0.100062996 0.199114129
0.672358990 0.106134988 0.208222508
0.714863777 0.112207003 0.217330903
0.759645820 0.120556280 0.228715986
0.803795278 0.125489995 0.238076985
0.845794082 0.127008066 0.245161131
0.885262430 0.136116445 0.257305890
0.924730778 0.145224825 0.264137000
0.965970337 0.156103969 0.279064149
0.996078014 0.167362601 0.295003384
0.996078014 0.176470995 0.298038989
0.052245386 0.067552388 0.101961002
0.052245386 0.064516000 0.108033001
0.069070168 0.067931615 0.110183224
0.089437157 0.073118001 0.113598935
0.110309988 0.077039547 0.119797774
0.129664540 0.080075935 0.120936319
0.159519240 0.083112314 0.130044058
0.186464086 0.085262671 0.130803332
0.217963099 0.085009485 0.131941900
0.248323500 0.082732767 0.134218603
0.275395632 0.085641898 0.134218603
0.304491252 0.081973642 0.128399625
0.332953990 0.080076382 0.127514243
0.362681687 0.082100354 0.129285350
0.395825744 0.084882997 0.137887031
0.421378762 0.084882997 0.140923426
0.455281377 0.089690000 0.149652198
0.490828723 0.095129579 0.160025567
0.527261376 0.098798394 0.173940822
0.563694060 0.104870386 0.183048427
0.599240959 0.109171383 0.193042353
0.635673285 0.113219388 0.200126529
0.672485530 0.115243375 0.205313370
0.717900217 0.121315390 0.217330903
0.760404944 0.129664674 0.228715986
0.803795278 0.135989711 0.240859970
0.846300125 0.138646126 0.251233131
0.888298810 0.145224839 0.263377905
0.925110340 0.151676387 0.272865146
0.967741549 0.163947180 0.284629762
0.998228788 0.176470757 0.298924595
0.996078014 0.185578614 0.304111004
0.050600998 0.079569995 0.108412229
0.059202999 0.078684382 0.114484780
0.074256770 0.079949550 0.111954227
0.092979163 0.080961548 0.120050162
0.112839997 0.083871000 0.127640769
0.134597987 0.090448938 0.125870004
0.154332638 0.095635541 0.129158676
0.186337695 0.095382936 0.131688714
0.214674100 0.097406678 0.129411995
0.245287508 0.097153701 0.131056294
0.275015831 0.097786129 0.133332998
0.304364711 0.098797999 0.131309256
0.332953990 0.097027220 0.129917771
0.363061011 0.097533219 0.133712992
0.392662674 0.102466576 0.137128353
0.425300747 0.103098996 0.143579811
0.452624768 0.103098996 0.146616191
0.487792343 0.109171145 0.155724406
0.524225175 0.116761744 0.170904428
0.560657918 0.120430000 0.180518657
0.597090662 0.122706994 0.187729001
0.636558890 0.129285127 0.197596490
0.676533461 0.132700771 0.204554468
0.718026757 0.134724781 0.218722224
0.759139776 0.138773054 0.230866760
0.804427505 0.146489754 0.240227759
0.847944438 0.151296481 0.250853777
0.888804853 0.159013107 0.262998134
0.925995946 0.169386759 0.272485912
0.965970337 0.177229524 0.288677931
0.997849226 0.189879820 0.300189763
0.996078014 0.198987782 0.303731769
0.050854161 0.100316316 0.114990160
0.059202999 0.100316316 0.116002612
0.076533929 0.099936768 0.121062614
0.097785994 0.100442834 0.116255328
0.113345928 0.095888928 0.129917622
0.135863155 0.104111388 0.128652766
0.158886641 0.109424159 0.129411682
0.182795703 0.113092870 0.132953554
0.214674100 0.111575060 0.129917935
0.241998494 0.114610672 0.129411995
0.269702733 0.114737153 0.132321119
0.300063163 0.114737153 0.135104090
0.330423951 0.114737153 0.134345472
0.360784054 0.115243152 0.139784992
0.389120549 0.121315151 0.139784992
0.421252221 0.122580156 0.144591987
0.454395980 0.123845324 0.152941018
0.486021101 0.125110313 0.157874972
0.522453964 0.135989934 0.172422349
0.557621539 0.139784962 0.180771515
0.595319450 0.142188162 0.186716989
0.634788096 0.144212157 0.195825115
0.680075467 0.152814507 0.208096340
0.719544709 0.153953165 0.220999271
0.759013295 0.156230450 0.232637569
0.801391423 0.160658151 0.244528979
0.847944260 0.166730165 0.250600994
0.886654317 0.175078854 0.261226982
0.925995946 0.185578808 0.269449651
0.967235506 0.195951909 0.283112019
0.997343183 0.204174146 0.301707834
0.997343183 0.212903008 0.303225845
0.058444452 0.124984547 0.118026547
0.062998161 0.124225549 0.113092996
0.076786995 0.122074775 0.118785545
0.095888928 0.119417936 0.124984153
0.116761088 0.117140643 0.121948451
0.134977877 0.123213418 0.124984063
0.161163867 0.127134770 0.126249000
0.187729239 0.129411712 0.128778994
0.213915095 0.132068440 0.132953554
0.241239488 0.135104060 0.129917935
0.266793191 0.135610089 0.133459672
0.294749975 0.135989547 0.137380987
0.325110286 0.135989547 0.142314643
0.355218023 0.135989547 0.145351037
0.385452271 0.141808540 0.145477548
0.417836785 0.144212097 0.151043549
0.451233178 0.145350739 0.160151541
0.485262096 0.149019539 0.171916142
0.521694958 0.155091554 0.184060961
0.556482971 0.158380911 0.191018566
0.593674660 0.161416814 0.195951805
0.634408653 0.165085092 0.201897129
0.679948986 0.171030566 0.216571510
0.719924152 0.174066901 0.225173905
0.759392858 0.177862272 0.235041291
0.800885379 0.181910530 0.244402438
0.845667541 0.187602997 0.255914003
0.882100284 0.193674996 0.261985987
0.923465908 0.202783376 0.268437535
0.966982543 0.211511835 0.280202180
1.000000000 0.220113531 0.294117510
1.000000000 0.226185545 0.306261539
0.055408064 0.152308941 0.121062934
0.070588455 0.146236941 0.124098547
0.085894935 0.143327162 0.125616774
0.104111388 0.141555935 0.128905937
0.122833863 0.141429409 0.128020450
0.141049877 0.144465804 0.124984063
0.169386640 0.150537923 0.130549997
0.194307625 0.151170164 0.132321000
0.215812951 0.149904996 0.133332998
0.235167488 0.150284454 0.132953539
0.268310875 0.153320804 0.141555935
0.296141326 0.155850619 0.141555667
0.325110286 0.157241940 0.142314643
0.355218023 0.157241940 0.145351037
0.382542402 0.157241940 0.148387417
0.412776679 0.165464729 0.158127934
0.445161194 0.168500870 0.169259921
0.479190111 0.170271918 0.180771500
0.515622973 0.176343933 0.190132961
0.557621717 0.179633290 0.199494362
0.596710682 0.182669193 0.208096176
0.636179447 0.185705066 0.215179920
0.676913381 0.189247355 0.222643510
0.722453833 0.192282975 0.225679904
0.762428880 0.199873284 0.238836274
0.801897526 0.205186680 0.247438312
0.842884183 0.208728880 0.253004134
0.885135949 0.211890981 0.261985987
0.924224854 0.223276645 0.270714819
0.964199543 0.231372908 0.284629852
0.994939983 0.238836244 0.299683601
1.000000000 0.247437924 0.309297919
0.072612323 0.166982993 0.129158676
0.077672705 0.168501318 0.132194936
0.090702318 0.168880537 0.133080319
0.108159319 0.166603476 0.134471998
0.126375780 0.165718094 0.134471998
0.144592315 0.168753937 0.133586377
0.162808314 0.169259995 0.133080319
0.193169087 0.172042996 0.137507603
0.217837006 0.172169313 0.139152095
0.239595011 0.175711319 0.140923321
0.262238890 0.178621188 0.149652198
0.291587263 0.177609056 0.152688324
0.321188927 0.179632962 0.153573647
0.352688342 0.181024641 0.157748327
0.380012721 0.181024641 0.158507422
0.414547920 0.185831636 0.166350797
0.446679503 0.191777512 0.175332308
0.480708450 0.194054633 0.184819728
0.517141342 0.200126648 0.193927661
0.554079413 0.205945671 0.205566362
0.600379586 0.208981574 0.212777004
0.640733600 0.211005315 0.220240310
0.678810656 0.212650016 0.226312310
0.721947908 0.218090057 0.231751904
0.765211582 0.223402962 0.237065002
0.806324959 0.230866626 0.250095010
0.847438157 0.235041261 0.258064628
0.889942825 0.238076851 0.269196749
0.927261114 0.244022965 0.273244500
0.964958668 0.252625316 0.285894841
0.993927956 0.260468304 0.303352177
1.000000000 0.271220654 0.317394316
0.082353003 0.187349692 0.146489412
0.085389383 0.188741386 0.141303092
0.094876997 0.193421915 0.140543997
0.107020997 0.191397861 0.140543997
0.125616536 0.187603146 0.141303003
0.147628158 0.188108757 0.143832996
0.165844709 0.191903695 0.148766696
0.185705408 0.190259412 0.145477697
0.215307102 0.191018313 0.149272412
0.240480736 0.196204692 0.153194189
0.265148580 0.197722867 0.158760160
0.288804263 0.200000152 0.160152003
0.318405926 0.199240759 0.162428990
0.351550013 0.202277020 0.168754041
0.380265683 0.203668699 0.172928706
0.409867167 0.208475694 0.175205797
0.444782138 0.216065899 0.184313804
0.479443550 0.219355121 0.190512434
0.516888261 0.224415004 0.198608473
0.556609750 0.227198005 0.207210720
0.595698535 0.233016953 0.218848988
0.642251849 0.237064958 0.224920988
0.680201948 0.238583103 0.230992988
0.722706795 0.244655505 0.237065002
0.763567269 0.250727683 0.243137002
0.807463288 0.256799698 0.251992345
0.850221157 0.262871712 0.263125002
0.892725825 0.267045945 0.272991985
0.929917574 0.272738636 0.282099873
0.966350317 0.275521934 0.290575176
0.993927956 0.284250557 0.303099006
1.000000000 0.297153711 0.318279564
0.083112098 0.212397203 0.164706007
0.088425383 0.213915199 0.154838920
0.096394993 0.216698200 0.149146318
0.109298088 0.217963159 0.148134008
0.122201093 0.209994003 0.148134008
0.148386940 0.207337156 0.153447002
0.170398533 0.209614202 0.161290228
0.187982693 0.211511821 0.163693905
0.209235102 0.209994003 0.159898996
0.236559495 0.213029623 0.165970996
0.264642775 0.214674100 0.169892222
0.291461080 0.215939268 0.168880358
0.318405926 0.218975544 0.170019001
0.350791037 0.222011149 0.175838023
0.379633069 0.225047410 0.183934405
0.409866780 0.230487183 0.188109085
0.439468473 0.238077193 0.192662895
0.475395590 0.245288000 0.201138079
0.515117109 0.248197138 0.207210854
0.557368815 0.249209195 0.214041993
0.597216725 0.253763288 0.222390980
0.636938393 0.259076267 0.231752083
0.679443061 0.265148997 0.237824082
0.721947908 0.271220982 0.243896097
0.763693690 0.278052092 0.250727177
0.804427683 0.284124106 0.256546319
0.848956227 0.290196121 0.268691003
0.891207814 0.296268106 0.275269002
0.930676699 0.300822079 0.287413090
0.967868328 0.305629194 0.298039049
0.993927956 0.307020575 0.309171200
1.000000000 0.322201014 0.315243185
0.086148486 0.230613977 0.164706022
0.098292485 0.236685976 0.161669627
0.105756007 0.238203987 0.158254310
0.115876161 0.237191811 0.157748342
0.131309479 0.234282017 0.160278022
0.149525493 0.234282017 0.160278022
0.175711319 0.231625825 0.165591002
0.194433928 0.230613977 0.168500528
0.209235102 0.231246397 0.169006616
0.230487496 0.234282017 0.172042996
0.260720998 0.240227491 0.178115010
0.290955007 0.241998494 0.177988738
0.321062773 0.243263662 0.179506823
0.350791037 0.246299952 0.187982038
0.372043401 0.249335542 0.191018417
0.405692458 0.254775614 0.199114799
0.438709378 0.262365788 0.207843289
0.472359210 0.269576013 0.216318473
0.517900527 0.269576043 0.222390503
0.560405195 0.272485852 0.231245875
0.599114418 0.279190719 0.238329992
0.636685371 0.286148369 0.243643135
0.676407456 0.289437026 0.246932477
0.718912303 0.295509040 0.253004491
0.763693750 0.303858310 0.261353791
0.806198478 0.311448514 0.266160965
0.845920563 0.317520529 0.268691003
0.885388911 0.323592514 0.280835003
0.930297494 0.324351519 0.295382828
0.971916556 0.329917699 0.305123478
0.999746978 0.336875379 0.312334090
1.000000000 0.340417027 0.321315974
0.092093997 0.260468006 0.185072869
0.095509134 0.257811874 0.182036474
0.109803908 0.257432073 0.179000646
0.123212993 0.257938147 0.174699873
0.139658228 0.259329736 0.172802195
0.152814865 0.264389724 0.175331876
0.171030864 0.264389724 0.180391878
0.195572406 0.261733174 0.183174863
0.215054095 0.260468006 0.181656867
0.236306489 0.261353403 0.178241491
0.260468006 0.258570731 0.178368002
0.286780506 0.262618482 0.184439987
0.315369993 0.264642507 0.187476128
0.345983356 0.267678827 0.194560051
0.377862394 0.270714462 0.200253293
0.408728808 0.278557658 0.208096057
0.444655240 0.285135984 0.215686113
0.479063988 0.292219847 0.223402560
0.517773986 0.296773881 0.231751889
0.554965019 0.302339882 0.237823889
0.597216725 0.307400465 0.241113007
0.636685371 0.314484864 0.245160997
0.676280975 0.319418222 0.250094622
0.718785822 0.322706848 0.253383994
0.765844524 0.328778863 0.261733294
0.809234440 0.337254643 0.272232980
0.850727320 0.344338953 0.279317021
0.899810255 0.348007739 0.286653996
0.933965623 0.351422906 0.290828824
0.969639480 0.358760297 0.303225935
0.995951951 0.369007111 0.312460601
1.000000000 0.376090735 0.321568996
0.098165996 0.284756243 0.196204990
0.109298117 0.281720638 0.193168610
0.112839773 0.282732487 0.190132767
0.128020152 0.282226413 0.190891981
0.145477265 0.284883261 0.188994542
0.160910606 0.287666261 0.192030564
0.182163253 0.288678259 0.193548515
0.198734954 0.287033558 0.194686800
0.220367000 0.286274254 0.195066348
0.240354240 0.288804263 0.192789510
0.264516264 0.287918866 0.194560245
0.290828496 0.288931221 0.198608235
0.315117002 0.291966856 0.201264903
0.343453109 0.294749975 0.204427481
0.373308241 0.296014816 0.208728567
0.410752803 0.299810052 0.215180188
0.445667386 0.308918446 0.221252173
0.482100129 0.315496504 0.226818249
0.518532991 0.321568489 0.234534964
0.552941322 0.329664767 0.238836274
0.591270983 0.333838999 0.244908258
0.634661376 0.339784980 0.247185260
0.676280975 0.345983505 0.253130764
0.718785822 0.352814615 0.256167173
0.759772241 0.360151738 0.261733294
0.808349013 0.366223723 0.272232980
0.849715233 0.373687416 0.284377009
0.895256281 0.376723409 0.293484986
0.934977770 0.383807659 0.298924565
0.970145345 0.386843711 0.309044898
0.993927956 0.397343636 0.317900002
1.000000000 0.406451255 0.323592722
0.105376355 0.309424281 0.203415647
0.116002746 0.308665365 0.201517895
0.124857865 0.307653517 0.200758770
0.135230795 0.310689151 0.199240983
0.150031641 0.313345999 0.205312997
0.166729629 0.313345999 0.209108293
0.187729001 0.312207639 0.208475992
0.211638346 0.310562938 0.207969919
0.228336722 0.309044719 0.206451535
0.246932283 0.314737290 0.209487841
0.268690765 0.316128641 0.210246772
0.296141893 0.317014277 0.214167997
0.323466271 0.318911999 0.219101638
0.347754270 0.321947664 0.216318995
0.374193579 0.322833270 0.218469217
0.409993768 0.326375455 0.225047275
0.445667386 0.331309170 0.229601189
0.482100129 0.339784980 0.232637584
0.518532991 0.345857024 0.238203645
0.554459393 0.354712337 0.242631361
0.591650724 0.363440871 0.246426642
0.631119370 0.368500769 0.253510535
0.676533997 0.374572784 0.259709001
0.721062779 0.381657183 0.263757259
0.761290312 0.389626920 0.267931998
0.801517904 0.396205008 0.274509966
0.849588692 0.402783066 0.285641998
0.890322626 0.407083839 0.296520978
0.929791391 0.415433109 0.304490626
0.968627334 0.423276484 0.314737171
0.992663026 0.427198291 0.328146607
0.997722983 0.436052918 0.328905642
0.114990033 0.339785069 0.212523967
0.117773384 0.343326658 0.213030040
0.124857739 0.341555834 0.214674264
0.139026120 0.341049910 0.217710063
0.159392998 0.343453109 0.216444999
0.171536997 0.343453109 0.222516999
0.189247057 0.341176391 0.222011313
0.211385116 0.338646352 0.220873028
0.237445056 0.336875111 0.220872954
0.258697450 0.339911520 0.223908573
0.277292997 0.342441231 0.221378908
0.303099513 0.343453109 0.222390771
0.332321644 0.343706071 0.225679636
0.359646022 0.343959093 0.228716031
0.383934021 0.346995473 0.228716031
0.416571617 0.352182001 0.235167801
0.450474381 0.358507067 0.240733802
0.482100129 0.364326090 0.244275585
0.518532991 0.370398104 0.247311980
0.557495356 0.379253387 0.252625018
0.596963763 0.390006036 0.257305741
0.636938334 0.400885165 0.262112886
0.676533937 0.409993529 0.271094024
0.724857748 0.413282931 0.277166009
0.766856253 0.418596029 0.281467319
0.807083905 0.424035370 0.285895020
0.847059071 0.427830100 0.291714013
0.892599404 0.436938465 0.297785997
0.932574451 0.445540845 0.306514829
0.972043097 0.454649210 0.317140967
0.997976005 0.463125020 0.328399569
0.991903961 0.469197005 0.337507963
0.130170405 0.370145828 0.221631572
0.130170405 0.379253417 0.227704346
0.135103986 0.374193579 0.226059631
0.148133740 0.371410668 0.231878564
0.168627113 0.373687357 0.239721715
0.183680996 0.370778233 0.222516999
0.205945626 0.370778233 0.231119320
0.224035516 0.371790111 0.234408706
0.244022995 0.372801781 0.234535411
0.267805070 0.373307854 0.229981348
0.289057434 0.370525271 0.230107829
0.311701506 0.370778233 0.231499150
0.338393629 0.371916592 0.235673413
0.365718007 0.374319822 0.240860030
0.393042386 0.377356231 0.243896410
0.414927185 0.380392015 0.243896410
0.446932375 0.387096584 0.244275808
0.482100129 0.394307405 0.245034575
0.518532991 0.397723198 0.253383964
0.554965019 0.406577885 0.253637016
0.593927801 0.415686160 0.260594755
0.635420501 0.424414814 0.267425984
0.679569542 0.431245893 0.274130404
0.722074389 0.440354288 0.280202419
0.765844166 0.445920408 0.288551688
0.810499251 0.454775363 0.295003414
0.855660737 0.464009792 0.300569326
0.895635843 0.470334798 0.303857982
0.933207035 0.474130213 0.312586814
0.972043097 0.481973588 0.321695179
0.997343421 0.491081774 0.331435800
0.988867581 0.499556988 0.340543568
0.135736808 0.405312985 0.237950593
0.138139993 0.404807210 0.239215761
0.144591764 0.405312806 0.240986988
0.158507124 0.403035998 0.241998792
0.179000601 0.406071782 0.251107007
0.188108742 0.401011914 0.240986720
0.210878834 0.405312985 0.243137121
0.230233893 0.403668702 0.245667085
0.247691393 0.404427588 0.246426180
0.271979839 0.404427588 0.243643180
0.298165649 0.406324863 0.243390173
0.321441770 0.407337248 0.241366446
0.348007470 0.406578124 0.244781807
0.375838041 0.407083809 0.249841809
0.396711200 0.410120219 0.246426418
0.426438749 0.410752803 0.249462187
0.452245355 0.410752416 0.250980377
0.487539530 0.418216139 0.251612782
0.525743186 0.430107772 0.258949965
0.562175810 0.436306238 0.264515996
0.600506008 0.445414335 0.268310994
0.640987039 0.454522461 0.274889350
0.685136080 0.461985797 0.279569983
0.729917586 0.468817472 0.285641998
0.767868340 0.477925301 0.287160009
0.810120106 0.484123796 0.294497192
0.854648888 0.493231803 0.300569177
0.892220318 0.499303758 0.305502564
0.936242819 0.505123436 0.316255629
0.970904350 0.513472557 0.323592782
0.995825231 0.523213387 0.334724993
0.988234997 0.532321393 0.348386794
0.143326998 0.440227568 0.254649192
0.147880808 0.441745758 0.251613200
0.156736150 0.434155792 0.253131002
0.168374225 0.433649421 0.253131002
0.191144899 0.439468384 0.257937998
0.201771185 0.437950373 0.254143000
0.219987184 0.440480560 0.255154997
0.242377877 0.440101087 0.256293684
0.258317381 0.437824368 0.254016370
0.281088173 0.437824368 0.254016370
0.303731859 0.440733492 0.255534172
0.333586156 0.442251444 0.258064270
0.359012812 0.445287853 0.255028635
0.388235003 0.443263561 0.259456187
0.407716632 0.445034802 0.255914181
0.434029371 0.445667386 0.258570582
0.462871552 0.448703378 0.257052362
0.492599726 0.445666969 0.260088593
0.528526187 0.457684934 0.265274972
0.566729724 0.467805386 0.268310994
0.603542030 0.474256933 0.274383008
0.646047056 0.484377205 0.279443145
0.689563751 0.494117349 0.282606006
0.733712912 0.502972782 0.288677990
0.773940384 0.508286059 0.293231994
0.813156068 0.516002357 0.297406644
0.855154991 0.522580445 0.303605169
0.892599881 0.529664576 0.309677184
0.935483932 0.535736859 0.321062446
0.969386101 0.542315125 0.331182957
0.994812965 0.552688122 0.337255001
0.991271019 0.561163962 0.352941006
0.154838577 0.476154506 0.268564403
0.162808135 0.479063958 0.262492418
0.170651540 0.474762976 0.260974228
0.185325980 0.468943954 0.264642566
0.200505689 0.472359121 0.264263034
0.218469441 0.478431106 0.264009982
0.236052990 0.480075866 0.264642566
0.255913705 0.480076104 0.263630688
0.277039617 0.474889547 0.261353970
0.295256376 0.474889547 0.261353970
0.314737558 0.477166235 0.263630688
0.341176242 0.478810698 0.267425597
0.373560786 0.479316771 0.271979630
0.400885165 0.482353091 0.269450009
0.422896534 0.482732534 0.269829571
0.448323786 0.482100129 0.273371577
0.476281166 0.483871132 0.274636567
0.504238129 0.489310533 0.269196987
0.531562567 0.486274153 0.272232622
0.567488968 0.495256275 0.273118138
0.606325030 0.503605545 0.275015593
0.645540833 0.511701524 0.281973124
0.693611562 0.523719072 0.284882993
0.735104382 0.535357177 0.289942980
0.775331855 0.541935384 0.296014965
0.817456841 0.546995521 0.302846044
0.859455645 0.552055538 0.311448514
0.898924708 0.560784400 0.317520589
0.938520014 0.567868531 0.327007979
0.972295880 0.573940516 0.338646173
0.990638554 0.580012500 0.346868992
0.996710598 0.586084545 0.352941006
0.163947001 0.521695018 0.277672052
0.179127365 0.512586594 0.271600068
0.182795972 0.511195064 0.265528053
0.192663193 0.511448205 0.266540170
0.212650508 0.514864028 0.273371458
0.227830887 0.520936012 0.270335078
0.243263662 0.516888022 0.272612333
0.261985719 0.516508758 0.273750961
0.283238113 0.517267942 0.273497999
0.304364055 0.514358044 0.273498029
0.328399807 0.514358044 0.273498029
0.352182001 0.516635299 0.273750991
0.380644947 0.518279970 0.276533991
0.413029999 0.518785954 0.281594038
0.440354347 0.521821558 0.284630418
0.464768916 0.519797862 0.285009980
0.492346436 0.518532991 0.285515964
0.522454143 0.519671440 0.284377396
0.552815020 0.522706985 0.281341016
0.580139339 0.525237322 0.284377337
0.617963493 0.530929983 0.283365220
0.659962237 0.539026022 0.286147982
0.702719986 0.551043570 0.297026992
0.739152789 0.560151994 0.297026992
0.778368235 0.569513261 0.302087009
0.822011232 0.578115344 0.308158964
0.868564069 0.585452020 0.314484149
0.908032417 0.585452020 0.320556939
0.939531684 0.594180882 0.323972136
0.972675145 0.601265013 0.334851146
0.996457636 0.607336998 0.346868992
0.999746978 0.613409042 0.352941036
0.186970025 0.556103408 0.289563715
0.188235044 0.558127701 0.286274374
0.201265201 0.555471063 0.282353133
0.208855376 0.554205894 0.280708551
0.224794552 0.554205954 0.285642028
0.239974946 0.557874739 0.285009444
0.255155325 0.556356370 0.281973690
0.275268704 0.555471122 0.282859355
0.298418552 0.558507442 0.283618271
0.321695238 0.559519649 0.285642028
0.348640144 0.556609750 0.285642028
0.370904624 0.556609750 0.285642028
0.396711022 0.557748377 0.285642028
0.427451402 0.558001399 0.288172036
0.449715763 0.561037660 0.291208416
0.479443341 0.566477060 0.291841000
0.506008565 0.567615569 0.291841000
0.535104156 0.568880439 0.290576011
0.565465033 0.569765806 0.285389394
0.595825732 0.570018768 0.287919015
0.628842831 0.571157396 0.289057642
0.668564498 0.577482641 0.290955156
0.709171474 0.589247584 0.300948828
0.748260438 0.593042314 0.303604990
0.786970496 0.602150679 0.310436279
0.827830613 0.609867394 0.315623045
0.871094406 0.617583811 0.320809633
0.906008780 0.624415100 0.329158545
0.940164149 0.629728079 0.329917639
0.974193335 0.635167480 0.336369187
0.998861372 0.640227616 0.350410968
1.000000000 0.646300137 0.364073038
0.199873477 0.597090185 0.294117987
0.207463473 0.598228872 0.292979330
0.216065526 0.602909446 0.297533005
0.223149985 0.600379467 0.290702254
0.233902544 0.598228753 0.289816558
0.252118915 0.604301155 0.288298756
0.272992045 0.600379586 0.289563566
0.286527723 0.598987937 0.293105960
0.311321914 0.602530181 0.293105900
0.337887734 0.606704891 0.293864518
0.361290634 0.602024317 0.292093724
0.390259236 0.601012170 0.293990999
0.412650257 0.602150559 0.296268016
0.441493064 0.602909446 0.298039019
0.467679113 0.604301095 0.301075399
0.492346734 0.604048431 0.297912985
0.524224937 0.610120475 0.299430788
0.553573430 0.612270653 0.299177855
0.585199475 0.611005485 0.294371009
0.609867454 0.614800453 0.294750392
0.642125487 0.614800453 0.299683720
0.676533997 0.615812600 0.297659725
0.713472188 0.624921203 0.302087486
0.754711926 0.627956808 0.305123091
0.794180810 0.635546982 0.312713295
