Assets/Shaders/EldamarStudio/100 Sci-Fi LUTs Pack/LUTs/cube/Foldor LUT.cube
LUT_3D_SIZE 5
DOMAIN_MIN 0.000000 0.000000 0.000000
DOMAIN_MAX 0.903226 0.903226 0.903226
0.000000000 0.101961002 0.035294000
0.188994408 0.094117999 0.057179291
0.428968817 0.085642412 0.032638006
0.691587389 0.040101133 0.056925997
0.974319756 0.002656833 0.104743972
0.046425998 0.215433702 0.039595284
0.216445401 0.212144285 0.039216001
0.435546786 0.213788986 0.044781711
0.701075256 0.210879117 0.071600288
0.974699438 0.204048395 0.111574940
0.193674803 0.383174986 0.080455415
0.286780268 0.386843652 0.079443291
0.459709227 0.385199368 0.088930994
0.720303535 0.413662255 0.082605876
0.982795358 0.430993199 0.121062391
0.303985000 0.649462283 0.074510001
0.383175254 0.656293392 0.074130297
0.548639834 0.653384268 0.072865285
0.758254111 0.657305241 0.068563998
0.987349629 0.668944001 0.115496278
0.395066798 0.925995946 0.164958954
0.459076822 0.926755071 0.180897921
0.602150559 0.927893341 0.179506779
0.796078265 0.925616503 0.197849452
0.984692812 0.924604595 0.216318741
0.000000000 0.112080708 0.175584704
0.186084688 0.103605285 0.171030685
0.394054085 0.111448288 0.186717525
0.658570707 0.087159872 0.209866986
0.962681592 0.000000000 0.236052811
0.078178696 0.199746683 0.171663702
0.202403694 0.207589701 0.178874105
0.400252819 0.212144285 0.192915991
0.670081913 0.209866986 0.207336977
0.967488885 0.203035682 0.239089504
0.195445582 0.372422516 0.199367404
0.281846970 0.371790111 0.203035697
0.452245504 0.370145798 0.201391399
0.700063527 0.403541952 0.217331126
0.974699259 0.428336799 0.243643105
0.305629283 0.643770099 0.210499823
0.380898118 0.643263936 0.216445416
0.542441249 0.644275665 0.213156402
0.749145985 0.646806240 0.212523401
0.986084759 0.667678833 0.241113096
0.417710334 0.923086524 0.284376472
0.473244488 0.921695054 0.283491194
0.612397075 0.922706723 0.289310366
0.797343254 0.921694934 0.300695926
0.986970067 0.922327697 0.316255599
0.064136826 0.105881996 0.372675836
0.219734401 0.114105120 0.359645814
0.401517808 0.117647000 0.344592392
0.669449985 0.080202743 0.383554518
0.954838574 0.003289416 0.416571379
0.141556114 0.222264409 0.353699982
0.242251694 0.217710406 0.345224380
0.411638111 0.213788986 0.343959421
0.667172432 0.205945402 0.373814106
0.956356466 0.206704810 0.416951239
0.216445401 0.374066800 0.351802796
0.295256108 0.371410370 0.356989384
0.470840961 0.383174986 0.364199430
0.702719688 0.397343665 0.385198951
0.969766021 0.427703798 0.422517627
0.312586844 0.624541283 0.388361573
0.381909847 0.631751835 0.391018391
0.543326974 0.629854679 0.392662525
0.750411093 0.639974535 0.397975951
0.975964665 0.668690979 0.440227807
0.453257382 0.912207365 0.473624617
0.503858507 0.914484501 0.471347064
0.630993187 0.911448777 0.470967770
0.802024126 0.917773485 0.481847078
0.987855375 0.918785274 0.493231773
0.175585121 0.130423859 0.612144291
0.299810290 0.128399864 0.606577992
0.493485272 0.110436417 0.598482251
0.702467203 0.055534620 0.587729394
0.970145464 0.003668703 0.609866977
0.210879132 0.241872400 0.600000024
0.311954558 0.241239980 0.594940007
0.500316381 0.228462860 0.587603092
0.710309803 0.202023834 0.584060669
0.969006598 0.217204392 0.615686119
0.268437862 0.417204380 0.584693253
0.352814674 0.413282812 0.588488460
0.522201121 0.412397116 0.584060669
0.723972261 0.404553950 0.583681107
0.969133496 0.455914199 0.625047505
0.336496115 0.640607119 0.588615000
0.412903130 0.640607119 0.592536271
0.570524931 0.646426141 0.600000143
0.766097367 0.657305241 0.614168286
0.972675502 0.689057410 0.650348127
0.538646460 0.911701560 0.671346962
0.582669079 0.911195636 0.678304851
0.680455506 0.912207603 0.683491349
0.810879290 0.913852096 0.680582106
0.973308086 0.920050621 0.694750190
0.272106111 0.177988812 0.881593764
0.365211695 0.172422528 0.882858574
0.553826392 0.155723974 0.876407623
0.778241217 0.131688774 0.874762893
0.989879608 0.102719560 0.871220708
0.300948650 0.284882694 0.884882748
0.389879644 0.283617854 0.876027703
0.569260120 0.275395215 0.877039611
0.782415926 0.268311203 0.876027882
0.991144836 0.267552167 0.874762833
0.380771756 0.488045603 0.869070232
0.458317488 0.488930911 0.872485995
0.608222783 0.490575790 0.871094584
0.797216773 0.492346317 0.868943810
0.989879787 0.496014714 0.865907729
0.461859763 0.704743922 0.878051758
0.515369952 0.707653403 0.877292752
0.645161331 0.709677637 0.869829178
0.809487641 0.717520416 0.877925515
0.981783569 0.717520416 0.871600449
0.533712804 0.923339784 0.872612417
0.574319601 0.921821654 0.874889433
0.683365047 0.920809805 0.877040029
0.828462958 0.919417739 0.881593764
0.963567019 0.927260756 0.894623518
