Assets/Shaders/EldamarStudio/100 Sci-Fi LUTs Pack/LUTs/cube/Foldor LUT.cube
LUT_3D_SIZE 8
DOMAIN_MIN 0.000000 0.000000 0.000000
DOMAIN_MAX 0.903226 0.903226 0.903226
0.000000000 0.101961002 0.035294000
0.079823092 0.098039001 0.044275545
0.219355002 0.094117999 0.054901998
0.362681985 0.082353003 0.039216001
0.506009161 0.076913200 0.036812194
0.652118683 0.051233523 0.050853994
0.818469286 0.005566292 0.079063997
0.974319756 0.002656833 0.104743972
0.004681000 0.144212097 0.053383999
0.099810541 0.147375003 0.037697904
0.235041186 0.151297003 0.041619100
0.360404998 0.150917456 0.035673644
0.496141732 0.145856902 0.045034643
0.655281723 0.134092286 0.058064803
0.815180123 0.114104643 0.077545807
0.974572837 0.092093840 0.111448430
0.060847282 0.236686081 0.053257093
0.148007199 0.239848092 0.048576999
0.246805996 0.229601189 0.041492902
0.369386643 0.234788358 0.048956547
0.500569165 0.236686096 0.057938192
0.659582496 0.238962993 0.073624097
0.823908627 0.239848390 0.089310996
0.973434448 0.237697825 0.108791985
0.146868646 0.331815630 0.067805350
0.197090551 0.329032272 0.067298993
0.275648266 0.330677092 0.069702901
0.387349635 0.326755285 0.074003644
0.520936191 0.337254822 0.074762642
0.666413486 0.343833178 0.083364829
0.822896898 0.355976909 0.089690350
0.974066794 0.365338445 0.117773816
0.224794373 0.450474381 0.087792799
0.259329200 0.457052827 0.092220359
0.326502174 0.454395980 0.083871193
0.426438838 0.451107174 0.087792799
0.545224547 0.449588984 0.076913193
0.686527729 0.468437672 0.081720807
0.835041463 0.488678277 0.090069897
0.982162774 0.495256394 0.119164802
0.285768479 0.611005485 0.080582261
0.320809722 0.605819225 0.075522006
0.391777158 0.612776697 0.081214361
0.484124064 0.612903237 0.078178264
0.597343624 0.614800453 0.075522006
0.718785763 0.614800453 0.068564259
0.858317554 0.627071440 0.081341282
0.987349629 0.635294437 0.116255224
0.340797275 0.767868519 0.078431003
0.363440543 0.772675157 0.081087835
0.431752175 0.772295713 0.079823092
0.522327662 0.773054600 0.079063997
0.629981160 0.773940563 0.075141996
0.750284731 0.772043049 0.075141996
0.867172599 0.774067283 0.079696566
0.983807504 0.776344001 0.121947780
0.395066798 0.925995946 0.164958954
0.433396518 0.932701051 0.190386027
0.476786822 0.927260756 0.182162777
0.559519231 0.928525925 0.179506615
0.656672955 0.925742984 0.187349617
0.765464664 0.924604654 0.197343513
0.878304839 0.928652763 0.208602056
0.984692812 0.924604595 0.216318741
0.000000000 0.106261544 0.093611546
0.083364643 0.101961002 0.104617544
0.219734550 0.099177547 0.108918093
0.328146279 0.112966098 0.113978446
0.472359180 0.104743645 0.126502350
0.627071559 0.087286621 0.138266727
0.803668499 0.029980984 0.149146110
0.967868447 0.000000000 0.170018703
0.014800997 0.139911547 0.090828992
0.099051543 0.151297003 0.102213547
0.205186293 0.149272546 0.113599092
0.336495638 0.154459193 0.119165093
0.471979707 0.154079750 0.131309345
0.632511199 0.140417099 0.138266742
0.801264822 0.122707263 0.152308539
0.958760619 0.102213547 0.170018703
0.084503092 0.224541545 0.121821545
0.143706635 0.221758187 0.120303541
0.225553185 0.221378639 0.118658639
0.344592184 0.228842184 0.122960187
0.480961174 0.233143538 0.134851187
0.643516898 0.234282196 0.142188445
0.809108555 0.234661639 0.151170284
0.969133496 0.234282091 0.170271635
0.155344635 0.321189284 0.129917905
0.194560632 0.320050627 0.130803183
0.269450009 0.318026364 0.130803093
0.369639367 0.314105093 0.134724885
0.498039305 0.329032272 0.133839175
0.652371764 0.339152277 0.145730287
0.817330837 0.351676196 0.159392640
0.969006777 0.363061637 0.169892177
0.226185739 0.449715197 0.141176283
0.250980556 0.442883998 0.143453300
0.330550283 0.444149405 0.142188445
0.420240551 0.444528759 0.148893192
0.529411376 0.444149196 0.149019718
0.676280916 0.458444118 0.146236449
0.833143950 0.482099921 0.152941301
0.979632735 0.497912854 0.174699470
0.284250289 0.597849190 0.146615908
0.319165021 0.599873483 0.142188340
0.384566367 0.600252986 0.144086182
0.479822695 0.604680598 0.142314538
0.591397464 0.605819225 0.138772905
0.706767738 0.607843459 0.139152348
0.850347817 0.619607568 0.147122279
0.986590564 0.635673881 0.169386327
0.334598005 0.763693810 0.144086063
0.361922801 0.765338540 0.144845098
0.426439136 0.765591145 0.140037790
0.518405855 0.767235816 0.144971371
0.629727721 0.766350210 0.148513541
0.741555989 0.768754005 0.140290812
0.862998128 0.772042990 0.145224527
0.983807504 0.770904303 0.176597044
0.394180685 0.922454059 0.211891040
0.421505064 0.920430064 0.214547887
0.472991824 0.921062469 0.209487855
0.553953171 0.920809746 0.211131960
0.655155003 0.920935929 0.221758515
0.765464664 0.920682907 0.232257873
0.878684223 0.922074616 0.239089161
0.980138838 0.924351335 0.253257424
0.000000000 0.110562898 0.202909291
0.104997002 0.101960905 0.201391190
0.218722194 0.107399993 0.199873105
0.333712965 0.113724999 0.207590103
0.474004000 0.110688999 0.219355002
0.616318464 0.093485102 0.225553185
0.789500237 0.043010823 0.245161101
0.961922705 0.001265167 0.256040156
0.056799550 0.151676551 0.186843634
0.121821545 0.158760458 0.197090551
0.210753098 0.155597642 0.197090551
0.335357279 0.156356648 0.208475903
0.471347570 0.161543101 0.218975544
0.619987011 0.151423007 0.231119379
0.792789459 0.126375809 0.244655102
0.952814519 0.105376452 0.256925881
0.097912908 0.220999092 0.196711004
0.164579093 0.230107546 0.208096445
0.236559182 0.227324098 0.209235102
0.349399179 0.231625646 0.216698557
0.478684276 0.236686081 0.223276183
0.634914696 0.233902544 0.231878474
0.801264822 0.237444997 0.246805802
0.965970695 0.232637197 0.262365669
0.170778096 0.322074175 0.219101653
0.217078000 0.320935726 0.219481185
0.286780268 0.318911999 0.222644106
0.377609193 0.314990282 0.220619649
0.497406363 0.324351370 0.226818442
0.645414293 0.340797007 0.235927001
0.809487879 0.353320271 0.244781837
0.967109203 0.359139711 0.259962201
0.238203898 0.441872299 0.233523190
0.266793311 0.441872388 0.227577746
0.332954079 0.442631185 0.232005194
0.422643721 0.440606892 0.231119379
0.530297279 0.442631185 0.227197990
0.668058395 0.457432270 0.237065554
0.827956736 0.478558004 0.241366193
0.974446774 0.496268034 0.262365639
0.295762241 0.602277219 0.242125183
0.325996101 0.599493980 0.241745725
0.393295467 0.602277339 0.240986839
0.481846988 0.604680598 0.234661639
0.588740945 0.605059922 0.237065554
0.708159387 0.605313420 0.237318188
0.851612628 0.618722379 0.245920196
0.982542574 0.636559188 0.268437773
0.336875111 0.763693571 0.247691393
0.370778024 0.767741680 0.255407900
0.433396310 0.769259810 0.249083102
0.528652668 0.767615557 0.248324007
0.634788156 0.767615557 0.249209389
0.742062092 0.770018756 0.250221550
0.861985981 0.768500566 0.249842003
0.981783569 0.772043049 0.278557718
0.424288541 0.920556605 0.308411986
0.442757964 0.923845708 0.315370262
0.496774107 0.920682907 0.312586874
0.573560894 0.922580659 0.315749496
0.665907800 0.923086464 0.319924116
0.773813963 0.924477935 0.326755106
0.876913548 0.921315491 0.327260852
0.985451877 0.921821773 0.337760687
0.028715992 0.100315996 0.313978255
0.120050728 0.103099354 0.307779968
0.233396277 0.109803997 0.303478718
0.335231006 0.114863642 0.296521634
0.474256724 0.110183448 0.310183257
0.619607568 0.092346743 0.327134550
0.789879918 0.020999437 0.345350981
0.960025430 0.001518189 0.363187641
0.075774983 0.161037549 0.292093366
0.140038088 0.167741910 0.295762569
0.231372640 0.164958537 0.288931161
0.337508291 0.157115549 0.285768270
0.466793299 0.159139916 0.302593499
0.614800692 0.148260713 0.325489938
0.792283058 0.119418003 0.340797007
0.949398816 0.097027190 0.355850607
0.135989740 0.232257724 0.295635641
0.170271739 0.233396277 0.295635641
0.255660832 0.234282196 0.295256197
0.346489727 0.231119379 0.293738276
0.476533711 0.236306548 0.311321706
0.620240569 0.233523190 0.319038540
0.793295264 0.233143643 0.341808826
0.959266245 0.234914377 0.364959061
0.183302000 0.313345999 0.306008637
0.221758187 0.313345999 0.300822198
0.295256197 0.317267269 0.310562611
0.384060889 0.323466271 0.310562640
0.493991256 0.326628447 0.316761732
0.640480876 0.330550283 0.327008009
0.805565894 0.342567921 0.347121924
0.961290598 0.358253926 0.368374437
0.244402185 0.431625366 0.321315199
0.271094173 0.442125022 0.318405837
0.339152366 0.439848006 0.321189284
0.424794823 0.436179370 0.321948260
0.524224937 0.435041010 0.320430070
0.664895475 0.455408007 0.327387452
0.824035525 0.473497897 0.344718367
0.972801983 0.492978990 0.373813987
0.294624001 0.588867545 0.337760895
0.322327733 0.589247048 0.335989982
0.390512437 0.594307542 0.340038091
0.481340915 0.590891838 0.337254763
0.589879453 0.595572114 0.337634385
0.708159328 0.600253105 0.338013649
0.844908297 0.614800572 0.353194267
0.977862000 0.631246328 0.376470447
0.345351279 0.761290312 0.351549536
0.376470745 0.757621884 0.357495099
0.431119800 0.756230175 0.353194267
0.523592591 0.760151923 0.356609643
0.626818478 0.758886695 0.351169914
0.742188096 0.762934566 0.357494920
0.861986279 0.761290312 0.359392554
0.979633152 0.768753827 0.388994247
0.442631274 0.917773783 0.412270635
0.464010119 0.919164777 0.415179998
0.512966514 0.917014658 0.416951507
0.582795680 0.918406010 0.416318744
0.672485828 0.918785334 0.418595642
0.775838077 0.919291556 0.427703977
0.879190445 0.921821594 0.436179787
0.984819591 0.921062827 0.440733582
0.097786188 0.115243189 0.431751996
0.164832443 0.114104547 0.430613637
0.267931968 0.118406095 0.422264278
0.374066919 0.118026547 0.418343157
0.484882951 0.113724999 0.412776560
0.630740106 0.088930823 0.432131559
0.794686854 0.013915533 0.450348079
0.961037278 0.002656833 0.470082372
0.120809533 0.171663091 0.409993827
0.175458372 0.172042727 0.415307015
0.275016010 0.174066901 0.419228286
0.376470745 0.171030998 0.412523746
0.478178650 0.164705917 0.403415382
0.623529494 0.150664002 0.421758652
0.801391482 0.114231259 0.448070884
0.954838574 0.101328529 0.468058199
0.165212095 0.249209195 0.406704187
0.217078000 0.252118647 0.407716691
0.284377068 0.249209195 0.405945271
0.386717558 0.243390456 0.407463282
0.488804370 0.235167906 0.405060083
0.637697577 0.233143643 0.424920917
0.799746573 0.225679994 0.450474381
0.955850601 0.246679187 0.473750859
0.214421451 0.329032272 0.410626262
0.246426627 0.336622655 0.413282752
0.310942352 0.329791188 0.407716721
0.412396818 0.333712965 0.412017584
0.514611185 0.330170631 0.410499364
0.652751207 0.340417475 0.429222077
0.807084084 0.350410908 0.450980544
0.961290300 0.373687685 0.479949385
0.246806175 0.434155196 0.413662195
0.287286758 0.439468384 0.418848842
0.349525273 0.433143497 0.415939301
0.448576629 0.447691649 0.427324623
0.556103528 0.456799179 0.436306179
0.682226241 0.456673175 0.440986663
0.828083277 0.476281106 0.454395980
0.974319756 0.500442803 0.484377027
0.304743975 0.591777027 0.439088941
0.336116284 0.594813228 0.442124933
0.402656555 0.592536211 0.444149375
0.489310652 0.598482132 0.445794076
0.599367380 0.594054163 0.445035189
0.710942686 0.598102689 0.443263471
0.847058654 0.621125758 0.468437672
0.977102995 0.640353978 0.496647894
0.385325551 0.753573656 0.480202287
0.410120100 0.759392917 0.472991824
0.462239146 0.755850554 0.474763095
0.535230994 0.757874966 0.471220732
0.633017421 0.762302279 0.474509478
0.743580163 0.756609857 0.472232461
0.857938111 0.764579535 0.479190379
0.978747308 0.774699330 0.509424508
0.486653596 0.913978577 0.528652668
0.496773988 0.915117204 0.528273106
0.538393259 0.915749550 0.531435907
0.605186582 0.915496767 0.531941712
0.685515344 0.918152928 0.532826960
0.783807635 0.918279469 0.537507892
0.882226348 0.920682907 0.546869099
0.987096608 0.918659031 0.553447187
0.160404980 0.127387732 0.569639206
0.215559736 0.127387732 0.571283937
0.313472748 0.126628637 0.564579368
0.421631932 0.114484094 0.554712057
0.542821169 0.102846004 0.554838657
0.655914187 0.076787263 0.546236694
0.806451738 0.011511724 0.565085053
0.966350496 0.003415731 0.581024647
0.178873733 0.181024805 0.546489656
0.224668279 0.180265799 0.560278177
0.317141265 0.175964639 0.556356788
0.423276603 0.167741910 0.552941322
0.537128448 0.154459298 0.545730591
0.651866198 0.140164554 0.542314708
0.801644266 0.110309847 0.558507144
0.954585493 0.108665071 0.581783772
0.209108084 0.262365550 0.552182198
0.247564822 0.259455889 0.554206371
0.326881737 0.257431746 0.549652457
0.428336471 0.253889889 0.547754884
0.540796876 0.244402289 0.545098126
0.657432199 0.230866358 0.539531589
0.811764836 0.231119186 0.558760226
0.966223776 0.246806011 0.586084843
0.238077283 0.356230259 0.549272716
0.276913643 0.353573740 0.550158203
0.345983475 0.350917161 0.543326795
0.444781750 0.347374886 0.539531589
0.552561700 0.342188478 0.541429102
0.664263189 0.338013649 0.535863101
0.817963064 0.350790262 0.559519112
0.959266365 0.385831743 0.587349534
0.275775194 0.462871432 0.552308440
0.312207639 0.465148449 0.537381172
0.374825925 0.462871432 0.543832898
0.468690634 0.461986363 0.547375321
0.579633355 0.465148360 0.554838896
0.698039174 0.469070345 0.553826630
0.833649397 0.487919092 0.574446619
0.966476858 0.521062613 0.604427457
0.315243721 0.597090185 0.546110153
0.346869111 0.595066488 0.550917208
0.411132067 0.599873483 0.556862533
0.503984630 0.602150559 0.558760107
0.614927411 0.608855188 0.568247914
0.726628721 0.616824687 0.573687732
0.851992309 0.625806272 0.593801200
0.969639361 0.653636634 0.616445422
0.395825565 0.753068030 0.579506755
0.425047338 0.751802742 0.585705161
0.481467545 0.755344748 0.580645263
0.561163902 0.756989062 0.595951676
0.652625144 0.762428820 0.600759149
0.751296759 0.758633792 0.594686747
0.860215247 0.762934864 0.604427516
0.971663594 0.784060597 0.626818419
0.536622405 0.911448479 0.645793676
0.555597544 0.909171343 0.653383732
0.590765178 0.908412337 0.651739240
0.642757714 0.912207365 0.654902220
0.702213883 0.911954343 0.650221109
0.787349582 0.912333846 0.650727391
0.883617818 0.918658853 0.658950210
0.975079060 0.920050621 0.664642513
0.218595698 0.147375286 0.731562257
0.267046094 0.139278755 0.731309295
0.358001292 0.138772801 0.729285538
0.468057930 0.124984354 0.723086536
0.595192671 0.100316092 0.719797254
0.715749741 0.061100267 0.708285809
0.850474238 0.000000000 0.710309565
0.971663654 0.005312988 0.703858376
0.233017027 0.187982097 0.722706854
0.275774807 0.192156807 0.722201228
0.358127922 0.184566826 0.718785703
0.471347362 0.176344186 0.715496659
0.589373827 0.163820192 0.711321890
0.714990616 0.140290990 0.712081015
0.841872275 0.103858262 0.704490781
0.962681711 0.117394090 0.704490781
0.254396170 0.273498118 0.714990258
0.295509309 0.276534081 0.720176935
0.369766057 0.275648296 0.718406141
0.480961174 0.268311530 0.715243578
0.598482072 0.255407900 0.711954474
0.721062839 0.244781837 0.709677279
0.851486564 0.232511088 0.708665490
0.966856301 0.254143149 0.709044874
0.281973302 0.382289588 0.711827874
0.314737469 0.379886091 0.704743862
0.387729168 0.378241360 0.703984678
0.491081238 0.373940617 0.704743564
0.604680657 0.369512975 0.705376267
0.725110769 0.365211904 0.704111576
0.847058892 0.363314271 0.705249965
0.968880296 0.387223452 0.706135094
0.316255361 0.495888650 0.699430585
0.350917220 0.502593637 0.705376148
0.417457104 0.499683738 0.707273722
0.512080967 0.498924464 0.701707602
0.615559578 0.494117647 0.700822473
0.730170548 0.494117469 0.704111218
0.847691476 0.494750470 0.701075494
0.969259620 0.530929625 0.712333858
0.361543447 0.627451003 0.701834559
0.392536283 0.633017182 0.708918393
0.448830009 0.634155869 0.705250025
0.538140178 0.630487382 0.710183620
0.641619265 0.636685729 0.713852048
0.749652505 0.635926425 0.713598967
0.856799722 0.642757893 0.717900038
0.969386339 0.672359049 0.733965635
0.408728272 0.762934804 0.710309505
0.427957088 0.761669993 0.706388593
0.486401200 0.762175798 0.706641376
0.569513023 0.762302220 0.711827874
0.664389551 0.764579535 0.713598967
0.767741978 0.772422552 0.722706795
0.864895821 0.778621316 0.732194841
0.971157372 0.792410016 0.756230354
0.536622405 0.911574781 0.739026070
0.557242215 0.911574781 0.749272466
0.596837342 0.907653451 0.753447175
0.657938182 0.908665299 0.759139836
0.731182694 0.909677505 0.767109096
0.806577981 0.914358258 0.774446726
0.885389268 0.913852036 0.772042692
0.974446774 0.917393923 0.779253483
0.272106111 0.177988812 0.881593764
0.307906359 0.173055276 0.882858574
0.389753252 0.173434719 0.886400819
0.497912616 0.162428632 0.879190266
0.623276353 0.150537804 0.878810823
0.744338989 0.136242792 0.875268757
0.879569709 0.119797319 0.876913488
0.989879608 0.102719560 0.871220708
0.279696494 0.225047529 0.881973326
0.320809603 0.219734535 0.878558040
0.396078527 0.215559810 0.879569709
0.504364252 0.211764634 0.879949212
0.613788784 0.203794897 0.878431261
0.741555989 0.193421796 0.875142455
0.874763012 0.182415888 0.874130309
0.987602353 0.181909844 0.869196773
0.309044927 0.309171259 0.882858694
0.347754776 0.305123329 0.878431141
0.419987082 0.304364175 0.875774741
0.516129017 0.304111540 0.879949152
0.632510960 0.296900809 0.875774682
0.754585564 0.298418701 0.874003649
0.877166271 0.296900809 0.872485638
0.991144836 0.300948828 0.872485638
0.360531211 0.419481218 0.869829416
0.384946346 0.423023105 0.878684580
0.449335754 0.423782200 0.876027703
0.538266897 0.421758235 0.873877585
0.646552980 0.425426900 0.873244643
0.760025203 0.420999348 0.870082498
0.881720364 0.424161762 0.868690729
0.987602592 0.425806075 0.867172599
0.403668404 0.539405107 0.866919577
0.432764113 0.546362817 0.878304720
0.485641837 0.548639774 0.871600509
0.569639504 0.554965317 0.872106194
0.667425811 0.551549673 0.865781248
0.771031141 0.552940965 0.866287291
0.881720245 0.553067863 0.867678881
0.987096548 0.560910761 0.872991979
0.450474381 0.674636364 0.874256730
0.466160774 0.673118234 0.873750746
0.521188974 0.677039921 0.876027942
0.599240959 0.677798808 0.873244703
0.687033117 0.682099879 0.869070172
0.780645192 0.685135543 0.875142455
0.882606149 0.683238268 0.873371422
0.983554602 0.689183891 0.867046356
0.498545259 0.798987925 0.876154304
0.508539081 0.798608243 0.872991562
0.551675975 0.798481762 0.871726751
0.623402655 0.798102498 0.870715022
0.700063169 0.799746931 0.872612238
0.791777432 0.800758779 0.876280665
0.878431559 0.801012039 0.876028061
0.971916318 0.810752809 0.878684342
0.533712804 0.923339784 0.872612417
0.550537348 0.928273201 0.871094584
0.593548238 0.922074616 0.878178537
0.649082601 0.919671178 0.876407623
0.722327530 0.916887760 0.876533806
0.807716608 0.919417799 0.880328596
0.886400938 0.921695113 0.888171554
0.963567019 0.927260756 0.894623518
