Assets/Shaders/EldamarStudio/100 Sci-Fi LUTs Pack/LUTs/cube/Foldor LUT.cube
DOMAIN_MIN 0 0 0
DOMAIN_MAX 1 1 1
LUT_3D_SIZE 32
0.000000000 0.101961002 0.035294000
0.000000000 0.101961002 0.035294000
0.015053772 0.099810228 0.035294000
0.042631321 0.098039001 0.037823997
0.079823092 0.098039001 0.044275545
0.122327864 0.098039001 0.053383932
0.157242313 0.095509320 0.057432320
0.188994408 0.094117999 0.057179291
0.219355002 0.094117999 0.054901998
0.249715015 0.094117999 0.054901991
0.294623613 0.091208130 0.046173129
0.330044508 0.086148009 0.041113261
0.362681985 0.082353003 0.039216001
0.398608059 0.082606032 0.038710002
0.428968817 0.085642412 0.032638006
0.466540396 0.081467390 0.033776194
0.506009161 0.076913200 0.036812194
0.545477509 0.073245011 0.040480990
0.584946036 0.067172989 0.046553001
0.616065741 0.061100993 0.047059000
0.652118683 0.051233523 0.050853994
0.691587389 0.040101133 0.056925997
0.731182992 0.030613992 0.063124500
0.773687780 0.012397189 0.072232902
0.818469286 0.005566292 0.079063997
0.862618268 0.002530328 0.082353003
0.904111087 0.000000000 0.083871067
0.940543830 0.000000000 0.092979439
0.974319756 0.002656833 0.104743972
0.993548214 0.002150783 0.116887957
1.000000000 0.000000000 0.129031971
1.000000000 0.000000000 0.141176000
0.000000000 0.101961002 0.041366000
0.003036387 0.101961002 0.029222000
0.026692159 0.097659998 0.035673775
0.054016545 0.098798223 0.042125225
0.085515544 0.104490548 0.048829552
0.125363484 0.107147381 0.047311932
0.160278574 0.104617059 0.056420319
0.193675086 0.104870319 0.057179291
0.226945192 0.104744002 0.053383999
0.261859804 0.100189999 0.048829999
0.292219758 0.100189999 0.048829999
0.329032362 0.103352375 0.042125389
0.362681985 0.101328388 0.035800360
0.398861080 0.097280361 0.030360647
0.432005197 0.094750032 0.032638006
0.464769185 0.092979424 0.033776194
0.502972782 0.090575777 0.036812194
0.541808724 0.089690387 0.040480990
0.578874052 0.088425368 0.046553001
0.623909116 0.076786667 0.047059000
0.655534327 0.070208617 0.050853994
0.692599237 0.061353520 0.057938125
0.734345138 0.052119367 0.066034377
0.779759765 0.039721575 0.072232902
0.817710519 0.023782108 0.081341282
0.860973954 0.013535632 0.085389383
0.903605044 0.005060001 0.086401381
0.937507451 0.000000000 0.092979439
0.979253173 0.000000000 0.104743972
0.996078193 0.002656830 0.113345981
1.000000000 0.002150779 0.124730974
1.000000000 0.000000000 0.141176000
0.000000000 0.117014773 0.043136999
0.007337387 0.110563003 0.039595000
0.021125998 0.112713769 0.033902772
0.058317546 0.107906610 0.041745998
0.091587543 0.113472320 0.050347775
0.131055921 0.120050706 0.056166932
0.161163956 0.118026450 0.050347771
0.196204975 0.116634771 0.052878160
0.229348406 0.118405998 0.050600998
0.262998223 0.115116999 0.047311995
0.297912776 0.117014773 0.042757999
0.326249033 0.114990517 0.036685746
0.361669868 0.117267646 0.031625584
0.398355097 0.112460747 0.025553256
0.427957237 0.109424360 0.028589642
0.467805564 0.106388032 0.033776194
0.501201928 0.106388412 0.038329996
0.539405286 0.106388420 0.042631220
0.577355981 0.104870215 0.048703231
0.615686297 0.098039053 0.051360000
0.657431901 0.089689784 0.053257741
0.692599237 0.083617769 0.058064643
0.735103965 0.075648494 0.064895727
0.778620958 0.065527961 0.072992004
0.817330778 0.051107042 0.077039734
0.856546521 0.038709659 0.084756792
0.899304092 0.028336549 0.087792933
0.932700396 0.022264555 0.095509224
0.971916318 0.012902999 0.106894203
0.996710658 0.012902999 0.117267422
1.000000000 0.013788843 0.122833602
1.000000000 0.010752774 0.134724766
0.001265161 0.133206829 0.046932161
0.010373225 0.127893612 0.044402160
0.030993160 0.126122609 0.042251609
0.054269478 0.129159003 0.039216001
0.095256157 0.126502156 0.044529002
0.132067934 0.132953927 0.053130999
0.169006959 0.134471998 0.051359843
0.197470143 0.133080319 0.048070550
0.232384354 0.133080319 0.045034938
0.262745172 0.133080319 0.044528998
0.296394557 0.135989860 0.041239999
0.329285413 0.134978056 0.035673749
0.357748151 0.133080319 0.031119643
0.396584034 0.130171135 0.028589323
0.426945060 0.127134740 0.030613575
0.461227417 0.125363514 0.034787994
0.504238009 0.122833185 0.039595157
0.537634552 0.124604583 0.045034576
0.575838149 0.121568345 0.050474007
0.615053892 0.117014147 0.055028517
0.653383851 0.112207323 0.055534579
0.691840410 0.106135324 0.060594965
0.733965635 0.100063294 0.064263150
0.777608812 0.092093252 0.072232902
0.815559566 0.082226299 0.076786712
0.853510439 0.073624492 0.081214346
0.896015167 0.064010158 0.088298991
0.931688368 0.056420162 0.098165698
0.970398426 0.048829988 0.109930135
0.987602830 0.042504482 0.117773354
0.997975826 0.044275470 0.126881525
0.998734832 0.042378318 0.130676836
0.004681000 0.144212097 0.053383999
0.015686158 0.144591644 0.048071001
0.039089091 0.143832549 0.043390226
0.069070317 0.145097718 0.041113164
0.099810541 0.147375003 0.037697904
0.130170539 0.147375003 0.037697904
0.171283960 0.150284871 0.038457002
0.206578150 0.151297003 0.040101290
0.235041186 0.151297003 0.041619100
0.265402019 0.151297003 0.038583487
0.296141535 0.153447121 0.038836453
0.327767193 0.153194264 0.037191745
0.360404998 0.150917456 0.035673644
0.391018093 0.151170492 0.038963001
0.427324355 0.148387134 0.039216001
0.459709048 0.147375003 0.041998737
0.496141732 0.145856902 0.045034643
0.540290713 0.143959120 0.048070963
0.573687911 0.140923500 0.051106587
0.614674687 0.137507737 0.056546714
0.655281723 0.134092286 0.058064803
0.694497287 0.130803540 0.057938125
0.731182992 0.124858037 0.066919990
0.776470482 0.119038284 0.072992004
0.815180123 0.114104643 0.077545807
0.853763402 0.108918093 0.081214346
0.892979562 0.108791545 0.087539993
0.935483515 0.096647553 0.099683993
0.974572837 0.092093840 0.111448430
0.991144776 0.089057878 0.119797669
0.990385532 0.088298537 0.124225371
0.996457577 0.094370544 0.133332998
0.010753000 0.168500870 0.041240003
0.035040997 0.171537250 0.041240003
0.056799479 0.167615250 0.033776227
0.083365098 0.166350096 0.030740160
0.111954540 0.168627381 0.031625908
0.145350933 0.165590987 0.025553131
0.175711572 0.170651630 0.030613778
0.205312982 0.171284214 0.034029290
0.232384339 0.169512987 0.035547100
0.265402019 0.169512987 0.032511491
0.298671871 0.166603118 0.035294130
0.327514172 0.168627262 0.035800066
0.358127713 0.168374345 0.034155648
0.391018093 0.166350096 0.032891002
0.424415231 0.169386476 0.038962997
0.460720897 0.166603118 0.044022996
0.494623631 0.164073184 0.048070740
0.531942070 0.162934870 0.051106643
0.573687911 0.168247879 0.054142967
0.609867036 0.162428930 0.057179291
0.649209380 0.156862870 0.062618993
0.689690292 0.153320938 0.065148935
0.731182992 0.152182430 0.066919990
0.773687780 0.149146035 0.072992004
0.812144458 0.150158152 0.081341282
0.852751493 0.143327147 0.085262865
0.895762205 0.133712798 0.087286994
0.932447910 0.136115938 0.093611985
0.966982663 0.129284948 0.103099138
0.988994002 0.125490218 0.116255246
0.995951593 0.124225244 0.126755044
0.999493957 0.127766937 0.133332998
0.032004997 0.192789644 0.034156002
0.053763315 0.195825398 0.041745678
0.080202088 0.198861778 0.046046678
0.103605151 0.193927974 0.038836159
0.127640545 0.192789644 0.036433000
0.152434930 0.191904023 0.034661774
0.183301643 0.191397965 0.033649642
0.213662401 0.194181323 0.034788292
0.241239637 0.192789644 0.036053095
0.272865146 0.192789644 0.036559485
0.303731889 0.192410097 0.036812451
0.333080262 0.189373702 0.033776328
0.362681627 0.191397965 0.036179673
0.396331042 0.191144928 0.038709708
0.432004899 0.189626738 0.037950993
0.462998271 0.190259323 0.041619189
0.499177694 0.188867643 0.047564678
0.535484076 0.187476322 0.052877571
0.577988982 0.189753309 0.059708972
0.612397373 0.187222987 0.062745355
0.656419814 0.184946001 0.063883997
0.698798239 0.182163000 0.068691000
0.740923464 0.182036519 0.071853481
0.776217461 0.179000735 0.075521685
0.818722188 0.175964355 0.081594251
0.858443916 0.175711676 0.090449303
0.901328087 0.167615637 0.094876669
0.937760830 0.168627501 0.100948669
0.976596773 0.168753967 0.112207785
0.992283225 0.164452747 0.116002642
0.997722745 0.165844291 0.126502290
0.997469664 0.173813641 0.135863319
0.046425998 0.215433702 0.039595284
0.075901084 0.215180323 0.047059026
0.091587476 0.219860762 0.042504713
0.117646702 0.221631989 0.048576713
0.138899088 0.216318980 0.042125449
0.158886656 0.213788986 0.040860288
0.184439927 0.217077985 0.039216001
0.216445401 0.212144285 0.039216001
0.246805996 0.212144285 0.036938708
0.277166039 0.212144285 0.039089486
0.305882037 0.213788986 0.040860288
0.337507963 0.215054139 0.041745998
0.367109358 0.212017760 0.036812350
0.400505722 0.214042023 0.043642998
0.435546786 0.213788986 0.044781711
0.467172593 0.213156402 0.046552893
0.502087176 0.213156402 0.049588896
0.538646400 0.213788822 0.054269418
0.579127252 0.214800701 0.060341686
0.618216395 0.212017760 0.067172647
0.654522479 0.210879117 0.071600288
0.701075256 0.210879117 0.071600288
0.743453503 0.211005598 0.076407313
0.779885888 0.211005598 0.080961518
0.823402524 0.207969829 0.086274572
0.860341311 0.206325114 0.088172324
0.901328027 0.203542337 0.096268065
0.938899100 0.202403694 0.103478707
0.974699438 0.204048395 0.111574940
0.996204495 0.200632483 0.121569000
0.999240875 0.200252905 0.125110984
0.997722745 0.210879117 0.137254998
0.060847282 0.236686081 0.053257093
0.090448774 0.234408796 0.056293674
0.110562764 0.237065092 0.048071232
0.125237092 0.240607083 0.044023093
0.148007199 0.239848092 0.048576999
0.165464967 0.233776093 0.045161065
0.186464190 0.236306086 0.042125322
0.215686113 0.237191588 0.041492902
0.246805996 0.229601189 0.041492902
0.277166039 0.229601189 0.041492905
0.305375963 0.231751963 0.043643128
0.335230649 0.233270168 0.045920160
0.369386643 0.234788358 0.048956547
0.402783036 0.232258037 0.046173189
0.436179370 0.235294417 0.051233184
0.467931688 0.236686081 0.056419801
0.500569165 0.236686096 0.057938192
0.541935086 0.237951085 0.060974415
0.578873992 0.241113231 0.061100911
0.619354784 0.239342451 0.068690658
0.659582496 0.238962993 0.073624097
0.697280169 0.238962993 0.077672102
0.739658356 0.238836512 0.077925093
0.779127002 0.240607291 0.083997712
0.823908627 0.239848390 0.089310996
0.867931247 0.238204092 0.094244331
0.899304152 0.238204092 0.092726000
0.938519478 0.235420734 0.101581343
0.973434448 0.237697825 0.108791985
0.987349868 0.237697840 0.118153192
0.995445609 0.235167310 0.126628980
0.998481989 0.241240099 0.138772994
0.100316465 0.257938474 0.062365472
0.109424070 0.257938474 0.056293480
0.128272772 0.259962201 0.046426520
0.149019167 0.261859477 0.045541167
0.169259593 0.261100501 0.057685390
0.181404352 0.255028516 0.051612616
0.196331814 0.254016519 0.048197329
0.221758664 0.255914181 0.048450299
0.252878010 0.256926358 0.050600525
0.277166039 0.253890008 0.050600521
0.307526737 0.253890008 0.050600521
0.335736752 0.251992255 0.050727006
0.366729796 0.250347525 0.053130805
0.402783036 0.250474066 0.058317967
0.436179370 0.253510445 0.058317967
0.469576389 0.256546825 0.065781154
0.501328468 0.257938504 0.068564191
0.535863101 0.259203494 0.067046419
0.584440053 0.265275538 0.070082046
0.621378720 0.265655011 0.075774536
0.661859453 0.267425776 0.076280750
0.703099072 0.269323051 0.074636482
0.742694020 0.269196570 0.074889481
0.782163262 0.266160935 0.080961496
0.823908985 0.265655011 0.084756814
0.868058085 0.265528530 0.090702310
0.911448121 0.265528530 0.098798007
0.947880864 0.265528530 0.104869984
0.984440088 0.268058181 0.113725327
0.992410064 0.271094263 0.126249164
0.986464500 0.274636477 0.138519973
0.992410004 0.280708522 0.144844994
0.110689126 0.279190868 0.056925997
0.119797483 0.279190868 0.053763129
0.133206636 0.283491850 0.058443900
0.156736195 0.282226592 0.055408157
0.181404188 0.278051883 0.058444452
0.191018000 0.282099873 0.054901998
0.210752442 0.276027888 0.056420192
0.231625542 0.276913583 0.057432156
0.259709090 0.279190868 0.059708871
0.286147892 0.278305262 0.059708863
0.310436606 0.278178751 0.053889871
0.342821121 0.276154488 0.055914126
0.373055130 0.274256736 0.056799740
0.405692905 0.274762720 0.058823999
0.439089239 0.280455291 0.058823999
0.470082432 0.278684676 0.061227188
0.506009161 0.285262853 0.069323190
0.541176379 0.290196300 0.073118418
0.578368008 0.289436996 0.076154038
0.624162078 0.289942980 0.081973709
0.662871540 0.291840732 0.080455266
0.704364240 0.294876635 0.079443388
0.745730340 0.296773881 0.083491862
0.785198867 0.296520919 0.089563876
0.824667931 0.295762002 0.091081873
0.865148604 0.295762002 0.096268304
0.905123115 0.297280073 0.102340057
0.936748862 0.304490864 0.096394867
0.975837767 0.299177855 0.105123013
0.996584296 0.299683750 0.114231333
0.995952010 0.302466869 0.129791319
0.997976005 0.308538884 0.148007870
0.127893239 0.304491252 0.060974251
0.139025897 0.304491252 0.061985862
0.152435273 0.302719980 0.059456028
0.166350499 0.306261986 0.063504092
0.189879984 0.300948799 0.060847737
0.200632319 0.305376500 0.059456058
0.221884832 0.303352267 0.063504055
0.241492495 0.302213967 0.063251443
0.266540200 0.304491252 0.065528154
0.295129776 0.304491252 0.066792995
0.319544464 0.302466989 0.065021992
0.347881228 0.302466989 0.062997989
0.377862275 0.301707894 0.066034377
0.406452000 0.302593499 0.066666961
0.438077122 0.305123508 0.064895734
0.479190588 0.308032781 0.065275185
0.511069179 0.308033168 0.069828995
0.548893094 0.315496683 0.076533742
0.583681285 0.312460274 0.078178033
0.620113850 0.314231515 0.079949200
0.663757205 0.316128761 0.086021960
0.703352094 0.319165111 0.080455258
0.744718254 0.322200984 0.082479507
0.784187198 0.324098259 0.088552006
0.821631849 0.324098259 0.094117999
0.859709322 0.326881617 0.095509320
0.898545325 0.328146756 0.103352070
0.933459878 0.332700938 0.103352457
0.971789777 0.334598243 0.110183649
0.993548214 0.330297470 0.117520481
1.000000000 0.330929905 0.126375630
1.000000000 0.335863262 0.144971490
0.146868646 0.331815630 0.067805350
0.157874763 0.330677003 0.069702610
0.171031117 0.328526497 0.070714772
0.183807999 0.329032272 0.069955833
0.197090551 0.329032272 0.067298993
0.211511642 0.331309557 0.067298993
0.233776271 0.328146964 0.068943642
0.255914271 0.326122701 0.071220711
0.275648266 0.330677092 0.069702901
0.305249989 0.331815630 0.072738521
0.328652620 0.327767402 0.074003644
0.356989145 0.326755285 0.075142287
0.387349635 0.326755285 0.074003644
0.412144423 0.329538643 0.076787002
0.442504585 0.329538643 0.074636228
0.481467396 0.333080471 0.075142287
0.520936191 0.337254822 0.074762642
0.554965138 0.340291053 0.078937069
0.591398001 0.338266671 0.078431003
0.627324402 0.339658350 0.078431003
0.666413486 0.343833178 0.083364829
0.708918273 0.347880900 0.088425480
0.748260140 0.351043761 0.082858779
0.785705388 0.354079366 0.085895158
0.822896898 0.355976909 0.089690350
0.861606658 0.355344355 0.095509320
0.898545563 0.360911071 0.100062996
0.938014030 0.361543626 0.109803788
0.974066794 0.365338445 0.117773816
0.993548214 0.365970880 0.126249343
1.000000000 0.364706248 0.134092569
1.000000000 0.367741913 0.143453285
0.163314074 0.358886987 0.071347035
0.171157420 0.356356680 0.071853034
0.182416037 0.353573799 0.072991744
0.193801194 0.354333043 0.076533869
0.204427585 0.358886987 0.079190031
0.225679964 0.358886987 0.079190031
0.248956591 0.354586035 0.076154292
0.271600664 0.350664347 0.075015999
0.292600006 0.349905103 0.075268902
0.316888034 0.359013498 0.078304522
0.338519871 0.354079992 0.081593901
0.365591466 0.351803035 0.084377259
0.395698994 0.351550013 0.084883325
0.426312089 0.351803035 0.082859002
0.456672847 0.351803035 0.082859002
0.491334587 0.356104016 0.084756806
0.526249230 0.362176001 0.084756806
0.560531139 0.367362469 0.081973456
0.596964002 0.370398104 0.078937061
0.636432409 0.371410102 0.078431003
0.677798510 0.375205517 0.083617739
0.719544291 0.381025016 0.090196066
0.762048960 0.386970520 0.093358956
0.795825660 0.390006155 0.090702124
0.831498981 0.393295318 0.090195999
0.870714307 0.393548399 0.092978992
0.912207186 0.391524106 0.099810027
0.951676250 0.394560456 0.111954018
0.983427942 0.400000066 0.119291633
0.997596204 0.402783036 0.126628786
1.000000000 0.403415620 0.137128174
1.000000000 0.406452000 0.149272963
0.193674803 0.383174986 0.080455415
0.187602818 0.386211365 0.086527407
0.197596416 0.385831803 0.080581635
0.211005569 0.387729377 0.081593744
0.225679949 0.391903847 0.088298410
0.246932328 0.383174986 0.088298410
0.265654385 0.385705292 0.080708094
0.286780268 0.386843652 0.079443291
0.305755764 0.387855381 0.080328904
0.319924444 0.389373451 0.078304529
0.344212413 0.389752954 0.084250741
0.369892240 0.386464238 0.085642412
0.397849202 0.384060740 0.083997712
0.426312089 0.382162988 0.079822615
0.459709227 0.385199368 0.088930994
0.490069419 0.385199368 0.086527802
0.523213148 0.389500380 0.084756806
0.557874918 0.394307405 0.082353003
0.596964002 0.394686848 0.081973441
0.638962746 0.403289169 0.078937061
0.680834889 0.408602238 0.080328740
0.720303535 0.413662255 0.082605876
0.755976975 0.417330474 0.081214197
0.798481822 0.420366883 0.087286979
0.834535182 0.425679833 0.089184128
0.873750687 0.426945060 0.092978992
0.914737463 0.424921155 0.099557064
0.948639870 0.427956820 0.108918406
0.982795358 0.430993199 0.121062391
0.996078014 0.434661567 0.126628786
0.997596204 0.436179370 0.135357395
1.000000000 0.436811954 0.152308583
0.209613994 0.417077601 0.084756806
0.213155985 0.420113981 0.083618000
0.213535756 0.418848813 0.085389003
0.227450788 0.419860959 0.084629968
0.244149074 0.423276573 0.091461256
0.263377726 0.416192472 0.085389003
0.284503609 0.412397116 0.089816481
0.296141595 0.418722481 0.082352810
0.315116912 0.421758294 0.083871000
0.335483968 0.420113593 0.085768320
0.359266609 0.417710394 0.084250741
0.383554608 0.417710394 0.086274996
0.411638081 0.416192591 0.087413348
0.440480679 0.414674401 0.085388832
0.471727014 0.415560007 0.085895218
0.502719760 0.416192591 0.082985200
0.533080220 0.416192591 0.082985580
0.566224098 0.421125978 0.082353003
0.603921831 0.426438779 0.082353003
0.641366601 0.432384342 0.084377252
0.681973517 0.439595461 0.083238609
0.721948266 0.445667595 0.086780809
0.756862819 0.449968398 0.087792613
0.794813633 0.450727493 0.084756806
0.835041106 0.453763306 0.088551708
0.874383271 0.459708750 0.092978992
0.915370047 0.460721046 0.099050999
0.948766410 0.463757157 0.106261633
0.982162774 0.459582627 0.120429970
0.996078014 0.467931747 0.132573962
0.996963620 0.471094191 0.141049787
1.000000000 0.469576389 0.157747999
0.224794373 0.450474381 0.087792799
0.233902365 0.455028564 0.086274609
0.234787762 0.453763396 0.080834813
0.242884159 0.454522520 0.084629975
0.259329200 0.457052827 0.092220359
0.272991657 0.452119172 0.085389256
0.296774119 0.448576868 0.085895196
0.315876186 0.447564691 0.088425197
0.326502174 0.454395980 0.083871193
0.353067487 0.452118695 0.088425197
0.375964522 0.452119052 0.088804670
0.403289199 0.451107174 0.087792799
0.426438838 0.451107174 0.087792799
0.455408007 0.450854152 0.089943029
0.484503627 0.449588984 0.086907417
0.513345957 0.449588984 0.086021580
0.545224547 0.449588984 0.076913193
0.576217711 0.450221568 0.079317003
0.611764967 0.457558393 0.079317011
0.646679521 0.463883370 0.082099974
0.686527729 0.468437672 0.081720807
0.722960293 0.475522071 0.083744802
0.758760452 0.481973499 0.089690320
0.799367607 0.483365178 0.087792993
0.835041463 0.488678277 0.090069897
0.873118162 0.490322560 0.091714188
0.913851976 0.495635480 0.098545194
0.947248638 0.498671621 0.106641181
0.982162774 0.495256394 0.119164802
0.997596204 0.495256156 0.134092152
0.996710598 0.503858149 0.142694190
0.998481810 0.501454949 0.154712006
0.241745993 0.483365119 0.090195999
0.251992583 0.488804519 0.089563586
0.257811368 0.487792343 0.085641794
0.261732697 0.487286299 0.081593744
0.275774568 0.492599964 0.089943029
0.281846553 0.489816606 0.087413348
0.304363877 0.488045365 0.087539986
0.326754957 0.485388696 0.086907409
0.345224559 0.486653686 0.086274996
0.369512588 0.486653686 0.086274996
0.392156422 0.487033397 0.088551708
0.416951090 0.489943117 0.088931009
0.447058797 0.489310533 0.088298433
0.468564153 0.489563555 0.088804498
0.495508969 0.487286270 0.086907417
0.523465931 0.486653686 0.087413199
0.552561522 0.485388696 0.085388996
0.585326076 0.486021101 0.074510001
0.618722558 0.489057511 0.074510008
0.650853992 0.494244128 0.076660231
0.688677907 0.499051273 0.077166155
0.728399694 0.503479004 0.075901426
0.759013414 0.512333691 0.081720427
0.803035915 0.515370071 0.084250748
0.840101242 0.522327840 0.089564003
0.876786947 0.527261555 0.094750412
0.912713170 0.527767479 0.095762409
0.946110308 0.530803084 0.107653409
0.980265558 0.529158771 0.119164981
0.997849226 0.530929863 0.133080184
0.999114394 0.533080101 0.145730585
0.996078014 0.533080101 0.145730585
0.253890038 0.525869966 0.090195991
0.256926417 0.528905630 0.087160386
0.271474004 0.525743008 0.088678189
0.285388976 0.522453964 0.088172123
0.297026962 0.522960067 0.086907409
0.303099006 0.522960067 0.089943022
0.321821302 0.525237322 0.092473343
0.341935396 0.522833943 0.091967285
0.360152006 0.520303965 0.089184120
0.378620982 0.526122928 0.086274989
0.405818850 0.517394125 0.086274989
0.426565528 0.521442294 0.084503710
0.452625275 0.525237322 0.081720360
0.486780941 0.522960007 0.079696104
0.511068940 0.525996387 0.085768849
0.540417552 0.526122928 0.083871193
0.569007099 0.523086965 0.082858995
0.597470105 0.519418359 0.080582000
0.627830982 0.522453964 0.074509993
0.655661345 0.525490344 0.074509993
0.689183950 0.530676961 0.076660223
0.726122260 0.536495984 0.078178026
0.762049019 0.542694569 0.078684032
0.798481882 0.545730948 0.078684025
0.835673571 0.551044047 0.083491638
0.876027644 0.554586053 0.090955302
0.918785214 0.555091977 0.098798022
0.952182353 0.558127582 0.104870029
0.980265796 0.558507025 0.114104860
0.995951951 0.563567281 0.127008185
0.999114394 0.569512963 0.140417606
0.996078014 0.569512963 0.148766994
0.266034007 0.571157396 0.087413348
0.274636418 0.565844357 0.087160379
0.284124017 0.566729724 0.086274996
0.297280163 0.564452767 0.086148188
0.307906359 0.565211773 0.083491646
0.318785369 0.570018768 0.084124058
0.334978014 0.567489088 0.089689992
0.357621700 0.568374753 0.088045649
0.378115177 0.566856623 0.083870903
0.396331698 0.570904374 0.080834769
0.417710572 0.573561251 0.083491646
0.445034981 0.568500876 0.083491646
0.470082372 0.571157396 0.082353003
0.502213717 0.570018768 0.080708362
0.526502371 0.570524812 0.076660477
0.555597961 0.571157396 0.082732633
0.582922339 0.572675586 0.077798814
0.610879123 0.571031153 0.074003637
0.645541012 0.569765806 0.072232634
0.675901711 0.570018768 0.068943992
0.707021058 0.573055148 0.072738990
0.742567956 0.577229619 0.076660223
0.779000700 0.581530392 0.078304522
0.815433502 0.587223709 0.075648353
0.849588990 0.590259492 0.082479633
0.884124041 0.594434083 0.089057989
0.922074437 0.595825791 0.097280346
0.955470979 0.596584678 0.107906349
0.986211240 0.599620283 0.124604315
0.995951772 0.601517975 0.132320985
0.998102248 0.606831074 0.147121832
0.998861372 0.608728409 0.165718019
0.285768479 0.611005485 0.080582261
0.289184123 0.608728528 0.080582261
0.300442755 0.610752463 0.082479522
0.311321884 0.606957614 0.078684680
0.320809722 0.605819225 0.075522006
0.332953721 0.611891210 0.078558005
0.352055639 0.614168048 0.079823010
0.366982996 0.612776697 0.084250301
0.391777158 0.612776697 0.081214361
0.414547950 0.614673972 0.080455258
0.435673863 0.613915324 0.081340872
0.459076971 0.614800990 0.080455266
0.484124064 0.612903237 0.078178264
0.512207031 0.612903237 0.076913297
0.539784789 0.612903237 0.075775005
0.566982865 0.614800453 0.075521998
0.597343624 0.614800453 0.075522006
0.624920845 0.616824687 0.068690740
0.661353707 0.615053475 0.068690740
0.690322757 0.612903237 0.067805350
0.718785763 0.614800453 0.068564259
0.754206121 0.614800692 0.072612263
0.791144788 0.615559459 0.074762516
0.822264791 0.625173807 0.075268902
0.858317554 0.627071440 0.081341282
