Assets/Shaders/EldamarStudio/100 Sci-Fi LUTs Pack/LUTs/cube/Foseya LUT.cube
LUT_3D_SIZE 5
DOMAIN_MIN 0.000000 0.000000 0.000000
DOMAIN_MAX 0.903226 0.903226 0.903226
0.031373002 0.050980002 0.129411995
0.106261700 0.068943709 0.139531717
0.250474393 0.062744997 0.144465417
0.400252998 0.088298991 0.144212127
0.588741601 0.155723974 0.167362154
0.050347995 0.126502290 0.141809002
0.110183701 0.128146991 0.140164286
0.240986690 0.139911413 0.148387417
0.389753431 0.166477114 0.153320715
0.582162738 0.222390816 0.170904547
0.092852995 0.246552393 0.154965416
0.139278993 0.247184977 0.156230420
0.241998821 0.250474393 0.159519002
0.367868125 0.279316813 0.163061291
0.563188016 0.357874393 0.170651406
0.092978880 0.430740118 0.168626994
0.159519002 0.432384670 0.173181579
0.259582400 0.436685383 0.166350290
0.378620982 0.444529116 0.166602999
0.556989074 0.507653356 0.172548994
0.002530012 0.719670713 0.192283139
0.002277292 0.719291449 0.184313670
0.234155819 0.727387547 0.185072556
0.421884805 0.732700586 0.190891832
0.592662632 0.741808712 0.194939986
0.048324004 0.082985580 0.171916410
0.119038403 0.074510001 0.171283990
0.221378684 0.089563578 0.179127410
0.354206532 0.125869706 0.195825547
0.550790608 0.167488977 0.217710152
0.075521708 0.122580700 0.174193710
0.127513975 0.121947698 0.171916425
0.211258397 0.145477697 0.180771694
0.344339132 0.170398295 0.193168700
0.542567909 0.225300685 0.222643852
0.116381995 0.224288404 0.179380283
0.154964998 0.230234399 0.187982276
0.228209987 0.234787986 0.190258995
0.344971567 0.265148520 0.198734835
0.545857072 0.346742630 0.222264409
0.122454286 0.416698247 0.206577986
0.177356288 0.408854812 0.208602414
0.258570701 0.420619845 0.210879281
0.371789694 0.428463250 0.212776870
0.545983315 0.500063121 0.217836529
0.001012124 0.709803581 0.241745502
0.003288997 0.714990437 0.241366237
0.237697676 0.716634870 0.243263826
0.412397116 0.725110590 0.247311786
0.598987699 0.736242652 0.264642507
0.093611397 0.078431003 0.293611377
0.163820699 0.079443291 0.277925372
0.261606812 0.096773997 0.264136821
0.356104136 0.133712709 0.258317828
0.537002027 0.177229404 0.309930146
0.128526106 0.155977115 0.261227101
0.167742133 0.158253998 0.251106977
0.243263409 0.163820699 0.248449981
0.344338685 0.181150988 0.259962291
0.532447636 0.229854271 0.308285683
0.150410995 0.245919973 0.236685827
0.184060693 0.245540693 0.244528994
0.262239397 0.268817365 0.258949965
0.352814704 0.287792385 0.276280701
0.518026590 0.347375035 0.313978642
0.162302300 0.398102552 0.277545750
0.196331277 0.398355663 0.283870846
0.270714551 0.410499543 0.292346805
0.368880242 0.420619994 0.292599678
0.528146505 0.489690334 0.325110376
0.000000000 0.684250593 0.353193969
0.062998146 0.692852437 0.353194207
0.249082550 0.698671758 0.355850786
0.411764950 0.709550858 0.361163646
0.592156947 0.732194841 0.369639188
0.158001125 0.116761126 0.474889249
0.225300282 0.122580871 0.475142539
0.323339552 0.136748835 0.461479962
0.434535146 0.154964998 0.441619247
0.553067505 0.183428273 0.443516791
0.182036713 0.197217122 0.447438240
0.219355121 0.205059692 0.443896115
0.313219368 0.208349109 0.434661537
0.416571975 0.215180412 0.424541235
0.539278746 0.241745785 0.436053187
0.180392414 0.315875977 0.417331010
0.222643852 0.316634804 0.411764532
0.303731680 0.314610809 0.407589793
0.387603134 0.320556402 0.404933691
0.533459544 0.348007619 0.438077092
0.160658017 0.432764113 0.409234375
0.198228717 0.433396548 0.407842934
0.282479823 0.435673237 0.408855230
0.397343099 0.469070256 0.427830279
0.552055776 0.515116930 0.471347123
0.000000000 0.685641587 0.488678247
0.000000000 0.687539101 0.493358642
0.217836872 0.689563572 0.489057511
0.416065842 0.701075256 0.507653415
0.582668841 0.720050275 0.512966394
0.174952194 0.205565944 0.762681603
0.236559004 0.213661924 0.764705598
0.356356382 0.225806370 0.754206002
0.498924851 0.243136913 0.751043379
0.643643618 0.263124764 0.736622572
0.176850110 0.286906928 0.760151565
0.234408528 0.286906928 0.754585505
0.353067815 0.295762211 0.749398649
0.490575820 0.309171498 0.743074000
0.635546803 0.322960079 0.730170608
0.185579002 0.431878626 0.740670562
0.233016863 0.430487216 0.730044186
0.340670377 0.433143616 0.727514386
0.473497808 0.436432332 0.724857569
0.622137964 0.439594924 0.720303178
0.083744712 0.574952602 0.722707093
0.174193680 0.575079083 0.721694946
0.314231247 0.576344252 0.720682859
0.463883758 0.580898225 0.714231372
0.611764550 0.579886079 0.707906425
0.003922000 0.739278674 0.732827365
0.001012125 0.733080447 0.715496302
0.225553587 0.733459949 0.711827695
0.428463072 0.739278734 0.710436404
0.657178998 0.768121362 0.734092593
