Assets/Shaders/EldamarStudio/100 Sci-Fi LUTs Pack/LUTs/cube/Foseya LUT.cube
LUT_3D_SIZE 8
DOMAIN_MIN 0.000000 0.000000 0.000000
DOMAIN_MAX 0.903226 0.903226 0.903226
0.031373002 0.050980002 0.129411995
0.038709544 0.055281546 0.129791453
0.119924098 0.068184994 0.138013899
0.202403635 0.065528356 0.146742716
0.296900809 0.061859995 0.143579811
0.377988726 0.082226478 0.143200263
0.466919273 0.114990570 0.155218288
0.588741601 0.155723974 0.167362154
0.041998550 0.080328546 0.137254998
0.057178997 0.079949096 0.140796542
0.125743449 0.091334544 0.147501901
0.196963727 0.097153999 0.145098090
0.289943188 0.098671995 0.140037656
0.369766176 0.117014728 0.146995738
0.467298836 0.145350829 0.158886760
0.582162738 0.180771649 0.167362154
0.056419998 0.138646096 0.138772994
0.092472993 0.137887105 0.142314553
0.125363901 0.141809002 0.135610089
0.200252637 0.146109745 0.143073738
0.276534081 0.155851081 0.144971281
0.366223723 0.175078735 0.148513734
0.459709287 0.202024102 0.166982710
0.581403852 0.238077074 0.173687637
0.077925645 0.206830993 0.142314643
0.093611546 0.207590088 0.147375003
0.148513541 0.207590088 0.149778903
0.201770633 0.210752994 0.152941003
0.268311560 0.212650627 0.154079646
0.348639995 0.235294104 0.155977100
0.443516910 0.271979898 0.164832354
0.569386184 0.314231396 0.174446344
0.101074994 0.290575385 0.161670014
0.120303638 0.289057195 0.157495201
0.159139901 0.291334271 0.159898803
0.220493644 0.290195823 0.155597553
0.272738993 0.292093188 0.158380806
0.342694730 0.304491192 0.166729748
0.437823981 0.344592214 0.167868093
0.560151935 0.392283380 0.172928542
0.096015260 0.399367452 0.164579004
0.122074552 0.397469729 0.166350201
0.164326370 0.401264727 0.162555248
0.227197900 0.399240971 0.167868093
0.285895169 0.403162450 0.164706007
0.354332745 0.411132455 0.164579004
0.432637751 0.426312745 0.164706007
0.555976927 0.485388875 0.169765830
0.006578009 0.543326855 0.170271710
0.035800263 0.546868801 0.167995006
0.131941915 0.547121763 0.164706007
0.214041993 0.552308917 0.169133365
0.295382977 0.550411165 0.168626994
0.374320179 0.555091798 0.174826279
0.458064586 0.565211535 0.167995006
0.559645832 0.584693253 0.167362154
0.002530012 0.719670713 0.192283139
0.000000000 0.723465919 0.180392101
0.002277101 0.723339558 0.183807537
0.167362481 0.727387547 0.188614771
0.287539393 0.728652775 0.184440136
0.398102611 0.732447803 0.189373836
0.492978960 0.733965755 0.194307700
0.592662632 0.741808712 0.194939986
0.044275545 0.067425996 0.152941003
0.061480545 0.070967548 0.146236554
0.124604903 0.070967548 0.150537997
0.193168640 0.083491646 0.157622010
0.262492180 0.088551797 0.162302107
0.343832970 0.106135443 0.167615294
0.445288002 0.126882002 0.180265695
0.567362189 0.157748133 0.194560394
0.041113548 0.087033994 0.150158450
0.057938091 0.087792993 0.138393551
0.118279189 0.089690447 0.150917456
0.179380074 0.104237899 0.158380911
0.262112647 0.116381735 0.167109102
0.347374916 0.128905728 0.168121353
0.442884326 0.153067738 0.179886252
0.576723754 0.186337680 0.193674996
0.076407544 0.129664555 0.156862915
0.097153999 0.132448003 0.157621905
0.125743449 0.135989651 0.161543012
0.182542995 0.138646200 0.159139916
0.257305652 0.155091986 0.165338293
0.338013738 0.173940286 0.175205454
0.437697560 0.199240834 0.177103177
0.561796367 0.239215910 0.185705096
0.088045642 0.194686741 0.162681639
0.110942543 0.192283630 0.163440555
0.152435452 0.193422079 0.166603461
0.189120740 0.199747100 0.159898907
0.256546557 0.204806730 0.166603446
0.341176659 0.235420719 0.176850349
0.434281826 0.267425925 0.186970338
0.561795950 0.312460363 0.193168536
0.113724999 0.280834734 0.175711811
0.124604799 0.273624539 0.167362362
0.162555441 0.278431505 0.170904189
0.214294747 0.283491313 0.173940286
0.267172992 0.282606184 0.175584987
0.331815362 0.292726189 0.178241730
0.431119621 0.340164512 0.184819549
0.555344760 0.391903698 0.195319101
0.110562995 0.386464208 0.181530550
0.134092003 0.387476474 0.181404442
0.175711721 0.386717290 0.181024998
0.231498718 0.392283380 0.187096640
0.288677722 0.393042296 0.183934450
0.350537747 0.400000215 0.181909993
0.427577347 0.421884745 0.184946001
0.555470824 0.479822636 0.197469905
0.025427181 0.537128568 0.188361838
0.053383809 0.540544033 0.189373553
0.136242658 0.539278746 0.184819549
0.217963293 0.542441487 0.189373553
0.294876665 0.546362758 0.186590806
0.372422457 0.553067982 0.185831994
0.459961832 0.562808275 0.186590999
0.553573549 0.584060788 0.190132678
0.003795180 0.715369821 0.212776646
0.000379548 0.721821308 0.211384982
0.011891217 0.716634989 0.203668565
0.170145512 0.719038367 0.209487826
0.289184004 0.722074568 0.210626170
0.392662883 0.728020489 0.214927435
0.493738264 0.733586311 0.220746368
0.597975612 0.742820859 0.223402619
0.040734001 0.079949193 0.179507002
0.085009545 0.081973456 0.194054544
0.141809002 0.076027997 0.182669103
0.188361645 0.087413348 0.184566632
0.256926090 0.098798096 0.192030087
0.333459854 0.117520481 0.202403620
0.425300449 0.144086286 0.213914990
0.541682601 0.170778081 0.228589267
0.076787002 0.102720000 0.179506898
0.096774444 0.107400090 0.181150988
0.132447988 0.104237996 0.174446553
0.179759532 0.109677091 0.179506898
0.248829648 0.122707449 0.187729344
0.325869471 0.146489471 0.203036189
0.420999527 0.167235643 0.214800999
0.547122061 0.191397816 0.233523279
0.083871000 0.134725079 0.180265903
0.107020542 0.136748642 0.175205544
0.145730183 0.138646096 0.179506987
0.184060991 0.152814910 0.184187084
0.243643284 0.164579093 0.186590895
0.319544494 0.183807835 0.201517999
0.416571438 0.206831276 0.210752904
0.539025784 0.241239980 0.234534815
0.121569000 0.190765545 0.187349990
0.118658729 0.192789286 0.181910098
0.161037549 0.198988095 0.191650733
0.197470099 0.198608547 0.186970353
0.247944534 0.208349079 0.194433898
0.318785369 0.233016819 0.208096355
0.414294571 0.265907735 0.213535547
0.542567730 0.306894183 0.229601383
0.138772994 0.270209074 0.198355094
0.153573900 0.266287297 0.200632378
0.176217183 0.272612274 0.202277094
0.215433285 0.270967990 0.198608547
0.256926090 0.274130285 0.200632185
0.321948081 0.288931161 0.209361002
0.417457461 0.332700461 0.219607800
0.542188346 0.388235241 0.233776018
0.138140097 0.378241450 0.217963085
0.159898803 0.372295916 0.220240265
0.194054350 0.376976639 0.217963189
0.231878281 0.376217544 0.215939343
0.283997416 0.382416099 0.215559900
0.347501636 0.383934200 0.216318995
0.419607759 0.410499811 0.223655626
0.539405525 0.471979737 0.237824246
0.062745340 0.530044258 0.227198005
0.100948803 0.523339748 0.228336737
0.162555397 0.523719251 0.231246278
0.224921092 0.529917777 0.229980722
0.295256108 0.533080518 0.227830574
0.373307824 0.540164590 0.231119573
0.453257561 0.553447545 0.235926807
0.550284326 0.577355742 0.235926986
0.000759096 0.707273841 0.254142821
0.002277285 0.706135273 0.256546527
0.035167586 0.709930480 0.255787641
0.185199231 0.713472128 0.261227101
0.290828347 0.715116858 0.259582609
0.389879733 0.721315324 0.265275240
0.487919003 0.728273094 0.263504148
0.596710742 0.732700586 0.275268644
0.062239353 0.078431003 0.251106650
0.103731543 0.077292651 0.246805996
0.167615190 0.076027997 0.236559272
0.215812638 0.090195999 0.242631346
0.267552465 0.099557191 0.229980722
0.336116374 0.122580633 0.236812085
0.421631902 0.146868929 0.256166995
0.536242843 0.176596820 0.278810978
0.095888637 0.110942543 0.235800177
0.116761282 0.118785545 0.237191543
0.156230435 0.110815734 0.228842184
0.205565825 0.121062540 0.222517282
0.250601172 0.124604896 0.219481185
0.329411715 0.144971386 0.233016908
0.422517717 0.169892371 0.257811278
0.537634254 0.202530116 0.281593740
0.109677188 0.153953344 0.233396545
0.122960091 0.158633649 0.224162102
0.164579093 0.161796540 0.217078090
0.203668177 0.160151735 0.213915199
0.243517175 0.166856185 0.214294642
0.316002756 0.189247459 0.236685902
0.410499573 0.216192096 0.260974079
0.526881635 0.247058719 0.280834705
0.126122996 0.202909276 0.220746353
0.144591734 0.200126633 0.219481185
0.172801733 0.204047635 0.222264543
0.219734639 0.216951281 0.230866641
0.264389634 0.229095429 0.234788358
0.323466003 0.246046990 0.244908646
0.404807270 0.272991627 0.258949935
0.525995970 0.310562819 0.281593621
0.151297003 0.264009982 0.238709643
0.162302107 0.271473855 0.231245995
0.196457759 0.272991747 0.234408900
0.233523175 0.284377187 0.240606979
0.270714730 0.286274523 0.240481094
0.331815422 0.298292369 0.250347823
0.408348918 0.332321107 0.263630539
0.527514279 0.381910354 0.289816469
0.161542997 0.370018721 0.253257632
0.174193710 0.369133711 0.251486361
0.201138467 0.370777845 0.256167084
0.244908646 0.375837982 0.260215104
0.288804531 0.377861798 0.259456009
0.343833089 0.383681476 0.259708732
0.413915038 0.407463849 0.270714909
0.532068133 0.463757277 0.289816558
0.100442730 0.514863551 0.278052002
0.134092361 0.515117168 0.280834734
0.174573362 0.512207270 0.278051972
0.233649716 0.519291580 0.280328989
0.295256108 0.520176828 0.283491492
0.368753970 0.528399646 0.282226741
0.444022566 0.542314529 0.289310634
0.536622286 0.572295964 0.296900809
0.000000000 0.694876552 0.318279624
0.001518189 0.695508838 0.325363547
0.081214420 0.702846408 0.320050538
0.200252831 0.701454818 0.324604809
0.296774179 0.702846408 0.324857742
0.387982279 0.710562587 0.326755196
0.488677800 0.720556140 0.333712876
0.592789471 0.730297327 0.335357279
0.122201189 0.081467383 0.336116195
0.150790647 0.088551998 0.329032302
0.198102280 0.093232185 0.317267269
0.254901737 0.100695543 0.315623194
0.306261957 0.115243189 0.307147384
0.351043463 0.124857537 0.292726249
0.433902383 0.152055815 0.311574876
0.544465244 0.181909800 0.341429174
0.129411831 0.127640888 0.313725531
0.160784200 0.128146544 0.309930444
0.196204826 0.133206889 0.304617286
0.245667428 0.134724900 0.300442547
0.296141773 0.143706530 0.299304187
0.343832999 0.151170194 0.289057285
0.425300479 0.176217288 0.310942382
0.544339061 0.200758815 0.349399000
0.143200278 0.184187099 0.289942980
0.160151646 0.183681443 0.288298309
0.195066273 0.187223300 0.285136193
0.241366193 0.186084628 0.287539184
0.285895050 0.187223092 0.284377098
0.328525931 0.193422079 0.278811067
0.409361273 0.216192096 0.304617286
0.537381411 0.247691318 0.344844788
0.155976996 0.231498837 0.280834734
0.167994738 0.237824336 0.286400735
0.196963832 0.236559272 0.282479644
0.240481094 0.240101621 0.278557748
0.282100171 0.239974841 0.281720608
0.327766895 0.247817725 0.280834824
0.412650257 0.275268912 0.304996818
0.529158533 0.309803635 0.342567801
0.163819999 0.285768360 0.288172156
0.176217183 0.290702194 0.279443651
0.204554200 0.285768360 0.280455291
0.248450279 0.295256197 0.288298190
0.301707804 0.317140967 0.299303979
0.353447169 0.331309199 0.306641400
0.423023373 0.350790471 0.324984163
0.526502013 0.388614982 0.349525511
0.168754011 0.366350263 0.293990701
0.184693351 0.366603374 0.296521366
0.207843006 0.371157467 0.299178004
0.252751529 0.377482265 0.303099364
0.301201731 0.392283261 0.312460154
0.355597466 0.404553711 0.323845625
0.426312685 0.422770470 0.331688732
0.530423641 0.467678964 0.358507156
0.096647449 0.511954248 0.336749166
0.116002440 0.513092935 0.333206832
0.168248028 0.511195540 0.337381333
0.239468738 0.512586832 0.337760806
0.310309917 0.522074521 0.347754270
0.370904654 0.525237441 0.346868902
0.443010747 0.534471571 0.350664169
0.535989821 0.569892287 0.364326090
0.000000000 0.690701962 0.383175105
0.000379548 0.692346215 0.385325551
0.081087671 0.690701962 0.385578811
0.211511761 0.689057171 0.398102343
0.301202029 0.696267903 0.396584541
0.392283261 0.702972889 0.397090077
0.488425076 0.711954474 0.404554188
0.588741183 0.722074211 0.411132187
0.154965267 0.109676994 0.440480739
0.182163537 0.106135443 0.440860271
0.234409004 0.114737637 0.433649540
0.288677752 0.124604896 0.428336471
0.344971716 0.133206993 0.415306896
0.405186743 0.146868736 0.407210469
0.459708989 0.161289990 0.397975713
0.550790787 0.181656986 0.421252549
0.160278454 0.151297003 0.427956730
0.180139273 0.152435258 0.421252459
0.231119275 0.149145827 0.424035728
0.284377098 0.156609997 0.415053666
0.340290725 0.161669537 0.406704813
0.397469729 0.173054993 0.400885284
0.449082911 0.184060812 0.390765250
0.548134029 0.207083821 0.426185906
0.177482635 0.211132348 0.409487486
0.193674996 0.211891547 0.402023882
0.233270362 0.211132362 0.397343725
0.277292907 0.214294747 0.398102611
0.329284906 0.216951281 0.391018093
0.387729466 0.221252352 0.387602448
0.436179459 0.228336737 0.381783724
0.537760615 0.252119064 0.416065723
0.177355826 0.273371279 0.392283380
0.192536265 0.270588607 0.392030537
0.229095623 0.269449979 0.379633248
0.270335376 0.278937280 0.377482444
0.319164932 0.277672440 0.378620803
0.369386733 0.280075639 0.373813719
0.422390908 0.285009295 0.373054743
0.539026022 0.315116704 0.420240521
0.174193606 0.339785188 0.378115267
0.189373553 0.335483730 0.373813719
0.221126094 0.333080024 0.373434395
0.266034275 0.338393390 0.374699622
0.321821660 0.344592214 0.381404161
0.371283978 0.345350981 0.377482265
0.428463072 0.353573829 0.380898029
0.537128389 0.392283261 0.421252459
0.172802001 0.399367452 0.377861738
0.178241625 0.399241000 0.380138993
0.215685993 0.403288960 0.377735704
0.259203255 0.401264697 0.376723349
0.308032990 0.412650257 0.381657183
0.372042984 0.436685711 0.397469759
0.450348169 0.454522431 0.413029701
0.541429460 0.486527711 0.439215571
0.102466747 0.509044766 0.408602476
0.119797438 0.507400334 0.404427499
0.172928721 0.509297907 0.401264995
0.233270347 0.516002417 0.407463789
0.305629373 0.521062493 0.412523538
0.387729466 0.540670037 0.433776170
0.457305551 0.553953290 0.440733552
0.548133731 0.583681285 0.457052529
0.002024260 0.685641587 0.457305461
0.000000000 0.685641766 0.465907633
0.017457496 0.685768366 0.462745279
0.159139588 0.692346215 0.469955891
0.288551718 0.691460788 0.470967710
0.396331578 0.700063407 0.482099652
0.482858837 0.704870164 0.487666160
0.583934069 0.718279541 0.488677770
0.180391997 0.144718274 0.589753270
0.201644525 0.147627831 0.595572114
0.249968290 0.151929289 0.584060848
0.316128612 0.157621622 0.584819555
0.380771369 0.167489186 0.574572742
0.449589163 0.177356020 0.563187838
0.515243292 0.191144705 0.553447485
0.579633236 0.207842827 0.548513412
0.184060991 0.180771559 0.580139399
0.205313012 0.183302000 0.579886019
0.250347614 0.185578793 0.583680987
0.314990163 0.191903904 0.577482641
0.379886180 0.198355630 0.571030796
0.447691441 0.206704572 0.561416626
0.515243292 0.217204243 0.551549852
0.578747511 0.229981169 0.545350850
0.183681205 0.245794073 0.566223681
0.203162819 0.249968722 0.567235947
0.249968082 0.248956189 0.561290383
0.307147264 0.249715090 0.557621956
0.368121386 0.259203196 0.556609809
0.431499094 0.256799579 0.548513651
0.497153461 0.267678559 0.540796578
0.573434353 0.272485793 0.536242843
0.190512002 0.319544286 0.546236515
0.205186665 0.318532556 0.539911449
0.243896291 0.319418162 0.545730352
0.298165649 0.320177257 0.541682303
0.356736124 0.326881915 0.538266897
0.419481516 0.326881915 0.531435728
0.489436984 0.333080202 0.526628554
0.566603303 0.336369634 0.532068193
0.166477010 0.398355365 0.532068551
0.192283198 0.394180834 0.532700896
0.231246099 0.392915756 0.528273463
0.285768449 0.394939899 0.524098694
0.342441201 0.392156452 0.519544661
0.408475548 0.402023911 0.525237441
0.476913273 0.400759190 0.520430088
0.546489477 0.407463819 0.525110543
0.140164435 0.471853465 0.526502550
0.166476712 0.468690991 0.526376009
0.207210824 0.469449729 0.524731100
0.265148729 0.466160804 0.519797266
0.333080173 0.473877192 0.521948457
0.400252998 0.479822576 0.517899990
0.467425734 0.479570001 0.514231563
0.551929057 0.485388994 0.526881576
0.068817459 0.550158083 0.527640820
0.108792186 0.547880769 0.522706807
0.162049532 0.551043749 0.517394066
0.235800058 0.550664186 0.519165277
0.312587202 0.555091798 0.519038379
0.390133172 0.564452589 0.527261257
0.481593996 0.592662573 0.551802814
0.577103198 0.613409042 0.563440800
0.000000000 0.679822683 0.566603065
0.000379548 0.681214273 0.557747841
0.002530015 0.683238387 0.559519172
0.141049877 0.684503257 0.566982865
0.270208597 0.690828443 0.565844536
0.382289469 0.697406590 0.571410596
0.499177933 0.716255546 0.590385735
0.598608613 0.720935583 0.591271102
0.174952194 0.205565944 0.762681603
0.197216555 0.208095953 0.763061166
0.252751529 0.214673787 0.761922717
0.320809633 0.220999599 0.763061464
0.401391536 0.227956980 0.753193855
0.478684574 0.240101039 0.751549482
0.562049389 0.253257632 0.747501254
0.643643618 0.263124764 0.736622572
0.172169745 0.245287493 0.764705777
0.204681009 0.242883876 0.769892395
0.246299997 0.242884085 0.756736338
0.318532556 0.252625138 0.758507192
0.396204740 0.260847688 0.757368565
0.478684574 0.269070148 0.755471110
0.554079533 0.279949367 0.741176248
0.647058904 0.290449083 0.744718075
0.181151092 0.303605080 0.757874489
0.198861271 0.308791906 0.750663877
0.249588922 0.305629313 0.751549482
0.313598812 0.308665425 0.744845033
0.390638798 0.314863980 0.744338751
0.466793358 0.323592812 0.745350778
0.551423132 0.331815153 0.738646328
0.637318134 0.338140160 0.730423391
0.176597193 0.387349427 0.743453443
0.203921914 0.386590749 0.737001777
0.247944102 0.387602746 0.742441416
0.314357638 0.391271442 0.737128556
0.384313524 0.393927872 0.736875176
0.462365717 0.398355365 0.731056452
0.542062044 0.405566186 0.727134585
0.632510781 0.407463819 0.724857569
0.171790004 0.472359002 0.736369252
0.194939658 0.473244727 0.726502359
0.242631435 0.471094131 0.731056333
0.305376172 0.473877192 0.728399694
0.374067008 0.472612292 0.726249218
0.455028385 0.475395262 0.722707152
0.533586264 0.477039695 0.721315145
0.621884763 0.476280987 0.721188903
0.107780002 0.553953290 0.726249218
0.143959627 0.554585755 0.725616455
0.202529922 0.554079652 0.719417810
0.278810859 0.554206371 0.717773438
0.360784560 0.557621896 0.718532383
0.447944462 0.559392750 0.720809519
0.530803561 0.556989074 0.711448312
0.612270594 0.557368517 0.707906425
0.003289004 0.642504871 0.723086536
0.030360468 0.641366363 0.721189022
0.140164658 0.642631471 0.717267156
0.236811802 0.640733778 0.721062422
0.330676913 0.645793915 0.717014194
0.429727942 0.647311628 0.713219285
0.526628733 0.652118921 0.711448312
0.615559757 0.657431901 0.705755830
0.003922000 0.739278674 0.732827365
0.000000000 0.737507701 0.714864016
0.001265171 0.736116290 0.718026340
0.153573692 0.734345198 0.717014194
0.281720549 0.731435716 0.707653403
0.398861706 0.735989749 0.708665371
0.520683050 0.746742308 0.716761231
0.657178998 0.768121362 0.734092593
