Assets/Shaders/EldamarStudio/100 Sci-Fi LUTs Pack/LUTs/cube/Foseya LUT.cube
DOMAIN_MIN 0 0 0
DOMAIN_MAX 1 1 1
LUT_3D_SIZE 32
0.031373002 0.050980002 0.129411995
0.025300227 0.050980002 0.126375601
0.023529001 0.055281550 0.125489995
0.027324161 0.057558838 0.126755163
0.038709544 0.055281546 0.129791453
0.066033930 0.058317933 0.132827058
0.088298321 0.066413678 0.138393000
0.106261700 0.068943709 0.139531717
0.119924098 0.068184994 0.138013899
0.129032493 0.074256994 0.141049519
0.155597866 0.068691000 0.146995738
0.178874254 0.066666998 0.149020001
0.202403635 0.065528356 0.146742716
0.229222029 0.062744997 0.141429037
0.250474393 0.062744997 0.144465417
0.274130583 0.060341805 0.145098001
0.296900809 0.061859995 0.143579811
0.318152547 0.067299418 0.141176000
0.339405000 0.070335038 0.141176000
0.357874721 0.076154009 0.143959358
0.377988726 0.082226478 0.143200263
0.400252998 0.088298991 0.144212127
0.424414486 0.094497472 0.152941003
0.445666909 0.103605099 0.152941003
0.466919273 0.114990570 0.155218288
0.493737966 0.124351986 0.158254325
0.526123047 0.131435990 0.161290064
0.553447425 0.143579990 0.164326459
0.588741601 0.155723974 0.167362154
0.621631920 0.166097194 0.172169432
0.652877748 0.175205588 0.177356377
0.686275005 0.184313998 0.180391997
0.028336613 0.054016385 0.126375601
0.028336613 0.054016385 0.126375601
0.024414612 0.056167159 0.125489995
0.028589323 0.060088836 0.125489995
0.041745931 0.060215000 0.127134606
0.069070317 0.055281546 0.132827058
0.088804387 0.060847610 0.135863319
0.106261700 0.069449708 0.139784664
0.121442094 0.071979903 0.140290618
0.135104492 0.071220614 0.141049519
0.155850872 0.068564482 0.141176000
0.180897981 0.070714995 0.144971490
0.202023908 0.072738998 0.145983607
0.223150030 0.071853384 0.143959358
0.244402394 0.071853384 0.141429022
0.268057972 0.069449581 0.142061606
0.289310604 0.069449805 0.139025614
0.310942352 0.073371418 0.137001574
0.339405000 0.076407045 0.144212395
0.352308720 0.085009359 0.146995753
0.371916741 0.089437127 0.146236658
0.395193130 0.095382862 0.145224527
0.421378881 0.103731625 0.150284857
0.442631304 0.115749873 0.159013003
0.468437672 0.122580767 0.161290288
0.495382696 0.133206978 0.161543325
0.526123047 0.142567992 0.160278067
0.553447425 0.149651989 0.158254460
0.583427906 0.159139827 0.161290169
0.615559578 0.172675580 0.167868197
0.648576796 0.184313759 0.175205588
0.686275005 0.193421617 0.180391997
0.027450999 0.054901998 0.125489995
0.023150001 0.059202999 0.129790992
0.029601773 0.057052772 0.129790992
0.035420548 0.061353996 0.129790992
0.049715545 0.065275222 0.129790992
0.069955930 0.064516000 0.132321000
0.089690000 0.064263001 0.133712545
0.106261700 0.068690710 0.136748940
0.120682999 0.075268902 0.139025778
0.134471729 0.075015523 0.139025778
0.159772098 0.074130096 0.141176000
0.185072988 0.075142480 0.143200263
0.206071898 0.077672362 0.145098001
0.223529249 0.076660231 0.145098001
0.244781628 0.076660231 0.143959358
0.268437743 0.078557976 0.141176000
0.291207939 0.078557968 0.142694190
0.310056955 0.081594191 0.139152199
0.334345013 0.084629819 0.142188191
0.354458958 0.088931136 0.145730585
0.372295976 0.098039024 0.148766965
0.392536491 0.102593221 0.148260638
0.416445494 0.110436022 0.151170224
0.441745907 0.118532807 0.154206112
0.463251293 0.128273219 0.158760294
0.493358642 0.135736883 0.161796331
0.524478376 0.147628069 0.162302062
0.553447425 0.158633769 0.165844455
0.581277668 0.163061053 0.159519166
0.615180075 0.179253399 0.169639185
0.648070991 0.192536443 0.177735597
0.686275005 0.200379550 0.182542771
0.032511000 0.062491998 0.129285157
0.025174160 0.066033997 0.131561995
0.031119773 0.065654770 0.134598166
0.038962997 0.065148838 0.135862991
0.057178997 0.070082389 0.135483533
0.073244773 0.071347222 0.134598166
0.089690000 0.074383162 0.135862991
0.107526861 0.077292703 0.138772875
0.123466156 0.079569995 0.141050160
0.136622176 0.082099684 0.141050160
0.159518868 0.082226165 0.138899282
0.181783438 0.084250420 0.143200263
0.207969964 0.088425167 0.146236643
0.224541187 0.085768297 0.145857111
0.247817561 0.084756166 0.143832833
0.270208597 0.084629968 0.142694190
0.290449172 0.088931195 0.140164196
0.311701536 0.091967411 0.143200427
0.330550164 0.095003031 0.141429037
0.351549536 0.098039351 0.143959358
0.372801900 0.104870573 0.146995738
0.394054294 0.111954190 0.150031865
0.413029969 0.118026145 0.153193995
0.441492766 0.126375645 0.155470997
0.464263111 0.132194862 0.155218288
0.488551468 0.142567664 0.158254325
0.521441996 0.151170000 0.161290064
0.551802695 0.164073288 0.168880448
0.582036614 0.172422469 0.167109177
0.613409340 0.183554485 0.168374345
0.650727570 0.201264694 0.180898145
0.687539816 0.207716838 0.184313998
0.041998550 0.080328546 0.137254998
0.035167836 0.080328546 0.134977609
0.041113544 0.078557767 0.135483772
0.051106997 0.077292934 0.138519838
0.057178997 0.079949096 0.140796542
0.075395003 0.076913483 0.137760937
0.091460869 0.080708548 0.139405221
0.107906409 0.086400993 0.143326864
0.125743449 0.091334544 0.147501901
0.143959463 0.091334544 0.147501901
0.162934542 0.091713995 0.140291125
0.179506257 0.094117701 0.140923455
0.196963727 0.097153999 0.145098090
0.220999479 0.102972969 0.148640484
0.248070836 0.100189582 0.143200263
0.270588249 0.097533256 0.141555548
0.289943188 0.098671995 0.140037656
0.306008995 0.104870506 0.137887418
0.327261448 0.107906125 0.140923038
0.348513842 0.110942349 0.143959358
0.369766176 0.117014728 0.146995738
0.391398132 0.124098867 0.150031865
0.412776977 0.127387494 0.153067514
0.442631006 0.139278561 0.158886552
0.467298836 0.145350829 0.158886760
0.491334170 0.151802540 0.158633873
0.518785119 0.163693547 0.161669508
0.549145877 0.169765532 0.164705902
0.582162738 0.180771649 0.167362154
0.615180016 0.194687173 0.171410337
0.650348127 0.208096474 0.177862436
0.689816535 0.217204094 0.183934450
0.032890938 0.095508933 0.137254998
0.041998550 0.095508933 0.140290618
0.050221611 0.095508933 0.138013780
0.061100770 0.093738154 0.138519838
0.069322996 0.092093870 0.140796542
0.075395003 0.092093870 0.137760937
0.093611643 0.091587931 0.137254998
0.109677635 0.094244227 0.137760937
0.125363901 0.097786099 0.138013974
0.140923068 0.100442939 0.135357127
0.164958790 0.103352062 0.138266996
0.184186935 0.107905991 0.139278740
0.200758636 0.110056713 0.140543699
0.217963085 0.109044969 0.139532104
0.239215463 0.112080581 0.148640484
0.261479855 0.111700997 0.145604059
0.284250468 0.112713248 0.143073753
0.305755973 0.117520563 0.140670061
0.324225068 0.126122892 0.140923038
0.345477462 0.129158512 0.143959358
0.366729796 0.132194728 0.146995738
0.388994306 0.136242867 0.150031865
0.412776977 0.139531493 0.153067514
0.437065005 0.148639917 0.156103909
0.466919541 0.158254221 0.159645647
0.494370580 0.164958924 0.161669746
0.521695018 0.173054919 0.164705887
0.549145877 0.184945926 0.167741507
0.582162738 0.193674758 0.168121055
0.613788366 0.206831187 0.168626994
0.647311866 0.220240593 0.172295719
0.686780930 0.229348868 0.180898055
0.041492999 0.113219641 0.142315000
0.050601259 0.110689320 0.142820939
0.061859645 0.110689320 0.141555548
0.071474001 0.110689320 0.141049847
0.078557871 0.109677546 0.144085869
0.082479641 0.111828320 0.145351261
0.093611643 0.111828320 0.142315000
0.110183701 0.110183612 0.140670285
0.128400087 0.110689320 0.141302869
0.150664166 0.111954480 0.143580154
0.159392744 0.114990771 0.136242867
0.179632992 0.120050639 0.139278740
0.200126275 0.124983989 0.142314643
0.219987348 0.124983996 0.142568037
0.241239712 0.125742897 0.147122413
0.262492120 0.128779113 0.151423201
0.283744514 0.131941646 0.148640200
0.305755973 0.135357320 0.146869063
0.323972017 0.138772964 0.148766324
0.342441708 0.144844964 0.146489680
0.367489040 0.147881061 0.149525583
0.391018331 0.151929319 0.154585809
0.415180176 0.156483129 0.160404816
0.437065005 0.160783902 0.158633590
0.461353570 0.174446270 0.161669970
0.489816636 0.182668984 0.164705634
0.518153071 0.189247072 0.167235672
0.549525440 0.199367315 0.168247536
0.582162738 0.208855137 0.166097328
0.613788366 0.217963517 0.169639304
0.646805823 0.231625676 0.172042921
0.686275005 0.244022667 0.177862316
0.050347995 0.126502290 0.141809002
0.056167386 0.126755312 0.143453285
0.069070287 0.124224991 0.144591942
0.079949453 0.124224991 0.141555548
0.086021543 0.124983989 0.143453285
0.089057930 0.129285216 0.145224527
0.101328284 0.126502290 0.146489680
0.110183701 0.128146991 0.140164286
0.126122996 0.125869706 0.139404997
0.150790796 0.125869706 0.145477548
0.165970981 0.127134860 0.141935408
0.180138990 0.130550280 0.139278740
0.197216630 0.135483921 0.142314643
0.219734311 0.138519734 0.145351037
0.240986690 0.139911413 0.148387417
0.260594815 0.140670508 0.146489501
0.281847179 0.145224690 0.151043683
0.303731948 0.151296690 0.150284991
0.323972017 0.153320715 0.154332742
0.343832999 0.157241985 0.148513645
0.364453018 0.161416724 0.149272978
0.389753431 0.166477114 0.153320715
0.413408995 0.173181698 0.161669999
0.436179608 0.177735507 0.163187817
0.461353570 0.184945971 0.164705575
0.489816636 0.197343364 0.167741969
0.517647028 0.204680413 0.170271710
0.548766434 0.214927152 0.170271710
0.582162738 0.222390816 0.170904547
0.613788366 0.236432895 0.168247983
0.645034552 0.244655684 0.174319983
0.682985604 0.257558405 0.178115278
0.056419998 0.138646096 0.138772994
0.060974386 0.140164495 0.139531717
0.069576226 0.138899326 0.141808778
0.082226165 0.137128100 0.143832833
0.092472993 0.137887105 0.142314553
0.097406834 0.143959105 0.143453091
0.106008776 0.139152199 0.143706322
0.117773317 0.139531717 0.143200487
0.125363901 0.141809002 0.135610089
0.143579915 0.141809002 0.141682088
0.163946867 0.141809002 0.141935095
0.183934093 0.143073827 0.142694190
0.200252637 0.146109745 0.143073738
0.215939030 0.148893103 0.145857096
0.237191394 0.151423424 0.148387417
0.257558614 0.152814895 0.145730585
0.276534081 0.155851081 0.144971281
0.297786444 0.161923081 0.149146482
0.321948051 0.167995095 0.154838994
0.343453377 0.171283752 0.150790736
0.366223723 0.175078735 0.148513734
0.385199010 0.179380223 0.149526000
0.406957388 0.188362092 0.155850992
0.433143795 0.194434106 0.163188010
0.459709287 0.202024102 0.166982710
0.487539530 0.209487766 0.168500677
0.520936131 0.218090102 0.171536937
0.548766553 0.229728088 0.171789899
0.581403852 0.238077074 0.173687637
0.613788366 0.249715298 0.174699783
0.645793676 0.266666979 0.175079077
0.679190099 0.272738993 0.181151092
0.062492006 0.159898505 0.144844994
0.071600392 0.156862885 0.138772994
0.076154232 0.154079735 0.137381479
0.082226165 0.152308494 0.138772845
0.092472993 0.153067499 0.142314553
0.110688992 0.159139514 0.151422933
0.110562846 0.152561814 0.147501484
0.116508476 0.153447270 0.146742716
0.128399506 0.160025015 0.147754878
0.140543520 0.160025001 0.144718483
0.158760265 0.160025001 0.144971490
0.179127246 0.160025001 0.146995753
0.196837485 0.161290139 0.148766965
0.209867030 0.164073497 0.148893490
0.231119394 0.164073497 0.148893490
0.254775614 0.166603208 0.149020001
0.275774986 0.171030909 0.150284767
0.294750065 0.177103490 0.152182102
0.316002518 0.183175504 0.149146497
0.337381363 0.186464146 0.154838994
0.362428695 0.191397488 0.156483486
0.384439975 0.197343275 0.154586002
0.397848994 0.203542501 0.149778992
0.431246221 0.209614515 0.161923021
0.459709287 0.220240504 0.166982710
0.485641986 0.230740160 0.167235687
0.511827707 0.239342496 0.165464938
0.545224845 0.245414495 0.168500543
0.578368247 0.257052451 0.168753505
0.611764610 0.268943459 0.170651242
0.645920217 0.282226086 0.175205588
0.682226479 0.297026992 0.184187487
0.068563998 0.172422737 0.148007870
0.077672385 0.169386387 0.147754878
0.080329001 0.174952775 0.141682327
0.085136034 0.173687741 0.140164122
0.093864866 0.171537191 0.141176000
0.101960875 0.180138871 0.142694056
0.120176867 0.173561186 0.144212127
0.126375705 0.172675863 0.143832847
0.137254879 0.177482650 0.146869227
0.149398893 0.175331861 0.148134381
0.161542863 0.169512868 0.142188132
0.179759637 0.169512868 0.146236643
0.198987991 0.171789870 0.150158361
0.214927033 0.176597029 0.151929125
0.230866402 0.179253876 0.151929125
0.247311801 0.181657076 0.154332936
0.271600336 0.186210856 0.154839009
0.293990970 0.191018134 0.155218303
0.312966138 0.192536145 0.152182102
0.337001860 0.198608845 0.154712498
0.356482983 0.205565989 0.156863004
0.379759371 0.211638004 0.156863004
0.400126338 0.216065973 0.154965490
0.427956849 0.227704003 0.158760145
0.454522669 0.236053288 0.159519434
0.481214613 0.246173531 0.164073184
0.508538961 0.254269809 0.167109191
0.541935503 0.257937998 0.165338412
0.572675765 0.277292788 0.168374017
0.605819106 0.288425058 0.168626994
0.640986562 0.298545122 0.172295719
0.679443121 0.309677005 0.181404129
0.072612256 0.188614994 0.144971490
0.075648390 0.187602848 0.144971490
0.086401001 0.183048755 0.144718453
0.086401001 0.190891981 0.142441168
0.093991287 0.188994542 0.143579811
0.104996994 0.194813579 0.145224512
0.117140993 0.190765053 0.145224512
0.133712694 0.188235447 0.145224512
0.143580079 0.191650897 0.147881165
0.154459283 0.188614503 0.150917232
0.168627515 0.188741252 0.149272516
0.182795241 0.188741505 0.147248253
0.198735029 0.186464220 0.149905384
0.214927301 0.188235030 0.150664225
0.230107665 0.187729418 0.148892999
0.249336049 0.194813713 0.153320551
0.267552465 0.199367508 0.154838741
0.291967243 0.205439508 0.155471310
0.310183287 0.208222508 0.155218303
0.331941724 0.211764455 0.153700098
0.352434993 0.217837214 0.156736478
0.372675240 0.226818383 0.157874867
0.396837473 0.232131496 0.158760265
0.420366943 0.242378265 0.158001363
0.449462563 0.256293535 0.166603297
0.476533949 0.264010251 0.162176013
0.504490793 0.272486061 0.167615265
0.534851134 0.278558046 0.169133455
0.573687375 0.293484747 0.173434407
0.602276862 0.309424400 0.172928482
0.638709545 0.317900240 0.173560888
0.680455267 0.325869501 0.180391997
0.077925645 0.206830993 0.142314643
0.075648353 0.207969636 0.142314643
0.083112001 0.205945641 0.143453285
0.092473000 0.202656627 0.144718170
0.093611546 0.207590088 0.147375003
0.107273929 0.209108293 0.149652302
0.121062636 0.207969636 0.150158361
0.134851336 0.204553708 0.149020001
0.148513541 0.207590088 0.149778903
0.157621861 0.205312788 0.152814522
0.173687875 0.206957504 0.155218005
0.187729374 0.208855256 0.154079646
0.201770633 0.210752994 0.152941003
0.214168385 0.204933241 0.149905398
0.229348764 0.201897413 0.146869227
0.247059137 0.206198797 0.149904996
0.268311560 0.212650627 0.154079646
0.289563924 0.218722627 0.154712066
0.308286011 0.224794641 0.157748327
0.331562370 0.229221925 0.158633634
0.348639995 0.235294104 0.155977100
0.368880242 0.242378503 0.158001363
0.393042475 0.251233160 0.160784006
0.414294899 0.258317530 0.158760265
0.443516910 0.271979898 0.164832354
0.472738951 0.285262614 0.170904353
0.503099144 0.291334629 0.166350409
0.531056046 0.299810410 0.171789989
0.569386184 0.314231396 0.174446344
0.606451392 0.327640414 0.179759592
0.634661257 0.338899612 0.178494960
0.678937376 0.345224649 0.181530640
0.086780995 0.225300029 0.145857036
0.081467263 0.227830425 0.145351037
0.085388772 0.228716031 0.147248775
0.092979029 0.229222029 0.150031880
0.099430516 0.229095519 0.152941003
0.108538903 0.226059124 0.152941003
0.122201286 0.227577314 0.153194040
0.138140693 0.227577314 0.151802719
0.151296914 0.226059124 0.150284901
0.160404533 0.229095519 0.153320521
0.177988708 0.228968993 0.158507049
0.192663029 0.229222029 0.158507228
0.205059990 0.229222029 0.156230360
0.217710063 0.229222029 0.153447002
0.232890442 0.226185650 0.150411382
0.247817799 0.227703840 0.151676238
0.265275180 0.230487183 0.154206157
0.286527544 0.233903021 0.157242462
0.307779968 0.239975050 0.160278097
0.333839357 0.246047035 0.166097045
0.352687985 0.254016697 0.165085033
0.368627220 0.263377935 0.160784006
0.393042445 0.272485554 0.160657525
0.414547861 0.275774896 0.160531044
0.444149256 0.287413269 0.164831996
0.475268632 0.301454991 0.168374032
0.502846122 0.313093007 0.168374017
0.533206820 0.319165021 0.171410412
0.568627596 0.332953811 0.170145199
0.605060279 0.346109986 0.173940197
0.640986979 0.357621610 0.181530565
0.671347022 0.366730005 0.184566960
0.092852995 0.246552393 0.154965416
0.095888607 0.243516788 0.148893416
0.094876409 0.243896410 0.148387417
0.098039158 0.246426404 0.149020001
0.102466866 0.250474393 0.150031880
0.111574516 0.250347883 0.152941003
0.120682895 0.247311473 0.155471325
0.139278993 0.247184977 0.156230420
0.156356901 0.247311488 0.156356901
0.160404533 0.250347883 0.159392521
0.175331876 0.247564524 0.156609878
0.193169087 0.249209240 0.155471161
0.208981767 0.250474393 0.155850589
0.223782063 0.250474393 0.159519002
0.241998821 0.250474393 0.159519002
0.254775405 0.249841809 0.156483382
0.267551959 0.250474393 0.154712230
0.283491135 0.251739562 0.154206172
0.304743588 0.255155385 0.157242477
0.323213309 0.261227429 0.163061425
0.347121984 0.269196659 0.165338427
0.367868125 0.279316813 0.163061291
0.390006065 0.290702283 0.160657525
0.417330503 0.299809933 0.157621905
0.441113114 0.307653278 0.159772128
0.471473634 0.320809633 0.163440689
0.502593040 0.334851384 0.164832368
0.530170441 0.346489400 0.162302047
0.563188016 0.357874393 0.170651406
0.598987877 0.368880183 0.175458387
0.638076961 0.379506350 0.182162985
0.680455446 0.391017973 0.187602580
0.096521191 0.267804772 0.161669999
0.097153611 0.264769167 0.153194204
0.102339998 0.268184781 0.160025194
0.106641158 0.267425627 0.155977175
0.111574993 0.269322991 0.151423201
0.114610866 0.269322991 0.152435064
0.130929306 0.269196451 0.153067514
0.141682401 0.267804772 0.156103909
0.159898996 0.267804772 0.156863004
0.167868331 0.269196481 0.158254325
0.184945866 0.268816918 0.157874882
0.198102504 0.267804772 0.154838741
0.213282987 0.269322991 0.155218005
0.227197841 0.269576013 0.160784006
0.243263826 0.271726787 0.160784006
0.259076804 0.269322991 0.158380806
0.271220803 0.269322991 0.158380806
0.283364803 0.270588130 0.158380568
0.299304008 0.275395751 0.161416978
0.322580725 0.276407778 0.164832190
0.342694730 0.286274791 0.165211946
0.365464926 0.295888484 0.164706007
0.386970282 0.306641191 0.163314298
0.414294720 0.318026721 0.164832085
0.439341784 0.324857622 0.161796480
0.466413498 0.336622447 0.164579123
0.498292148 0.351296782 0.167615250
0.527514219 0.363440782 0.168374345
0.560151637 0.375584781 0.166350007
0.598861516 0.389499962 0.173687622
0.636559010 0.400758743 0.179759786
0.677546024 0.412902772 0.185831800
0.101074994 0.290575385 0.161670014
0.101074994 0.286021590 0.155597612
0.105375998 0.284882993 0.156989202
0.111448318 0.290955007 0.166603193
0.120303638 0.289057195 0.157495201
0.123718992 0.289057195 0.157495201
0.135863379 0.289057195 0.155976996
0.147754416 0.292093188 0.159139514
0.159139901 0.291334271 0.159898803
0.170524821 0.290575385 0.158380806
0.186970010 0.289057195 0.156863004
0.207210511 0.289057195 0.156356931
0.220493644 0.290195823 0.155597553
0.232764155 0.290575385 0.160531044
0.245414212 0.292346597 0.159266204
0.257558614 0.292093575 0.156862617
0.272738993 0.292093188 0.158380806
0.286147982 0.292093188 0.160784006
0.300063014 0.296394706 0.162934780
0.320303738 0.298418999 0.162934855
0.342694730 0.304491192 0.166729748
0.364959002 0.314611197 0.164706007
0.386717290 0.323212892 0.164832488
0.411258727 0.333965987 0.167868093
0.437823981 0.344592214 0.167868093
0.463503987 0.352055848 0.170398474
0.494244248 0.367995262 0.173181191
0.525616825 0.383175373 0.175205439
0.560151935 0.392283380 0.172928542
0.591271341 0.407716364 0.170651242
0.634661555 0.423782378 0.177609399
0.672991812 0.437191576 0.184313998
0.105881996 0.314231545 0.156863004
0.106514573 0.310056955 0.155091599
0.109550588 0.306767762 0.155724198
0.115622744 0.305629134 0.158760428
0.123213418 0.311701149 0.163693979
0.133080050 0.312207133 0.163441017
0.143453643 0.311574548 0.161543265
0.152309000 0.313598543 0.162808001
0.158507496 0.318658620 0.167741567
0.167615116 0.315623015 0.161669567
0.183807448 0.311954260 0.159139872
0.203794926 0.310942143 0.158127993
0.224668071 0.312713176 0.157368943
0.239848465 0.315749556 0.160404548
0.249715149 0.316129118 0.158127844
0.259455770 0.315496534 0.156989172
0.272232771 0.316381931 0.157874554
0.286780566 0.318785131 0.160784006
0.304996610 0.318785131 0.160784006
0.323213130 0.320935905 0.158633783
0.342694730 0.326502323 0.160025433
0.363694012 0.334598571 0.164073437
0.387982011 0.341050059 0.164073437
0.409740508 0.351170450 0.166603103
0.435546875 0.361922979 0.167994574
0.463503987 0.375205606 0.170271680
0.491334975 0.385326028 0.178874016
0.524604797 0.406325370 0.179127008
0.560657978 0.414294958 0.177103251
0.594307542 0.427451074 0.176597342
0.625047565 0.443137169 0.175838009
0.670588017 0.461353987 0.184946418
0.105881982 0.335483998 0.156863004
0.108918376 0.338519603 0.159898624
0.109550968 0.338646024 0.160278022
0.112586975 0.337128162 0.160531059
0.120177031 0.335989982 0.160657600
0.138393015 0.342061967 0.157621995
0.145730644 0.340037644 0.157369003
0.152309000 0.338899016 0.158760250
0.158381030 0.340164095 0.162049100
0.164579526 0.342947483 0.164705962
0.185325846 0.337001979 0.164452970
0.204047963 0.335230976 0.164200008
0.221631676 0.337507963 0.161923021
0.236812085 0.343074024 0.157368943
0.251992434 0.346110404 0.160404548
0.264262974 0.344086140 0.165338039
0.279190361 0.342821002 0.169133186
0.295888931 0.343073964 0.169892386
0.308032990 0.343073994 0.160784006
0.326248974 0.343073994 0.160784006
0.344465494 0.345224738 0.160531044
0.362934977 0.349779010 0.161037058
0.381909996 0.356230497 0.161037058
0.406198829 0.371410936 0.161037043
0.432511240 0.381530702 0.163567290
0.461227268 0.396457672 0.164958969
0.491334975 0.415686101 0.166730002
0.521694958 0.430866450 0.172801986
0.557621598 0.438583016 0.173054978
0.595825136 0.451739430 0.178115219
0.633396268 0.466413975 0.184440330
0.670588017 0.473498046 0.187982023
0.097533345 0.367868364 0.159645647
0.106135026 0.370904684 0.162681982
0.111321643 0.371790081 0.165717587
0.116381809 0.370524913 0.166350007
0.123971999 0.367868364 0.165970564
0.132573992 0.369133353 0.162934959
0.145730644 0.370145351 0.159898698
0.155598000 0.369006723 0.158001363
0.166983008 0.369006723 0.158760265
0.181151032 0.370018840 0.161796138
0.193422228 0.367109746 0.167488649
0.208602354 0.365085751 0.167488649
0.226438999 0.367362738 0.166350305
0.244655356 0.372928739 0.162175983
0.257305413 0.373434782 0.160151586
0.267678797 0.371663541 0.163187817
0.280961543 0.371663541 0.165844351
0.297912955 0.373561144 0.166350424
0.314358026 0.375711381 0.161543041
0.329285353 0.378494740 0.160784006
0.347501338 0.378494740 0.164579004
0.367741883 0.380645245 0.166350007
0.389373839 0.384946018 0.166223526
0.405692816 0.392157286 0.163567364
0.434534997 0.405060381 0.163567364
0.462365627 0.416065693 0.163314328
0.491841048 0.432637513 0.162934646
0.524478316 0.450095147 0.169006631
0.554838300 0.465274841 0.167109489
0.592789173 0.477039546 0.172296181
0.633143544 0.493358612 0.178747982
0.673371375 0.505123377 0.179886341
0.096015260 0.399367452 0.164579004
0.095635623 0.402403384 0.165717646
0.110183001 0.401391715 0.170651704
0.114990160 0.400126547 0.168627307
0.122074552 0.397469729 0.166350201
0.126628742 0.397469729 0.163314208
0.149145901 0.399367452 0.169766158
0.151423261 0.401011735 0.165085062
0.164326370 0.401264727 0.162555248
0.183681011 0.401264727 0.164452523
0.199873745 0.400252849 0.166602999
0.213915244 0.399240971 0.166729748
0.227197900 0.399240971 0.167868093
0.246426299 0.403288990 0.166350290
0.260214984 0.403288990 0.163314328
0.273750782 0.404680640 0.163187817
0.285895169 0.403162450 0.164706007
0.301707953 0.405819327 0.165338427
0.319924027 0.408855259 0.164832026
0.337255120 0.409993827 0.164579004
0.354332745 0.411132455 0.164579004
0.370524734 0.411132455 0.167615131
0.391144753 0.413409203 0.166729748
0.409867167 0.419481516 0.165464908
0.432637751 0.426312745 0.164706007
