Assets/Shaders/EldamarStudio/100 Sci-Fi LUTs Pack/LUTs/cube/Freya LUT.cube
DOMAIN_MIN 0 0 0
DOMAIN_MAX 1 1 1
LUT_3D_SIZE 32
0.007843000 0.007843000 0.015686000
0.007843000 0.007843000 0.009614000
0.018595772 0.009993774 0.007843000
0.036306158 0.015559838 0.012902999
0.057938091 0.023529001 0.023908548
0.082226865 0.023529001 0.026944935
0.114105314 0.026059322 0.035041321
0.147501692 0.024162002 0.039216001
0.177862093 0.019607998 0.037698001
0.199114516 0.019607995 0.031625997
0.234914750 0.010879130 0.028463129
0.267299503 0.007843000 0.029475257
0.297659993 0.010119998 0.030234357
0.328020066 0.015939033 0.027197968
0.358380824 0.018975416 0.024161585
0.391144782 0.022011193 0.025932804
0.424541175 0.028083190 0.033522993
0.458570123 0.036558993 0.043769579
0.495002985 0.042631004 0.046805982
0.537001789 0.045920357 0.058191009
0.573813736 0.052751735 0.064642735
0.611258328 0.060847998 0.068691000
0.656672955 0.066919990 0.074889503
0.699177802 0.072992004 0.083997905
0.741682529 0.079063997 0.088551708
0.785578609 0.083744675 0.097153649
0.830613136 0.088804930 0.110309929
0.873117864 0.103984527 0.113345541
0.923592389 0.116508648 0.127007812
0.968121111 0.130423725 0.147501379
0.996078014 0.149145797 0.165591389
0.996078014 0.176470995 0.168626994
0.007843000 0.007843000 0.015686000
0.001771000 0.016951386 0.006578388
0.016824773 0.019101612 0.011258612
0.037571318 0.022137774 0.015180161
0.061353929 0.026944933 0.022011386
0.088298865 0.029601775 0.033016935
0.117646992 0.032131452 0.023403000
0.145604029 0.035167709 0.037191603
0.174826100 0.034029290 0.046046712
0.205186501 0.031751998 0.037697997
0.235167742 0.031751998 0.034535129
0.265275240 0.027071649 0.027450748
0.292346597 0.027198128 0.024161873
0.319923669 0.031372383 0.021884998
0.361416429 0.037191413 0.027197970
0.389373988 0.040227804 0.031372383
0.419987381 0.044781767 0.033523001
0.452498108 0.053004369 0.038962569
0.488930970 0.063883394 0.046805974
0.528146446 0.067172743 0.049841654
0.568500876 0.070208646 0.059329350
0.607210636 0.076027870 0.065654613
0.650853992 0.082100376 0.071853116
0.699177802 0.088172391 0.080961525
0.743959248 0.096521087 0.094623893
0.787222922 0.103351988 0.102087371
0.831119180 0.108538747 0.110815994
0.876154244 0.116129301 0.116381928
0.918658972 0.125995919 0.124731205
0.962049067 0.139531791 0.133839354
0.991777003 0.155597597 0.150537580
0.996078014 0.176470995 0.168626994
0.009993774 0.020746548 0.015686000
0.012523774 0.027704161 0.017330613
0.021505546 0.028209999 0.010373225
0.044022772 0.031245936 0.019481160
0.067552321 0.035041224 0.024667999
0.089563929 0.041619159 0.033269998
0.117267765 0.044655450 0.031625777
0.150917172 0.047691479 0.024415065
0.177229777 0.049209677 0.038077001
0.206451505 0.046173289 0.033143710
0.236938745 0.050347771 0.034155902
0.263250977 0.052372027 0.031119520
0.290448874 0.049589127 0.024541130
0.316508085 0.050600804 0.022264291
0.353320539 0.054775544 0.028336769
0.388108611 0.062744804 0.032257996
0.418469399 0.064263001 0.039848190
0.451359689 0.069070153 0.042378191
0.489310741 0.078178555 0.048450198
0.526375413 0.084124133 0.051992424
0.567741454 0.087160036 0.056925770
0.607463658 0.091207772 0.065781124
0.648956478 0.097406723 0.073244758
0.695509076 0.105503000 0.084376901
0.741809011 0.109551251 0.089437276
0.785957992 0.117267534 0.099051319
0.828462899 0.124351546 0.105882287
0.872359276 0.133712903 0.116887994
0.919544578 0.138140693 0.132068053
0.963820100 0.154332697 0.144718409
0.992536008 0.172043130 0.152814597
0.996078014 0.191524774 0.170777768
0.016824998 0.042758159 0.020746322
0.021632161 0.045034997 0.020493163
0.035420772 0.047185548 0.026818322
0.050601158 0.045414321 0.016951161
0.074509710 0.049209610 0.026059547
0.093611866 0.058317225 0.033017162
0.119418316 0.063630641 0.030234002
0.147881225 0.065401867 0.029728293
0.181278020 0.068438061 0.027450999
0.205566183 0.066413671 0.027450999
0.233143583 0.069576152 0.026565712
0.263250977 0.073624410 0.030613907
0.289816290 0.075522155 0.027577518
0.317267179 0.073118284 0.024794161
0.348640054 0.076154411 0.028842671
0.379506648 0.081467509 0.033776194
0.416698188 0.088551320 0.037318192
0.451359689 0.089816310 0.047058985
0.490828961 0.095888935 0.051992197
0.527514040 0.100696161 0.055028517
0.566476643 0.107400417 0.059962153
0.609993279 0.109424159 0.068058155
0.649968326 0.114990145 0.077166513
0.693232059 0.122959897 0.085895158
0.737507880 0.128779441 0.092473283
0.781657279 0.133207142 0.096774481
0.825680077 0.139279157 0.100822099
0.870461702 0.149905145 0.114484273
0.911954582 0.157874823 0.128525957
0.960025251 0.166477159 0.147501186
0.994939566 0.186843961 0.160910606
0.996078014 0.207716838 0.170019001
0.028589547 0.069323547 0.030993454
0.032005388 0.067805156 0.022644065
0.045793999 0.067931771 0.029222226
0.061986156 0.070082545 0.033270292
0.077546000 0.069323540 0.019608000
0.098798387 0.078431159 0.028716387
0.125490323 0.085009642 0.026691904
0.152055696 0.088172443 0.025173709
0.177862093 0.088931441 0.027450999
0.202150896 0.091967061 0.027450996
0.227577552 0.092472993 0.022770548
0.257178783 0.094497249 0.025300706
0.288677752 0.096394993 0.030234357
0.319291562 0.097154021 0.027704032
0.346868962 0.100442678 0.027830547
0.374952316 0.103478804 0.032637544
0.408728361 0.107653543 0.037571192
0.450600684 0.113345988 0.042504981
0.490069956 0.119418010 0.054649003
0.526375592 0.123466358 0.058444355
0.563946664 0.129538342 0.063377991
0.604680598 0.135989547 0.069955997
0.650347471 0.136242539 0.081720486
0.690575719 0.142314553 0.084756806
0.732700944 0.149146110 0.090449445
0.775585294 0.154459536 0.097659990
0.819228649 0.160531551 0.103478938
0.870840967 0.166603550 0.112586536
0.907273889 0.177609071 0.121315368
0.948766768 0.187602744 0.137128159
0.987349987 0.198608518 0.155597597
0.996457577 0.216824546 0.164706007
0.037697934 0.090575933 0.027957065
0.043769933 0.099683546 0.024920680
0.057937995 0.096014932 0.025173839
0.072359160 0.095256157 0.027703904
0.083618000 0.096647933 0.022643615
0.101833999 0.090575933 0.019607998
0.130676702 0.097153872 0.026186064
0.155597702 0.101581283 0.026944935
0.177102998 0.104111150 0.027450999
0.196078122 0.107147448 0.027451001
0.229095742 0.110183060 0.030360872
0.256926179 0.112713248 0.027830679
0.284123927 0.114611000 0.027957065
0.310183167 0.115370020 0.027704032
0.343580306 0.124478400 0.030740418
0.375964701 0.127767056 0.035673931
0.408349097 0.130803183 0.041745931
0.444528699 0.134345353 0.048576981
0.483997911 0.137634009 0.060721006
0.517900348 0.146489352 0.064516351
0.551802635 0.150790736 0.069449991
0.588235199 0.154838741 0.073497996
0.629095078 0.157494932 0.075648487
0.677672684 0.163566932 0.078684106
0.722454250 0.174193501 0.086274415
0.767489016 0.179759935 0.097659715
0.813030124 0.181783929 0.109297931
0.861733317 0.187855929 0.112586536
0.902719676 0.196584761 0.119038664
0.942947388 0.204427853 0.132700875
0.980265677 0.212776914 0.150537595
0.999493957 0.225932926 0.164706007
0.044275999 0.127008319 0.029981323
0.050347999 0.128526255 0.026944935
0.067172773 0.131182641 0.030360322
0.084503487 0.127134472 0.032511000
0.096521318 0.126501992 0.031119321
0.110436320 0.120429993 0.030233935
0.136242643 0.121948317 0.027198322
0.163314402 0.124731317 0.031625610
0.187729314 0.127640635 0.034788091
0.213029325 0.132447794 0.040101316
0.233143613 0.135484099 0.030360872
0.262492239 0.136495963 0.035420999
0.288677990 0.139025986 0.033902675
0.313725084 0.140670344 0.033016998
0.347122222 0.145224735 0.038330093
0.380518794 0.154332504 0.046173476
0.413915187 0.157621503 0.050854191
0.447944105 0.161290303 0.055281736
0.485515624 0.166223675 0.061733011
0.524478078 0.169765994 0.073118031
0.563567102 0.176976636 0.072359413
0.601897240 0.181657314 0.077546127
0.643010318 0.186464146 0.082100317
0.686780274 0.194939971 0.082732745
0.735357165 0.198734671 0.094876342
0.779759288 0.208728656 0.103098989
0.824161828 0.213156313 0.114357807
0.870714843 0.219228312 0.123466179
0.908792019 0.225426823 0.124098659
0.950031638 0.236306414 0.135484189
0.982795715 0.246552989 0.155597895
0.997469664 0.260341316 0.177356318
0.053636990 0.150031701 0.031373002
0.064642698 0.153320700 0.034914605
0.068311065 0.156609699 0.033396706
0.090828612 0.156609699 0.034408711
0.106388539 0.153573409 0.034408711
0.117267706 0.147501409 0.036938708
0.145351022 0.145730317 0.037697606
0.161163703 0.147121996 0.034661997
0.186211392 0.148639992 0.035420712
0.215686023 0.154711977 0.040101487
0.239342019 0.156230152 0.038709998
0.261986226 0.158886984 0.033776291
0.288172007 0.161163986 0.036432941
0.313472062 0.164958701 0.034661710
0.348260522 0.169386402 0.043516703
0.380012780 0.170651600 0.048703089
0.413409173 0.181277409 0.056293674
0.448070705 0.185958266 0.060721405
0.485515684 0.193042412 0.065781035
0.526375413 0.194687054 0.073877007
0.566097200 0.201264977 0.081467442
0.610625982 0.207337245 0.080455571
0.654395700 0.213535875 0.088045798
0.696900547 0.222643897 0.089563996
0.739025533 0.227198124 0.094370700
0.786210954 0.231625393 0.106767662
0.829474747 0.240986690 0.113598771
0.875015557 0.249335691 0.124604888
0.917520583 0.255407691 0.132700995
0.955850601 0.261733115 0.146489456
0.987729251 0.274763077 0.159013495
0.996078014 0.289942712 0.181024998
0.065022096 0.163694099 0.035167899
0.077925391 0.170525193 0.039721712
0.083238423 0.174320102 0.040986773
0.089310221 0.178621188 0.038204003
0.112839989 0.177862093 0.033270452
0.123086937 0.171790004 0.038962901
0.148640230 0.168247879 0.042504776
0.167995006 0.166097105 0.042251617
0.178621188 0.166097105 0.039216001
0.205945596 0.172169104 0.033144001
0.234028876 0.173940092 0.038709998
0.258570403 0.175964355 0.038709745
0.285135984 0.179380193 0.037950549
0.309677124 0.185452193 0.035420936
0.344591886 0.191524193 0.046046987
0.376976579 0.193421796 0.050980385
0.408096254 0.195699096 0.056293286
0.444022596 0.206578091 0.062365893
0.483744860 0.215559974 0.071347035
0.525237024 0.218596101 0.077672198
0.565085173 0.224288538 0.082226478
0.606831253 0.232384354 0.087286867
0.655407965 0.238457084 0.090448990
0.699177802 0.246932298 0.094117805
0.740164399 0.253004491 0.098671801
0.780897856 0.256673098 0.102972567
0.826439083 0.262745112 0.112080961
0.871979535 0.274383098 0.121189341
0.919797480 0.281214088 0.132194966
0.961796105 0.288045436 0.148386925
0.990765035 0.298292547 0.171157107
0.996837080 0.313472182 0.177229896
0.074130483 0.191018492 0.050347514
0.080202490 0.200126886 0.041239910
0.088804781 0.200506210 0.039342489
0.099936813 0.200379670 0.039216004
0.115875617 0.202150896 0.039342463
0.134092376 0.196078122 0.042378068
0.151928991 0.192536339 0.045540843
0.165844217 0.189500272 0.045287784
0.178621203 0.187349498 0.042251617
0.202909976 0.187349498 0.039216001
0.233143479 0.193421483 0.044781998
0.257305264 0.197216764 0.044781744
0.283238143 0.200253144 0.045161001
0.315749109 0.203668982 0.050600551
0.343074232 0.209740981 0.053636935
0.375585258 0.218216166 0.057052810
0.407337368 0.223782197 0.063124776
0.440986991 0.227830485 0.071473517
0.486527503 0.233902514 0.077545524
0.526248872 0.242884368 0.083744712
0.563946486 0.251613230 0.086021967
0.603541911 0.259709477 0.087286867
0.649336040 0.265781492 0.090448990
0.697912812 0.271853507 0.096521005
0.741682529 0.280329287 0.104743794
0.782669067 0.286401331 0.110815793
0.823402703 0.290069520 0.115116581
0.868943810 0.296141505 0.124224953
0.922454000 0.302466512 0.133333325
0.967868090 0.310309708 0.144338965
0.996710598 0.322833598 0.159645587
0.999873459 0.343832970 0.180265516
0.074510001 0.206704870 0.048070870
0.086401001 0.212903380 0.050600514
0.096773997 0.215559989 0.041492902
0.110436447 0.217077866 0.046805996
0.126502186 0.221378997 0.055154994
0.137127995 0.220366865 0.045540936
0.152814448 0.214294732 0.053637192
0.172295704 0.212523863 0.055787869
0.188741192 0.210752636 0.053257547
0.208728999 0.208601862 0.048070610
0.227198005 0.211511731 0.042125128
0.257558495 0.215559483 0.048197124
0.283744514 0.218595639 0.048955999
0.313345939 0.221884996 0.051739033
0.343327224 0.227956995 0.060088411
0.375458777 0.236432806 0.065527990
0.407337368 0.245540917 0.072106324
0.440228105 0.251360148 0.079949453
0.483491898 0.255154878 0.083744749
0.523466229 0.266792864 0.087033391
0.564832389 0.276027739 0.087286867
0.605313122 0.283112109 0.087286867
0.648956478 0.287539840 0.090448990
0.694750011 0.299177855 0.096521005
0.736495972 0.305249870 0.098039001
0.779759586 0.312334001 0.106641106
0.823782086 0.317899942 0.115243062
0.871726394 0.326375723 0.124351434
0.917267561 0.332447708 0.133459821
0.958760142 0.340290934 0.147880942
0.987981975 0.350284725 0.164073199
0.997090161 0.365464866 0.183301866
0.090701982 0.234029248 0.051106997
0.096774250 0.238077492 0.054143127
0.102845997 0.239848495 0.052624766
0.114990316 0.239848495 0.046046831
0.131688997 0.243263945 0.058190841
0.145730317 0.241619244 0.059203248
0.161922827 0.238582969 0.056673057
0.177102789 0.235799968 0.059203450
0.196078092 0.236559063 0.058823999
0.213029712 0.236053005 0.055281542
0.233269989 0.234787852 0.053257510
0.257558227 0.237824246 0.051233508
0.284503371 0.240860149 0.056166865
0.310309798 0.244149491 0.057558250
0.340670556 0.250221491 0.064895406
0.371410787 0.258696795 0.067551993
0.406325370 0.266287386 0.072106190
0.438962966 0.274257243 0.079569995
0.478684455 0.278684556 0.083997719
0.518406391 0.290069520 0.087033905
0.559772491 0.296520740 0.086274520
0.602277279 0.305376112 0.085262865
0.644782007 0.310689479 0.088425249
0.688425183 0.320936263 0.094497263
0.735483825 0.330550492 0.104111254
0.774952650 0.336622477 0.104111254
0.819228172 0.343200445 0.113219321
0.866287112 0.352308422 0.122327700
0.908159196 0.360784233 0.129411817
0.953700304 0.366856217 0.143832952
0.982795656 0.377482563 0.161163598
0.996078014 0.390765250 0.178241745
0.110436283 0.261732996 0.059455995
0.113472380 0.264769375 0.062492382
0.117646866 0.266793638 0.061227221
0.125616312 0.266793638 0.061606474
0.137760982 0.266793638 0.058570191
0.154458985 0.264516354 0.066919871
0.169259995 0.262618601 0.066413678
0.188108921 0.260088265 0.063377708
0.204806745 0.260847360 0.062618993
0.220746145 0.263883770 0.063377991
0.239468515 0.263377428 0.063377991
0.263630539 0.262112528 0.063377991
0.288677633 0.266287267 0.063377991
0.310183048 0.269323587 0.065907605
0.338772804 0.274509966 0.069322996
0.372548938 0.282985479 0.072865002
0.404807359 0.291714013 0.075521834
0.441240102 0.298419029 0.076660492
0.477672338 0.304996997 0.080708370
0.518026412 0.314357996 0.085136354
0.562808454 0.325363517 0.086654253
0.604301393 0.330423415 0.087666124
0.646806121 0.339278787 0.090955473
0.690322816 0.346363187 0.096015356
0.736243188 0.356609911 0.102087349
0.781783938 0.364326656 0.113219641
0.822264373 0.370904714 0.112713575
0.867805302 0.380012482 0.119291797
0.909171343 0.389120460 0.133712977
0.949904919 0.397596240 0.146869227
0.982163370 0.405439258 0.162428662
0.996078014 0.420366645 0.177102998
0.122833967 0.281214088 0.071093999
0.125110611 0.284250438 0.073371358
0.131562024 0.287033796 0.072612256
0.141176209 0.288805008 0.074130066
0.155471057 0.288805008 0.078557551
0.167615056 0.288805008 0.075521939
0.177482352 0.288805008 0.072485678
0.193421751 0.287413329 0.069955707
0.213915139 0.285642117 0.068437964
0.235167533 0.288678497 0.074509971
0.251612902 0.291714191 0.075269029
0.272106498 0.290702283 0.074510001
0.295256406 0.290829033 0.074762970
0.316761047 0.296395004 0.074762970
0.341049790 0.299430609 0.071726583
0.376596779 0.307273775 0.075901061
0.413029522 0.315876186 0.081467383
0.447312117 0.324984461 0.086274870
0.483745009 0.334092081 0.080202103
0.525490046 0.341429055 0.084250681
0.572675169 0.352687776 0.088425286
0.620999396 0.365591168 0.092726126
0.660721481 0.375079006 0.101834476
0.706261933 0.378747910 0.105123095
0.751802862 0.388109058 0.106135026
0.795699239 0.397723019 0.111195303
0.838710070 0.404301107 0.121821962
0.884250462 0.413409472 0.118785582
0.926628590 0.422011256 0.140796751
0.968121111 0.430866241 0.163061336
0.995572031 0.441366047 0.179127365
0.995572031 0.453510076 0.188235000
0.138013572 0.314611226 0.077165999
0.131941572 0.317646831 0.071093999
0.147121772 0.318532377 0.073371358
0.161416709 0.319164962 0.080202579
0.173434824 0.319164962 0.090449281
0.179759830 0.319164962 0.081593938
0.191903830 0.319164962 0.078557678
0.209993809 0.319164962 0.078810707
0.230613828 0.318532377 0.079063892
0.244275913 0.319038451 0.077545583
0.271347284 0.322074831 0.083618313
0.288045645 0.321062565 0.078305155
0.307400644 0.320303619 0.075648353
0.328905821 0.323719412 0.077798583
0.353193790 0.323719382 0.077798583
0.382289588 0.331562012 0.081973605
0.416065603 0.337634176 0.085009828
0.450727254 0.343200535 0.088172406
0.489816993 0.352308869 0.095382467
0.529032409 0.369765818 0.089310400
0.569133103 0.379759550 0.091461316
0.614168048 0.389120787 0.093485415
0.660721481 0.396331370 0.095762476
0.706261933 0.414547384 0.104870103
0.751802862 0.420493543 0.108159281
0.794560611 0.429222107 0.111954406
0.835673749 0.437697440 0.119797647
0.881214797 0.446805805 0.127893955
0.918785334 0.450601220 0.135483548
0.963566899 0.456673205 0.155470744
0.994307041 0.466919780 0.174319759
0.989499986 0.483870804 0.188235000
0.153193802 0.345603973 0.085641801
0.154332608 0.353447199 0.084376797
0.156862587 0.352181822 0.082605794
0.173054799 0.353193969 0.086653993
0.185199291 0.353953063 0.094623648
0.195319802 0.351928800 0.081467263
0.201644808 0.356736392 0.084630288
0.218722507 0.353446960 0.084882900
0.241493091 0.351928800 0.087159999
0.258570820 0.351928800 0.085768320
0.278051883 0.352434844 0.086653933
0.301328272 0.353446990 0.088678189
0.319544613 0.351928800 0.085262634
0.340543985 0.353446990 0.087539606
0.360530972 0.353446990 0.083238609
0.387223393 0.355850786 0.085641801
0.419101983 0.360404581 0.093232378
0.453130931 0.365717739 0.092726439
0.490828961 0.380138963 0.087666050
0.532701194 0.392789602 0.094876796
0.575964510 0.407210588 0.092599802
0.617457032 0.418848932 0.094117999
0.662998199 0.429095596 0.094497472
0.706261933 0.438203573 0.103605099
0.754079521 0.451865584 0.108159281
0.798355520 0.458190978 0.113978662
0.838836193 0.466286838 0.122074798
0.880582273 0.475395203 0.133080438
0.915749729 0.483997613 0.142188743
0.961036861 0.490575522 0.160151526
0.996963620 0.497280180 0.181151003
0.995445788 0.509424627 0.197849602
0.165338188 0.375964373 0.093231998
0.171410590 0.386590570 0.091714188
0.173561200 0.388614595 0.088678196
0.182163194 0.384313375 0.088678196
0.194307193 0.387349725 0.093864650
0.206451669 0.388867646 0.085515261
0.218089998 0.387349844 0.085009448
0.230866894 0.389880151 0.089437477
0.251360178 0.385325581 0.091714188
0.271853477 0.385325581 0.091714188
0.290195972 0.385325581 0.091714188
0.310436249 0.388361573 0.093231998
0.332827270 0.387222946 0.092093647
0.354206204 0.387096405 0.094117999
0.372422159 0.388361573 0.090576001
0.397849202 0.389247179 0.091714188
0.422137976 0.390765369 0.091714188
0.456166923 0.392030358 0.099557415
0.492599815 0.406704396 0.089690030
0.533080757 0.419354707 0.090702362
0.575964928 0.433017194 0.094117999
0.621505320 0.444149345 0.093105868
0.664768994 0.458191186 0.093105793
0.710056782 0.467046171 0.103605099
0.754079521 0.474636197 0.106641091
0.801264942 0.488171846 0.116635129
0.843390286 0.495129436 0.126122937
0.882859111 0.504237771 0.137254789
0.918532789 0.511828005 0.146742627
0.953447104 0.520936310 0.164706111
0.993548036 0.530043960 0.187223166
0.998481810 0.536749005 0.205439806
0.175711557 0.408222556 0.098039001
0.184187382 0.419101715 0.096900791
0.188741550 0.423908710 0.092979394
0.193168983 0.422011107 0.088172406
0.204554081 0.416698098 0.087792955
0.216192141 0.425047457 0.090322636
0.230866298 0.422770530 0.090828575
0.248323798 0.419987530 0.091840707
0.265907973 0.421252519 0.094750419
0.284123987 0.421252519 0.094750419
0.302972555 0.419987530 0.094117999
0.324477792 0.423403114 0.095509328
0.346868813 0.427324474 0.097533070
0.370651573 0.424541116 0.094750419
0.388867527 0.427197933 0.094750412
0.413029343 0.427830517 0.096521191
0.439215332 0.427830517 0.098418601
0.460467696 0.427830517 0.093485422
0.496900558 0.433902562 0.096521035
0.535484076 0.444275558 0.095888764
0.576217890 0.457684875 0.094750419
0.619734704 0.470841140 0.093738444
0.665022075 0.479949504 0.090702064
0.712080777 0.491587549 0.100316018
0.755470991 0.500442564 0.105249584
0.799999952 0.510056794 0.112333752
0.845541060 0.524225116 0.130044505
0.885262430 0.533333361 0.139405131
0.922074616 0.540417492 0.150410816
0.958633721 0.548260748 0.169006795
0.984566569 0.556736529 0.190259561
0.996710598 0.565844119 0.208475590
0.190891996 0.447691053 0.098039009
0.196963996 0.453763813 0.104110993
0.205439806 0.460341960 0.105123021
0.213788837 0.462112784 0.102087028
0.222770125 0.459203005 0.096900590
0.228842899 0.459203005 0.093864977
0.243010625 0.459962040 0.093864977
0.261479706 0.459456027 0.093864977
0.280961156 0.460974008 0.094876908
0.296268046 0.466793031 0.097786039
0.317393899 0.460974038 0.094876908
0.342441261 0.461480290 0.094118007
0.368121266 0.464769363 0.095509328
0.391903996 0.467045993 0.097786039
0.410119981 0.467045993 0.097786032
0.430739790 0.467299014 0.097786039
0.457052380 0.467299014 0.101075001
0.484756529 0.467299014 0.102593042
0.506008983 0.467299014 0.090449028
0.542441726 0.473371029 0.096267998
0.581024766 0.483744472 0.097786032
0.622770369 0.495129883 0.096774168
0.668058455 0.504237592 0.093738467
0.707526922 0.513345957 0.090702072
0.747754276 0.524984002 0.098039307
0.791650653 0.536622405 0.107779972
0.839469016 0.548513949 0.120936118
0.885009408 0.557621539 0.136116505
0.922074616 0.566729844 0.153446957
0.962049305 0.575585246 0.176217169
0.993168950 0.583808005 0.198861271
0.999746978 0.590133011 0.211512014
0.211638361 0.506641448 0.100822359
0.214927018 0.507147491 0.098545000
0.223149776 0.504617751 0.100315996
0.233523011 0.505629778 0.101581156
0.243769452 0.504870534 0.100442812
0.249842227 0.507273734 0.097406588
0.263504058 0.507273734 0.096900649
0.280328780 0.508918464 0.096900649
0.300442815 0.510815978 0.097659744
0.319671243 0.514863729 0.100695878
0.346236616 0.512081087 0.097912520
0.369512737 0.510057092 0.096900649
0.393801004 0.512334108 0.098039292
0.416445076 0.515116751 0.100569330
0.439721704 0.515116751 0.098039001
0.462745309 0.515116751 0.100442804
0.484376878 0.518152714 0.099304169
0.510942101 0.520682752 0.099051006
0.538646460 0.520682752 0.091207996
0.573814154 0.520682752 0.090195999
0.604554176 0.524857461 0.100062981
0.641492605 0.534345388 0.104617134
0.685135961 0.545477271 0.104997016
0.727261305 0.559898674 0.099304460
0.769006908 0.571283758 0.114484638
0.811764717 0.580645084 0.125616670
0.855914354 0.588994801 0.137887076
0.890069425 0.595825672 0.157621458
0.927640617 0.607590079 0.170145676
0.964073360 0.613282979 0.189879894
0.993927956 0.621252716 0.216065675
1.000000000 0.631119788 0.239595026
0.227197990 0.555977464 0.096268266
0.235926345 0.554079711 0.100822352
0.241366237 0.559266448 0.096141741
0.249209478 0.551929295 0.094876580
0.261227012 0.550411284 0.098165810
0.274889588 0.553447247 0.104237802
0.280961394 0.557748199 0.096141741
0.297786117 0.557748199 0.099430740
0.318279803 0.559772432 0.100695640
0.341809243 0.561669707 0.103731737
0.365085602 0.558886647 0.100948870
0.390385747 0.561669707 0.099936739
0.411258370 0.559392750 0.098798096
0.431751817 0.560151517 0.100569263
0.459329545 0.561796188 0.102466576
0.485515565 0.559898496 0.098545067
0.512840390 0.562934458 0.101581454
0.537128150 0.567741454 0.099304162
0.567488730 0.567741454 0.094496995
0.595825434 0.569639206 0.093990996
0.628463268 0.569639266 0.095888734
0.657811642 0.572675645 0.102972612
0.697533190 0.582036614 0.104617245
0.738266826 0.593674660 0.109171249
0.780771613 0.606578171 0.119797535
