Assets/Shaders/EldamarStudio/100 Sci-Fi LUTs Pack/LUTs/cube/Freya LUT.cube
LUT_3D_SIZE 5
DOMAIN_MIN 0.000000 0.000000 0.000000
DOMAIN_MAX 0.903226 0.903226 0.903226
0.007843000 0.007843000 0.015686000
0.147501692 0.024162002 0.039216001
0.358380824 0.018975416 0.024161585
0.611258328 0.060847998 0.068691000
0.923592389 0.116508648 0.127007812
0.053636990 0.150031701 0.031373002
0.161163703 0.147121996 0.034661997
0.348260522 0.169386402 0.043516703
0.610625982 0.207337245 0.080455571
0.917520583 0.255407691 0.132700995
0.138013572 0.314611226 0.077165999
0.209993809 0.319164962 0.078810707
0.353193790 0.323719382 0.077798583
0.614168048 0.389120787 0.093485415
0.918785334 0.450601220 0.135483548
0.241366252 0.598482251 0.089184128
0.317014515 0.606325269 0.097406998
0.475268960 0.606704533 0.104616992
0.675016284 0.616192281 0.103984997
0.934851468 0.668437660 0.182036817
0.461985767 0.902593434 0.296141416
0.517267466 0.910942614 0.303984731
0.636432350 0.910309732 0.313851982
0.801771045 0.912586927 0.332068413
0.976976573 0.911574781 0.353700250
0.015053997 0.037571292 0.126249403
0.135104120 0.033017289 0.116128691
0.292093515 0.070967704 0.145224407
0.533712685 0.111195251 0.188361987
0.878810704 0.136748821 0.238330111
0.080455408 0.115116991 0.122959986
0.145856962 0.141935393 0.134092405
0.285515487 0.160910815 0.150790706
0.544844806 0.202403277 0.192283407
0.886274576 0.255154938 0.241745666
0.150410995 0.284503400 0.161543399
0.207337394 0.290069669 0.168121412
0.324098706 0.296268374 0.171030700
0.569766283 0.365338087 0.199746862
0.900948703 0.448703378 0.250853688
0.252877682 0.572422266 0.207716540
0.323845834 0.572802365 0.208349109
0.462871522 0.581277549 0.209360823
0.651866078 0.591651082 0.214168265
0.927008033 0.664769113 0.279443234
0.491840482 0.898039162 0.362808168
0.521948338 0.901581287 0.373181313
0.639468729 0.901201725 0.380771697
0.799114525 0.901834309 0.392789006
0.968121290 0.911701560 0.425426930
0.073244996 0.045793995 0.316381991
0.184060693 0.065401576 0.291587830
0.304111362 0.087665990 0.269449800
0.537634254 0.118405990 0.316255540
0.866666853 0.170271784 0.392409801
0.130423695 0.168627426 0.271347404
0.191271275 0.169639707 0.261859685
0.290322393 0.171663702 0.256673098
0.521694958 0.211891249 0.314990252
0.857432008 0.280708373 0.396331370
0.185072407 0.281214803 0.266160399
0.229222104 0.298545092 0.280202687
0.362301975 0.328272969 0.301454395
0.554332376 0.365970522 0.331561953
0.871853173 0.461227208 0.418090194
0.286527395 0.540923715 0.349272817
0.338267118 0.544591963 0.353573680
0.457178950 0.556230009 0.354459405
0.633143187 0.568754137 0.368247658
0.909803748 0.665528357 0.455408037
0.525995731 0.882226169 0.506261826
0.559645653 0.883491337 0.512840211
0.665907562 0.890701771 0.522707164
0.803795218 0.895635486 0.541429341
0.959266186 0.906514764 0.566097021
0.182542995 0.112840123 0.569007277
0.283491701 0.117393702 0.552308381
0.439595222 0.121948287 0.533459961
0.601518095 0.126502126 0.516129255
0.883744597 0.190891758 0.569386244
0.204680845 0.234788239 0.518026650
0.281846851 0.232763827 0.524225593
0.430740118 0.230233982 0.511195540
0.583807409 0.229854688 0.492219925
0.880455256 0.299810350 0.574699342
0.248450413 0.383301646 0.498165548
0.313345820 0.385831833 0.497786403
0.443137109 0.387855679 0.490575224
0.595951855 0.388614684 0.489310682
0.869196713 0.490322500 0.584693074
0.319797248 0.559266269 0.488678247
0.376723260 0.571283996 0.502720118
0.510183394 0.586337924 0.525869250
0.689690113 0.626945138 0.568121433
0.898544908 0.695888817 0.638076961
0.599367559 0.878051877 0.672105908
0.626944900 0.876027882 0.684882760
0.708285749 0.882859051 0.695635498
0.809740603 0.886527300 0.694750071
0.948260427 0.901328564 0.709171176
0.315369934 0.231751785 0.867172599
0.393421531 0.243896320 0.858696580
0.556609333 0.255407602 0.854901969
0.754332900 0.270588577 0.845161378
0.956103742 0.308032542 0.838456750
0.352435321 0.352435172 0.846679449
0.416824609 0.357368618 0.851359665
0.571031034 0.361922741 0.845667183
0.762934804 0.376470625 0.841239393
0.951928675 0.402403414 0.836306334
0.460341781 0.547628164 0.832004726
0.505882025 0.549272478 0.829348207
0.620240450 0.554838598 0.834661424
0.771537185 0.562428653 0.829095244
0.936495543 0.570651412 0.826186001
0.527007937 0.724098802 0.839342415
0.569007158 0.725490034 0.835420847
0.666287303 0.733333170 0.828842163
0.795572042 0.734977901 0.830739558
0.932574451 0.741429150 0.833522916
0.616445243 0.893484592 0.841239393
0.647058725 0.893737912 0.846299648
0.720177174 0.889436722 0.845794022
0.832764089 0.899557114 0.853889704
0.942694843 0.922074616 0.892093599
