Assets/Shaders/EldamarStudio/100 Sci-Fi LUTs Pack/LUTs/cube/Freya LUT.cube
LUT_3D_SIZE 8
DOMAIN_MIN 0.000000 0.000000 0.000000
DOMAIN_MAX 0.903226 0.903226 0.903226
0.007843000 0.007843000 0.015686000
0.057938091 0.023529001 0.023908548
0.177862093 0.019607998 0.037698001
0.297659993 0.010119998 0.030234357
0.424541175 0.028083190 0.033522993
0.573813736 0.052751735 0.064642735
0.741682529 0.079063997 0.088551708
0.923592389 0.116508648 0.127007812
0.028589547 0.069323547 0.030993454
0.077546000 0.069323540 0.019608000
0.177862093 0.088931441 0.027450999
0.288677752 0.096394993 0.030234357
0.408728361 0.107653543 0.037571192
0.563946664 0.129538342 0.063377991
0.732700944 0.149146110 0.090449445
0.907273889 0.177609071 0.121315368
0.065022096 0.163694099 0.035167899
0.112839989 0.177862093 0.033270452
0.178621188 0.166097105 0.039216001
0.285135984 0.179380193 0.037950549
0.408096254 0.195699096 0.056293286
0.565085173 0.224288538 0.082226478
0.740164399 0.253004491 0.098671801
0.919797480 0.281214088 0.132194966
0.110436283 0.261732996 0.059455995
0.137760982 0.266793638 0.058570191
0.204806745 0.260847360 0.062618993
0.288677633 0.266287267 0.063377991
0.404807359 0.291714013 0.075521834
0.562808454 0.325363517 0.086654253
0.736243188 0.356609911 0.102087349
0.909171343 0.389120460 0.133712977
0.165338188 0.375964373 0.093231998
0.194307193 0.387349725 0.093864650
0.251360178 0.385325581 0.091714188
0.332827270 0.387222946 0.092093647
0.422137976 0.390765369 0.091714188
0.575964928 0.433017194 0.094117999
0.754079521 0.474636197 0.106641091
0.918532789 0.511828005 0.146742627
0.227197990 0.555977464 0.096268266
0.261227012 0.550411284 0.098165810
0.318279803 0.559772432 0.100695640
0.411258370 0.559392750 0.098798096
0.512840390 0.562934458 0.101581454
0.628463268 0.569639266 0.095888734
0.780771613 0.606578171 0.119797535
0.931815326 0.637571454 0.179253653
0.310057282 0.736116230 0.122200996
0.342821270 0.737254560 0.135357082
0.403415382 0.734598398 0.137634367
0.488930911 0.740543842 0.142567918
0.590385437 0.739405274 0.138393462
0.700316250 0.741808534 0.143073991
0.812270522 0.747248292 0.156103551
0.943326890 0.764705718 0.216192231
0.461985767 0.902593434 0.296141416
0.492093593 0.911195338 0.304743886
0.535736740 0.906388581 0.305249572
0.597849250 0.911574781 0.311448574
0.680581808 0.913092971 0.319923759
0.775711417 0.912333846 0.328779578
0.875522077 0.915496767 0.344212294
0.976976573 0.911574781 0.353700250
0.023149550 0.028209999 0.050474547
0.062239543 0.020367000 0.054775096
0.158633649 0.036053099 0.077925444
0.240860537 0.054395642 0.092472993
0.362934828 0.071220994 0.110436186
0.521315634 0.087413445 0.133965805
0.705882072 0.099177547 0.147248566
0.896014929 0.128652528 0.178241819
0.036432546 0.061480545 0.047691092
0.069702990 0.062618993 0.066160545
0.139784634 0.081846640 0.081467092
0.233775839 0.094750181 0.089690544
0.359012932 0.115622737 0.107653536
0.509424508 0.135863543 0.130044281
0.695762277 0.154712245 0.148007572
0.880075872 0.178241834 0.175079122
0.078305095 0.136243090 0.085262187
0.102972545 0.146868750 0.088931441
0.153953552 0.145730108 0.092473097
0.250601083 0.163694009 0.096268088
0.367235988 0.189120635 0.118279286
0.516635299 0.214927450 0.127514079
0.707653522 0.246679187 0.152688295
0.896773994 0.278431535 0.181530654
0.116634987 0.237950370 0.105629183
0.144844979 0.242757991 0.110056542
0.185452178 0.240354180 0.104490541
0.261859745 0.240354180 0.113978542
0.378115177 0.270461828 0.123339728
0.525616944 0.307273746 0.134851083
0.713092804 0.346742481 0.154585838
0.897659302 0.386464298 0.180771455
0.166097194 0.367741734 0.128905535
0.189879730 0.367235988 0.134977907
0.243769825 0.367995083 0.127893731
0.315876037 0.372802079 0.139405191
0.406451374 0.371536911 0.131688997
0.551929295 0.411005467 0.139911458
0.734977901 0.466287196 0.155977190
0.907400250 0.505882382 0.188235343
0.223529533 0.529538035 0.143326998
0.255660832 0.534092188 0.141429350
0.312334180 0.532321393 0.148007289
0.394560397 0.539405286 0.143832728
0.498671651 0.542567670 0.147754550
0.603668451 0.550284624 0.145350739
0.761922657 0.592409968 0.162681803
0.926628530 0.633143783 0.212903067
0.306008995 0.720809817 0.166223645
0.341429561 0.722707510 0.173940524
0.392915666 0.721442282 0.173814118
0.476786554 0.724225461 0.178241462
0.578241825 0.725110829 0.179633170
0.690828443 0.728652775 0.187096730
0.806957364 0.737760544 0.200379536
0.943073750 0.755344987 0.251359910
0.455154687 0.905629516 0.298924387
0.479064018 0.896521151 0.305123568
0.518658936 0.898924470 0.314610869
0.584313869 0.897279918 0.317646652
0.670461953 0.901581287 0.327640831
0.769892514 0.903225601 0.339152396
0.869702816 0.903984725 0.360783935
0.975711465 0.911321998 0.377861947
0.020366903 0.035294000 0.153574005
0.091714092 0.031752452 0.148892999
0.166983098 0.037571099 0.144971102
0.244022638 0.061100997 0.154332995
0.361164212 0.086906999 0.177862093
0.490196049 0.110436089 0.197722822
0.663883746 0.120683186 0.227198005
0.875521660 0.145097911 0.260847658
0.061480448 0.087413445 0.128526002
0.089690447 0.087792993 0.128146544
0.144591659 0.092473090 0.129285097
0.234282076 0.106135450 0.149652094
0.344338834 0.130044192 0.171916634
0.481720477 0.153574005 0.197469905
0.672232747 0.166097283 0.228336543
0.869829118 0.190006256 0.251233369
0.094876900 0.139405191 0.141176000
0.129032448 0.152435452 0.139025643
0.173181191 0.169260010 0.161417007
0.246426553 0.167994753 0.162935093
0.349399179 0.195066094 0.181784093
0.499304086 0.220873088 0.205692634
0.682732224 0.246679291 0.230360478
0.879190385 0.283491194 0.261226922
0.141050100 0.239721999 0.173181176
0.161416993 0.245667651 0.176723540
0.202529639 0.245288089 0.176344097
0.263630629 0.240860552 0.173560634
0.362934709 0.269829512 0.185958549
0.507273614 0.304237843 0.213029906
0.695635736 0.344085813 0.230107367
0.880075872 0.384693205 0.263377905
0.181783900 0.349272281 0.195066288
0.206072196 0.361543536 0.202529743
0.255408078 0.356356382 0.203795090
0.313978374 0.353573650 0.199367538
0.386843383 0.363441080 0.198228985
0.537507832 0.402403474 0.219734445
0.719544649 0.458064556 0.237318292
0.902846336 0.505502820 0.273624241
0.240227640 0.527387738 0.219101846
0.272106439 0.527134597 0.222264364
0.319797605 0.529790998 0.220493436
0.395066649 0.531688511 0.224921003
0.490196049 0.540290833 0.228462741
0.595698774 0.541808844 0.230360478
0.760404706 0.588488162 0.250727743
0.923971832 0.635926604 0.301201761
0.328019977 0.711827755 0.257432342
0.349146098 0.722833455 0.263377845
0.410373390 0.720556736 0.268564194
0.487413019 0.723213077 0.267298996
0.581783533 0.726881564 0.269323111
0.686907053 0.724351466 0.267552286
0.800505579 0.732953489 0.280076146
0.932574451 0.758127630 0.334344953
0.495888591 0.901581466 0.388614684
0.516128898 0.902087212 0.402656317
0.550284505 0.900822341 0.396710753
0.614167988 0.903731942 0.406198144
0.688678086 0.904111326 0.411005765
0.775331795 0.904617310 0.417077839
0.871853471 0.909550726 0.430360407
0.969892681 0.909424484 0.447438300
0.041619636 0.033650000 0.256925911
0.107147276 0.037065350 0.251612931
0.186717540 0.051612996 0.236432374
0.249462634 0.066160642 0.223655626
0.354332834 0.090828799 0.237571031
0.492346555 0.109803997 0.270208895
0.663377464 0.123845704 0.308412284
0.863251209 0.164958954 0.348260641
0.082099989 0.101707891 0.221505374
0.118912078 0.105629183 0.218722641
0.172928289 0.106767729 0.214800730
0.239595264 0.110309988 0.209360823
0.339405626 0.132700533 0.236053005
0.468437880 0.155091912 0.264516175
0.650094986 0.170145199 0.298798442
0.849715531 0.200632617 0.350410908
0.116635092 0.171789736 0.209360912
0.143200189 0.171410292 0.210373268
0.191018179 0.176596835 0.214927539
0.244275987 0.178494379 0.217330635
0.340544164 0.201265082 0.242884278
0.475142360 0.222770333 0.266160458
0.660215139 0.250474185 0.306388646
0.861353457 0.292979002 0.356862724
0.140796989 0.227071285 0.215306997
0.166350543 0.232511163 0.219607726
0.222391084 0.247817621 0.237697631
0.282099903 0.262998283 0.247817621
0.365591466 0.268057823 0.257937849
0.487033188 0.299430728 0.276660621
0.665654540 0.342061967 0.313978285
0.865148365 0.391144723 0.358380735
0.200126544 0.344971627 0.257052183
0.220746279 0.351170003 0.260214895
0.268311530 0.352687806 0.267425716
0.317014456 0.352687806 0.265780807
0.385958195 0.361289918 0.266666830
0.526881456 0.394939840 0.294117749
0.703099549 0.450600713 0.323212832
0.883491397 0.509803951 0.374699414
0.254901737 0.501707494 0.299430639
0.279190421 0.503605187 0.299430728
0.322074711 0.507147491 0.300948709
0.392156661 0.511448205 0.300316632
0.481847018 0.517773807 0.305882424
0.579506218 0.525996387 0.312839717
0.742188632 0.577355981 0.338013530
0.907020688 0.634535253 0.396710813
0.339405268 0.700316131 0.353447258
0.365591377 0.701834261 0.352561712
0.408349454 0.698671877 0.351549596
0.484503537 0.701960862 0.355597615
0.573054731 0.704237878 0.358000904
0.679822862 0.714863539 0.366982758
0.787729263 0.720430255 0.370145559
0.923212945 0.757368684 0.431625903
0.514610887 0.890828431 0.471979767
0.530676723 0.885135889 0.468817174
0.565211654 0.890448570 0.473370910
0.619734168 0.892978966 0.478937238
0.689184248 0.894370317 0.482100040
0.779759526 0.895256042 0.489816338
0.867805243 0.900822163 0.503478587
0.969765782 0.906388581 0.523719072
0.104744181 0.061859995 0.380771399
0.150663733 0.072106190 0.373307735
0.228716195 0.079063997 0.358001262
0.305123627 0.091714188 0.352561295
0.378368169 0.104997002 0.332195193
0.500189483 0.115622737 0.354332924
0.680328846 0.126249284 0.398608178
0.868437767 0.174193621 0.442504793
0.118912175 0.137128189 0.345224530
0.158254087 0.136875555 0.341302723
0.228842184 0.138393447 0.339278966
0.294623911 0.139911458 0.328779340
0.364073634 0.143832743 0.313092768
0.483997285 0.157495096 0.343833208
0.664262950 0.171410576 0.390765458
0.855534434 0.209993705 0.440986723
0.154459193 0.202150196 0.314990163
0.186590895 0.205692649 0.323212832
0.227957085 0.206072181 0.323719203
0.287539184 0.206831083 0.310942262
0.361164182 0.206831083 0.310183376
0.492978930 0.226691827 0.346236348
0.669323564 0.253637075 0.397090405
0.862998068 0.309804171 0.446932137
0.175837830 0.267425627 0.313598722
0.207210734 0.276154429 0.318785310
0.250221550 0.277672440 0.316887826
0.310562640 0.288298190 0.319544405
0.378241450 0.290954918 0.327007800
0.501328111 0.316761732 0.359392554
0.668437839 0.352561533 0.402656734
0.853763223 0.411385268 0.457052648
0.213915005 0.349399000 0.317140996
0.231119365 0.349778533 0.326754987
0.283617973 0.362808287 0.332827359
0.363567203 0.390133023 0.353953242
0.444149196 0.404933572 0.369639188
0.542567849 0.418848455 0.380645394
0.694623590 0.459582388 0.414927185
0.876407623 0.519924343 0.474003971
0.278431535 0.505882442 0.376723260
0.299304098 0.509677231 0.383681148
0.351296842 0.512586772 0.384946108
0.419481426 0.524731457 0.394433826
0.495129436 0.530170679 0.398735195
0.585705280 0.530929685 0.400505930
0.742694259 0.587982476 0.439215779
0.900442600 0.640480816 0.500569284
0.384313643 0.688298523 0.451233447
0.409487456 0.692220151 0.456925899
0.443010539 0.695509195 0.451866090
0.501960635 0.697786272 0.456420273
0.584946215 0.704111278 0.457938254
0.679190218 0.705249786 0.465022475
0.782163143 0.714104772 0.469576359
0.918279350 0.761163831 0.529032171
0.552940786 0.882605970 0.567109168
0.567235529 0.885135531 0.564705729
0.591144562 0.886147738 0.568880558
0.644528747 0.888425171 0.570524573
0.709045172 0.889563560 0.577862203
0.785578728 0.895761907 0.586969972
0.872359276 0.896520972 0.590385795
0.960910738 0.903858542 0.597596288
0.164326474 0.103731737 0.518406212
0.209614068 0.105628990 0.518026650
0.288298726 0.111574732 0.506767750
0.375331998 0.109550990 0.500822186
0.463883907 0.118026547 0.482352972
0.549905241 0.121441990 0.471600175
0.695002973 0.131562278 0.492852747
0.879696310 0.185831621 0.545603514
0.172928482 0.159266546 0.488425285
0.209740475 0.163314551 0.486400843
0.279063910 0.166856080 0.485642105
0.360278100 0.160531282 0.471853375
0.445161372 0.161796361 0.461733341
0.531435430 0.165591553 0.452751398
0.681846559 0.171157539 0.482353002
0.868185043 0.218722329 0.539278805
0.194560438 0.248197079 0.466919810
0.229727909 0.244528711 0.473877192
0.281340837 0.243137434 0.461733460
0.356482923 0.239974633 0.461480021
0.441872120 0.239974633 0.448956013
0.529411793 0.237697735 0.448450446
0.682226181 0.261606574 0.489183843
0.868058264 0.317520648 0.545097768
0.219101891 0.321062624 0.452118963
0.249335825 0.323213369 0.452625096
0.297659814 0.324351728 0.443263829
0.362934649 0.320809454 0.436938733
0.438836336 0.323213160 0.444528669
0.523339748 0.319797635 0.440227807
0.683111906 0.360784441 0.489816517
0.868564367 0.427450955 0.550284445
0.250853747 0.407084167 0.454016477
0.269196451 0.409614086 0.447944194
0.318152815 0.411385000 0.446300000
0.388614714 0.420872718 0.454016477
0.477165908 0.430613369 0.461733162
0.573434353 0.437191814 0.468437880
0.709803939 0.481340647 0.508791745
0.870841444 0.546362817 0.573054910
0.293484986 0.510689199 0.452245712
0.314231485 0.516888082 0.462618440
0.359012902 0.523213089 0.465781450
0.438077003 0.533459783 0.481846720
0.549652159 0.567995131 0.507779896
0.644149244 0.581404269 0.526628733
0.754206300 0.606198728 0.553573430
0.894496977 0.663504303 0.605186522
0.395698547 0.690575600 0.534977973
0.424288213 0.690954983 0.530170918
0.467425704 0.690828443 0.533712506
0.534471631 0.698418558 0.552055359
0.617457032 0.705882072 0.570398450
0.690196276 0.712207258 0.565844476
0.781783640 0.718658984 0.574446380
0.919165015 0.770524681 0.630866408
0.591524482 0.877545714 0.649588585
0.605186343 0.880202293 0.656167209
0.630992889 0.874256849 0.657558441
0.675774634 0.880961478 0.668184757
0.717394173 0.880708158 0.665274858
0.787476420 0.885515451 0.669196606
0.869576514 0.895256042 0.680961549
0.950790763 0.901834309 0.687665701
0.234914273 0.150916994 0.692346215
0.275774807 0.150284573 0.688171864
0.349399388 0.153320372 0.684503436
0.446299553 0.153699934 0.678431153
0.556862712 0.154079467 0.667172551
0.658443689 0.148640275 0.658064365
0.770398557 0.150916994 0.648197532
0.892725587 0.192536458 0.651612639
0.239468262 0.197596729 0.665275037
0.273750544 0.203289121 0.675268829
0.344592184 0.203289121 0.667299271
0.437317908 0.196584195 0.661353946
0.541049719 0.201265082 0.656672835
0.649968266 0.195572570 0.645920336
0.758507073 0.197976276 0.635167360
0.882985413 0.237950787 0.652118921
0.255028576 0.289057583 0.658696949
0.292726278 0.292852670 0.667805016
0.354206353 0.289563686 0.652245224
0.445034713 0.288804561 0.647058964
0.546616077 0.288045466 0.646805644
0.643263757 0.284883112 0.638077378
0.750916958 0.287792653 0.631752014
0.886274338 0.330676734 0.652118623
0.287792534 0.387476265 0.641492903
0.312586725 0.389120549 0.636179805
0.368627280 0.388108552 0.632258058
0.451866299 0.388108552 0.632511139
0.546362936 0.386464536 0.627450883
0.643896282 0.388488114 0.625300586
0.745097876 0.390385866 0.620240211
0.882099986 0.439215571 0.660594881
0.319291562 0.490955174 0.629601657
0.350790381 0.493358582 0.629854500
0.402277172 0.493232250 0.626185775
0.474889100 0.496774077 0.628336251
0.551170409 0.492346436 0.616951406
0.648070753 0.495888889 0.622643769
0.745350897 0.500822484 0.623908877
0.879822850 0.558507264 0.667679012
0.372549295 0.603289187 0.626185834
0.395446002 0.602909684 0.633776307
0.439342171 0.602150500 0.633396626
0.508665502 0.603036165 0.633269787
0.596331179 0.614547729 0.638962567
0.685389221 0.622896731 0.642631054
0.773940325 0.630740285 0.656040728
0.897279859 0.686147928 0.704237938
0.422390819 0.705376267 0.637065113
0.434535295 0.699177504 0.632511139
0.479696274 0.702466547 0.639595449
0.541682601 0.705882192 0.636432528
0.628969252 0.717394233 0.653004348
0.730170548 0.738646269 0.680075824
0.820113599 0.757368565 0.698545575
0.919671237 0.788614869 0.742314935
0.598482132 0.877166569 0.729917884
0.616445363 0.874256909 0.733839393
0.641618967 0.875395179 0.737381279
0.688677728 0.878684342 0.744338632
0.744465172 0.885135889 0.750663757
0.809487939 0.889943004 0.769639492
0.873751044 0.890448809 0.776470721
0.949904978 0.896647751 0.781783700
0.315369934 0.231751785 0.867172599
0.347248524 0.238709480 0.865907729
0.413915008 0.246173605 0.859455764
0.503099084 0.248450607 0.855534434
0.616698205 0.255787432 0.855154574
0.726502299 0.265022337 0.849715471
0.841239512 0.286274552 0.845793545
0.956103742 0.308032542 0.838456750
0.317267478 0.283618003 0.849462271
0.354332626 0.285389304 0.855913877
0.418722123 0.286400855 0.856420040
0.511574984 0.289943308 0.846805930
0.614674330 0.298165470 0.849209249
0.728526473 0.306388199 0.842377961
0.843263805 0.326249152 0.844908416
0.942441642 0.347880810 0.836559057
0.365085512 0.375964671 0.841113567
0.392030358 0.381404191 0.845667481
0.442631066 0.381657124 0.846805811
0.529664814 0.382795572 0.846552551
0.626438916 0.388614804 0.841239393
0.731815279 0.396963686 0.837697625
0.842757761 0.410120070 0.838077128
0.950157702 0.424920946 0.835294187
0.421758056 0.491334438 0.839215755
0.441492766 0.494370401 0.834914327
0.486400962 0.495382249 0.834788382
0.559519231 0.496900439 0.836053252
0.641113400 0.497027218 0.832257807
0.740670383 0.502087235 0.828336596
0.838583410 0.508285582 0.829727948
0.940417469 0.513851881 0.825553417
0.479316771 0.595825315 0.832890451
0.491081595 0.601517975 0.833776295
0.532320917 0.603415608 0.830107450
0.595193028 0.607210457 0.831499100
0.664515972 0.604553938 0.828209519
0.748007596 0.609234333 0.830360115
0.840733945 0.611131787 0.823655665
0.932827353 0.614167750 0.828589439
0.516128838 0.701834261 0.838077307
0.535483956 0.699936509 0.838203728
0.568500936 0.704237759 0.831625521
0.628210306 0.704996884 0.830992877
0.694370627 0.709171355 0.832257748
0.769259691 0.710436344 0.827197790
0.849082649 0.713978171 0.827198088
0.930044413 0.715622544 0.827450633
0.566097021 0.800252616 0.841366053
0.579380035 0.800252557 0.835546792
0.607210636 0.795192838 0.831372440
0.657811224 0.799114227 0.836559296
0.718405962 0.799493670 0.830360174
0.787476420 0.806451797 0.833523035
0.857938230 0.813915312 0.836179852
0.935230613 0.818090081 0.840227902
0.616445243 0.893484592 0.841239393
0.624161720 0.899936616 0.845161378
0.653383791 0.896014929 0.848323822
0.693991065 0.890954912 0.842378080
0.749398947 0.890575349 0.846173227
0.814547598 0.896014929 0.850094795
0.883491457 0.902466595 0.869196594
0.942694843 0.922074616 0.892093599
