Assets/Shaders/EldamarStudio/100 Sci-Fi LUTs Pack/LUTs/cube/Frumnild LUT.cube
LUT_3D_SIZE 5
DOMAIN_MIN 0.000000 0.000000 0.000000
DOMAIN_MAX 0.903226 0.903226 0.903226
0.180391997 0.125489995 0.125489995
0.201644719 0.146742716 0.146742716
0.256926417 0.179126993 0.183681414
0.359013259 0.240354121 0.232511118
0.546995640 0.340164781 0.327134639
0.184313998 0.196457699 0.166350290
0.203288987 0.205945417 0.179759994
0.266413718 0.240606979 0.213788569
0.369512826 0.295256257 0.265148878
0.557748497 0.387223393 0.346362919
0.211132422 0.338013560 0.256293833
0.233396411 0.346236676 0.268437684
0.298798412 0.370778233 0.292978972
0.413662136 0.415559560 0.333839118
0.597849667 0.496394366 0.421885043
0.306135237 0.541429281 0.394433975
0.331941694 0.555597544 0.404553950
0.397722960 0.566982985 0.425173819
0.497407109 0.591524124 0.458191127
0.669449925 0.660215080 0.548766792
0.558760583 0.788741589 0.639721572
0.578747451 0.798228860 0.646552742
0.632004619 0.803035915 0.659962177
0.705249727 0.819101691 0.687792420
0.801897526 0.842378497 0.732700586
0.178115278 0.134977713 0.158507288
0.200000003 0.144465432 0.167362422
0.254016697 0.194180578 0.200758994
0.349525541 0.261480421 0.269702882
0.537381470 0.348893106 0.344971538
0.184313998 0.194180980 0.186337993
0.208855271 0.209866986 0.200379699
0.258570731 0.246173695 0.232763991
0.359645844 0.302087426 0.279823005
0.546868742 0.392409801 0.366982639
0.212397009 0.336369276 0.274256676
0.242884278 0.343580097 0.287033409
0.298165828 0.368121386 0.308665425
0.405819088 0.414927125 0.347880989
0.586717248 0.502339959 0.437318057
0.301201701 0.535610259 0.404554129
0.329411715 0.546109855 0.417583674
0.395066410 0.560784280 0.433649689
0.495762408 0.589247286 0.465654820
0.661986113 0.654648781 0.555344641
0.552182198 0.786717057 0.637191594
0.572801828 0.791650891 0.646932423
0.621125877 0.796204746 0.660847485
0.698671579 0.813915253 0.688045800
0.800885439 0.840733647 0.727893591
0.177103415 0.149020001 0.211132422
0.197723120 0.159519002 0.220619693
0.245161414 0.198102415 0.243896410
0.347880960 0.269070297 0.302466869
0.531182647 0.361036956 0.387855530
0.192789420 0.214801118 0.236053407
0.207843006 0.219987288 0.246173680
0.256925970 0.254016697 0.271979988
0.356736541 0.311575145 0.323339701
0.543959260 0.403542221 0.412397116
0.220366567 0.340670377 0.317773789
0.240227699 0.356356829 0.329537958
0.302719563 0.382542372 0.347880960
0.405819118 0.421125650 0.385199398
0.591397703 0.506894231 0.476154596
0.305756122 0.540544093 0.443137109
0.332194984 0.549651980 0.456166953
0.393421710 0.561416745 0.470208794
0.493485123 0.587603092 0.498039126
0.662238955 0.661227226 0.583428204
0.542441189 0.780139148 0.667172670
0.564705968 0.784060597 0.659329593
0.611638010 0.797217071 0.671727061
0.696394503 0.810625911 0.699936569
0.803288758 0.841113627 0.754332840
0.179380134 0.166730002 0.309045136
0.201011702 0.184693128 0.317520529
0.255660981 0.220366985 0.331562251
0.346363127 0.270714998 0.361037254
0.540037930 0.368880659 0.465401947
0.193421587 0.236938700 0.320683151
0.213409290 0.244149283 0.332194984
0.266413718 0.270714819 0.349525541
0.365338534 0.322706729 0.389753252
0.551549613 0.411385238 0.479443401
0.215054005 0.356736273 0.389120668
0.245161161 0.373055100 0.401897550
0.309297562 0.399873525 0.421505094
0.420240134 0.436559111 0.459202826
0.595572352 0.516381919 0.543200552
0.320809126 0.548387170 0.514105260
0.348513424 0.561417103 0.520177126
0.413409233 0.581657112 0.537254691
0.516129255 0.605313063 0.564073145
0.675395072 0.665781260 0.635800064
0.548007607 0.788108766 0.704743922
0.569892406 0.790385723 0.699430704
0.607716322 0.798228920 0.709677219
0.691207886 0.818216622 0.729917765
0.808222532 0.848576725 0.779126942
0.139785007 0.222390980 0.523465931
0.196078584 0.230866820 0.523465931
0.299683779 0.265527964 0.535990000
0.435167640 0.324730963 0.559519410
0.608602226 0.404300809 0.609867454
0.155724317 0.283238381 0.527514398
0.205945402 0.287792653 0.532574415
0.306767553 0.319544673 0.549398899
0.446552664 0.368500680 0.572548985
0.613788426 0.449462622 0.615559578
0.180898443 0.416065812 0.561923027
0.225427002 0.416571826 0.567995012
0.332320958 0.440227389 0.584946454
0.480961204 0.478810787 0.612017512
0.651739419 0.548133731 0.658190727
0.327767253 0.610373199 0.652245641
0.348387122 0.606704712 0.649082780
0.420999110 0.613535643 0.658064604
0.546869159 0.638583124 0.681593776
0.716761768 0.689310610 0.731056094
0.567994595 0.812397420 0.758633733
0.584819496 0.806451380 0.775458455
0.630107164 0.818848670 0.779632747
0.723592520 0.843643665 0.812017858
0.843896210 0.875142395 0.846426606
