Assets/Shaders/EldamarStudio/100 Sci-Fi LUTs Pack/LUTs/cube/Frumnild LUT.cube
LUT_3D_SIZE 8
DOMAIN_MIN 0.000000 0.000000 0.000000
DOMAIN_MAX 0.903226 0.903226 0.903226
0.180391997 0.125489995 0.125489995
0.185073003 0.126249000 0.138014004
0.206198901 0.149778903 0.150537997
0.238709643 0.164199650 0.172042638
0.275774986 0.195825189 0.196711197
0.338772744 0.229221731 0.223402992
0.424415261 0.281973273 0.271853000
0.546995640 0.340164781 0.327134639
0.183934450 0.146615997 0.138393551
0.181910008 0.150538012 0.142694101
0.206198901 0.166224003 0.162302002
0.241493002 0.187729552 0.185452357
0.282985181 0.213535741 0.202277198
0.342061728 0.247944549 0.231119469
0.421758533 0.292599529 0.274889290
0.534598589 0.350790650 0.322960109
0.185831994 0.210120097 0.172422096
0.200758994 0.216319099 0.179886460
0.212397188 0.224161997 0.188867986
0.250095099 0.240227729 0.204174638
0.292346776 0.264895976 0.225680187
0.354079485 0.293738067 0.262112737
0.441745549 0.342315078 0.298545301
0.561290562 0.400126547 0.353953063
0.199493647 0.290954918 0.220872998
0.211638108 0.294497192 0.219987184
0.229221731 0.298419088 0.242504641
0.265655011 0.313345999 0.252751648
0.309803605 0.333712965 0.274257004
0.371157467 0.361416608 0.296141893
0.458697259 0.398608267 0.333586276
0.578494608 0.457685083 0.396710634
0.225679994 0.387097180 0.281214178
0.243137196 0.393674731 0.293105990
0.258570164 0.397217095 0.299304187
0.291461200 0.405060202 0.311068982
0.341555983 0.417584181 0.323718995
0.413914919 0.451233387 0.355977148
0.498798370 0.484883010 0.390891880
0.608855009 0.540037811 0.444149375
0.289942980 0.519164741 0.376217484
0.294750005 0.521947980 0.379000753
0.324604720 0.526502192 0.387602746
0.354712278 0.534598231 0.396837652
0.407210648 0.543706477 0.412903190
0.464010209 0.558127761 0.428842753
0.551423013 0.588488519 0.465654731
0.658064365 0.638203561 0.529285431
0.383554548 0.643010557 0.477039993
0.396078557 0.648197293 0.492093563
0.417836666 0.654775560 0.492473155
0.453004628 0.660341263 0.507906616
0.493864655 0.665781498 0.514358222
0.550916970 0.675268888 0.535862982
0.612270534 0.690069556 0.562934816
0.701202035 0.723339438 0.604427218
0.558760583 0.788741589 0.639721572
0.572169304 0.791271627 0.641492367
0.587096691 0.800505579 0.648323655
0.613282740 0.801770747 0.653889835
0.649715602 0.806071937 0.664515734
0.693105400 0.816571653 0.683491528
0.742188513 0.824920893 0.701454878
0.801897526 0.842378497 0.732700586
0.183934450 0.126249000 0.138393551
0.184313998 0.126628548 0.138014004
0.212903455 0.150158450 0.161922544
0.232005000 0.174825996 0.175205544
0.275901198 0.205313206 0.203036189
0.330170542 0.242125288 0.236306444
0.411511511 0.287919015 0.271094292
0.531562328 0.342441350 0.324225277
0.183934450 0.146995544 0.150917456
0.188614547 0.158381000 0.146616012
0.208981559 0.171663195 0.166983008
0.231246099 0.191271201 0.187350005
0.275142193 0.220240086 0.212903455
0.335357279 0.257811278 0.240607083
0.422011584 0.302340269 0.284756571
0.544844568 0.361796051 0.339025766
0.193295449 0.208096460 0.180645451
0.205060452 0.212776646 0.191650644
0.215180546 0.221378639 0.200252637
0.249335989 0.240607187 0.217963189
0.286400735 0.269196630 0.234661639
0.346363097 0.294244468 0.263251185
0.427071691 0.340290815 0.302340120
0.552814543 0.394307315 0.356735915
0.201897651 0.280329168 0.235420540
0.210120007 0.288677812 0.238203987
0.230487078 0.294876724 0.240860537
0.257685184 0.306641519 0.250980556
0.303099185 0.328905374 0.276154548
0.370525062 0.363061428 0.304870278
0.457684934 0.404933363 0.341049910
0.581024349 0.464010179 0.403794914
0.220999196 0.383934200 0.280455381
0.228715986 0.381909937 0.289057195
0.253131002 0.390512645 0.301707983
0.287918717 0.401517749 0.312207639
0.337254822 0.414421171 0.325743437
0.401644558 0.444908202 0.350031495
0.495509237 0.483997375 0.395572484
0.608728766 0.538266659 0.454522282
0.278937489 0.511195719 0.370525181
0.289436728 0.515496314 0.376723468
0.312839895 0.517393827 0.385705024
0.350410938 0.527134478 0.393169194
0.401644439 0.538519800 0.410752803
0.456420243 0.552561879 0.431119502
0.547881007 0.582036555 0.468690991
0.647691250 0.634282351 0.527640820
0.376597077 0.637191832 0.478431553
0.392410010 0.639974535 0.489942998
0.410120100 0.647058547 0.487033486
0.444402277 0.650980532 0.499810219
0.489943266 0.660215139 0.514484286
0.549525738 0.670335591 0.536622107
0.621884823 0.695888758 0.568753958
0.707779825 0.726881504 0.615180492
0.555850685 0.786084771 0.644402206
0.566097438 0.794813216 0.635926664
0.583428144 0.791651070 0.646299839
0.608981371 0.796710730 0.654269397
0.640607178 0.804807007 0.665148675
0.685515583 0.808728516 0.682732522
0.741302848 0.824035585 0.703099489
0.801011801 0.841113567 0.730676711
0.181151092 0.138013899 0.163061097
0.184693456 0.141555548 0.166603550
0.201517999 0.150537997 0.179506987
0.229601189 0.179127440 0.189627096
0.274383098 0.214800999 0.225047186
0.333839089 0.253890067 0.258570462
0.414294571 0.296900779 0.292979002
0.536369622 0.349398971 0.346236557
0.176470906 0.155977085 0.163061097
0.188614547 0.155977085 0.167741999
0.209361002 0.175205544 0.180265993
0.238709539 0.200252652 0.204933643
0.271979898 0.226438999 0.224541530
0.332953990 0.269576281 0.260088444
0.417204350 0.310942382 0.303478718
0.540164351 0.365085363 0.352688283
0.185831994 0.211638093 0.203035995
0.204301447 0.216318995 0.211258546
0.217963085 0.228842095 0.217837006
0.239847988 0.246046990 0.227577627
0.286021382 0.271980077 0.254649192
0.345477372 0.305629104 0.284882724
0.427577555 0.346236467 0.321947992
0.549145818 0.402782857 0.381151140
0.209361091 0.285515547 0.249968201
0.214421451 0.289436728 0.248703539
0.232005090 0.301581204 0.259708852
0.258949637 0.310562640 0.270208955
0.301201820 0.335231066 0.289057374
0.365338624 0.364959002 0.314863890
0.460088521 0.408096284 0.356862813
0.579380095 0.466034442 0.415433109
0.238329992 0.379253179 0.310310096
0.237191543 0.381404281 0.305629283
0.257052183 0.394054353 0.316508412
0.289563626 0.401897401 0.323212862
0.335357279 0.415180355 0.338393241
0.401391655 0.448450536 0.365844190
0.497153640 0.488678068 0.407210499
0.607336879 0.543074071 0.474256694
0.288551658 0.511321723 0.389626831
0.292472839 0.516128957 0.394433737
0.315749377 0.517773330 0.399873644
0.352055639 0.523719072 0.406071842
0.398987919 0.536242962 0.417457372
0.458064467 0.552308500 0.439342380
0.543453574 0.581151485 0.480455458
0.646046638 0.632890403 0.540417612
0.380265564 0.637318611 0.493991375
0.391524464 0.635167599 0.498798192
0.412650079 0.641492724 0.497406453
0.444275826 0.647312045 0.511827886
0.492220372 0.660974264 0.526249349
0.553067863 0.673497736 0.548766553
0.618595719 0.693105400 0.580265343
0.709044814 0.733713031 0.622011244
0.542567849 0.782921851 0.640480697
0.561290503 0.783680975 0.642251432
0.573054850 0.790891886 0.649715364
0.604554176 0.794813454 0.658190787
0.639848113 0.799493968 0.665654719
0.680961549 0.807590008 0.681214392
0.734977663 0.821631789 0.708538771
0.800632358 0.840986550 0.729411840
0.180391997 0.140670642 0.196711004
0.183048546 0.148260906 0.202656552
0.205440000 0.158760458 0.208096445
0.232511356 0.182668999 0.219101638
0.279443622 0.218721986 0.249968201
0.331941634 0.253383815 0.277419388
0.411511630 0.296521366 0.317267597
0.532827199 0.358380824 0.380518436
0.183428094 0.170145094 0.200252652
0.193295360 0.171663195 0.209361091
0.208981559 0.183807552 0.211638093
0.231246099 0.204554096 0.231625646
0.273877531 0.230739743 0.255787551
0.332953990 0.267552525 0.283111721
0.421631902 0.315243632 0.330423564
0.542567909 0.372422725 0.379633248
0.192915902 0.217583641 0.220240086
0.201897562 0.221758187 0.233143643
0.226312444 0.236686081 0.244908541
0.247311741 0.253131092 0.260214984
0.283618182 0.282100171 0.282859087
0.347122073 0.310310125 0.311195374
0.431625396 0.356862724 0.348260641
0.549525499 0.412397027 0.401012152
0.206704646 0.292599648 0.275774986
0.217204109 0.300822198 0.283238560
0.238709643 0.312207639 0.288677633
0.261226892 0.322327644 0.293738306
0.307526618 0.336369425 0.316128820
0.368121356 0.370524883 0.345477462
0.455281615 0.414294571 0.383428216
0.576344132 0.469955444 0.440986663
0.234408990 0.391018182 0.333965808
0.241745621 0.390892118 0.333713084
0.263757437 0.402024001 0.340417534
0.294623971 0.409740567 0.350158185
0.341555983 0.426185995 0.365464717
0.406831026 0.453637183 0.388488382
0.493485034 0.493485272 0.430234104
0.608602226 0.548513710 0.494876564
0.286021471 0.513219476 0.411764741
0.303984791 0.514737308 0.418089747
0.325110406 0.520556748 0.421884835
0.355977118 0.525996089 0.427704006
0.405312926 0.540543973 0.444908351
0.462112457 0.556230426 0.462112486
0.544971228 0.586717248 0.497026801
0.646805704 0.637571454 0.558001280
0.386970192 0.638583183 0.515749574
0.398102641 0.644908488 0.517267644
0.411385089 0.646299541 0.514864028
0.445793927 0.654143274 0.527513921
0.493485034 0.660594940 0.541429102
0.550158024 0.673118234 0.559772432
0.621378839 0.700189531 0.592662811
0.714357793 0.735610545 0.640734017
0.545603573 0.784819603 0.657937944
0.556230247 0.787096858 0.645414352
0.574067056 0.793042421 0.657684743
0.602403462 0.797849476 0.667299151
0.632764161 0.802023768 0.673371613
0.684123814 0.808222353 0.686653793
0.739784718 0.820872784 0.713219285
0.806071937 0.839974940 0.744591773
0.174952805 0.148133993 0.238329992
0.186211348 0.154838651 0.246172994
0.207843199 0.165338188 0.248576805
0.231625453 0.189247444 0.254269630
0.268816978 0.220240176 0.274889350
0.331435800 0.260088265 0.309803724
0.415812761 0.304743797 0.345351070
0.532321393 0.362555146 0.406198412
0.197723016 0.179506794 0.240860537
0.191777363 0.186590999 0.243390545
0.206578344 0.195951998 0.245920286
0.235294014 0.215559900 0.263377994
0.267931968 0.234281987 0.278178394
0.334977716 0.272991717 0.313345999
0.420872808 0.320809633 0.364199996
0.538899481 0.377103001 0.416824669
0.202529907 0.228842288 0.261859983
0.205440000 0.237824440 0.270714700
0.216318995 0.246047080 0.273371160
0.247817814 0.255407989 0.286021262
0.288425207 0.284503192 0.308032990
0.344212532 0.317267388 0.334092438
0.432258278 0.361922890 0.375964344
0.549145818 0.417710006 0.438456535
0.204047844 0.299304277 0.306388170
0.221125990 0.303099275 0.304237723
0.237444997 0.320430189 0.323212832
0.272232801 0.337254822 0.337254822
0.314863980 0.355597377 0.358760178
0.377482533 0.383807570 0.379886180
0.461227149 0.423023164 0.418595821
0.578620911 0.475774795 0.471726775
0.235041186 0.396458000 0.364199966
0.252877712 0.407083750 0.374952525
0.270335168 0.416066170 0.376849979
0.305123419 0.426185995 0.385452151
0.353320360 0.438709378 0.401897192
0.413155913 0.462998390 0.425679713
0.499557257 0.498924464 0.466793388
0.607843161 0.549652338 0.513219297
0.302846253 0.523086727 0.450474173
0.309424400 0.524477959 0.449335724
0.326502174 0.529917955 0.454269469
0.361543447 0.535483956 0.459076285
0.409234911 0.544085920 0.475901425
0.467931718 0.560910463 0.493231922
0.552561700 0.594560266 0.528779507
0.652371824 0.639089227 0.574952483
0.389753282 0.639974713 0.534218490
0.396584630 0.643263698 0.539658487
0.414294571 0.648576677 0.545983493
0.444655538 0.656040728 0.551802635
0.494750470 0.664263487 0.566223621
0.551549911 0.678178549 0.584187210
0.622264326 0.699430764 0.609993458
0.717140675 0.738266826 0.657432020
0.541429579 0.780897915 0.662997961
0.548893154 0.788867831 0.666540146
0.562302232 0.789120853 0.669955969
0.596457839 0.798735082 0.678557754
0.634028971 0.800632417 0.686274469
0.685388923 0.811131954 0.707147300
0.743706286 0.824414968 0.726249039
0.804806769 0.844275832 0.751296401
0.178368255 0.160658002 0.291840732
0.186590806 0.168880552 0.295256197
0.206578359 0.184946090 0.302340090
0.235167906 0.204174742 0.307020873
0.276660383 0.230360463 0.320809543
0.327134728 0.256546736 0.342820704
0.416192293 0.309044749 0.389627010
0.537001729 0.368121564 0.451739550
0.184693456 0.192536354 0.287413001
0.190891743 0.193927541 0.298544973
0.211385354 0.208096355 0.300063163
0.236685902 0.225300640 0.309930533
0.278178394 0.244781718 0.327893734
0.334851712 0.280834734 0.350917190
0.425174177 0.326628357 0.399494052
0.551296473 0.389753312 0.458064467
0.199747264 0.250601083 0.316128761
0.205819458 0.249841988 0.314357907
0.220746443 0.253257722 0.327387571
0.244908437 0.269955724 0.330170751
0.285515636 0.289563626 0.344338834
0.345856726 0.321189076 0.374320090
0.439342171 0.363820344 0.418468982
0.556356788 0.424035579 0.478431463
0.214042008 0.312207639 0.348133802
0.220240280 0.317267269 0.346869379
0.240733907 0.326628476 0.359392464
0.268311620 0.342441291 0.370145619
0.317267358 0.361164004 0.390385807
0.379506618 0.388994545 0.418722659
0.467046291 0.430107474 0.460594386
0.587223411 0.486780703 0.521568656
0.232890800 0.403794914 0.396458179
0.244781747 0.402909726 0.406451583
0.269196838 0.418722540 0.416825145
0.311827987 0.434408724 0.433270186
0.366223723 0.457811803 0.449968636
0.422897160 0.477040172 0.477040172
0.511322021 0.513472617 0.508159459
0.617330790 0.559392691 0.557242095
0.299557239 0.521062493 0.481720477
0.306767523 0.526122570 0.477040172
0.335610658 0.536622465 0.493864715
0.371663630 0.547501385 0.505629718
0.413155913 0.555850923 0.509171486
0.473624438 0.569892764 0.528652489
0.557115734 0.598861694 0.561164021
0.659708858 0.639468729 0.604174733
0.400379539 0.647564530 0.567489028
0.405439258 0.645034790 0.573308289
0.425933272 0.652498305 0.575711489
0.453130543 0.659076512 0.585452199
0.500063241 0.672106326 0.596837282
0.559392989 0.685768545 0.612776756
0.634028852 0.708032846 0.642504990
0.731562376 0.746110082 0.686780512
0.538393497 0.785325706 0.697659492
0.553700149 0.788994372 0.686148107
0.565338194 0.786337614 0.690575600
0.586337686 0.795445859 0.695761979
0.623782516 0.802150488 0.702466846
0.676786840 0.812144458 0.718026578
0.741049707 0.829474926 0.745098054
0.804174662 0.847058833 0.773560703
0.170271710 0.188868001 0.381277263
0.180771545 0.192916006 0.378621012
0.206957802 0.207590193 0.385958374
0.245414302 0.223655924 0.392410278
0.292220086 0.251486480 0.400885284
0.349019438 0.282732487 0.417710006
0.434534967 0.317267299 0.452498257
0.551043332 0.375079244 0.504743814
0.177102998 0.217710093 0.386211276
0.186211288 0.223402783 0.378241360
0.208602294 0.230740011 0.389120847
0.249209180 0.248323888 0.395698994
0.299177915 0.266793430 0.411764652
0.365212023 0.301707804 0.433776081
0.448829830 0.338646710 0.460468292
0.560784280 0.395319641 0.513725162
0.187602997 0.265654892 0.394433558
0.198481992 0.269070357 0.394180804
0.219481081 0.278937101 0.398482084
0.261353731 0.293738276 0.409740627
0.307020903 0.312586963 0.423529446
0.368627250 0.336748958 0.445920110
0.459329367 0.374320060 0.477545828
0.564959049 0.432258159 0.527387857
0.204554290 0.339152277 0.428336263
0.216065541 0.339531720 0.425300479
0.238330096 0.346995264 0.431878716
0.274130255 0.358760267 0.441239625
0.332954079 0.377609104 0.459961921
0.399746895 0.399493992 0.478431433
0.493358552 0.445667267 0.515243232
0.598228812 0.494370461 0.566097677
0.230360284 0.429095387 0.464769363
0.242378637 0.429348201 0.478431165
0.265401483 0.437824398 0.477419376
0.304490805 0.446173549 0.489563376
0.362682164 0.462871343 0.504364252
0.437191904 0.490702003 0.525363445
0.527640641 0.521568716 0.562049448
0.626438916 0.566982925 0.607084095
0.292093277 0.535357296 0.530550063
0.304237753 0.545477629 0.533459723
0.324604630 0.545603871 0.538772762
0.366223752 0.554206192 0.554206073
0.429475218 0.572928667 0.574067175
0.497406900 0.589500189 0.591271281
0.576344252 0.618089736 0.613662004
0.671726823 0.654775262 0.655661166
0.407083988 0.662618577 0.612270534
0.413029820 0.655534506 0.609614253
0.431372464 0.663377643 0.616318583
0.470461547 0.676660538 0.628462911
0.520556569 0.687666178 0.645414352
0.579127014 0.704996526 0.662618577
0.650474250 0.722074568 0.685768247
0.744339049 0.754965544 0.727135003
0.551549613 0.789373755 0.724225163
0.561669886 0.786843896 0.712460518
0.569892168 0.792156637 0.724225163
0.601011813 0.800126195 0.734851241
0.640986800 0.807842970 0.741555929
0.684503496 0.820113599 0.756862998
0.748766422 0.836432636 0.770271778
0.817077756 0.856419981 0.809614360
0.139785007 0.222390980 0.523465931
0.160531461 0.221758083 0.522074580
0.207463741 0.236179724 0.524984121
0.265781105 0.251865625 0.532700598
0.334851354 0.281593829 0.543453455
0.417457372 0.312839717 0.555977225
0.508412242 0.350790352 0.572801828
0.608602226 0.404300809 0.609867454
0.146236345 0.248703241 0.527387798
0.170524538 0.250980526 0.525869310
0.208476007 0.257305712 0.533080161
0.269449890 0.278431445 0.539405346
0.340417355 0.301454663 0.548892975
0.420113623 0.336622447 0.562555492
0.509930313 0.372549266 0.587223053
0.613535881 0.426691979 0.613029599
0.158760116 0.299177885 0.534092426
0.175332159 0.305502772 0.540037870
0.221378818 0.306767821 0.536622465
0.273750812 0.323845923 0.544591725
0.344338983 0.344212443 0.556103826
0.431878507 0.373054802 0.575837791
0.515243173 0.411385179 0.590891600
0.618342698 0.462365806 0.623149574
0.176723719 0.372296005 0.562428772
0.189880013 0.371283889 0.559519291
0.227957264 0.378241658 0.559519470
0.290322632 0.392662793 0.566350222
0.365970999 0.413788587 0.580898166
0.446805626 0.439974636 0.594433904
0.540543854 0.472232431 0.614168346
0.641366243 0.517267764 0.647564650
0.216192186 0.464769006 0.585198939
0.222897232 0.467931718 0.590132594
0.251613110 0.464389473 0.584313750
0.307400644 0.475648195 0.592789114
0.387728989 0.490701824 0.604174793
0.467425674 0.515496492 0.624288499
0.564706028 0.544338942 0.645034611
0.664009929 0.588867605 0.675395429
0.297406465 0.579253554 0.630740225
0.302213788 0.577356279 0.628969014
0.327893853 0.580645144 0.633649349
0.368753970 0.580645204 0.638836324
0.430613667 0.586590588 0.649588764
0.507653236 0.604680479 0.662112713
0.603542149 0.629601538 0.685515285
0.703352273 0.665781558 0.718152881
0.424288362 0.701581359 0.697659433
0.430866718 0.697913051 0.698924482
0.447438449 0.696521103 0.697533309
0.480708063 0.703984678 0.707906425
0.530676544 0.711827636 0.714104891
0.595192969 0.725110829 0.732068419
0.674762845 0.743706405 0.747248530
0.765085280 0.773307800 0.788488448
0.567994595 0.812397420 0.758633733
0.570651412 0.807210565 0.774319530
0.587349653 0.809740603 0.773940265
0.613409281 0.813282788 0.776723564
0.653383493 0.824288309 0.786211550
0.706135213 0.839089334 0.806198299
0.769512892 0.850600839 0.824541330
0.843896210 0.875142395 0.846426606
