Assets/Shaders/EldamarStudio/100 Sci-Fi LUTs Pack/LUTs/cube/Frumnild LUT.cube
DOMAIN_MIN 0 0 0
DOMAIN_MAX 1 1 1
LUT_3D_SIZE 32
0.180391997 0.125489995 0.125489995
0.180391997 0.122454390 0.131561995
0.182542771 0.123719223 0.135483772
0.184313998 0.125489995 0.137254998
0.185073003 0.126249000 0.138014004
0.191145003 0.132321000 0.144086003
0.197217003 0.140923321 0.145098001
0.201644719 0.146742716 0.146742716
0.206198901 0.149778903 0.150537997
0.215306506 0.152814522 0.156609997
0.218595862 0.155850872 0.159772128
0.227703989 0.158886746 0.164831996
0.238709643 0.164199650 0.172042638
0.247818038 0.173054993 0.180645034
0.256926417 0.179126993 0.183681414
0.263630986 0.185198992 0.189120993
0.275774986 0.195825189 0.196711197
0.293358564 0.209107995 0.204554424
0.308539003 0.215180010 0.207590058
0.320936024 0.221251994 0.216192365
0.338772744 0.229221731 0.223402992
0.359013259 0.240354121 0.232511118
0.377356499 0.255407989 0.247564986
0.398608893 0.267552018 0.259709001
0.424415261 0.281973273 0.271853000
0.448956639 0.295761973 0.282605648
0.472233057 0.307906121 0.292219996
0.505629420 0.320050895 0.304363996
0.546995640 0.340164781 0.327134639
0.584187150 0.361417174 0.347880930
0.618469179 0.381783992 0.367868185
0.654901981 0.400000006 0.392156988
0.180391997 0.122454390 0.131561995
0.180391997 0.122454390 0.131561995
0.178241774 0.125870004 0.131182775
0.180771992 0.127261221 0.133712992
0.185831994 0.126628548 0.138393551
0.197217003 0.135357395 0.147122398
0.200759321 0.138899073 0.145604074
0.203036398 0.145351022 0.146742716
0.204680905 0.149020001 0.151296899
0.209234521 0.149778903 0.159645617
0.215433002 0.158633515 0.159898624
0.224668115 0.163946614 0.166856259
0.236812383 0.167994633 0.173940390
0.247818038 0.173560992 0.180897996
0.256926417 0.185198992 0.186717033
0.266034186 0.188867807 0.192156613
0.275774986 0.195825592 0.196710810
0.291587800 0.207337365 0.202783182
0.311574608 0.218216404 0.210626453
0.326754957 0.227071747 0.222011402
0.341049731 0.235294029 0.227577731
0.358001143 0.245414257 0.233523265
0.374446601 0.258444369 0.244402111
0.398608893 0.270588398 0.253637016
0.424415261 0.285009652 0.265781015
0.451739639 0.300189674 0.282099634
0.477798998 0.313472062 0.297786057
0.508665025 0.323086500 0.307400376
0.542062104 0.340544254 0.324857354
0.583428383 0.359645933 0.343073785
0.620619953 0.379633188 0.361796200
0.654901981 0.400000006 0.386085004
0.178241774 0.125870004 0.135483772
0.180391997 0.123719223 0.129032001
0.182542771 0.125870004 0.131182775
0.182036832 0.130676836 0.130676836
0.186464220 0.130549997 0.135863230
0.191524222 0.137887150 0.143200383
0.202530324 0.141935453 0.152941450
0.205566287 0.146615773 0.149905056
0.207590222 0.152688220 0.152688220
0.212017521 0.155471236 0.160404518
0.217962995 0.162049130 0.165085003
0.226059243 0.167109266 0.167109266
0.238077208 0.173054770 0.174825996
0.249968261 0.177609026 0.180645034
0.259076655 0.187855765 0.184819773
0.268184960 0.192789033 0.190891773
0.278810769 0.198861420 0.198481977
0.291587800 0.209234789 0.204048187
0.309803814 0.222897008 0.213156193
0.325490147 0.230107576 0.218596011
0.340670496 0.241113201 0.230739996
0.357874900 0.250474125 0.236559346
0.375585258 0.261606723 0.245793760
0.397849798 0.275775015 0.256925881
0.420114279 0.285895258 0.264010012
0.448829949 0.299683958 0.278937340
0.477419376 0.314610749 0.298418701
0.507779717 0.328652412 0.310815662
0.538646460 0.343579888 0.321441978
0.579127073 0.361796647 0.344971150
0.618469417 0.382669330 0.361669570
0.650601029 0.406451792 0.382163227
0.179000989 0.134471998 0.137254998
0.179506615 0.131435603 0.130676597
0.183807611 0.131435603 0.133965924
0.183048844 0.135737151 0.133206829
0.186843559 0.138772786 0.136622086
0.189500168 0.143959165 0.142694324
0.197090477 0.148766324 0.153826639
0.204301447 0.152182162 0.157748282
0.208855063 0.157495067 0.156988993
0.215433002 0.163060993 0.163060993
0.221504986 0.169133320 0.169133320
0.230866417 0.174446419 0.174446419
0.238836169 0.178621158 0.177482516
0.250474185 0.184440121 0.183427989
0.259582549 0.191524252 0.187476248
0.271220624 0.198355362 0.191650987
0.280581981 0.204427361 0.196711197
0.293358564 0.214168146 0.206451982
0.308539003 0.228715971 0.216192201
0.324984223 0.234282166 0.219734192
0.340164572 0.244149148 0.228463158
0.356357098 0.255281299 0.239595026
0.377356499 0.264516145 0.248703346
0.398608893 0.278557926 0.259709001
0.421126097 0.290449113 0.271094143
0.444023103 0.300948799 0.278937340
0.473877221 0.313598901 0.295635939
0.503478885 0.331055969 0.309297532
0.536369622 0.347880989 0.322959989
0.573055089 0.366097420 0.342694312
0.615053535 0.385199606 0.367362142
0.645793855 0.411765009 0.382921994
0.183934450 0.146615997 0.138393551
0.181657150 0.144338697 0.135736704
0.184313536 0.143453091 0.142315000
0.187602550 0.145224318 0.149146229
0.181910008 0.150538012 0.142694101
0.191018388 0.153573617 0.148766875
0.197976008 0.159519106 0.159519449
0.202024177 0.163567275 0.163440838
0.206198901 0.166224003 0.162302002
0.215306506 0.169259608 0.168374002
0.221504986 0.175205737 0.174446732
0.231245965 0.181657434 0.180898443
0.241493002 0.187729552 0.185452357
0.248071000 0.193548515 0.188740999
0.257305861 0.196584135 0.194812998
0.270461738 0.204806805 0.198481813
0.282985181 0.213535741 0.202277198
0.293358564 0.222896978 0.206072435
0.308539003 0.235041007 0.218216449
0.325742990 0.239215806 0.222770184
0.342061728 0.247944549 0.231119469
0.358633697 0.258697152 0.242631406
0.377229929 0.268058509 0.251865536
0.398988336 0.280455559 0.261226892
0.421758533 0.292599529 0.274889290
0.446805745 0.304743499 0.286148131
0.472359508 0.317393601 0.296774477
0.499683857 0.332573950 0.305882066
0.534598589 0.350790650 0.322960109
0.572422683 0.370398611 0.345351160
0.610499561 0.391271591 0.370777994
0.643895984 0.412524015 0.388994008
0.180898055 0.158760011 0.147501931
0.183934450 0.161796391 0.147501931
0.183807939 0.161669880 0.149146095
0.189879939 0.161669880 0.157495067
0.197090387 0.162681997 0.163946480
0.194053993 0.162681997 0.154838875
0.203162387 0.170778245 0.163440675
0.206831008 0.174446866 0.166476771
0.208855063 0.174952924 0.164958850
0.215306506 0.175332382 0.168374002
0.221504986 0.181277856 0.174446732
0.229601249 0.189373732 0.182542726
0.239215702 0.196837351 0.187729061
0.248071000 0.202656895 0.188740999
0.260214984 0.205692515 0.194812998
0.269449860 0.215938926 0.198481813
0.281087905 0.224541381 0.204554200
0.293358564 0.231752336 0.211385429
0.308539003 0.241113022 0.215180069
0.320936024 0.247691005 0.224541411
0.335989714 0.257052541 0.232637674
0.353194118 0.267172933 0.243263990
0.374193549 0.274130493 0.254901916
0.401517987 0.289310902 0.267045945
0.420999646 0.301707923 0.280961275
0.445793867 0.313851893 0.289184004
0.475648135 0.326501995 0.294244140
0.508791447 0.341682345 0.314990461
0.541429520 0.362175703 0.332067907
0.577103317 0.381150931 0.350284487
0.614041924 0.399873257 0.371789962
0.649967968 0.418595999 0.395065993
0.182922319 0.178494319 0.159140006
0.185958073 0.176470712 0.159140006
0.186843678 0.177356318 0.159140006
0.188108847 0.178621158 0.161796167
0.195319459 0.180265546 0.169006541
0.196584061 0.182416320 0.168500930
0.198608324 0.184946001 0.169513315
0.207716703 0.190765396 0.175331920
0.212650225 0.192410097 0.176343992
0.220493004 0.194181323 0.181150839
0.226565629 0.200000316 0.187096417
0.234661371 0.204048052 0.187096938
0.243769646 0.212143958 0.194180965
0.253131002 0.219607994 0.199114606
0.265275002 0.224920899 0.207463309
0.277419597 0.230360314 0.211132124
0.288172305 0.239215314 0.215686306
0.300316304 0.245287821 0.222517580
0.313599020 0.252498686 0.225553691
0.331056029 0.263883650 0.234155357
0.345097721 0.271853387 0.245161474
0.362302125 0.282353193 0.253890336
0.383680999 0.290195972 0.262871802
0.408602238 0.302972585 0.272612005
0.433649302 0.318152934 0.284756571
0.457937986 0.329158634 0.298292279
0.487286448 0.340670377 0.304870307
0.514611065 0.355850756 0.320050418
0.553067446 0.373813778 0.338646621
0.584693372 0.395066172 0.360404551
0.621379197 0.415812522 0.378367960
0.661100626 0.437318325 0.396077991
0.184313998 0.196457699 0.166350290
0.188994333 0.191777378 0.171283990
0.191523999 0.194180995 0.171283990
0.192789167 0.195446163 0.170019150
0.195066452 0.197722867 0.172295868
0.195572063 0.198228940 0.175331935
0.201897323 0.204554081 0.181657314
0.203288987 0.205945417 0.179759994
0.213915378 0.209740698 0.184313610
0.224794224 0.213662475 0.191270992
0.229348734 0.217963696 0.195698723
0.239089444 0.222011432 0.197343260
0.247058719 0.225047335 0.196584642
0.255661041 0.233143657 0.204680964
0.266413718 0.240606979 0.213788569
0.280202597 0.246679395 0.218089804
0.293864787 0.252751410 0.224162191
0.306767851 0.258823395 0.230360702
0.319924027 0.264895916 0.234408975
0.334345013 0.273245007 0.244655356
0.352308422 0.285136014 0.254016489
0.369512826 0.295256257 0.265148878
0.390891671 0.305123001 0.271979779
0.415180087 0.317267418 0.281087816
0.439468682 0.330043972 0.290828586
0.465148330 0.345224351 0.304364651
0.495256126 0.355344683 0.316761702
0.521821856 0.369386435 0.328905702
0.557748497 0.387223393 0.346362919
0.591903627 0.405565888 0.363187909
0.624921083 0.426818311 0.388361573
0.666666985 0.450347990 0.404300690
0.185831994 0.210120097 0.172422096
0.191903993 0.207084104 0.180771396
0.195066318 0.208096087 0.183427989
0.198861167 0.212903261 0.182163164
0.200758994 0.216319099 0.179886460
0.197343156 0.214421257 0.182922065
0.203668326 0.219228417 0.187223226
0.209361002 0.223403096 0.191903993
0.212397188 0.224161997 0.188867986
0.227577582 0.230233997 0.197975606
0.231878862 0.234155759 0.200505868
0.239468992 0.237191826 0.202277094
0.250095099 0.240227729 0.204174638
0.256673098 0.243517086 0.206957996
0.266287386 0.252118766 0.214547664
0.278684795 0.259582520 0.220366895
0.292346776 0.264895976 0.225680187
0.308159143 0.272232980 0.234788403
0.323466092 0.278557986 0.240986913
0.337381095 0.284630001 0.252625108
0.354079485 0.293738067 0.262112737
0.371790141 0.305123180 0.269702882
0.393042475 0.317267179 0.278810501
0.416698098 0.329411805 0.287918895
0.441745549 0.342315078 0.298545301
0.468184710 0.355091631 0.309677571
0.495509148 0.369765997 0.325364053
0.525616825 0.381909966 0.338014096
0.561290562 0.400126547 0.353953063
0.595698893 0.417583942 0.370398253
0.627956688 0.435926706 0.388361573
0.667425871 0.457179099 0.415686011
0.191903993 0.219228491 0.187602490
0.197975993 0.225300491 0.193674505
0.199746996 0.226565495 0.195572004
0.202403486 0.228083670 0.194307163
0.206830993 0.231499508 0.192030475
0.200758994 0.237571508 0.195066079
0.204933494 0.238203987 0.190512016
0.211131990 0.238583505 0.193295226
0.218469173 0.239342391 0.201012000
0.230613977 0.242378011 0.207084000
0.237065479 0.248449996 0.207463488
0.243010998 0.252371758 0.209614262
0.250474632 0.255408138 0.213662490
0.259709477 0.258697480 0.219101995
0.271853477 0.264769495 0.219102010
0.281467795 0.273371160 0.226692289
0.290828794 0.279316694 0.234029487
0.302087128 0.284376979 0.240860417
0.320303947 0.296520978 0.249968052
0.338393480 0.302845985 0.261733234
0.358254224 0.310815752 0.270082504
0.377356142 0.320050627 0.275268883
0.393042475 0.329411954 0.278810501
0.414294899 0.341555953 0.287918895
0.440227747 0.355977297 0.301581264
0.468817294 0.369639456 0.315116972
0.498545557 0.381909966 0.328399658
0.525869906 0.394053996 0.346616417
0.561290562 0.414167762 0.359266490
0.597722888 0.431751668 0.373434663
0.633902192 0.447944164 0.391271442
0.670461535 0.466287494 0.415686011
0.195066124 0.239974871 0.202782869
0.201138869 0.243136987 0.205945745
0.198608324 0.242757767 0.205565974
0.200885296 0.244528860 0.204806879
0.208222553 0.249209553 0.204933554
0.209740877 0.252751857 0.213029802
0.208728880 0.253763855 0.203415751
0.215686157 0.257052869 0.203162745
0.222264081 0.260341763 0.209487781
0.227957100 0.263377398 0.213408992
0.237192005 0.263503879 0.216571867
0.243263990 0.269575864 0.220619857
0.250474632 0.273497641 0.223403007
0.259835988 0.276786983 0.225932986
0.271979988 0.282858968 0.231245995
0.284123987 0.288930982 0.236052990
0.295256108 0.296014845 0.246173501
0.307020575 0.301707566 0.255028844
0.322960079 0.311574876 0.261859775
0.341176838 0.318152875 0.265401393
0.357495099 0.326122612 0.277166605
0.376723260 0.335231006 0.285262853
0.395951599 0.344339341 0.290322721
0.417204022 0.353699982 0.296647757
0.440733671 0.368121266 0.310310125
0.467425615 0.383301646 0.324098825
0.497280270 0.396457940 0.337254852
0.531815410 0.406198740 0.355471015
0.559139788 0.420999557 0.368374795
0.596584260 0.438203454 0.384060800
0.633269787 0.455154598 0.401264966
0.667678893 0.475395113 0.421505004
0.196078002 0.263250977 0.209867269
0.198102266 0.264262855 0.214927390
0.203668967 0.262998015 0.211638495
0.201391354 0.263757259 0.208602101
0.207843006 0.268690705 0.209361002
0.209234685 0.268437654 0.220113665
0.215812996 0.270967990 0.223656252
0.217457280 0.272612691 0.219734535
0.225806087 0.277546167 0.223150089
0.231372476 0.280581772 0.223656029
0.238203615 0.280708253 0.226691857
0.249336243 0.286780506 0.233776256
0.257685244 0.291713864 0.239848256
0.267172933 0.294750035 0.241366208
0.274003714 0.299051255 0.242124975
0.288171977 0.307147503 0.252245516
0.300315976 0.313219488 0.258317500
0.313092560 0.319291502 0.268184960
0.328272998 0.327008218 0.274257004
0.344212443 0.333333254 0.277546167
0.362429202 0.339405239 0.280581772
0.378747523 0.348387122 0.292346716
0.399114251 0.357621968 0.300569236
0.422264427 0.368627340 0.308538973
0.445793569 0.380265236 0.319417983
0.472865313 0.396837294 0.334598362
0.501834333 0.412144244 0.348893046
0.536748827 0.422770441 0.368627220
0.567236066 0.437191784 0.381530374
0.598102391 0.455914140 0.397217125
0.636179447 0.472485483 0.415433228
0.670714974 0.492599249 0.433649242
0.199493647 0.290954918 0.220872998
0.198355287 0.289816290 0.223529637
0.203794897 0.289943039 0.225553632
0.208602488 0.289563626 0.223023474
0.211638108 0.294497192 0.219987184
0.212396994 0.291460991 0.228336290
0.216571674 0.292346597 0.233143643
0.224667922 0.295382708 0.238709927
0.229221731 0.298419088 0.242504641
0.238330126 0.301454812 0.240607470
0.245667294 0.302719623 0.241113409
0.252371877 0.306514889 0.245920241
0.265655011 0.313345999 0.252751648
0.277799010 0.316634715 0.259076625
0.283491194 0.320556700 0.259582222
0.295002788 0.327261418 0.267425597
0.309803605 0.333712965 0.274257004
0.323212773 0.339784980 0.280961573
0.338899285 0.345857024 0.287539631
0.354079664 0.353067636 0.291967362
0.371157467 0.361416608 0.296141893
0.389373988 0.367488891 0.300189644
0.407969505 0.376470745 0.311954141
0.433270454 0.387602627 0.321062535
0.458697259 0.398608267 0.333586276
0.483491302 0.411258310 0.344844639
0.513852119 0.428969055 0.361037076
0.546616077 0.441745639 0.382289410
0.578494608 0.457685083 0.396710634
0.608349085 0.476407140 0.414674044
0.645287752 0.496774167 0.433776230
0.682479620 0.514990270 0.452245265
0.208096042 0.322833955 0.244149059
0.205313385 0.319544613 0.241619378
0.210373223 0.320809782 0.244782031
0.217204124 0.324351907 0.249335915
0.220746487 0.326881588 0.252118558
0.223782092 0.323845953 0.249082938
0.223782033 0.323340029 0.249082997
0.228968695 0.324984312 0.251107037
0.237824053 0.328273088 0.257179052
0.246932447 0.331309497 0.263251036
0.256040812 0.334092140 0.261100829
0.261353731 0.337128282 0.261859715
0.268437624 0.340164393 0.265148669
0.283618033 0.343453109 0.268691003
0.295762002 0.349525869 0.277798593
0.308159053 0.355345011 0.286147773
0.321568191 0.360151827 0.291461021
0.336875111 0.364073038 0.292852551
0.355091929 0.370145053 0.301960945
0.371537358 0.378747374 0.308792025
0.388361990 0.389247000 0.314610988
0.406831026 0.399620265 0.320936024
0.425300032 0.405945987 0.327134520
0.452498734 0.415180147 0.336242914
0.479570240 0.424288332 0.349905282
0.505755961 0.435041040 0.362555385
0.531056106 0.447438091 0.372928113
0.561416864 0.462618470 0.394180447
0.594180763 0.479949594 0.410372883
0.624541104 0.499936730 0.430107355
0.656672716 0.520556211 0.454016626
0.702213943 0.538773000 0.475269049
0.211132422 0.338013560 0.256293833
0.211132422 0.331941545 0.259329438
0.212650225 0.332953751 0.261100769
0.218215987 0.338520139 0.263504416
0.224035129 0.345224828 0.264516264
0.232890472 0.345098317 0.267298937
0.228336409 0.344592392 0.271853000
0.233396411 0.346236676 0.268437684
0.243389994 0.350031406 0.266287416
0.249968052 0.355597466 0.272359401
0.259076446 0.355723977 0.275521517
0.266160578 0.358380646 0.275268555
0.272738636 0.361416757 0.278178275
0.283618033 0.364705473 0.283871382
0.298798412 0.370778233 0.292978972
0.313346207 0.374446571 0.294876397
0.326375812 0.379632950 0.301328182
0.339152396 0.385704964 0.307273805
0.352055550 0.394433796 0.311068565
0.378620952 0.400505811 0.322960317
0.395825297 0.407210380 0.328146666
0.413662136 0.415559560 0.333839118
0.434408396 0.424161971 0.342314899
0.458697200 0.436305970 0.351423293
0.483617961 0.445540667 0.365085691
0.509930193 0.457432032 0.378874391
0.537128150 0.471473813 0.390385807
0.567488849 0.483870804 0.403288811
0.597849667 0.496394366 0.421885043
0.630613565 0.515116751 0.437697589
0.664515972 0.536368966 0.458317369
0.705249608 0.556988955 0.484377414
0.216571987 0.362808406 0.266034186
0.218975186 0.359139591 0.269070387
0.216824964 0.359519362 0.274256796
0.225679800 0.362555444 0.277546167
0.234028801 0.367868543 0.278684795
0.228968933 0.365844786 0.279696673
0.244654983 0.370651782 0.282858789
0.241871983 0.370651782 0.285641789
0.249462187 0.372169584 0.281847090
0.255534619 0.374952614 0.286274791
0.264515847 0.375205606 0.289436907
0.273624241 0.379253596 0.292473048
0.281214446 0.381530792 0.293990970
0.290828764 0.383554608 0.298545212
0.306008607 0.389626831 0.303352356
0.318785787 0.393295795 0.310056806
0.332447976 0.399367422 0.314610988
0.345856965 0.406324774 0.321189225
0.361543030 0.413661957 0.320682853
0.382795364 0.422390789 0.332067937
0.406324744 0.428462774 0.342314959
0.422517121 0.434534788 0.346362919
0.441112995 0.442378014 0.352941275
0.465401798 0.454522610 0.366603702
0.489689976 0.466666609 0.375711501
0.516761303 0.477292746 0.389247537
0.545097828 0.491461068 0.402403772
0.573560834 0.505502820 0.418342799
0.601517856 0.520050585 0.430992842
0.637191772 0.535736561 0.454522341
0.670967758 0.555471003 0.474003375
0.705882013 0.575205564 0.498292208
0.225679994 0.387097180 0.281214178
0.224161804 0.387096792 0.282732368
0.228968963 0.386843741 0.284882993
0.227198184 0.391144991 0.289690167
0.243137196 0.393674731 0.293105990
0.240101174 0.390639126 0.295382977
0.244149193 0.392157197 0.294876665
0.255534172 0.396458000 0.297786176
0.258570164 0.397217095 0.299304187
0.266160786 0.397976190 0.303099483
0.273624510 0.397976190 0.306135505
0.281214446 0.398988187 0.309171230
0.291461200 0.405060202 0.311068982
0.300949007 0.406072199 0.313978195
0.313598931 0.410879374 0.318279386
0.326375604 0.416065991 0.320682973
0.341555983 0.417584181 0.323718995
0.354332536 0.426691771 0.333459973
0.371663213 0.433649182 0.334851414
0.391144753 0.440986753 0.342694372
0.413914919 0.451233387 0.355977148
0.434155434 0.457305372 0.363061249
0.449968368 0.463503897 0.366223961
0.471473813 0.474256992 0.377229720
0.498798370 0.484883010 0.390891880
0.521695077 0.497027338 0.399999827
0.551170230 0.510183394 0.412524045
0.578494608 0.526375651 0.429728180
0.608855009 0.540037811 0.444149375
0.637191355 0.556989312 0.462112516
0.675774992 0.576090932 0.490322322
0.707400203 0.594940186 0.513472199
0.237191573 0.409614533 0.301834136
0.232384562 0.411385149 0.303731531
0.235167772 0.413535535 0.304364115
0.243010983 0.414800555 0.304364115
0.243390530 0.420872569 0.306261957
0.254775584 0.418595910 0.311321974
0.257431984 0.418722540 0.311068833
0.260088563 0.419101834 0.310689270
0.266413569 0.421505094 0.313851982
0.278557569 0.424541473 0.319923997
0.285515726 0.425300539 0.323086858
0.293485403 0.425300539 0.326755285
0.301834553 0.428210139 0.329285145
0.313725531 0.434029102 0.329791129
0.322833806 0.437065393 0.335863113
0.334345549 0.441239983 0.336495548
0.348260552 0.444908530 0.337760538
0.365844131 0.446173549 0.339025557
0.381024569 0.455281168 0.351170361
0.398988128 0.461606681 0.358380973
0.420366973 0.470841557 0.368248165
0.442631245 0.480329007 0.380645424
0.461100966 0.486654013 0.383934051
0.480328977 0.496268451 0.390512139
0.505755961 0.506008863 0.402150244
0.534472048 0.516508341 0.416445196
0.556230485 0.529159009 0.427071542
0.583428383 0.547248542 0.442378372
0.615433335 0.560784101 0.457558781
0.645920098 0.576470315 0.476281136
0.674636185 0.594940126 0.498292506
0.711068988 0.616192579 0.528652549
0.246299997 0.436939001 0.320050985
0.246299997 0.433902621 0.329158574
0.245794013 0.437824011 0.333206773
0.251613021 0.440860003 0.333459795
0.261606574 0.442125022 0.330550015
0.264642954 0.448197037 0.324478030
0.268437684 0.450980365 0.327008367
0.271220744 0.450474322 0.327893972
0.275269002 0.448703021 0.328905910
0.281594008 0.448829561 0.332068056
0.290828884 0.451865941 0.335230917
0.303731740 0.452625006 0.340291023
0.317014366 0.456040651 0.344971657
0.328906000 0.464389950 0.348007947
0.338013589 0.467425555 0.354079932
0.349525660 0.468058050 0.352941185
0.361669987 0.470082253 0.354712009
0.374952555 0.473498017 0.360277981
0.390132993 0.479570031 0.366350025
0.408096015 0.485895008 0.375711411
0.428209782 0.493864805 0.382669002
0.448703259 0.501201868 0.390512198
0.467172980 0.504870117 0.399114490
0.491461039 0.517014861 0.408222914
0.512966275 0.528905988 0.417077661
0.540543675 0.540796995 0.430866361
0.571410120 0.553447127 0.448323995
0.595698893 0.568627477 0.466539979
0.625553608 0.584060848 0.481846839
0.656166911 0.600758970 0.500569224
0.686274171 0.618975282 0.521821678
0.717141032 0.637445033 0.543833017
0.272106379 0.486527413 0.354965031
0.272106379 0.486274362 0.355724007
0.274257153 0.485388756 0.358380377
0.276154578 0.488930941 0.360784203
0.281846941 0.490069568 0.360784203
0.280076295 0.488930762 0.357115388
0.285642356 0.489942759 0.358633697
0.293864727 0.492726088 0.363314360
0.301075369 0.492726117 0.366350472
0.307147384 0.492726117 0.369386613
0.316129267 0.495635271 0.366856247
0.323213369 0.496647358 0.369892627
0.336116344 0.497786045 0.372928739
0.349652350 0.503352404 0.374573380
0.358759969 0.508918285 0.380645365
0.372675180 0.509550750 0.386717349
0.386717200 0.511068940 0.387855947
0.400758922 0.514105141 0.392663062
0.415939391 0.518026352 0.398735076
0.428336382 0.521315753 0.399241090
0.448450118 0.527387738 0.406451732
0.469702512 0.535610557 0.414547712
0.489943027 0.542568088 0.425426871
0.514231741 0.554712176 0.434535265
0.538519681 0.562302411 0.445920378
0.560277998 0.570651412 0.456925720
0.587096393 0.580518425 0.472359151
0.613661885 0.595698774 0.490575701
0.637950659 0.610879183 0.508791685
0.668058395 0.626059532 0.527640581
0.697533309 0.643263757 0.550663948
0.725996375 0.661480069 0.575711429
0.289942980 0.519164741 0.376217484
0.288045734 0.519164741 0.370524734
0.293991029 0.522959769 0.383807480
0.293232232 0.520429790 0.378747493
0.294750005 0.521947980 0.379000753
0.296268165 0.523465812 0.380518556
0.302719980 0.524857461 0.382542312
0.313725680 0.523212731 0.382289708
0.324604720 0.526502192 0.387602746
0.330676734 0.528779447 0.391777486
0.337760866 0.529791355 0.392789602
0.348639995 0.534598231 0.393801242
0.354712278 0.534598231 0.396837652
0.367362738 0.536622465 0.397849709
0.378115058 0.539405465 0.402276963
0.392030269 0.540670455 0.408348978
0.407210648 0.543706477 0.412903190
0.421758443 0.547122121 0.416571975
0.435673743 0.550157785 0.422643989
0.451865762 0.553194106 0.423150003
0.464010209 0.558127761 0.428842753
0.484250486 0.564199746 0.433902621
0.504743695 0.572295964 0.443390012
0.529032111 0.580897927 0.454269618
0.551423013 0.588488519 0.465654731
