Assets/Shaders/EldamarStudio/100 Sci-Fi LUTs Pack/LUTs/cube/Gara LUT.cube
LUT_3D_SIZE 8
DOMAIN_MIN 0.000000 0.000000 0.000000
DOMAIN_MAX 0.903226 0.903226 0.903226
0.117647000 0.031373002 0.043136999
0.138014004 0.051739097 0.059582997
0.170145184 0.072106004 0.083871000
0.201770633 0.097533353 0.099177644
0.242884189 0.130044192 0.127640992
0.297785997 0.164452985 0.160530984
0.372802258 0.206831291 0.209107995
0.478937596 0.257684976 0.261732817
0.145477548 0.084629998 0.083112001
0.146995559 0.092093542 0.088172443
0.180771545 0.104237996 0.099557094
0.201011732 0.121442094 0.117520191
0.246552542 0.145350829 0.141049996
0.299304187 0.180138990 0.176343992
0.366983026 0.219101831 0.210879296
0.468058199 0.265021831 0.256799370
0.166983098 0.148893103 0.124605000
0.177609444 0.153194457 0.130423650
0.192030087 0.158254102 0.130044177
0.220619634 0.170398548 0.147248179
0.264010191 0.193421990 0.173940271
0.316887736 0.224414736 0.202024087
0.393295288 0.260847270 0.238203898
0.499177694 0.313598931 0.293231815
0.192789286 0.225427285 0.180518627
0.203795090 0.225806743 0.184820086
0.219734535 0.235673368 0.191018283
0.245540634 0.247817636 0.198481634
0.290954828 0.263883442 0.220493644
0.343326926 0.282732368 0.245540634
0.411638260 0.313978285 0.273118258
0.512966275 0.365970612 0.323339641
0.232890800 0.316508174 0.238962799
0.240480989 0.327008009 0.249462545
0.252372086 0.332954109 0.254648983
0.282479525 0.337634385 0.262112617
0.325237185 0.346995175 0.274257183
0.379126996 0.365844399 0.296521425
0.448830098 0.394813478 0.330550283
0.541555822 0.445667177 0.382163167
0.291967243 0.444908261 0.331182748
0.302972525 0.449842185 0.335104555
0.319671094 0.454016745 0.344718456
0.349272460 0.460341752 0.349399090
0.391651213 0.465654910 0.359898925
0.436685711 0.475901723 0.374066740
0.501707733 0.496900737 0.396963984
0.596204817 0.546109796 0.455281734
0.375078976 0.554459274 0.422770560
0.386337817 0.564579546 0.432510823
0.407843083 0.568627417 0.438583076
0.434535265 0.574067295 0.446299553
0.469829172 0.577229321 0.452625185
0.511069000 0.587476552 0.469070464
0.566856265 0.602150261 0.488425255
0.647311628 0.635420680 0.528273523
0.532574415 0.716887772 0.583554745
0.546868742 0.727260768 0.583807468
0.559645653 0.730676651 0.590765357
0.585958242 0.732194602 0.595445991
0.613029599 0.738013923 0.603541613
0.650094807 0.746236503 0.620746493
0.694876432 0.756989002 0.633775771
0.752181768 0.777102709 0.656799555
0.130171001 0.047438450 0.083871000
0.142314553 0.052877545 0.084629998
0.168501094 0.076407552 0.101075090
0.201011628 0.112080999 0.125743359
0.237824440 0.137887195 0.150411204
0.296141773 0.174699277 0.184440449
0.365464807 0.209867001 0.218216538
0.466160476 0.258064538 0.270588517
0.145857006 0.088172443 0.100316092
0.162302107 0.099936545 0.111701541
0.175584987 0.112080991 0.124225445
0.204554096 0.129285097 0.137128100
0.241745532 0.152055800 0.163440734
0.299304187 0.185199544 0.192662999
0.366856545 0.224035293 0.227957293
0.473624617 0.278052002 0.283744514
0.166603461 0.149652094 0.137507647
0.177988887 0.159140006 0.148134008
0.194813550 0.165717661 0.153573990
0.220619738 0.177482545 0.168121547
0.261226863 0.200126648 0.188361645
0.310183465 0.224414825 0.213788986
0.381783754 0.257305712 0.248703331
0.479443163 0.308791637 0.292726249
0.191524535 0.219481647 0.190259188
0.197849557 0.223909199 0.192283645
0.218975544 0.235293821 0.204806730
0.245920181 0.248197183 0.213409543
0.288298190 0.263503820 0.229095638
0.335231006 0.284250289 0.248703644
0.412017465 0.321442038 0.285515517
0.517140806 0.374320179 0.339405328
0.230866536 0.311701179 0.250347823
0.239468649 0.316887945 0.257431716
0.252751529 0.324730843 0.258949727
0.282859087 0.329791278 0.265528202
0.323212802 0.340038031 0.278557837
0.372422725 0.359898716 0.298418760
0.443896264 0.392662942 0.333965868
0.543706417 0.450094819 0.388741195
0.286780477 0.430486828 0.337887526
0.296394736 0.438709289 0.333333313
0.313598722 0.442125201 0.345730513
0.347374916 0.447564811 0.347754270
0.385705113 0.457052737 0.360278279
0.432637721 0.468817204 0.376217514
0.499303907 0.491461039 0.409867018
0.590385616 0.538266718 0.457305580
0.369892716 0.547627807 0.421631813
0.385704815 0.549399137 0.436685830
0.392662913 0.557242095 0.431372344
0.425427020 0.561163962 0.440480620
0.463883787 0.569259882 0.452498376
0.508032560 0.584060609 0.473877102
0.570398271 0.607336998 0.501455009
0.653130651 0.641239643 0.542820990
0.525869310 0.704870343 0.581277490
0.541555882 0.724098742 0.581530333
0.551423132 0.723213017 0.586210907
0.575964808 0.727893651 0.592030644
0.601138592 0.735610127 0.600885332
0.641998708 0.741176426 0.618975341
0.690575540 0.752181888 0.638077319
0.745224595 0.767994523 0.663883686
0.151296899 0.059582900 0.126122996
0.155218095 0.064263090 0.129664645
0.178747892 0.091713995 0.146489084
0.203415647 0.112460546 0.153953344
0.246173188 0.144212186 0.181024790
0.301707983 0.182922348 0.212017640
0.370524973 0.218595698 0.250727385
0.463124782 0.268184811 0.298418999
0.151676446 0.099556997 0.129664555
0.166603550 0.103478998 0.145350650
0.182289541 0.116381638 0.149651989
0.210120097 0.137128100 0.163694099
0.250474542 0.161796540 0.190891549
0.301960558 0.193421990 0.214547977
0.372296005 0.236179739 0.260721266
0.475522071 0.283871114 0.310942084
0.164706007 0.148893103 0.169386089
0.172422081 0.152814910 0.177102983
0.203795090 0.170778006 0.189627081
0.228083178 0.186464101 0.201391280
0.264895976 0.207590193 0.218595907
0.318153083 0.238203987 0.246046990
0.382289380 0.267046213 0.276407182
0.485009670 0.315875828 0.327387661
0.197090551 0.227071270 0.223276272
0.202150181 0.230613723 0.222011536
0.228083178 0.243896529 0.236938745
0.252245277 0.259582698 0.240733624
0.287413180 0.271727055 0.258823544
0.337887645 0.292472929 0.280834645
0.412776679 0.327387571 0.315243632
0.514863849 0.376597255 0.363061428
0.228842288 0.314864069 0.271727085
0.236559182 0.322453737 0.275775075
0.259456009 0.333080173 0.286780298
0.287918806 0.337254822 0.296521455
0.323592305 0.348640084 0.307147145
0.374699742 0.362934947 0.321948081
0.452498436 0.399241179 0.362428546
0.547880828 0.449335635 0.413409352
0.290575385 0.437570840 0.359013110
0.301960737 0.443010926 0.365338653
0.317520678 0.444402188 0.364705801
0.350158095 0.450474292 0.371030837
0.387729168 0.457052648 0.382289588
0.433522820 0.468817115 0.399873644
0.498544902 0.489437044 0.421252400
0.590006292 0.538266778 0.472485900
0.378747374 0.548134327 0.443769842
0.378115177 0.547501266 0.440860063
0.400126547 0.555344403 0.449462265
0.426185906 0.557621658 0.457305551
0.462492257 0.569259882 0.468184829
0.513092995 0.584440053 0.485388994
0.572295845 0.609993815 0.515116990
0.656925797 0.647185206 0.562555254
0.524857759 0.703225672 0.589500487
0.534219027 0.714737415 0.584060371
0.547374904 0.717014730 0.596584618
0.570904315 0.721568644 0.599240839
0.602403283 0.728778958 0.607210577
0.639974654 0.734977782 0.621252477
0.688804507 0.751169920 0.642631650
0.745097816 0.776596665 0.671979845
0.170904279 0.067805350 0.186084643
0.174825996 0.076787002 0.191650644
0.196837097 0.096774347 0.197090551
0.210119992 0.121062636 0.202909276
0.248070732 0.151676446 0.220493644
0.301454991 0.182922348 0.244781628
0.370524973 0.223655924 0.278684258
0.471347332 0.276154339 0.329411626
0.177988991 0.107779540 0.195572644
0.186211452 0.118026450 0.194307283
0.198355198 0.124604896 0.204174548
0.215939447 0.141429648 0.216698557
0.247565195 0.164832637 0.227703646
0.302466869 0.198988184 0.250727177
0.376343846 0.239974827 0.292220294
0.475395352 0.287665904 0.336749077
0.186970443 0.155218095 0.215180442
0.202656552 0.161037549 0.225680083
0.212017640 0.179506809 0.238709629
0.239848092 0.193548188 0.242884189
0.267552555 0.215812638 0.251486272
0.318532526 0.239342347 0.276913434
0.388867825 0.277292788 0.311827987
0.487539709 0.322707087 0.358380646
0.212903365 0.223149985 0.261226922
0.208855465 0.226691738 0.256799281
0.232764080 0.237318173 0.272106528
0.262365252 0.260721266 0.283111632
0.296521455 0.279949635 0.296774298
0.346615821 0.304996729 0.319544375
0.419354886 0.337001622 0.350917011
0.517520428 0.383807659 0.403035820
0.228462741 0.319291532 0.308792084
0.243010908 0.326754987 0.320176840
0.266160607 0.336116195 0.329158902
0.299430966 0.352940828 0.342441171
0.340417624 0.367741793 0.356862605
0.387349695 0.384566575 0.367741942
0.454522520 0.412776649 0.397723168
0.546742201 0.458697230 0.443137437
0.290828884 0.438077092 0.389879614
0.302593201 0.443010837 0.394180983
0.327514082 0.449335843 0.399620384
0.361037254 0.461100638 0.412017465
0.398735076 0.466540039 0.423529714
0.442125112 0.478684366 0.440733671
0.505250037 0.500063300 0.452245742
0.596963882 0.546109796 0.500569284
0.384693176 0.551043630 0.476533920
0.390385926 0.556989193 0.478558183
0.404427707 0.560784400 0.475015819
0.434535295 0.566223562 0.486021638
0.471600085 0.577103317 0.499177635
0.518658876 0.590259314 0.511574984
0.579253852 0.613409162 0.536622226
0.656293511 0.654648662 0.575331926
0.520682931 0.708918631 0.606957614
0.528146625 0.712333739 0.597723067
0.552814603 0.719417751 0.612523973
0.573054612 0.725995958 0.620113611
0.601264894 0.731815219 0.625173926
0.641239524 0.739152551 0.638203621
0.693990946 0.753953040 0.663377523
0.753447175 0.773054957 0.686780155
0.200632200 0.084756806 0.257685184
0.197090656 0.088172346 0.256546557
0.214800805 0.106514998 0.266413808
0.236685991 0.137128189 0.270967990
0.264009982 0.162934989 0.285136163
0.312333912 0.194686934 0.302972555
0.372675359 0.227198184 0.325110465
0.475395441 0.275774807 0.375079155
0.204174548 0.118658833 0.262492090
0.204174533 0.128146634 0.255660832
0.223276183 0.137128189 0.268184751
0.240607202 0.159519464 0.277293175
0.264895976 0.179253176 0.289057195
0.307779968 0.206831187 0.301455200
0.376343906 0.244402185 0.330550194
0.483617902 0.291840523 0.377356172
0.220999286 0.173940286 0.277166277
0.223023534 0.176217377 0.286400825
0.235926986 0.189626902 0.287539184
0.256672740 0.203288734 0.296521425
0.281341076 0.227324292 0.312587172
0.324730903 0.247185335 0.325489730
0.390006304 0.278051883 0.348513365
0.495255888 0.323845744 0.400505781
0.231119379 0.224794284 0.316761732
0.241745532 0.232257724 0.321062386
0.259708822 0.249083087 0.327766836
0.281214207 0.266287267 0.329284817
0.308539063 0.283870637 0.339911163
0.352435291 0.310183167 0.359392494
0.422517627 0.339911193 0.388361543
0.521821618 0.383428007 0.431119800
0.244655177 0.308665186 0.356609792
0.254016370 0.315749407 0.360025644
0.275901109 0.321189076 0.370525151
0.301328361 0.339152366 0.380391836
0.357242346 0.370525181 0.405819178
0.397469908 0.392030448 0.415559918
0.464389741 0.418216199 0.440986633
0.554332793 0.462238997 0.477799177
0.297659993 0.439215541 0.429474980
0.305123508 0.440354079 0.437191367
0.327387482 0.446932524 0.437191367
0.358380854 0.461859524 0.448197365
0.404174268 0.479443282 0.466666728
0.462238967 0.500948906 0.485768288
0.522454023 0.517014503 0.500948966
0.601771057 0.554838896 0.539152086
0.375205487 0.556103528 0.499557257
0.393169194 0.557621717 0.512460291
0.402530193 0.565591395 0.508412361
0.436179578 0.572549164 0.516129255
0.477672338 0.589753509 0.536369443
0.530423999 0.602150559 0.553193986
0.589500308 0.620872855 0.568374217
0.667046249 0.657684982 0.609867215
0.517899930 0.707653403 0.613662004
0.530170619 0.715749383 0.626186013
0.548134029 0.719671011 0.630992889
0.569006622 0.728019953 0.640607238
0.600632429 0.732321382 0.646552742
0.646679461 0.741302967 0.659329414
0.699051499 0.759392619 0.682226181
0.759013236 0.778620899 0.700189948
0.235040992 0.096015260 0.344591975
0.239468545 0.104237802 0.350917190
0.256166995 0.121062733 0.353826433
0.275774896 0.146109834 0.356609702
0.299304187 0.173434734 0.364579529
0.330929726 0.205565721 0.373940736
0.388108730 0.239721999 0.399746984
0.479949623 0.279190719 0.435799897
0.237191275 0.130929992 0.341176480
0.235041276 0.138266549 0.346869171
0.250601172 0.150031552 0.351169825
0.272232652 0.166476727 0.359519362
0.299683750 0.192283541 0.369639277
0.333712965 0.227956995 0.384693086
0.399746835 0.258064717 0.406325251
0.488931060 0.299430519 0.450474203
0.251233339 0.184440345 0.359392583
0.258570313 0.193548292 0.362049013
0.268691093 0.195699081 0.373307735
0.286654085 0.211511895 0.373434484
0.314104974 0.231498718 0.384566575
0.346236467 0.258570373 0.397090435
0.409234732 0.290954918 0.415812641
0.502593100 0.333206922 0.453510344
0.268184632 0.253383756 0.389753371
0.278937280 0.255660743 0.395446092
0.289436847 0.262365371 0.398228914
0.309677631 0.276533872 0.404554009
0.340797096 0.299683839 0.414294630
0.373687387 0.321189076 0.429222018
0.435041010 0.348260731 0.457178921
0.530929625 0.393295258 0.490701914
0.280075729 0.309044719 0.428083718
0.288551629 0.310815960 0.429854572
0.313472271 0.323466152 0.436306268
0.338013798 0.345856935 0.439468443
0.369639367 0.372422397 0.448323905
0.407969654 0.394307643 0.469576120
0.472612202 0.425679743 0.492599487
0.565717757 0.462871641 0.524477839
0.305628985 0.419101983 0.487665743
0.317520529 0.428463161 0.484503716
0.337254822 0.430866480 0.490701824
0.366982728 0.441745579 0.497785985
0.414674103 0.457558453 0.510689318
0.468058228 0.489436954 0.522833705
0.529411733 0.519924223 0.545856953
0.614547610 0.555218458 0.578114867
0.382921994 0.555218220 0.543959498
0.384566277 0.550031543 0.547248542
0.399620622 0.556736350 0.551296353
0.431372434 0.569639325 0.558887005
0.476407111 0.591271460 0.576976538
0.537887275 0.613156319 0.596331239
0.604048014 0.643010557 0.623908818
0.688677967 0.674889326 0.657431781
0.506261587 0.707147539 0.661227226
0.518785536 0.710309565 0.654142857
0.527893901 0.712839961 0.656166553
0.551802576 0.721441865 0.657811463
0.589373827 0.734471798 0.667046189
0.647185445 0.747627676 0.690954864
0.698924780 0.764199913 0.710815668
0.765338421 0.789626777 0.739531815
0.291460991 0.112080708 0.473750561
0.294117719 0.118026547 0.470209002
0.308539093 0.134850994 0.472738832
0.327387273 0.156356648 0.481593996
0.353952974 0.187223092 0.485389054
0.393801451 0.221632183 0.497153550
0.438456565 0.266287267 0.512966514
0.512713492 0.302086979 0.525869429
0.295635551 0.149399281 0.472991824
0.295508802 0.149272740 0.473497808
0.310057014 0.165338293 0.475268573
0.335863292 0.182542801 0.482479334
0.363187551 0.208981469 0.490702301
0.400885373 0.243390277 0.502593458
0.448323548 0.285641998 0.522833586
0.523339808 0.325996101 0.541302800
0.306894362 0.198987901 0.476786762
0.304111332 0.206831291 0.480329007
0.324351579 0.212144390 0.484630167
0.343074262 0.228336334 0.489184171
0.375079185 0.253763199 0.498671472
0.407084078 0.281214297 0.508159339
0.455534458 0.317141175 0.525237262
0.531435668 0.353067458 0.548639894
0.325742960 0.270208985 0.500189543
0.330044121 0.274509817 0.500569284
0.346363276 0.280834615 0.506768286
0.364958972 0.294876635 0.511322260
0.395066619 0.317014277 0.522327483
0.434155613 0.341049731 0.531309187
0.476027548 0.379506648 0.546109974
0.557242036 0.412017465 0.574193537
0.340670377 0.338267177 0.534345269
0.353699952 0.344971657 0.530550122
0.367236197 0.358633459 0.532953620
0.389626801 0.370777726 0.538266957
0.419607460 0.392283380 0.545098066
0.459835917 0.413029909 0.557495296
0.513599157 0.447944283 0.575585067
0.583934426 0.478684098 0.599240959
0.355597556 0.421379179 0.572801828
0.368374705 0.421758711 0.573687732
0.383933902 0.432258070 0.572802007
0.417963356 0.447944254 0.578368008
0.459582657 0.475268751 0.584566772
0.499557495 0.500063300 0.591903567
0.554711998 0.528273284 0.609740973
0.622264564 0.563314140 0.635294020
0.423402548 0.557368517 0.638709843
0.413662285 0.545983076 0.623782098
0.431245953 0.557368577 0.630233765
0.458697259 0.566856265 0.634661913
0.493232280 0.582416296 0.647564590
0.554459453 0.607590437 0.656040728
0.634155810 0.649841845 0.685135841
0.702593029 0.685262263 0.702593505
0.513345897 0.706514716 0.706515074
0.523466229 0.706514716 0.704617202
0.528273225 0.709045053 0.698924601
0.558001518 0.720556140 0.712080777
0.593295395 0.735736549 0.727640867
0.642884016 0.756862998 0.734851360
0.714231372 0.780898333 0.752055407
0.786211312 0.800632358 0.784946024
0.380771756 0.130802989 0.638583243
0.384060800 0.134471551 0.633649111
0.403162599 0.149272829 0.636179566
0.420999587 0.176470622 0.641492724
0.451992273 0.211005822 0.642251968
0.486148059 0.256166816 0.647311687
0.535610378 0.305755913 0.656419992
0.587602556 0.362555444 0.671220720
0.389753342 0.160531089 0.638077438
0.389373779 0.170651361 0.629854083
0.403542042 0.181910098 0.641872644
0.427703857 0.205819368 0.643896341
0.460594654 0.235040992 0.652877808
0.497406542 0.275395572 0.661100149
0.545603693 0.327767074 0.666666746
0.594180584 0.381277502 0.678431451
0.393421680 0.226944968 0.638962507
0.396964252 0.233270049 0.642125368
0.407336950 0.236811906 0.642884433
0.431625783 0.256419927 0.647944331
0.464136809 0.282985419 0.655154705
0.507526815 0.318911910 0.663757026
0.554079652 0.361543179 0.673877478
0.606830835 0.409234732 0.690322459
0.411005437 0.298924655 0.651486576
0.410625994 0.302340269 0.651359797
0.432131410 0.311954647 0.657431602
0.451233238 0.328399628 0.659582257
0.482606083 0.350410998 0.667805433
0.520556390 0.382416070 0.677166462
0.572549045 0.419607759 0.686527610
0.623782635 0.465275288 0.699051261
0.433269978 0.395192832 0.670208991
0.444149256 0.394686967 0.671346962
0.449209213 0.395192742 0.675268948
0.469955653 0.404300988 0.674383283
0.503352165 0.425553322 0.680581927
0.543959320 0.455914110 0.690828323
0.593168855 0.486907035 0.704490781
0.641113102 0.531056166 0.718911946
0.465528399 0.469070256 0.697153807
0.468437850 0.472738534 0.698418379
0.481340647 0.478684366 0.701075256
0.503099442 0.494876653 0.701707602
0.535863161 0.510815978 0.702593148
0.576849997 0.532827318 0.714737535
0.626185656 0.565085411 0.726375580
0.672865391 0.602403283 0.739531815
0.486527294 0.576596797 0.748386562
0.487539589 0.574825764 0.750664175
0.502846181 0.580771506 0.748133779
0.535736740 0.595192790 0.746236622
0.578241825 0.611764789 0.754332602
0.627577484 0.642631233 0.759772301
0.683744371 0.668943942 0.766856492
0.741935134 0.706388116 0.794433713
0.569259763 0.719670713 0.787602603
0.572928131 0.723086894 0.793042302
0.577861845 0.720176697 0.788994253
0.601644576 0.728779554 0.796584189
0.633775949 0.737001717 0.798355401
0.678684354 0.757368445 0.807716370
0.741049528 0.779000640 0.823782325
0.828209579 0.825553358 0.851612747
