Assets/Shaders/EldamarStudio/100 Sci-Fi LUTs Pack/LUTs/cube/Gara LUT.cube
LUT_3D_SIZE 5
DOMAIN_MIN 0.000000 0.000000 0.000000
DOMAIN_MAX 0.903226 0.903226 0.903226
0.117647000 0.031373002 0.043136999
0.161796287 0.070588000 0.080075711
0.222263992 0.112459995 0.108538993
0.312966138 0.174572989 0.172675252
0.478937596 0.257684976 0.261732817
0.162428722 0.131435990 0.117014416
0.181404278 0.141555697 0.120935991
0.237318411 0.170018986 0.152688116
0.332574129 0.223655820 0.207590282
0.491334766 0.302213818 0.283617914
0.210500002 0.275268555 0.213155985
0.232764408 0.285768807 0.220999405
0.287033379 0.301454395 0.243263826
0.380265713 0.335863531 0.279190242
0.539025664 0.410120219 0.361163765
0.306135237 0.461100250 0.346363127
0.332574129 0.479063720 0.359393120
0.386211097 0.485894829 0.372169405
0.466034114 0.504238009 0.398355275
0.607336938 0.567615211 0.472991645
0.532574415 0.716887772 0.583554745
0.555850685 0.730929673 0.590765595
0.595952034 0.735230565 0.596584439
0.660467744 0.749525607 0.624035597
0.752181768 0.777102709 0.656799555
0.146742716 0.058823999 0.114737704
0.169639707 0.083364703 0.132067993
0.222643688 0.127513990 0.160531297
0.316128701 0.192536280 0.214800864
0.464136630 0.267172694 0.292346656
0.166982710 0.129158705 0.154964983
0.190891996 0.151043415 0.168374702
0.238962695 0.183428109 0.190259412
0.328273416 0.232131407 0.243263841
0.483744651 0.303225696 0.314990640
0.215053573 0.272612393 0.245161414
0.238962695 0.288045675 0.255028397
0.291587412 0.305376410 0.275269002
0.372675270 0.333839118 0.300442696
0.526249051 0.407843083 0.375458390
0.310056984 0.459076256 0.364326239
0.323086858 0.470209002 0.372801840
0.383934230 0.481594145 0.394686699
0.463377565 0.499683827 0.415559679
0.601138771 0.566856086 0.486400932
0.528905869 0.709044576 0.585199475
0.549146056 0.721315622 0.599367678
0.588741183 0.727261186 0.600126505
0.653889835 0.741050005 0.628336310
0.746362746 0.772801697 0.667678535
0.183048993 0.073877417 0.226312816
0.196458116 0.096773989 0.225300699
0.235420823 0.142567992 0.242631406
0.319417715 0.192283258 0.271346986
0.467805177 0.270714819 0.345983386
0.202656418 0.151675999 0.241619125
0.214420989 0.162175998 0.244908124
0.250347972 0.193548411 0.264136404
0.326628715 0.234408274 0.292599708
0.485388935 0.311321974 0.365338504
0.218975410 0.267425418 0.302719563
0.241872415 0.274003386 0.315496683
0.306641400 0.317141384 0.343327224
0.383554548 0.353067815 0.368121386
0.532447577 0.421252638 0.439594984
0.302213967 0.459076256 0.424794525
0.329917729 0.469196975 0.424035579
0.395952106 0.489183992 0.446932137
0.473497868 0.510815978 0.476407111
0.611638248 0.575585186 0.536116064
0.513472319 0.707021058 0.610246360
0.541302860 0.716888189 0.617077470
0.584187210 0.725995958 0.625933051
0.652498364 0.742061853 0.651486218
0.754965305 0.776470125 0.696141601
0.247185260 0.101075128 0.373940378
0.263251126 0.120303579 0.380391955
0.299557418 0.162808418 0.390512228
0.353194267 0.219734251 0.403289109
0.483491600 0.282226533 0.454016238
0.258317441 0.175585121 0.389247417
0.274003983 0.185325846 0.391524106
0.306388527 0.215812832 0.399620414
0.364959002 0.260341406 0.421885014
0.499810040 0.322074533 0.474003941
0.293232143 0.280455410 0.436052978
0.310562849 0.302466691 0.438836247
0.350158274 0.324351817 0.451613098
0.407843113 0.363693655 0.466666967
0.542314827 0.419607937 0.518659234
0.325869232 0.444402128 0.518026233
0.351170003 0.453889817 0.526375890
0.406451672 0.474130422 0.532953858
0.500442982 0.527893186 0.559266210
0.633522928 0.583807945 0.603162169
0.508791745 0.706135273 0.673371315
0.526375473 0.714610696 0.664263308
0.566223919 0.725995958 0.674003482
0.664389729 0.755217910 0.707399905
0.768374324 0.788867712 0.747374892
0.380771756 0.130802989 0.638583243
0.396837324 0.144212708 0.635673702
0.433143616 0.193674967 0.638583243
0.495256066 0.269576252 0.650853753
0.587602556 0.362555444 0.671220720
0.395445913 0.206704393 0.632384300
0.401011944 0.217836812 0.637571156
0.444528878 0.252498388 0.647691131
0.511321783 0.313092679 0.662745118
0.601264596 0.397849619 0.682732284
0.417963356 0.345477611 0.661353350
0.431498885 0.346742630 0.661100268
0.467045784 0.373561025 0.664642572
0.542061806 0.423909038 0.680708289
0.634028912 0.490701765 0.707274020
0.473118573 0.496141791 0.710056782
0.487665951 0.500189662 0.710436583
0.527008355 0.529285192 0.713345706
0.599873602 0.563946962 0.727387726
0.689563572 0.626438737 0.750917077
0.569259763 0.719670713 0.787602603
0.572801709 0.722959816 0.791524589
0.615685999 0.730676949 0.795952022
0.692599714 0.762428880 0.813029766
0.828209579 0.825553358 0.851612747
