Assets/Shaders/EldamarStudio/100 Sci-Fi LUTs Pack/LUTs/cube/Gara LUT.cube
DOMAIN_MIN 0 0 0
DOMAIN_MAX 1 1 1
LUT_3D_SIZE 32
0.117647000 0.031373002 0.043136999
0.117647000 0.031373002 0.040101387
0.124098770 0.037824225 0.045667227
0.131941989 0.045667000 0.053510323
0.138014004 0.051739097 0.059582997
0.144086003 0.057811871 0.065655001
0.152688324 0.066413678 0.074256673
0.161796287 0.070588000 0.080075711
0.170145184 0.072106004 0.083871000
0.176217958 0.078178011 0.089942999
0.185199127 0.084250741 0.090195999
0.192283005 0.090322994 0.094243996
0.201770633 0.097533353 0.099177644
0.216191992 0.106387995 0.102467000
0.222263992 0.112459995 0.108538993
0.230739802 0.120935798 0.117014796
0.242884189 0.130044192 0.127640992
0.257431984 0.139152572 0.137887418
0.269576043 0.148260981 0.140923053
0.284503371 0.154586017 0.149525359
0.297785997 0.164452985 0.160530984
0.312966138 0.174572989 0.172675252
0.334091991 0.181024492 0.184819981
0.352308810 0.196204901 0.196964011
0.372802258 0.206831291 0.209107995
0.395445973 0.217330977 0.219860658
0.419734150 0.229981065 0.229474992
0.444022894 0.245161444 0.241618991
0.478937596 0.257684976 0.261732817
0.515369892 0.275142163 0.281214386
0.551802218 0.295508981 0.300316572
0.588235021 0.313724995 0.321568996
0.126755387 0.046552613 0.052245386
0.123718992 0.043517001 0.049208999
0.128020003 0.049968775 0.056926161
0.136242777 0.055281773 0.063124776
0.144086003 0.057811771 0.066034451
0.150158003 0.063883871 0.074762620
0.156230003 0.069955997 0.078304939
0.164832324 0.073624387 0.083112098
0.172422484 0.074383289 0.086148284
0.176217958 0.078178011 0.089943007
0.185199127 0.087159872 0.098924868
0.196331516 0.095382862 0.105376117
0.204427779 0.102466993 0.110183001
0.213915423 0.109424382 0.111827642
0.228336766 0.115496382 0.120682992
0.232004970 0.119165190 0.124351799
0.242884189 0.128526390 0.130677000
0.257431984 0.138519987 0.139152572
0.269576043 0.145224586 0.146995828
0.287286729 0.157115623 0.158380792
0.298924655 0.165591359 0.167742133
0.313978255 0.175585121 0.177735642
0.337001890 0.183934376 0.187729120
0.352308810 0.196204901 0.196964011
0.375078976 0.209107995 0.211385280
0.398481905 0.220366940 0.222897053
0.422770381 0.233017325 0.232511386
0.447058499 0.248197049 0.244655386
0.474004060 0.260721266 0.256799340
0.505755901 0.276407331 0.276913166
0.543200135 0.297280192 0.299051166
0.588235021 0.319797784 0.324604601
0.127261221 0.057431772 0.059202999
0.134977609 0.060847387 0.062618390
0.131941766 0.057811774 0.055281546
0.139278933 0.066919833 0.068690836
0.147628233 0.069955774 0.073497772
0.151929006 0.074257001 0.079063840
0.158001006 0.076028004 0.083112091
0.165717706 0.082099997 0.084503770
0.174066991 0.084629998 0.087793000
0.178494722 0.089057297 0.092220299
0.189500123 0.093611650 0.098924875
0.196584508 0.100695767 0.106008992
0.206199005 0.108539000 0.113851771
0.212271005 0.114611000 0.116381772
0.221758634 0.120682992 0.123592407
0.233776197 0.126502022 0.127893806
0.241365984 0.131056219 0.132447988
0.255913794 0.141302794 0.138519987
0.269576043 0.148893014 0.146110207
0.285135955 0.160531014 0.158001244
0.301454931 0.168880478 0.168247968
0.313092917 0.177735642 0.178368211
0.333965987 0.186970234 0.188741013
0.355218142 0.199114785 0.199873686
0.370777965 0.209107995 0.211385280
0.395066321 0.221252322 0.223782659
0.419861078 0.233902931 0.233396992
0.445793748 0.249082521 0.245540991
0.474889457 0.263756901 0.255534738
0.511068881 0.277672410 0.276533902
0.541176200 0.297280192 0.299430728
0.579632998 0.321568996 0.325489998
0.131815150 0.069070160 0.069070160
0.136369154 0.072612159 0.068816997
0.141555771 0.076027766 0.074256770
0.139784992 0.074257001 0.067679159
0.148893386 0.082985163 0.080961324
0.153700233 0.086906932 0.083112098
0.160530999 0.087412998 0.086148158
0.168247700 0.089437157 0.090069838
0.175838083 0.094750062 0.090828933
0.181404158 0.100316003 0.096395008
0.189500004 0.103478871 0.101201840
0.197596192 0.108538993 0.107273832
0.205945969 0.115749642 0.114484482
0.212777004 0.121695131 0.120177001
0.220872983 0.126754984 0.124224991
0.231751978 0.132826984 0.130423799
0.241365984 0.138899311 0.134977981
0.254142553 0.145603731 0.141682565
0.269322991 0.154711977 0.148387179
0.284503371 0.165338174 0.160025179
0.299683720 0.176217303 0.169006735
0.315875977 0.183301955 0.178115115
0.331309348 0.192536145 0.190006152
0.352182001 0.204680651 0.202150658
0.370904416 0.212017864 0.210500002
0.390259147 0.222517163 0.221252337
0.414547980 0.234661832 0.231372744
0.441113412 0.249082521 0.244275823
0.472359449 0.264262825 0.256293654
0.502213717 0.280708343 0.273497969
0.542947054 0.297659755 0.299051404
0.568753839 0.321568996 0.322959989
0.145477548 0.084629998 0.083112001
0.140923545 0.084250547 0.075142160
0.141935542 0.088171996 0.081340775
0.145477548 0.091713995 0.089310609
0.146995559 0.092093542 0.088172443
0.156103939 0.098165549 0.088172443
0.164832219 0.099177547 0.090702221
0.172801688 0.100822158 0.093864545
0.180771545 0.104237996 0.099557094
0.183807939 0.107273608 0.102593482
0.187982127 0.110309862 0.106008671
0.193421558 0.114990540 0.111068539
0.201011732 0.121442094 0.117520191
0.212903485 0.130550489 0.126628503
0.224920988 0.133839130 0.127007991
0.237444535 0.139278546 0.134218797
0.246552542 0.145350829 0.141049996
0.254901558 0.151676416 0.147754580
0.270081997 0.160784066 0.156862989
0.284882903 0.170271918 0.167995006
0.299304187 0.180138990 0.176343992
0.315116972 0.191650674 0.183428124
0.333459467 0.200759023 0.192409992
0.349145919 0.212650001 0.204048008
0.366983026 0.219101831 0.210879296
0.387602955 0.226312533 0.216698408
0.412270576 0.238836095 0.227197617
0.436559319 0.250980079 0.242377982
0.468058199 0.265021831 0.256799370
0.497659445 0.281593829 0.275142163
0.524351180 0.300696015 0.296774119
0.560783982 0.321948439 0.318026543
0.148513943 0.102845997 0.089184001
0.154585943 0.099810384 0.089184001
0.150031939 0.101581156 0.087665930
0.148513943 0.103857994 0.090195999
0.150031939 0.104237542 0.091208056
0.162175938 0.107273936 0.103352055
0.168753996 0.108285934 0.105882376
0.172042936 0.109930225 0.103984937
0.175078988 0.113725252 0.102972932
0.180771559 0.119418390 0.108665481
0.192536056 0.122453995 0.114611000
0.201138258 0.125490248 0.120176934
0.208601922 0.129032284 0.125110567
0.215939090 0.133586094 0.129664898
0.225047469 0.142694473 0.138772517
0.239468798 0.148386925 0.146362811
0.249588937 0.154458925 0.150916994
0.258190900 0.160531059 0.153826579
0.276153982 0.166856050 0.162934989
0.288551718 0.178747714 0.169260010
0.299304187 0.184693187 0.176343992
0.311448216 0.192283258 0.183428124
0.327387482 0.203795418 0.192409992
0.348639905 0.212903038 0.198482007
0.368880272 0.224794567 0.212397277
0.389626712 0.235420913 0.222770661
0.412397057 0.248071000 0.233396858
0.439594954 0.263124853 0.251486361
0.466539830 0.272612005 0.261353761
0.500189424 0.286274165 0.276786864
0.531941473 0.303731650 0.297280192
0.560783982 0.324984074 0.321062922
0.156609684 0.116002642 0.105375998
0.157621682 0.115496702 0.105375998
0.161543459 0.116761543 0.107526772
0.159140006 0.118532315 0.107906319
0.159898996 0.118911862 0.107526772
0.167741984 0.121948250 0.108917996
0.172296315 0.124983996 0.113472320
0.180012599 0.124983996 0.116508707
0.184186995 0.127893314 0.116129316
0.190258995 0.133965641 0.122201316
0.197090641 0.137128443 0.125742987
0.205186635 0.142188326 0.131814986
0.214927316 0.145730644 0.135609999
0.224035352 0.149019644 0.137507737
0.233143732 0.155850738 0.144339219
0.242251500 0.164959118 0.153446838
0.255661070 0.171157628 0.162555188
0.265654892 0.177229628 0.166223899
0.281973660 0.183301657 0.171537295
0.294623733 0.192410037 0.180392012
0.310562998 0.202656567 0.190259472
0.322580308 0.208981439 0.197596639
0.336495489 0.219481498 0.205060318
0.357747912 0.228589743 0.211132318
0.379000276 0.235420644 0.221758306
0.401644319 0.248450652 0.235293970
0.424541473 0.261733323 0.245540738
0.449842066 0.274889439 0.257684976
0.482226431 0.289816797 0.275522143
0.511321545 0.304237574 0.288172066
0.548892796 0.321062505 0.308285564
0.586084664 0.340670645 0.334218681
0.162428722 0.131435990 0.117014416
0.162428722 0.131435990 0.117014416
0.162934780 0.131941929 0.117520481
0.168501168 0.134977862 0.120556548
0.169260159 0.134977862 0.120556541
0.171536997 0.135483935 0.117520481
0.180012599 0.140164375 0.119544312
0.181404278 0.141555697 0.120935991
0.190512091 0.142314792 0.126249284
0.197469711 0.147501409 0.134092271
0.203542024 0.152308568 0.138899535
0.209614277 0.154079691 0.137380987
0.216824934 0.159013048 0.143453285
0.228210032 0.162555322 0.145224378
0.237318411 0.170018986 0.152688116
0.248070896 0.175205797 0.159519196
0.260214865 0.185831994 0.167109370
0.271853566 0.191524580 0.175458699
0.285010010 0.196584716 0.179506972
0.299051315 0.205439642 0.186464369
0.313345999 0.214547947 0.197469756
0.332574129 0.223655820 0.207590282
0.346995205 0.232764170 0.213915303
0.368247598 0.241872191 0.223023698
0.386210978 0.250348002 0.230360702
0.408854991 0.259202987 0.243896365
0.434661776 0.274130344 0.256799370
0.462365896 0.287413001 0.268184423
0.491334766 0.302213818 0.283617914
0.524604619 0.317520648 0.300063431
0.556735933 0.337507665 0.318785280
0.600000024 0.357242286 0.346109718
0.166983098 0.148893103 0.124605000
0.165464908 0.148893103 0.126122996
0.166224003 0.149652004 0.126882091
0.169260070 0.150158077 0.127388030
0.177609444 0.153194457 0.130423650
0.175332144 0.150917158 0.128146932
0.182668999 0.153193995 0.127893776
0.188994095 0.157495201 0.128526002
0.192030087 0.158254102 0.130044177
0.201138481 0.161290497 0.142188191
0.207337007 0.165717989 0.147754639
0.213408992 0.169260010 0.148766592
0.220619634 0.170398548 0.147248179
0.229980990 0.173687190 0.153320968
0.239595309 0.182289496 0.161922768
0.251107097 0.187349811 0.167868093
0.264010191 0.193421990 0.173940271
0.278557986 0.204300985 0.180645466
0.287792891 0.207463890 0.186844006
0.301707685 0.215306848 0.193675101
0.316887736 0.224414736 0.202024087
0.334092140 0.233523116 0.212144092
0.355091512 0.242631495 0.218469068
0.375078887 0.251739293 0.230613708
0.393295288 0.260847270 0.238203898
0.412650287 0.271347165 0.246932551
0.436433077 0.284503192 0.262112975
0.468817413 0.299936503 0.277292639
0.499177694 0.313598931 0.293231815
0.529285133 0.330297261 0.307653278
0.561290145 0.345098048 0.324098557
0.597722948 0.369386107 0.351422995
0.176091477 0.164073497 0.136748999
0.170018718 0.164073497 0.142820999
0.170651287 0.166223735 0.146489769
0.174825996 0.167868003 0.148134485
0.180645064 0.168374076 0.148640424
0.183681458 0.171410471 0.151676044
0.186464161 0.169133171 0.146869019
0.189879715 0.171410426 0.142820790
0.195066482 0.176470876 0.142188206
0.207210481 0.179506496 0.148260981
0.213408992 0.179633006 0.151676103
0.219480991 0.183934018 0.156862542
0.226691633 0.188614652 0.162428498
0.236052990 0.191903979 0.168500587
0.248196974 0.197975963 0.174573347
0.260215133 0.204174504 0.178368166
0.272359490 0.210120007 0.183048487
0.284630001 0.216444999 0.189753100
0.296774030 0.222517028 0.198861495
0.308791548 0.228463247 0.207843363
0.322959721 0.236559242 0.214927495
0.340164125 0.245667145 0.221252471
0.361163497 0.254775494 0.227577463
0.376343906 0.263883919 0.239721492
0.396331251 0.272991657 0.247311503
0.418722302 0.283491313 0.254775167
0.442505062 0.296647936 0.265148580
0.463757426 0.314863950 0.280328959
0.498797923 0.324984312 0.298165470
0.531308889 0.341429651 0.312713414
0.560910583 0.359772444 0.326755464
0.588614523 0.372422487 0.345350981
0.176470995 0.176344007 0.145983875
0.182036966 0.182163000 0.152055874
0.178114966 0.180012777 0.151676103
0.180897981 0.181530580 0.153194293
0.186210990 0.183554411 0.155977458
0.186717063 0.186590806 0.164073050
0.192283124 0.189626545 0.162049323
0.195698708 0.190638587 0.161290154
0.201011986 0.194687098 0.163061053
0.213156000 0.197723269 0.169133827
0.219480991 0.200758874 0.166476995
0.223529249 0.202783138 0.169513136
0.230992869 0.206831098 0.174699739
0.241872042 0.209361032 0.180518702
0.251359850 0.207463875 0.183933958
0.265907645 0.215939060 0.187602937
0.277040184 0.224035203 0.193675071
0.287792861 0.232131436 0.201138735
0.299936891 0.240480751 0.207969859
0.314864218 0.246552736 0.217077523
0.329031974 0.252624989 0.222390860
0.344212145 0.259708881 0.228463113
0.361543000 0.266793013 0.236306354
0.379506767 0.273118019 0.240101010
0.396963835 0.282226413 0.252245575
0.417583644 0.292725831 0.260974050
0.440860182 0.304364204 0.271094084
0.466919541 0.315369993 0.286274433
0.496141732 0.330929816 0.296141833
0.532068193 0.345856935 0.317140788
0.563820422 0.365085304 0.336495697
0.591144860 0.381277859 0.356736004
0.182542726 0.196584508 0.161163986
0.182542995 0.198608503 0.167235985
0.188235477 0.202276766 0.166856736
0.188994244 0.199241132 0.165085509
0.193927705 0.201138496 0.166603699
0.192283005 0.205819190 0.169133320
0.199367255 0.206831187 0.172169581
0.203794971 0.209866792 0.172422543
0.208349153 0.213662177 0.176217243
0.219227999 0.217963740 0.182289690
0.223529249 0.220999375 0.183681384
0.229601264 0.222011253 0.180644989
0.236052990 0.226185992 0.184819728
0.247944027 0.230107278 0.190891787
0.257052392 0.230613664 0.195699096
0.268943518 0.233143434 0.200759068
0.281087905 0.239215448 0.205313250
0.291461289 0.246046826 0.212650418
0.304997027 0.252372235 0.217330754
0.317900091 0.260721028 0.226185903
0.331182718 0.264895737 0.229601249
0.345224261 0.271853387 0.234535128
0.359645754 0.279064000 0.243516982
0.379759818 0.287033230 0.248450354
0.402024001 0.295382529 0.260341585
0.421631634 0.305882215 0.269702971
0.443896055 0.318532318 0.279696256
0.471220404 0.330676675 0.296394408
0.501201630 0.343073785 0.308286071
0.531562328 0.360025406 0.320935994
0.565717936 0.378241479 0.341808587
0.594180703 0.396457970 0.360783994
0.192789286 0.225427285 0.180518627
0.190892026 0.225427285 0.184313640
0.194307640 0.226439148 0.186211407
0.198102638 0.228083432 0.184440643
0.203795090 0.225806743 0.184820086
0.202276692 0.231119633 0.183301687
0.207083970 0.232131630 0.184187308
0.215180352 0.232637554 0.187223569
0.219734535 0.235673368 0.191018283
0.228842154 0.241366595 0.197090268
0.233269855 0.245667398 0.199114501
0.238330275 0.246679276 0.198102370
0.245540634 0.247817636 0.198481634
0.257431686 0.253889680 0.204553694
0.266540051 0.257811695 0.210626468
0.278051615 0.260847479 0.216698632
0.290954828 0.263883442 0.220493644
0.300063223 0.266919672 0.226565629
0.314231634 0.269955963 0.230107337
0.326628655 0.277419299 0.238709643
0.343326926 0.282732368 0.245540634
0.355470926 0.287792772 0.246552765
0.367995113 0.296901107 0.255534619
0.389247537 0.306008726 0.263630629
0.411638260 0.313978285 0.273118258
0.433396280 0.325616598 0.286400974
0.455660701 0.338266701 0.293485135
0.482985049 0.353447050 0.310436279
0.512966275 0.365970612 0.323339641
0.544465363 0.382795393 0.340670645
0.576597214 0.401897579 0.359392494
0.607463241 0.420366645 0.375584930
0.204428002 0.260088950 0.201012000
0.204428002 0.260088950 0.201012000
0.208475962 0.260342002 0.202656776
0.212271005 0.260595024 0.204680964
0.212650448 0.260974467 0.205566496
0.215686053 0.264010102 0.208602101
0.218975350 0.264263064 0.208602041
0.225047693 0.264769047 0.210499719
0.233649895 0.265275121 0.213789001
0.242757514 0.268311530 0.219860986
0.249209031 0.274004012 0.220619991
0.255534530 0.276028007 0.219101802
0.262745321 0.277419388 0.219228029
0.271853030 0.280202031 0.225047052
0.280961394 0.286274791 0.231119826
0.292219996 0.289943218 0.237191990
0.306135178 0.293232203 0.240481034
0.319797546 0.296268463 0.241492987
0.328905970 0.299304098 0.247565016
0.341303051 0.305123061 0.255914360
0.360025436 0.309550762 0.265022278
0.381025016 0.314611167 0.272359163
0.393421978 0.323466510 0.275648504
0.414547861 0.332321107 0.287666023
0.435547292 0.339911044 0.296014994
0.456420034 0.349651724 0.304869980
0.475648046 0.364579082 0.316761136
0.502972424 0.379759431 0.328905910
0.532953620 0.392536044 0.341809005
0.565085113 0.409740180 0.359772384
0.598355234 0.431245655 0.384693533
0.634788036 0.452498078 0.412017971
0.210500002 0.275268555 0.213155985
0.210500002 0.275268555 0.213155985
0.212650225 0.277419329 0.211005762
0.216318741 0.279823154 0.211764842
0.218722448 0.282226831 0.214927122
0.221758053 0.285262465 0.223782465
0.227324635 0.283238709 0.219228402
0.232764408 0.285768807 0.220999405
0.238709897 0.289057791 0.224920988
0.242757514 0.289563864 0.225932986
0.251865864 0.292599499 0.232005000
0.260341674 0.294243962 0.234788254
0.268817335 0.296520978 0.236559182
0.277925014 0.301454395 0.240227446
0.287033379 0.301454395 0.243263826
0.296141803 0.305123359 0.249335989
0.310436398 0.309677392 0.253890187
0.325489998 0.314484566 0.256293803
0.331941575 0.317520857 0.259709001
0.349399298 0.323339820 0.262998343
0.362555385 0.329411834 0.271094233
0.380265713 0.335863531 0.279190242
0.399493963 0.344718874 0.284756869
0.417709976 0.347754478 0.293864489
0.436559141 0.361163676 0.308159292
0.460974306 0.371663451 0.320050389
0.487286747 0.382542819 0.331688464
0.509044409 0.394939840 0.341049880
0.539025664 0.410120219 0.361163765
0.571157157 0.426438749 0.373434573
0.601897180 0.447058588 0.390132964
0.628715992 0.470714837 0.415053576
0.223782793 0.295255780 0.225300595
0.214168191 0.295255780 0.222896799
0.216318965 0.297406554 0.225047573
0.221884966 0.300442636 0.226312786
0.226818800 0.303099185 0.230107591
0.227830663 0.304111063 0.233143732
0.235799834 0.306894302 0.234408796
0.240227908 0.307147682 0.234914795
0.245540991 0.310942769 0.240227699
0.250221312 0.310942769 0.241871983
0.259076655 0.311448723 0.245287791
0.266160786 0.314484328 0.247311801
0.273751020 0.314863771 0.249968633
0.282099843 0.318152815 0.253257602
0.295509189 0.320303619 0.258444220
0.307020783 0.322706789 0.259076804
0.316129178 0.327260971 0.265148789
0.331056386 0.332067996 0.269702971
0.342441618 0.333333164 0.274509847
0.354838699 0.341555983 0.277546138
0.373054981 0.347627997 0.284377038
0.386211246 0.353699982 0.291460931
0.403289288 0.361416698 0.296394974
0.423782617 0.369006872 0.307779908
0.444275886 0.376597077 0.316888094
0.465401739 0.390132755 0.329032093
0.492220253 0.401265055 0.341176122
0.513472378 0.415306777 0.355977237
0.540290654 0.427703798 0.373307765
0.568880141 0.442884177 0.389247388
0.603668153 0.463124365 0.403415740
0.637064993 0.488931000 0.427703798
0.232890800 0.316508174 0.238962799
0.228336602 0.318026394 0.238962784
0.225426957 0.315622985 0.237191573
0.232258186 0.323719352 0.242757961
0.240480989 0.327008009 0.249462545
0.240480989 0.325869381 0.252878189
0.240480870 0.326881498 0.246806189
0.247817710 0.329917908 0.248576984
0.252372086 0.332954109 0.254648983
0.259203196 0.333712995 0.258443713
0.268184662 0.333712995 0.261480033
0.275269181 0.335737109 0.260973990
0.282479525 0.337634385 0.262112617
0.289184034 0.337634385 0.265148938
0.301834404 0.339405596 0.269955784
0.314610988 0.342441380 0.271220803
0.325237185 0.346995175 0.274257183
0.335610569 0.353067338 0.280961573
0.350791007 0.354838580 0.287918985
0.363187999 0.358633757 0.292726159
0.379126996 0.365844399 0.296521425
0.396331131 0.372928262 0.305629313
0.409108281 0.379379690 0.309930652
0.427577704 0.385705113 0.320683002
0.448830098 0.394813478 0.330550283
0.470082432 0.403921485 0.341049969
0.494750053 0.416445047 0.349778175
0.518026412 0.431625426 0.363946706
0.541555822 0.445667177 0.382163167
0.570398331 0.458064169 0.396837205
0.601264775 0.478557795 0.415180355
0.643136978 0.507147372 0.441365987
0.236559004 0.337128133 0.254142553
0.241492957 0.342061937 0.259076536
0.242378563 0.339278996 0.257811368
0.244276002 0.339532137 0.257305115
0.255661011 0.352814972 0.265654534
0.256166995 0.350031614 0.274256915
0.254901975 0.350158125 0.269449949
0.254142970 0.351170242 0.264895827
0.260341674 0.354206473 0.268058151
0.269450068 0.357242078 0.274130166
0.277292699 0.356736153 0.275395453
0.285641938 0.358760238 0.276280880
0.292852908 0.361922979 0.276154190
0.302213550 0.362176001 0.279443562
0.311701357 0.362555534 0.282858700
0.322580546 0.364326328 0.282858551
0.333839148 0.368880123 0.284629792
0.342314988 0.373687118 0.290069968
0.357495427 0.379759908 0.299177587
0.371157587 0.380898565 0.306135148
0.385199159 0.384693563 0.310942292
0.403035700 0.391145021 0.315370113
0.418342561 0.399999619 0.324478477
0.434028894 0.403035879 0.333586246
0.453130841 0.411891252 0.342694253
0.475015610 0.422264427 0.354459107
0.496774077 0.431878120 0.367109209
0.523971975 0.446931958 0.373560697
0.546615779 0.462112367 0.388994187
0.573181331 0.476786673 0.404301077
0.604301155 0.491334200 0.420113713
0.643769562 0.524731398 0.453510165
0.242631048 0.355345011 0.269323021
0.254775792 0.367488980 0.281467766
0.257559001 0.368121237 0.282100230
0.256293833 0.367362231 0.279063851
0.255661041 0.371031046 0.277798623
0.261733025 0.371031046 0.280835003
0.272359014 0.373308361 0.286907017
0.276407033 0.374447018 0.288172036
0.278431207 0.375458926 0.289184093
0.284630507 0.378494531 0.292346954
0.287919134 0.375711918 0.286780983
0.297532976 0.376976728 0.289563984
0.308032721 0.381151050 0.294876963
0.317394018 0.386464089 0.300696015
0.329537988 0.389500469 0.306768000
0.339025795 0.389880002 0.305376172
0.349904984 0.393168986 0.304111004
0.360531002 0.397976011 0.305249661
0.366603076 0.397975981 0.308286011
0.384566784 0.401265413 0.317394346
0.396584749 0.405946016 0.324351966
0.409487963 0.412018031 0.330170989
0.427450985 0.418216467 0.336622536
0.445666999 0.421252072 0.345730931
0.463630617 0.433396310 0.354838669
0.484882951 0.448070705 0.368121356
0.508918107 0.462238967 0.385326028
0.533206820 0.474382937 0.400506377
0.557747960 0.489436805 0.412270904
0.585325360 0.506388426 0.426692158
0.615686178 0.523213327 0.443390548
0.646806002 0.539911091 0.465654969
0.273751080 0.415307105 0.309550732
0.274763167 0.416319072 0.310562789
0.284756601 0.419861078 0.316255778
0.286653996 0.418722451 0.315749764
0.285515368 0.419861078 0.314611107
0.286780357 0.419861078 0.315243691
0.290322691 0.417330772 0.315749764
0.298418701 0.419861078 0.319671035
0.302972823 0.420999736 0.320050478
0.311069340 0.422011614 0.319038868
0.317014873 0.427577645 0.324478388
0.320050478 0.426565766 0.322454393
0.328779012 0.425427079 0.324731380
0.337887406 0.424921095 0.327514380
0.347501695 0.430487156 0.333586365
0.362049520 0.431119740 0.334851354
0.373434722 0.434155732 0.336748719
0.384946287 0.438330144 0.339911342
0.393169105 0.436179399 0.342947692
0.404807121 0.441746116 0.345983356
0.421126097 0.444781989 0.349399000
0.434029490 0.448956519 0.354712158
0.450474709 0.453257740 0.362428874
0.468690723 0.458950192 0.366224289
0.486906737 0.468817085 0.377609372
0.506514668 0.480708390 0.390006363
0.529411495 0.492599726 0.406325459
0.553700209 0.504743755 0.421505809
0.580645144 0.519544542 0.434029371
0.608602107 0.534724891 0.451486558
0.638077319 0.555471301 0.470461965
0.666540384 0.580138743 0.491714358
0.291967243 0.444908261 0.331182748
0.293864995 0.446805984 0.333079994
0.298418969 0.450600982 0.337128490
0.302466571 0.449336141 0.335104585
0.302972525 0.449842185 0.335104555
0.307526737 0.454395980 0.342694730
0.311954319 0.453763396 0.338899732
0.313345999 0.450727433 0.342188716
0.319671094 0.454016745 0.344718456
0.328779489 0.456293732 0.342821211
0.334977984 0.458317757 0.346616000
0.342821211 0.460341752 0.350537747
0.349272460 0.460341752 0.349399090
0.358886749 0.456546694 0.348893017
0.366350383 0.460973948 0.353320718
0.376470804 0.464136720 0.358380735
0.391651213 0.465654910 0.359898925
0.403542161 0.470082462 0.364958882
0.412650228 0.468311220 0.367994964
0.426439017 0.473624438 0.374826103
0.436685711 0.475901723 0.374066740
0.452877969 0.479949474 0.377102882
0.468690753 0.483871192 0.386084735
0.481593996 0.488171995 0.390891880
0.501707733 0.496900737 0.396963984
