Assets/Shaders/EldamarStudio/100 Sci-Fi LUTs Pack/LUTs/cube/Grace LUT.cube
DOMAIN_MIN 0 0 0
DOMAIN_MAX 1 1 1
LUT_3D_SIZE 32
0.054901998 0.058823999 0.066666998
0.079190768 0.061859611 0.063630611
0.103478998 0.062744997 0.060594771
0.130297318 0.061480161 0.062618837
0.160658002 0.058823999 0.070967548
0.191018000 0.058823999 0.074003935
0.228968963 0.063883997 0.077039681
0.261859715 0.063377999 0.080075711
0.289184123 0.059582900 0.084630102
0.316508532 0.062618509 0.093738489
0.346742749 0.054016128 0.099936999
0.379127234 0.053004257 0.106008992
0.412523627 0.054901998 0.114357993
0.445920080 0.054142967 0.125237033
0.479317218 0.045034587 0.122201420
0.512713730 0.038330004 0.126375988
0.549146175 0.035294000 0.137002185
0.586717129 0.034029007 0.151549980
0.617078006 0.027956989 0.163694024
0.655787408 0.019101638 0.178621367
0.693358481 0.008096008 0.186211258
0.728779137 0.000000000 0.192283258
0.762428463 0.000000000 0.204427987
0.801897705 0.000000000 0.216572002
0.836812317 0.000000000 0.228715986
0.870208621 0.001391672 0.240859970
0.903605044 0.003922000 0.251992106
0.937001407 0.003922000 0.258064896
0.967741609 0.019860962 0.272106111
0.989247143 0.041619379 0.287286162
0.998229027 0.068564564 0.300695598
0.992156982 0.101961002 0.309803993
0.073118001 0.080076382 0.072738998
0.079190768 0.083112001 0.066666998
0.107779995 0.083997384 0.063630611
0.133839324 0.086527385 0.064389609
0.159519553 0.089942999 0.071346998
0.181910381 0.095256001 0.077039547
0.222391024 0.092726320 0.077545613
0.254142970 0.092346683 0.081720419
0.281593710 0.088425100 0.086148284
0.313472122 0.086907290 0.090702102
0.343706340 0.087033771 0.096900612
0.372042865 0.086400896 0.100948870
0.403415531 0.088298388 0.108285993
0.437571466 0.087539420 0.120177031
0.479317218 0.078431740 0.128273413
0.515116990 0.074130356 0.134851187
0.546109796 0.073244967 0.144592002
0.578873754 0.074130580 0.156989411
0.614041626 0.070461765 0.166729614
0.649968326 0.064389765 0.170524970
0.687286496 0.059329424 0.180898339
0.724731147 0.052624773 0.190259501
0.762554944 0.048450291 0.204807490
0.804933310 0.045541160 0.225680396
0.839848459 0.040986586 0.233270392
0.870462060 0.040860061 0.243896380
0.900569439 0.044908449 0.255534470
0.933965802 0.052498773 0.264136910
0.962049186 0.060467917 0.272865146
0.983175159 0.075774565 0.283744186
0.994813383 0.095382579 0.299936563
0.995192647 0.120176993 0.321947992
0.089183778 0.103478998 0.089563772
0.099556997 0.104364380 0.083491772
0.112080999 0.105249770 0.075268999
0.138646156 0.106514931 0.074762933
0.161290318 0.112080999 0.077672452
0.180771932 0.119923770 0.073117994
0.211132094 0.122707091 0.082732551
0.251992553 0.119671062 0.082732551
0.281087875 0.117393769 0.089310996
0.314484298 0.115749478 0.096521303
0.340670496 0.115622997 0.104617000
0.369007021 0.113599256 0.106641002
0.400885403 0.115243547 0.110689513
0.436306268 0.115496516 0.120303772
0.473118246 0.113978431 0.127514407
0.508665740 0.107526958 0.136622190
0.542061746 0.106008768 0.145730197
0.573181093 0.107147582 0.157242209
0.612649977 0.104111575 0.167868048
0.644781709 0.102593541 0.173561126
0.683111727 0.096521065 0.180392027
0.721821487 0.092219770 0.191524342
0.762301981 0.086400770 0.206578210
0.800758839 0.085388899 0.221758366
0.834282041 0.082226746 0.233776227
0.867678881 0.080328636 0.242631197
0.898039341 0.083870769 0.254775375
0.933080435 0.091334432 0.265528440
0.965464771 0.093990915 0.278937697
0.985705137 0.106640950 0.289816499
0.996457994 0.121821359 0.297533184
0.998228788 0.140543774 0.314737231
0.104364157 0.129032165 0.112080999
0.112713322 0.127767324 0.104744159
0.125742942 0.127767324 0.097786225
0.144718155 0.130297318 0.087413006
0.166350096 0.132195160 0.088551842
0.186337873 0.136875391 0.076407291
0.212144315 0.144718483 0.080708638
0.241112947 0.149525762 0.088804998
0.279063940 0.147248477 0.090323001
0.312460363 0.147248477 0.101455010
0.339658588 0.147248477 0.110689126
0.365971088 0.145224407 0.114990160
0.398988128 0.144465789 0.118405804
0.438330054 0.144086257 0.124351971
0.472738534 0.144085735 0.129411831
0.503605247 0.142441154 0.140417352
0.535484195 0.138140321 0.146995366
0.568374276 0.139405310 0.156103581
0.610879183 0.138267115 0.167615011
0.644781888 0.135484159 0.175458550
0.677039742 0.132953838 0.183428422
0.716508389 0.128905326 0.193548173
0.758380592 0.123592317 0.208602011
0.793674827 0.123592317 0.223023325
0.826818407 0.120050453 0.232890278
0.859835684 0.118532635 0.239595130
0.892726183 0.120556384 0.251233220
0.927640855 0.124351472 0.262618899
0.963946760 0.127640486 0.278684646
0.986717165 0.135230497 0.290828943
0.999240994 0.146868914 0.303858370
1.000000000 0.160531327 0.308412015
0.119544543 0.155977100 0.133712545
0.124478385 0.152941376 0.127261385
0.132448003 0.152435541 0.119544543
0.148134083 0.154965535 0.112460099
0.172801644 0.160278544 0.099936552
0.197090417 0.154206544 0.087792553
0.220620096 0.161037549 0.087160312
0.245667532 0.171157703 0.091081992
0.271094084 0.179886535 0.097153999
0.304490507 0.179886535 0.103226006
0.334218740 0.179886535 0.111448221
0.363314241 0.178621277 0.116887800
0.395572245 0.177103177 0.121442094
0.437318027 0.179633498 0.130297452
0.473624259 0.173687249 0.133459583
0.503605247 0.172801644 0.144971341
0.532827377 0.171663284 0.155218199
0.565338552 0.169766098 0.159898967
0.607843459 0.175838083 0.169006601
0.644782186 0.171537086 0.177735358
0.678557992 0.166982904 0.186843738
0.711195350 0.164958641 0.196963996
0.750284970 0.164958641 0.208981514
0.783428311 0.164958641 0.226439267
0.816065729 0.161543101 0.238203704
0.851233304 0.157495096 0.244528681
0.887033582 0.157748163 0.248956516
0.917394280 0.154712558 0.258064866
0.954965174 0.158887088 0.274383396
0.981024623 0.167362496 0.288045645
0.993927956 0.177988589 0.298545361
1.000000000 0.181024984 0.313724995
0.134724930 0.180265874 0.136748940
0.152940944 0.177229464 0.148892939
0.155724004 0.178494766 0.140291005
0.162808314 0.182289928 0.134218872
0.178874403 0.187602937 0.130297318
0.206198797 0.187602937 0.115116931
0.225426927 0.181530923 0.108032927
0.251233459 0.185072929 0.106767997
0.279063940 0.193928093 0.109297991
0.304490507 0.207210928 0.115369998
0.329158753 0.207210928 0.118532866
0.360531241 0.209234655 0.124604866
0.394054264 0.208981574 0.129032284
0.431246042 0.206957906 0.133333057
0.464642376 0.203921527 0.139405057
0.498544812 0.205186680 0.144971609
0.530929625 0.206198812 0.155597940
0.565085530 0.205692872 0.166223988
0.604807019 0.206198871 0.178114980
0.641745746 0.206704870 0.184439927
0.680075765 0.201897874 0.192915738
0.716002345 0.198355809 0.203035995
0.750284970 0.198355809 0.215053499
0.780645013 0.198355809 0.224161908
0.809234321 0.200632513 0.237065047
0.843137026 0.197975889 0.244528681
0.881088078 0.194433928 0.249082997
0.914357901 0.197217330 0.261100501
0.947374821 0.196837872 0.272865057
0.974699259 0.199620634 0.287792236
0.991397619 0.206830919 0.301075041
1.000000000 0.217456996 0.313724995
0.162555635 0.214674637 0.160025313
0.168121308 0.211638242 0.167109311
0.186337873 0.215053633 0.177103087
0.193674967 0.215939477 0.171410471
0.204301313 0.217837095 0.168247774
0.212270916 0.219987318 0.153067380
0.237064987 0.217457637 0.135357320
0.261859417 0.209740937 0.127640605
0.291461080 0.212144405 0.125743091
0.317520320 0.223782822 0.130044311
0.334218740 0.234535322 0.125616863
0.362555504 0.236559048 0.132700741
0.396584600 0.240733594 0.138140321
0.432764351 0.242378592 0.141935319
0.466160715 0.243896216 0.152561322
0.501960933 0.243263632 0.163440928
0.535483837 0.244655311 0.169766307
0.570145547 0.244022891 0.177988738
0.609614015 0.242125630 0.184440017
0.648829997 0.242125630 0.198608324
0.683364987 0.244022891 0.206578061
0.720556617 0.240860447 0.213662177
0.755724490 0.239089608 0.221125498
0.793295324 0.234281987 0.230233908
0.828209877 0.234281987 0.241618991
0.856293321 0.235673308 0.252371669
0.890196085 0.232890308 0.260215133
0.923592389 0.233902439 0.276407629
0.956989408 0.236812323 0.288551629
0.981530607 0.236812323 0.298924387
0.995825291 0.241745621 0.313472182
1.000000000 0.253889650 0.328905642
0.187982693 0.246173695 0.193927690
0.192663029 0.244782016 0.190132692
0.201517835 0.246552691 0.196710750
0.218469441 0.251359850 0.204553977
0.229854539 0.249842152 0.202656239
0.231119692 0.252877742 0.192536175
0.248070702 0.252498299 0.174825698
0.270714372 0.249462694 0.156609699
0.298039168 0.238836303 0.145983309
0.322707206 0.240860477 0.143706486
0.346615851 0.247944698 0.144591987
0.373561203 0.257305443 0.143706426
0.399367690 0.263756961 0.149398699
0.432511330 0.271347702 0.152181998
0.465907693 0.278557956 0.161542982
0.495129883 0.280834705 0.170398608
0.536116481 0.280834705 0.181024805
0.570651412 0.280834705 0.187223271
0.609108031 0.278810948 0.191271052
0.646932364 0.276913702 0.202150375
0.685894966 0.277166635 0.216824740
0.720303535 0.279190391 0.223909125
0.756736279 0.276913702 0.227197886
0.794686973 0.273877293 0.236305907
0.830233872 0.272359103 0.247691408
0.865275264 0.272359103 0.259835392
0.893105745 0.271853030 0.269196779
0.924225092 0.270714402 0.283997893
0.959266067 0.273371249 0.298545271
0.987096965 0.274636418 0.308918446
0.999114394 0.276407391 0.319797277
0.998355269 0.287033409 0.337255001
0.209994003 0.275016099 0.225806087
0.216066003 0.276534110 0.218216106
0.223529324 0.277925432 0.219734192
0.238203436 0.280202270 0.225047275
0.253004283 0.282859087 0.230739743
0.257179141 0.285515279 0.228463024
0.268311203 0.285262108 0.214294642
0.285135686 0.285894901 0.196837187
0.307147145 0.282859087 0.179380089
0.325363994 0.267678708 0.164199695
0.352941096 0.265401870 0.162555113
0.382289648 0.269449919 0.163820192
0.413788974 0.278937191 0.164579093
0.432511061 0.291081965 0.165338129
0.464389473 0.303226084 0.171916187
0.492093474 0.309677303 0.176470608
0.523972273 0.313472182 0.184060991
0.566350043 0.313472182 0.191903606
0.602529883 0.313472182 0.197849110
0.639721692 0.312207550 0.207463354
0.678051710 0.311069191 0.218089834
0.714990258 0.310310096 0.230740026
0.751296461 0.310183585 0.234029397
0.787096739 0.309551001 0.243137196
0.821252227 0.309551001 0.254522473
0.856166899 0.309551001 0.265148878
0.889563978 0.310057074 0.277293026
0.917394340 0.307526737 0.286654413
0.951170027 0.308285832 0.301075161
0.982036293 0.311069191 0.314231187
0.999873459 0.311322182 0.322074592
0.996837080 0.317394197 0.337255001
0.234282017 0.308412492 0.234914497
0.240354016 0.314484537 0.240986496
0.246426016 0.316002518 0.248450279
0.261479974 0.316128999 0.254902154
0.286401480 0.316255510 0.258064926
0.298545480 0.316255510 0.261100531
0.300190002 0.313851655 0.251233518
0.305882275 0.315875947 0.237191781
0.319291204 0.319291890 0.221884906
0.343579948 0.316255540 0.206704497
0.364705861 0.301075131 0.185705125
0.386337757 0.294750303 0.177735776
0.412650138 0.296774328 0.177103341
0.444655061 0.306261569 0.180518538
0.468943834 0.318406314 0.189626902
0.498418450 0.328146666 0.191397980
0.530044079 0.337001652 0.196205199
0.563314438 0.343832970 0.204048395
0.593674541 0.343832999 0.207084030
0.632637620 0.346616358 0.218595490
0.671979725 0.347501993 0.226818472
0.708412290 0.346489847 0.234282359
0.739152431 0.343580008 0.243137017
0.772548854 0.340543628 0.252245426
0.806071818 0.339911044 0.263630509
0.842251480 0.339911044 0.272991538
0.880455554 0.340417117 0.280328631
0.913851917 0.343453467 0.292473406
0.944339156 0.340923160 0.307147145
0.974952400 0.343453467 0.322327167
0.997090161 0.347501993 0.333712578
0.999873459 0.347755015 0.337255001
0.267298877 0.341808856 0.267298877
0.270461738 0.344971746 0.267551869
0.276533753 0.346742749 0.271473646
0.290196061 0.345477581 0.279064029
0.313599318 0.344971418 0.286148310
0.323212981 0.352561742 0.294243932
0.335357666 0.352561742 0.297280192
0.340164721 0.353193909 0.287033737
0.349525690 0.357242107 0.270841390
0.367362708 0.358507246 0.249209240
0.382921845 0.343832880 0.228209868
0.400126249 0.328652471 0.208981752
0.423023283 0.320935994 0.200379863
0.453889906 0.320935875 0.197849751
0.478178680 0.327766925 0.198988289
0.504870653 0.342314929 0.208096057
0.533206880 0.353952855 0.208096191
0.562555552 0.363820136 0.211638421
0.590638936 0.368374735 0.219228029
0.623782277 0.376723379 0.222264349
0.661100626 0.378114998 0.228336602
0.699557126 0.378114998 0.235421002
0.735736668 0.376976371 0.246173352
0.769133747 0.373940706 0.249715015
0.804806828 0.370904326 0.258823425
0.837444305 0.368880421 0.268943638
0.872359216 0.367362618 0.279063940
0.910562575 0.367995173 0.298418909
0.933332920 0.373687714 0.302593172
0.970018625 0.373181611 0.320303142
0.996963620 0.374320269 0.334218591
1.000000000 0.372295976 0.337255001
0.298671514 0.379253745 0.296647251
0.297659397 0.382289618 0.300695747
0.312966228 0.383175224 0.308918267
0.321568549 0.381910384 0.314484656
0.341682792 0.379633188 0.323213488
0.354079843 0.385452181 0.330676794
0.369765878 0.391018242 0.334724545
0.376976937 0.391018242 0.331182957
0.382669508 0.391397506 0.317900300
0.394054741 0.390638739 0.296141505
0.413282871 0.388361901 0.274762601
0.426438749 0.375205219 0.251486510
0.439342141 0.358886480 0.232131869
0.462745279 0.348766506 0.221632242
0.485262811 0.344212472 0.218090251
0.511954784 0.355471045 0.219228700
0.540796995 0.366097242 0.223782510
0.568627477 0.377229244 0.221885249
0.595952332 0.386084676 0.226818562
0.624794662 0.398987919 0.232384607
0.652498245 0.404300988 0.237318248
0.687412858 0.404427499 0.241492987
0.724983692 0.404427499 0.251359999
0.764073193 0.403289169 0.256293356
0.803794980 0.404300958 0.263883531
0.836053014 0.399873257 0.274383217
0.865275323 0.397217065 0.283617973
0.898671687 0.398735255 0.297280163
0.934345007 0.400000244 0.308665156
0.957368612 0.402530253 0.318785161
0.990385592 0.404301256 0.337760568
0.997975767 0.404680490 0.345350981
0.337001920 0.425553620 0.331941575
0.339658171 0.426312506 0.339152426
0.346995324 0.428336263 0.346110255
0.365590960 0.429348409 0.355850786
0.378494740 0.426692247 0.365338653
0.394434214 0.428968996 0.372928619
0.412144274 0.432257921 0.382163227
0.422137976 0.435040921 0.378620982
0.427451253 0.435800016 0.369513154
0.434282273 0.430866539 0.352434933
0.451486498 0.430107474 0.327893674
0.465528280 0.426439047 0.305755913
0.476533890 0.414294571 0.281467617
0.485136211 0.395319462 0.258950204
0.501075387 0.378747642 0.244022995
0.527134776 0.375585258 0.238203987
0.554838896 0.384693265 0.238203987
0.583933890 0.392030239 0.238203987
0.610753000 0.404174298 0.238204002
0.636938989 0.415686011 0.243770003
0.662365615 0.425553381 0.246426642
0.689689755 0.432637781 0.254522651
0.722959638 0.433270276 0.260594636
0.761416435 0.433270276 0.264642656
0.799367130 0.433270007 0.272991925
0.838329971 0.436685294 0.284629971
0.865655065 0.432131350 0.296774119
0.892979443 0.435167730 0.304111272
0.929791391 0.433270276 0.314357609
0.962681711 0.436685622 0.328272820
0.982542932 0.435800254 0.344338834
0.997216642 0.441113293 0.359772295
0.387350053 0.480202019 0.379254043
0.398735017 0.478684396 0.387096703
0.404933810 0.479190290 0.392409772
0.413535923 0.482226223 0.397470027
0.428589135 0.485136032 0.404301107
0.446805894 0.485136032 0.416445106
0.465275049 0.485389054 0.432384640
0.476027727 0.485895067 0.437824368
0.480582058 0.485895127 0.428715974
0.492726058 0.488931507 0.419607550
0.504364073 0.483491302 0.391145080
0.514484346 0.479190290 0.366350800
0.524098754 0.473498017 0.343959779
0.532954037 0.461353987 0.319418043
0.535989702 0.434028864 0.282985300
0.556735814 0.415559858 0.264263064
0.582795560 0.408475995 0.256167024
0.610247016 0.415054023 0.256926060
0.634535134 0.427198052 0.256926060
0.658317685 0.434282035 0.261480004
0.683112025 0.442251772 0.262618780
0.709424138 0.453131139 0.263124943
0.742314517 0.468058497 0.274889469
0.772295833 0.468438029 0.275016010
0.802909493 0.466666728 0.281594247
0.836053252 0.468058079 0.293738306
0.871474028 0.472865105 0.308665097
0.898798406 0.475901484 0.320809871
0.933839619 0.471727014 0.330550194
0.966223955 0.474003792 0.343453199
0.990891576 0.480328649 0.359013170
1.000000000 0.477293044 0.377229989
0.423782796 0.501454413 0.412650377
0.426818401 0.516634762 0.406578392
0.436053187 0.512966394 0.414421052
0.448956549 0.512587011 0.424794137
0.467805207 0.515623271 0.437697470
0.480202228 0.518532395 0.449842244
0.500948727 0.521062672 0.454395920
0.516634822 0.525110781 0.467172682
0.524604499 0.526881754 0.471220702
0.529158831 0.522327840 0.462112308
0.535483837 0.519544482 0.444275796
0.544845104 0.513851821 0.417457521
0.556230426 0.509550750 0.392536521
0.569386780 0.503857970 0.367994756
0.575458825 0.491714001 0.340670407
0.583301425 0.466793239 0.309044629
0.597722769 0.444402397 0.285515398
0.617457569 0.432131559 0.273244977
0.649715424 0.436306417 0.281214803
0.668437421 0.448450416 0.275648087
0.695509017 0.457432151 0.279696465
0.721568525 0.467552394 0.279823124
0.745350897 0.480202496 0.277925074
0.766603291 0.489310890 0.280961484
0.798861265 0.491967112 0.285641998
0.833016872 0.496521056 0.297912538
0.868943632 0.502466798 0.314990044
0.901834011 0.497153819 0.329917461
0.934472084 0.500189543 0.342062235
0.963187933 0.501328230 0.357115746
0.986084580 0.506514847 0.372928381
1.000000000 0.510689437 0.386337578
0.455407977 0.539531589 0.443643600
0.465654999 0.545098007 0.447185576
0.470841408 0.549525619 0.451865792
0.483491600 0.546489596 0.457178563
0.502846360 0.548387229 0.468563855
0.517014563 0.551422834 0.492852658
0.527134895 0.554459095 0.495003283
0.550031602 0.554206014 0.502972543
0.565970659 0.557242036 0.513598800
0.575585067 0.556103766 0.509424090
0.574319780 0.550537765 0.493990779
0.574320078 0.551549315 0.471726775
0.583048761 0.547754467 0.444781929
0.596964002 0.544465423 0.418722302
0.609487772 0.536622345 0.389247179
0.620366752 0.519670784 0.366729766
0.626438737 0.493864566 0.337887168
0.635294378 0.468690634 0.311448425
0.654522836 0.455787778 0.297533154
0.681214631 0.459962010 0.295129895
0.705123365 0.468310982 0.294749856
0.732953787 0.477925450 0.297280312
0.755724013 0.489816785 0.293105602
0.779253662 0.496647894 0.298418701
0.800505996 0.508033037 0.301454514
0.830613434 0.514231443 0.308791637
0.863504052 0.522833824 0.322453856
0.896900415 0.524351776 0.333839238
0.920682907 0.526248932 0.343959659
0.955850780 0.531056225 0.357874751
0.981783569 0.532953978 0.378114998
1.000000000 0.534471810 0.397849590
0.494876355 0.572928369 0.481594175
0.505502939 0.577482581 0.481594175
0.511828363 0.581404209 0.488298595
0.520430386 0.578874230 0.498671353
0.537001967 0.579127192 0.501201451
0.549905300 0.583301425 0.524731278
0.563061237 0.586337745 0.531309187
0.578874171 0.587602854 0.540923536
0.601644397 0.584566474 0.554585576
0.617583871 0.586084604 0.559139550
0.616824687 0.581910372 0.544591665
0.613788426 0.581910074 0.523339570
0.614168167 0.583807349 0.500189960
0.625300169 0.580645204 0.473118484
0.637950540 0.573307991 0.441492528
0.650727153 0.565212011 0.416824788
0.662871540 0.546995223 0.391018152
0.665275395 0.519038439 0.362428814
0.671727240 0.492979348 0.331182629
0.691461146 0.483111829 0.318279356
0.717267752 0.485009193 0.312966645
0.743580282 0.490069300 0.316002250
0.767615378 0.500442982 0.313978493
0.789120853 0.506514966 0.315876216
0.811132252 0.515623152 0.319670886
0.835167646 0.526375532 0.328272820
0.862492025 0.535989881 0.335610271
0.893864393 0.544086158 0.340670615
0.919670761 0.549019516 0.349778622
0.943706334 0.553826451 0.360911131
0.977482557 0.559898973 0.376976371
1.000000000 0.558760166 0.402403802
0.540923119 0.598482132 0.524604559
0.550663888 0.604554117 0.521695137
0.556103885 0.609361112 0.522960126
0.564200103 0.611005545 0.530297160
0.575585127 0.606451571 0.542061687
0.584440410 0.612523556 0.553953409
0.597975731 0.614800870 0.559772372
0.613914847 0.616824985 0.569765925
0.633775771 0.617963433 0.587350130
0.651992559 0.614927053 0.605566144
0.655914128 0.611891389 0.595572233
0.655154824 0.612270832 0.575585127
0.653004110 0.614168108 0.551170468
0.659076095 0.613662124 0.530171037
0.667804956 0.604933262 0.498671412
0.679949105 0.599999905 0.472485662
0.690828323 0.591271341 0.445793867
0.701075554 0.573687136 0.413535535
0.701075554 0.543327034 0.380139083
0.712460160 0.523465991 0.358127564
0.730170429 0.511574566 0.340543747
0.752561688 0.509424150 0.333586425
0.776850462 0.512713492 0.336495548
0.796078622 0.519291580 0.333965868
0.817204237 0.527008235 0.336116254
0.841872215 0.536748886 0.341555625
0.868690550 0.545350611 0.356230140
0.895888388 0.557242274 0.353827000
0.924477935 0.564073563 0.361416698
0.950663924 0.571410537 0.371663392
0.972675562 0.577482522 0.383048981
1.000000000 0.583554566 0.401264995
0.577356040 0.628843009 0.558001041
0.589500010 0.634914994 0.567109346
0.597090602 0.636686027 0.568500996
0.607969999 0.635926843 0.571536958
0.624162018 0.633776069 0.578494549
0.630234003 0.639848053 0.587602913
0.641619027 0.638330340 0.596964300
0.652371705 0.639089286 0.607210934
0.664010108 0.642631054 0.620620072
0.679317057 0.648323536 0.635927022
0.694623888 0.645287871 0.639595151
0.700442731 0.644276023 0.626945019
0.699557006 0.644528985 0.604807377
0.695508957 0.644023061 0.578747988
0.701581001 0.637951016 0.560531259
0.715116799 0.631625950 0.536243021
0.725489974 0.624288797 0.510436773
0.731435657 0.613156378 0.480329275
0.734472036 0.597975969 0.440860033
0.737254620 0.575964630 0.410247028
0.745097756 0.553067505 0.379000723
0.757495224 0.534851074 0.356736094
0.773814082 0.524857521 0.351676017
0.798102915 0.533965886 0.351676017
0.821885049 0.540543973 0.355977029
0.848703384 0.549651921 0.359012991
0.877798975 0.560530961 0.362302154
0.902086973 0.566602945 0.374446929
0.934598505 0.573181689 0.382669151
0.963947058 0.582795918 0.391777188
0.986590981 0.592662930 0.400253028
1.000000000 0.598734975 0.407337010
0.652751505 0.673118353 0.616445482
0.659329474 0.679190338 0.628336430
0.665022254 0.678811133 0.635294080
0.671726942 0.678178787 0.637824297
0.682732344 0.676660538 0.641239882
0.681594074 0.675521731 0.640733659
0.692726135 0.674004018 0.649842024
0.709803820 0.674256980 0.658950448
0.723466158 0.677292824 0.668438137
0.734598577 0.681341112 0.677546263
0.744212270 0.681467593 0.695003271
0.751296639 0.680455744 0.687919080
0.753194094 0.679317117 0.671220779
0.750411093 0.677419424 0.649841785
0.746363103 0.673877716 0.634156048
0.754838884 0.672612727 0.613536000
0.764706075 0.668817580 0.586591125
0.771410465 0.661606789 0.556104004
0.778747380 0.648577154 0.518785536
0.790133059 0.630613387 0.487665772
0.789373696 0.609360993 0.451613039
0.791903794 0.585958123 0.417457223
0.798734903 0.566603541 0.396963775
0.825679898 0.554459274 0.386337757
0.852245331 0.559013069 0.386337757
0.874256730 0.564579368 0.390006423
0.897533417 0.573434651 0.392410070
0.919544697 0.581783354 0.400000274
0.943832695 0.593169034 0.412144363
0.969765842 0.601265073 0.419607729
0.989753246 0.611511588 0.427703977
1.000000000 0.619481385 0.435673743
0.697533011 0.701580942 0.660088718
0.696015000 0.701960683 0.662744939
0.701833963 0.705375969 0.664895713
0.708665550 0.704870403 0.676027715
0.718785524 0.704364419 0.681846976
0.723339617 0.698292017 0.680328786
0.727261484 0.702846289 0.685515285
0.744339228 0.699810266 0.694623709
0.761796474 0.703099132 0.702973008
0.769766212 0.707274199 0.709044933
0.780771613 0.705502987 0.721062720
0.793421686 0.707400739 0.730423689
0.793042481 0.705123425 0.720556676
0.791777432 0.701833963 0.706388175
0.790638685 0.702087402 0.696141899
0.785199523 0.697659969 0.672359645
0.792789757 0.697659969 0.648071289
0.800126731 0.695003152 0.620620072
0.810499549 0.686654031 0.591777205
0.820493460 0.674636483 0.557115495
0.830739975 0.658317447 0.532447457
0.828715742 0.636052907 0.492979050
0.828968763 0.611891210 0.459708959
0.843896389 0.593168795 0.433396459
0.863630295 0.578368247 0.415180475
