Assets/Shaders/EldamarStudio/100 Sci-Fi LUTs Pack/LUTs/cube/Grace LUT.cube
LUT_3D_SIZE 8
DOMAIN_MIN 0.000000 0.000000 0.000000
DOMAIN_MAX 0.903226 0.903226 0.903226
0.054901998 0.058823999 0.066666998
0.160658002 0.058823999 0.070967548
0.289184123 0.059582900 0.084630102
0.412523627 0.054901998 0.114357993
0.549146175 0.035294000 0.137002185
0.693358481 0.008096008 0.186211258
0.836812317 0.000000000 0.228715986
0.967741609 0.019860962 0.272106111
0.119544543 0.155977100 0.133712545
0.172801644 0.160278544 0.099936552
0.271094084 0.179886535 0.097153999
0.395572245 0.177103177 0.121442094
0.532827377 0.171663284 0.155218199
0.678557992 0.166982904 0.186843738
0.816065729 0.161543101 0.238203704
0.954965174 0.158887088 0.274383396
0.209994003 0.275016099 0.225806087
0.253004283 0.282859087 0.230739743
0.307147145 0.282859087 0.179380089
0.413788974 0.278937191 0.164579093
0.523972273 0.313472182 0.184060991
0.678051710 0.311069191 0.218089834
0.821252227 0.309551001 0.254522473
0.951170027 0.308285832 0.301075161
0.337001920 0.425553620 0.331941575
0.378494740 0.426692247 0.365338653
0.427451253 0.435800016 0.369513154
0.476533890 0.414294571 0.281467617
0.554838896 0.384693265 0.238203987
0.662365615 0.425553381 0.246426642
0.799367130 0.433270007 0.272991925
0.929791391 0.433270276 0.314357609
0.494876355 0.572928369 0.481594175
0.537001967 0.579127192 0.501201451
0.601644397 0.584566474 0.554585576
0.614168167 0.583807349 0.500189960
0.662871540 0.546995223 0.391018152
0.717267752 0.485009193 0.312966645
0.811132252 0.515623152 0.319670886
0.919670761 0.549019516 0.349778622
0.697533011 0.701580942 0.660088718
0.718785524 0.704364419 0.681846976
0.761796474 0.703099132 0.702973008
0.793042481 0.705123425 0.720556676
0.792789757 0.697659969 0.648071289
0.830739975 0.658317447 0.532447457
0.863630295 0.578368247 0.415180475
0.954458952 0.606451690 0.431878716
0.831625283 0.772169232 0.769513249
0.842758000 0.774825990 0.789626837
0.865275323 0.776091278 0.804807067
0.900062919 0.780012250 0.836179554
0.906008959 0.776850164 0.816318870
0.914611280 0.764452815 0.755217791
0.945351303 0.743706584 0.664263308
0.980012774 0.669196546 0.538773000
0.931055963 0.824920952 0.890701950
0.952308357 0.828842640 0.892978966
0.957368791 0.830486894 0.905249894
0.977735400 0.826439142 0.912207425
0.997596204 0.827704012 0.928525984
0.993674815 0.826818705 0.892726064
0.996078014 0.825300515 0.851360023
0.997343183 0.802783012 0.782036602
0.000379548 0.127767086 0.212017551
0.156356543 0.058444448 0.204933539
0.271473616 0.082732551 0.190386087
0.392915636 0.112839997 0.226059541
0.524098396 0.136368990 0.266034335
0.679949284 0.138519734 0.304111272
0.818342984 0.091207907 0.320176631
0.955597460 0.020999491 0.341682374
0.003542452 0.209614545 0.212017551
0.139911562 0.181024984 0.190765545
0.274636567 0.168121457 0.212017551
0.381150931 0.186970547 0.231119275
0.524478018 0.183807746 0.255913645
0.675774693 0.157242358 0.271853060
0.815180123 0.134598091 0.296141773
0.945351064 0.145097911 0.326755106
0.134851009 0.281720549 0.239468634
0.218722194 0.275775105 0.238204002
0.285136163 0.281720579 0.248450190
0.385452181 0.293485522 0.239089087
0.525743186 0.295762450 0.256293267
0.670335054 0.293864995 0.275395572
0.808855295 0.294244528 0.309044570
0.944591761 0.293358833 0.343579739
0.278684288 0.409107924 0.326755017
0.329664260 0.414294571 0.339405626
0.411891252 0.423276752 0.380897939
0.456925929 0.404174268 0.316382080
0.539152086 0.389374018 0.278431624
0.651233196 0.423023462 0.297280431
0.791271448 0.428463221 0.321948290
0.920809507 0.426565647 0.356230170
0.455914259 0.553320289 0.463250995
0.490702003 0.563693821 0.484503508
0.564705551 0.563314259 0.531562030
0.606831014 0.571663558 0.526248872
0.644022346 0.534724772 0.412523746
0.701328218 0.482352734 0.341556013
0.798102558 0.519164801 0.356483251
0.911574781 0.550284266 0.387349725
0.663630605 0.686653972 0.639089048
0.682226479 0.693231881 0.658190966
0.732953668 0.693231761 0.686780512
0.781151295 0.696394742 0.718532264
0.785578847 0.689690173 0.663630605
0.813409269 0.654775560 0.549778461
0.854648829 0.580771446 0.434155732
0.950411022 0.609866858 0.459582448
0.802656829 0.765970945 0.768121123
0.827830553 0.770524979 0.781783819
0.848576546 0.772928357 0.797975898
0.888424993 0.769006968 0.819860876
0.905376315 0.774320006 0.828463197
0.904743910 0.763440967 0.759392500
0.940417588 0.741176724 0.672991812
0.978874207 0.666033983 0.553953052
0.934977651 0.824667573 0.879443645
0.946236789 0.828209817 0.895761967
0.957242012 0.826312661 0.895256042
0.975079000 0.827957153 0.912839651
0.993674815 0.827704012 0.930170834
0.994939983 0.829601526 0.900948703
0.994307101 0.822770536 0.856799603
0.997469962 0.806325078 0.793295503
0.000000000 0.219355002 0.363567203
0.000000000 0.137507632 0.356862724
0.264137089 0.068943895 0.329158992
0.389374018 0.086654350 0.325996101
0.512460291 0.104237899 0.333712995
0.651359975 0.137254894 0.378368109
0.793674827 0.176344082 0.424668103
0.934977770 0.225426868 0.482226700
0.006704550 0.298545182 0.355344623
0.003162904 0.246806100 0.359266669
0.236938745 0.164199546 0.341682166
0.386717528 0.158254191 0.329538584
0.507780075 0.174446538 0.340038002
0.647185445 0.200252935 0.382416278
0.794813275 0.223276287 0.431752115
0.929664731 0.269829422 0.481467515
0.001517998 0.370651275 0.360405087
0.000000000 0.366730094 0.365971178
0.230360284 0.310310125 0.354965091
0.387097090 0.277419090 0.338520110
0.517267227 0.289184123 0.364452988
0.661733091 0.304111183 0.403542072
0.803036213 0.311069191 0.439468652
0.938899636 0.308159411 0.461227000
0.089563534 0.397976279 0.370018750
0.175837725 0.388108820 0.376470625
0.299683541 0.394813240 0.371663719
0.420999736 0.397217184 0.381150812
0.516255260 0.399114609 0.371789724
0.653636873 0.407463372 0.394433737
0.795192838 0.408475548 0.412776768
0.924857676 0.419102162 0.449462384
0.315622985 0.529791176 0.455281377
0.364705920 0.531941473 0.465780944
0.455155283 0.544592202 0.479317099
0.583681166 0.558001280 0.550411046
0.604933381 0.527387381 0.467046171
0.679696679 0.496015191 0.417710274
0.784313619 0.534472048 0.430740267
0.915243626 0.545983315 0.468943805
0.582669079 0.674383759 0.614294589
0.604933798 0.673244953 0.625427008
0.672359169 0.679822743 0.656166732
0.742694497 0.685768306 0.704237640
0.776470482 0.682985604 0.699303985
0.797722995 0.651612818 0.593801379
0.837571502 0.589753509 0.493105561
0.933712721 0.623402774 0.520050526
0.771663249 0.762681961 0.758254409
0.792662740 0.756989241 0.766603351
0.825047314 0.769639552 0.791397750
0.869070292 0.767995179 0.820746064
0.909804285 0.772802234 0.843263566
0.907906651 0.762302339 0.790132880
0.927893460 0.739152551 0.701834559
0.971789956 0.671220839 0.591271520
0.922580540 0.828715980 0.879949808
0.929411650 0.826691806 0.888551831
0.948260665 0.830233991 0.893990874
0.971916258 0.826944888 0.911701441
0.986843824 0.830360532 0.930550098
0.992536128 0.827071548 0.912334144
0.996710896 0.823150039 0.873877287
0.998734832 0.805945575 0.812397122
0.006704646 0.334598273 0.558253944
0.001517999 0.290702194 0.546869278
0.000759017 0.138266638 0.527261257
0.374446273 0.083997712 0.484250307
0.512080729 0.081720710 0.471347630
0.637697458 0.086780354 0.473750740
0.769006908 0.094623648 0.483111918
0.913725138 0.159898892 0.529664457
0.005945550 0.386338085 0.542567909
0.000759096 0.352940828 0.538267195
0.004680914 0.229221731 0.532068372
0.367488980 0.167741999 0.487033665
0.503732145 0.158001363 0.472232848
0.630360544 0.158380911 0.464263022
0.766603291 0.171790093 0.489310622
0.907400429 0.211132348 0.533206761
0.000000000 0.504996836 0.567995250
0.000759096 0.479949623 0.546362936
0.000000018 0.395319641 0.550158203
0.343833178 0.278178185 0.509298086
0.513219297 0.259329259 0.481467545
0.636306167 0.263377994 0.473244905
0.775205910 0.281720728 0.504870534
0.918785512 0.319797575 0.560025334
0.001138644 0.543706238 0.558886945
0.003542452 0.546489656 0.561290026
0.021631828 0.531309187 0.557368875
0.348640293 0.441113293 0.513978243
0.513219357 0.372422606 0.480708420
0.636559248 0.381657273 0.490702093
0.779759884 0.406957895 0.533080220
0.910562932 0.458570421 0.591144621
0.058190733 0.518026292 0.515749276
0.151802376 0.521189094 0.518532515
0.269450098 0.518153131 0.517267346
0.403794944 0.503099382 0.506641626
0.544971466 0.499936998 0.521189034
0.650348186 0.503478825 0.519544482
0.787096858 0.522327662 0.543706238
0.919671178 0.539405584 0.579379976
0.370651633 0.641240120 0.601897478
0.408602357 0.642758131 0.603794754
0.495509267 0.645794213 0.609614372
0.613156438 0.651233375 0.632890582
0.751169801 0.668184817 0.709930420
0.761163712 0.642251730 0.642884135
0.819228292 0.605692387 0.575458705
0.915117085 0.642251670 0.602403462
0.684503555 0.747628272 0.729790926
0.707273722 0.751676202 0.739658356
0.751296461 0.748640299 0.750411391
0.816698134 0.759898901 0.787981927
0.886653900 0.766097665 0.840860367
0.911827922 0.764200151 0.830487072
0.918658912 0.743074298 0.746616006
0.958886564 0.684630156 0.656166792
0.904237807 0.824794412 0.873624325
0.907273531 0.826692045 0.880329192
0.929917514 0.827450812 0.890702009
0.956103384 0.830613792 0.915117025
0.989247143 0.830107450 0.929032266
0.998734832 0.830739915 0.938519955
0.997469962 0.824920952 0.900695920
0.996964037 0.812523603 0.845667303
0.001518192 0.435041189 0.729538143
0.001897643 0.397343189 0.724730730
0.002403808 0.301581264 0.710057080
0.038709544 0.156736195 0.677419543
0.489437163 0.083871193 0.634788334
0.642125010 0.047817998 0.614294529
0.760025561 0.040354013 0.609487355
0.885768831 0.014547827 0.603921771
0.003795190 0.471473545 0.712207377
0.000379548 0.442758203 0.704364240
0.002403808 0.368753761 0.704491079
0.015686635 0.217836887 0.680708528
0.485768139 0.160784096 0.629095733
0.626438797 0.135989726 0.602909744
0.754205883 0.131056294 0.603794992
0.882353187 0.116887905 0.608349025
0.000000000 0.556483328 0.722580373
0.000379548 0.543200374 0.728905559
0.004680902 0.476534098 0.717267275
0.001138556 0.344718277 0.695635617
0.475775182 0.273498118 0.642631173
0.635547101 0.244528905 0.617204428
0.756736398 0.241492912 0.615939319
0.890702009 0.238077164 0.616065979
0.002403808 0.673624635 0.743580282
0.001517999 0.662618697 0.742567778
0.000000017 0.615559757 0.717267692
0.203289375 0.518279850 0.697026849
0.441365927 0.398735046 0.654143155
0.630487144 0.358001202 0.607589960
0.760278165 0.355344623 0.614041805
0.888804555 0.368880361 0.623655915
0.003922000 0.677293181 0.713852167
0.002403808 0.682859004 0.722959816
0.055408023 0.674256980 0.716255367
0.336369455 0.658823550 0.715875804
0.488804400 0.565085411 0.675522208
0.636559248 0.476913661 0.622770488
0.773308158 0.481973290 0.623656034
0.906767964 0.530676961 0.671347558
0.166603282 0.661226749 0.684503376
0.237065271 0.660721064 0.683744609
0.329917908 0.650474250 0.678937554
0.439089000 0.636432588 0.657684922
0.549019635 0.614168346 0.653257549
0.681340814 0.606957734 0.654775739
0.792030513 0.616319001 0.655914187
0.912460685 0.638583243 0.693611383
0.431751639 0.724225283 0.717773318
0.470335364 0.725236952 0.723213136
0.547121942 0.726502120 0.724098325
0.661480188 0.729284942 0.739405334
0.777482629 0.742188334 0.777229607
0.895762026 0.764073551 0.848324060
0.895256519 0.736622453 0.780392289
0.945730329 0.702593207 0.718406081
0.807716191 0.818342745 0.851992428
0.829474688 0.824414849 0.849209607
0.860974073 0.822390974 0.869955778
0.907400429 0.825427055 0.889690042
0.962555110 0.830107450 0.913978636
0.997975767 0.831625700 0.952055514
0.997469962 0.830233991 0.934724689
0.996963978 0.815686285 0.868437469
0.002024260 0.499683738 0.840733767
0.003542452 0.480455369 0.841366231
0.001897740 0.427071393 0.840986431
0.000759096 0.287666112 0.826438785
0.257052243 0.186084539 0.801138461
0.595445931 0.091967247 0.754332721
0.748007536 0.016445290 0.742062211
0.881467640 0.001897740 0.743832707
0.000379548 0.532700717 0.834661484
0.001518192 0.512207687 0.841113329
0.002783356 0.456546545 0.832763851
0.002783356 0.338140637 0.820872903
0.241745919 0.229475081 0.790638685
0.591271520 0.161290303 0.748260260
0.740037978 0.116508551 0.731182456
0.869955719 0.079949372 0.737887502
0.000759096 0.599620402 0.839721739
0.002403808 0.580518842 0.837824047
0.000759096 0.535231054 0.843263566
0.003542452 0.447438389 0.824161768
0.208728641 0.325996011 0.812776506
0.581657231 0.271600366 0.754206181
0.739152253 0.228462741 0.734724879
0.884503424 0.214042008 0.749019325
0.000000000 0.690195799 0.846299469
0.000379548 0.681087971 0.844402015
0.001897546 0.640227556 0.833776355
0.046679184 0.578747749 0.828715742
0.235041350 0.462239265 0.808728456
0.565844238 0.386084527 0.766856611
0.745477557 0.340417475 0.736495614
0.885135770 0.331435800 0.741682649
0.001518192 0.774952531 0.864262760
0.000379548 0.776470602 0.856546283
0.099430561 0.757748544 0.854016721
0.363314539 0.707780063 0.833017051
0.459835649 0.626945257 0.823655963
0.568121016 0.512080967 0.784819722
0.754585564 0.457684904 0.741808951
0.898039162 0.452624828 0.738899469
0.190258905 0.774319768 0.846426427
0.256672978 0.770145714 0.848323941
0.352434933 0.772042990 0.838203788
0.473497748 0.764326513 0.839721799
0.585199058 0.752561510 0.835167587
0.669576466 0.664262712 0.795572519
0.777229249 0.579506457 0.741556168
0.902972639 0.595951676 0.742441595
0.334471554 0.756735981 0.812017739
0.365211755 0.757874787 0.805186570
0.421505213 0.752940953 0.805566013
0.497912526 0.743074119 0.800632536
0.589373648 0.721062422 0.776849985
0.692979038 0.699430823 0.761922836
0.838709593 0.709424555 0.786084950
0.919038355 0.718658984 0.787096739
0.536749125 0.806830764 0.831878781
0.570524812 0.806325018 0.838456333
0.634788036 0.809614062 0.840733588
0.733712792 0.809614122 0.858823538
0.851486385 0.814041793 0.869702399
0.951296389 0.817836642 0.910942674
1.000000000 0.836432397 0.965212047
0.995572209 0.815180063 0.906388342
0.002277288 0.554206014 0.938140273
0.000000000 0.539784729 0.933333278
0.000759096 0.502340019 0.932194829
0.001644712 0.420240283 0.928525925
0.003035997 0.260974199 0.920809329
0.411891252 0.204174742 0.895129263
0.695635200 0.102592990 0.860974312
0.842251778 0.008349176 0.850094736
0.001897740 0.574573040 0.933586299
0.002277288 0.558633566 0.934471965
0.001644712 0.520430207 0.928399503
0.000000000 0.454269648 0.918911815
0.000000000 0.307526827 0.916508615
0.403162718 0.248070836 0.891587794
0.688804507 0.163693994 0.849842072
0.844402254 0.102593303 0.847944081
0.000000000 0.626312375 0.938393295
0.007969713 0.609740674 0.934724987
0.003036190 0.583301902 0.931182444
0.002656739 0.524731040 0.924098551
0.000000000 0.408222377 0.922074497
0.395319551 0.329791188 0.891081452
0.686400950 0.264010191 0.869955480
0.843642890 0.219101951 0.850221515
0.001138644 0.705503047 0.919797301
0.004933716 0.693232179 0.929158628
0.002277289 0.670208931 0.930802882
0.001138644 0.624288321 0.927387595
0.058950175 0.540670455 0.915622890
0.406831115 0.435547262 0.896774173
0.684376895 0.374952644 0.865907550
0.848070979 0.329917878 0.852498531
0.053890012 0.787856102 0.937508047
0.107779734 0.778747559 0.936369538
0.284124017 0.768374145 0.934218884
0.383048654 0.730297327 0.926881552
0.424920529 0.670714557 0.920936108
0.475774735 0.564579606 0.908285975
0.698039114 0.498545080 0.879570067
0.864389539 0.442757905 0.852878034
0.359772295 0.836685956 0.945224762
0.395445704 0.840354085 0.952181816
0.467172474 0.835926712 0.945604205
0.553700089 0.827198148 0.941176653
0.640354335 0.790132999 0.937128663
0.672359228 0.720682800 0.916508317
0.733839273 0.619987190 0.889816225
0.890069425 0.561037183 0.860468268
0.472991586 0.832005024 0.933586240
0.487159848 0.830993235 0.922200799
0.539784849 0.830234170 0.930423379
0.613408864 0.825932920 0.939152300
0.693611443 0.820872784 0.931941509
0.783681333 0.816571593 0.931182504
0.834155858 0.749905288 0.894370258
0.914104640 0.678431511 0.845667362
0.534092069 0.834028959 0.918279767
0.543706417 0.835547209 0.925363481
0.574952304 0.831372678 0.915243447
0.622011483 0.825047612 0.912840068
0.684503615 0.818722486 0.905629635
0.754458904 0.801897347 0.893737853
0.892093539 0.792662799 0.885515571
0.984440029 0.809740365 0.927260756
0.000000000 0.588361800 0.993674815
0.002277285 0.581404388 0.994939983
0.000000000 0.555471122 0.994939983
0.005060354 0.499303967 0.992409945
0.000000000 0.404427230 0.993674815
0.002024260 0.286653966 0.994939983
0.526122928 0.239974499 0.981909811
0.791271627 0.124225155 0.954333007
0.005819156 0.608349264 0.995825231
0.000000000 0.600506246 0.991397560
0.000000000 0.571537316 0.994180977
0.003289108 0.522201002 0.994686604
0.000000000 0.436306417 0.991524458
0.003668653 0.318279177 0.990638793
0.522074878 0.271979779 0.975458801
0.787349641 0.169892564 0.958506942
0.002024264 0.642504811 0.991777062
0.002530012 0.641998768 0.992409825
0.003162904 0.619228065 0.994939983
0.000000000 0.576217473 0.995445728
0.002277094 0.504237890 0.991397798
0.003035989 0.389247328 0.986970007
0.527640700 0.341429621 0.979000568
0.787096798 0.262365341 0.962302089
0.001138644 0.712080598 0.991144776
0.002024264 0.704111397 0.991144776
0.002024263 0.689184189 0.994180918
0.001518189 0.653130829 0.993801355
0.002276991 0.599493921 0.988867760
0.080455184 0.493738055 0.984186888
0.542188227 0.436052829 0.975838184
0.792536438 0.363946855 0.962428629
0.286780387 0.788362026 0.990385771
0.309045136 0.786970437 0.992789268
0.308032840 0.771410167 0.993927836
0.327640712 0.742820859 0.993674815
0.376976758 0.700442612 0.992156625
0.434408635 0.628589451 0.989373982
0.583301544 0.547248423 0.979000390
0.806198418 0.476154566 0.965970814
0.491713941 0.855787635 0.993042231
0.510942459 0.851106942 0.994180977
0.552814424 0.839468777 0.995192945
0.609361172 0.825300694 0.993548214
0.656420231 0.795825601 0.993295252
0.658823431 0.744338691 0.988488197
0.671347499 0.661227107 0.983554482
0.843390286 0.591397643 0.968627632
0.602276802 0.868057966 0.996204793
0.615180254 0.870714784 0.994307101
0.649462044 0.868057966 0.991144836
0.712713480 0.869196594 0.997090399
0.776976526 0.867552400 0.997469962
0.837823987 0.839974701 0.988614917
0.843137383 0.788235188 0.977103114
0.887918770 0.710815907 0.968880653
0.665780902 0.868057966 0.985705018
0.687792182 0.874130428 0.996204793
0.713092804 0.866793156 0.983807743
0.754459023 0.868437767 0.985958338
0.812144339 0.862618804 0.993674755
0.880202413 0.859456062 0.988867700
0.948007584 0.851739705 0.990132689
0.975584924 0.819860935 0.983301818
