Assets/Shaders/EldamarStudio/100 Sci-Fi LUTs Pack/LUTs/cube/Grace LUT.cube
LUT_3D_SIZE 5
DOMAIN_MIN 0.000000 0.000000 0.000000
DOMAIN_MAX 0.903226 0.903226 0.903226
0.054901998 0.058823999 0.066666998
0.261859715 0.063377999 0.080075711
0.479317218 0.045034587 0.122201420
0.728779137 0.000000000 0.192283258
0.967741609 0.019860962 0.272106111
0.187982693 0.246173695 0.193927690
0.270714372 0.249462694 0.156609699
0.465907693 0.278557956 0.161542982
0.720303535 0.279190391 0.223909125
0.959266067 0.273371249 0.298545271
0.423782796 0.501454413 0.412650377
0.516634822 0.525110781 0.467172682
0.575458825 0.491714001 0.340670407
0.721568525 0.467552394 0.279823124
0.934472084 0.500189543 0.342062235
0.725869238 0.717773259 0.691461146
0.769639850 0.722074568 0.717899859
0.826185942 0.723086417 0.741809130
0.859076262 0.682605982 0.568880260
0.965085208 0.623402953 0.452371955
0.931055963 0.824920952 0.890701950
0.956103563 0.829222083 0.901201665
0.991018176 0.827577829 0.919164956
0.992915988 0.827577770 0.884883106
0.997343183 0.802783012 0.782036602
0.000000000 0.193548411 0.327893704
0.236053407 0.071221001 0.301075697
0.448576808 0.102340281 0.295888662
0.697659850 0.159519434 0.382163137
0.944844961 0.223908693 0.467046291
0.000000000 0.335736722 0.321695417
0.209867001 0.281467706 0.317773402
0.457052410 0.258570254 0.321062386
0.705249667 0.281846970 0.394939840
0.945477605 0.263883710 0.424035519
0.265527964 0.468437701 0.397849679
0.389374107 0.486148089 0.421758384
0.528020144 0.476407498 0.417203963
0.696394622 0.475015521 0.387729406
0.926249027 0.491081804 0.446046770
0.650474608 0.705756128 0.649462283
0.718658864 0.708412528 0.698165953
0.817583740 0.717520297 0.760784566
0.838203847 0.677672148 0.613029718
0.948387146 0.630233943 0.517267346
0.930170894 0.826944768 0.883997738
0.951549709 0.827956975 0.893737793
0.987855852 0.828842402 0.926755071
0.993548214 0.827324510 0.899936676
1.000000000 0.807969809 0.807843149
0.000632584 0.386464387 0.642757356
0.000000000 0.264516115 0.637318075
0.434155792 0.078431003 0.560404360
0.666287422 0.074130289 0.537507832
0.899809778 0.091587819 0.557748199
0.001644708 0.510689378 0.643769443
0.001644708 0.427957088 0.637571216
0.421125829 0.245793983 0.574446559
0.664768934 0.224288419 0.539532185
0.903731585 0.248829693 0.570524931
0.003922000 0.621125817 0.644654989
0.001644708 0.613914967 0.641746163
0.415938973 0.504111409 0.595699251
0.665654838 0.426945388 0.555723965
0.904996753 0.499051243 0.635673642
0.265907347 0.638456583 0.636811972
0.393295318 0.649715543 0.640227795
0.626312613 0.667173147 0.660468280
0.781404257 0.657432139 0.683617651
0.923339307 0.657685280 0.649968386
0.858696997 0.823023379 0.857811809
0.895508945 0.822770238 0.878304958
0.969639421 0.826945245 0.910816193
0.998355269 0.830487072 0.948639929
1.000000000 0.816571534 0.862492144
0.000000000 0.515875995 0.867046297
0.002656578 0.462492287 0.872106373
0.003289416 0.237570897 0.842378557
0.622770131 0.097027130 0.782669246
0.873877585 0.003922000 0.775205314
0.000000000 0.588741243 0.871853590
0.001012128 0.546868682 0.865528405
0.002909872 0.371410429 0.854269385
0.615306854 0.241239816 0.787855804
0.877925515 0.180391997 0.778115213
0.000000000 0.744339108 0.883238316
0.018849079 0.718785703 0.877672553
0.288804412 0.619481564 0.855787396
0.601265132 0.443010539 0.803288937
0.891334593 0.389752954 0.776470542
0.276280642 0.787476182 0.871727049
0.384819657 0.786717117 0.861732841
0.561543107 0.773687720 0.866540551
0.714105248 0.686527252 0.820873141
0.904996634 0.615686119 0.763947070
0.448956281 0.805818915 0.844528913
0.514610946 0.802277029 0.850600779
0.705376029 0.806451440 0.849082947
0.939911604 0.816318512 0.907653451
0.992283165 0.814673781 0.912713230
0.000000000 0.588361800 0.993674815
0.000000000 0.564832270 0.996204793
0.004554423 0.461606830 0.994939804
0.136369541 0.275015801 0.986337483
0.791271627 0.124225155 0.954333007
0.000000000 0.631119549 0.992283165
0.001644708 0.614168286 0.996204793
0.001012124 0.529538453 0.990765035
0.140164495 0.360910565 0.993042409
0.786337495 0.237317979 0.962302148
0.000000000 0.752435207 0.994180560
0.000000000 0.735104263 0.992030203
0.105502382 0.678557873 0.994307399
0.346869051 0.540417492 0.988361597
0.803668380 0.424415052 0.959139347
0.528652728 0.872232914 0.991271257
0.577103078 0.861227155 0.990385771
0.674130082 0.829854310 0.991903722
0.708412230 0.755471110 0.986970186
0.852498353 0.621758461 0.964326382
0.665780902 0.868057966 0.985705018
0.701960742 0.869323134 0.987602830
0.776976585 0.865401804 0.987729371
0.897153795 0.858949780 0.997469962
0.975584924 0.819860935 0.983301818
