Assets/Shaders/EldamarStudio/100 Sci-Fi LUTs Pack/LUTs/cube/Grimca LUT.cube
LUT_3D_SIZE 5
DOMAIN_MIN 0.000000 0.000000 0.000000
DOMAIN_MAX 0.903226 0.903226 0.903226
0.007843000 0.007843000 0.015686000
0.136369705 0.024162002 0.035294000
0.324351817 0.015686000 0.020240422
0.562176108 0.055914126 0.072612002
0.873877585 0.104743972 0.125616819
0.039216001 0.137001693 0.034028992
0.144844696 0.133712709 0.033649713
0.314863682 0.154332399 0.052624710
0.555977285 0.191018552 0.083364703
0.864642620 0.236812219 0.134091988
0.107273981 0.288425386 0.088298410
0.181530684 0.297912687 0.086654119
0.318532377 0.299556971 0.088298410
0.556989133 0.357115805 0.106894128
0.876407444 0.429728210 0.146615803
0.192283258 0.563188255 0.111700997
0.275395572 0.567109704 0.118026286
0.426565230 0.573055267 0.125489995
0.623023391 0.584819496 0.127513990
0.890701950 0.643896103 0.171916276
0.409867406 0.886906743 0.279063731
0.469829321 0.893358767 0.297027051
0.595319629 0.890701950 0.307906568
0.761922777 0.898544908 0.319544584
0.943073630 0.891966760 0.351170242
0.011765000 0.035927005 0.130803406
0.130170405 0.034661997 0.127261102
0.269829124 0.070967704 0.145856991
0.483364820 0.109170996 0.187982127
0.824541330 0.119038664 0.237444818
0.072612405 0.119670987 0.119670987
0.143579677 0.139025688 0.141302973
0.263630360 0.151423112 0.154712111
0.484376937 0.187349692 0.185705408
0.828462720 0.240101218 0.243010685
0.127513990 0.271094114 0.167741701
0.187096819 0.275016099 0.171663284
0.295635819 0.278305084 0.172042981
0.513599038 0.335863531 0.204427257
0.847691596 0.426186085 0.252877653
0.204806834 0.532194495 0.211890981
0.268564254 0.537507951 0.216192290
0.417457223 0.542694569 0.218089700
0.597596526 0.556736231 0.220114112
0.879443467 0.637318075 0.279822677
0.434155554 0.875774622 0.363061130
0.476913095 0.878684461 0.360910803
0.597343445 0.879316926 0.369639277
0.760910690 0.883617580 0.387602836
0.933206558 0.893105447 0.414168119
0.065401994 0.041871995 0.322959989
0.174952284 0.060468286 0.307653278
0.293611407 0.085009828 0.285768390
0.492220104 0.113092579 0.322453976
0.814420998 0.139405385 0.392409801
0.120303407 0.169006705 0.280835122
0.180139124 0.170651406 0.276280701
0.279569685 0.168374285 0.266160816
0.476533949 0.200126410 0.312966108
0.807590127 0.253257364 0.394813508
0.159519002 0.276660413 0.261479974
0.212903112 0.280835122 0.276280671
0.346615821 0.327640384 0.315876395
0.507020652 0.345983803 0.340417534
0.819607973 0.429854333 0.414800614
0.238962710 0.511828125 0.338393539
0.296141863 0.519418120 0.356103688
0.419228375 0.522580445 0.358001262
0.580898046 0.541935384 0.366982847
0.862997890 0.640101075 0.450474501
0.487539172 0.862618208 0.506261766
0.520556509 0.860973895 0.508665442
0.621378779 0.866540194 0.517520189
0.770525038 0.876407623 0.537255049
0.933207035 0.884883046 0.552941024
0.183428124 0.111827999 0.588488281
0.277925402 0.112840123 0.572295845
0.430740118 0.119038410 0.559898853
0.593675077 0.121569000 0.535863221
0.835926473 0.153952792 0.578494787
0.197343156 0.230233818 0.551043570
0.270461708 0.229474977 0.549399257
0.417330652 0.227577403 0.535104275
0.577988505 0.221378699 0.521062553
0.833649576 0.263377756 0.577862084
0.222264409 0.377735704 0.521315277
0.295255959 0.377735525 0.515369892
0.419987231 0.381024510 0.515496671
0.571157277 0.381657273 0.512460589
0.832004964 0.453384042 0.579633176
0.277672142 0.549525261 0.513219357
0.344338685 0.554964960 0.518659294
0.471600264 0.559266269 0.532068551
0.675901115 0.622011244 0.586717188
0.863883615 0.672738791 0.640354276
0.539152443 0.859708786 0.661986053
0.577103019 0.860215068 0.671473503
0.670208693 0.862618625 0.685515642
0.783174932 0.866919875 0.696015239
0.927008271 0.882605910 0.714737594
0.304870129 0.242251620 0.885515451
0.381024659 0.245920315 0.870841265
0.540290773 0.258697003 0.874509990
0.725616813 0.279822588 0.862997890
0.922074616 0.318405569 0.852877617
0.346236467 0.350158006 0.867931783
0.406325161 0.352182180 0.868311286
0.555977046 0.361037284 0.865907729
0.735989928 0.378747284 0.859835267
0.918152928 0.403036267 0.851612747
0.457052380 0.549651742 0.850094616
0.495382756 0.547374845 0.852371991
0.600505710 0.550284147 0.848956585
0.749019444 0.556230366 0.846679330
0.911701381 0.567994595 0.845161378
0.525616407 0.713978469 0.853636742
0.562555075 0.721568644 0.855407953
0.658443868 0.724478364 0.846046865
0.776344061 0.729031920 0.846426606
0.916634738 0.736874938 0.845161557
0.607210577 0.880328596 0.854142785
0.637697518 0.885515451 0.863377452
0.707779765 0.882985473 0.866160572
0.818848610 0.884250581 0.860467911
0.939025760 0.908918619 0.890828431
