Assets/Shaders/EldamarStudio/100 Sci-Fi LUTs Pack/LUTs/cube/Grimca LUT.cube
DOMAIN_MIN 0 0 0
DOMAIN_MAX 1 1 1
LUT_3D_SIZE 32
0.007843000 0.007843000 0.015686000
0.007843000 0.007843000 0.009614000
0.014294773 0.009993774 0.012143999
0.029727999 0.014295000 0.016951161
0.053636547 0.019987451 0.019987451
0.074888937 0.023023065 0.023023065
0.106261961 0.026059322 0.031119321
0.136369705 0.024162002 0.035294000
0.162176102 0.018848903 0.036811996
0.183428496 0.015812516 0.042883992
0.210499868 0.015686000 0.034408875
0.237824246 0.013662260 0.027324488
0.267425627 0.012903354 0.023529001
0.300063044 0.015686000 0.023276033
0.324351817 0.015686000 0.020240422
0.355850786 0.018089805 0.024414996
0.389247179 0.022643996 0.032005191
0.422011137 0.029348567 0.041745983
0.452371955 0.038456973 0.053890005
0.485515386 0.041998647 0.060468003
0.522707224 0.048829734 0.066539995
0.562176108 0.055914126 0.072612002
0.601897538 0.059203472 0.078684025
0.647438765 0.068311095 0.084756806
0.688425303 0.072865285 0.090828992
0.730676591 0.077292994 0.096900992
0.776723266 0.083871067 0.103984997
0.825300753 0.092979439 0.116128989
0.873877585 0.104743972 0.125616819
0.922454298 0.116887957 0.140037939
0.966603577 0.131688580 0.155597597
1.000000000 0.152941003 0.164706007
0.010879387 0.004807387 0.009614000
0.004807387 0.010879387 0.003542000
0.022011384 0.010879387 0.012523774
0.039342321 0.016824998 0.017457226
0.058570772 0.025680000 0.017710160
0.071853325 0.026059451 0.026059451
0.100695387 0.026565386 0.031625386
0.130297348 0.032384705 0.035294000
0.157622099 0.034029290 0.035294000
0.183428496 0.030992903 0.036812000
0.213408992 0.030866386 0.037064999
0.242884114 0.030866386 0.028336361
0.270082265 0.031119645 0.023529001
0.297786415 0.034155741 0.024035065
0.330423802 0.036938384 0.029348809
0.357115775 0.036938384 0.031119578
0.386211187 0.040859997 0.035041191
0.416571528 0.047564566 0.041113410
0.449335605 0.056672972 0.050853625
0.485262364 0.060215354 0.060214974
0.518911719 0.063251026 0.068437733
0.557115495 0.070082128 0.075648390
0.598734558 0.077166513 0.081593901
0.641365945 0.080455869 0.084756806
0.684629738 0.087286770 0.097659692
0.729031861 0.092473380 0.103225611
0.776217163 0.098039322 0.106008604
0.822264373 0.102087051 0.113092601
0.868185043 0.111195430 0.122580431
0.914611101 0.124731176 0.137002006
0.958380818 0.140796974 0.154332742
0.993928015 0.162049398 0.167741612
0.011765000 0.018975774 0.012143999
0.009994000 0.025047773 0.008222774
0.021125998 0.022517774 0.008602000
0.037823997 0.025047775 0.022517549
0.054775540 0.034661774 0.024288548
0.081087999 0.038203772 0.028083710
0.104111545 0.040353999 0.032511000
0.134471536 0.040353999 0.035294000
0.161543429 0.046426322 0.036053095
0.187476501 0.046173289 0.037444774
0.215559766 0.048197545 0.035294000
0.241872266 0.050221287 0.035294000
0.269702762 0.049209420 0.027703777
0.294497281 0.050474770 0.025932807
0.325996399 0.055408120 0.030107833
0.352434993 0.058190770 0.033776194
0.382795781 0.059708968 0.038329996
0.412650287 0.065148540 0.043263797
0.446046799 0.072738752 0.052371819
0.480075747 0.076281130 0.061480135
0.518405735 0.079317033 0.066793032
0.553320289 0.083364777 0.073371358
0.593801022 0.091207996 0.078431502
0.640353799 0.096268125 0.085515901
0.680708349 0.099430993 0.093358696
0.725996077 0.105502993 0.105755657
0.774066806 0.112081066 0.110562831
0.819607496 0.118406087 0.121568538
0.865148664 0.126754820 0.123845592
0.917773724 0.139405191 0.134724736
0.961290359 0.154585585 0.153067812
0.996457994 0.173308000 0.170777768
0.013029839 0.038962997 0.018215999
0.014295000 0.045034997 0.011385227
0.024668001 0.043770157 0.015180387
0.042884320 0.040228158 0.016951162
0.050853867 0.046679612 0.028336838
0.082859024 0.053636998 0.030107839
0.110436641 0.057178997 0.031372678
0.136749148 0.059835162 0.035294000
0.165591165 0.061353352 0.034535099
0.189879820 0.064895809 0.036559485
0.214547709 0.065401867 0.036306128
0.242378339 0.067172900 0.034029163
0.267805457 0.070208803 0.035167515
0.292220056 0.067932121 0.029980998
0.320556819 0.072991990 0.032005254
0.348639995 0.076660514 0.036306191
0.378747404 0.080961347 0.040859997
0.411511958 0.084630147 0.046932153
0.444276005 0.090702169 0.055408139
0.477672368 0.093991190 0.063251361
0.513598859 0.098292574 0.068564259
0.553067267 0.101328194 0.074636251
0.589879513 0.107020669 0.078431644
0.635040939 0.111954324 0.085262746
0.680581808 0.117014438 0.094370864
0.722960114 0.120176986 0.100948505
0.771536946 0.125743061 0.109550834
0.817836404 0.133333445 0.122454099
0.859582305 0.146236300 0.126882002
0.909677386 0.155091494 0.135230795
0.964706004 0.171157300 0.149146035
1.000000000 0.186717153 0.170019001
0.016445000 0.057938091 0.024667548
0.021378933 0.064389542 0.013662094
0.030866545 0.063630767 0.015053772
0.043643318 0.062239543 0.020746548
0.061859995 0.061480545 0.019228453
0.083112381 0.070588157 0.025300451
0.109424770 0.075395316 0.027450999
0.135990158 0.078431383 0.030360546
0.162555546 0.081467189 0.034155551
0.186843559 0.087539963 0.031119941
0.208601862 0.085262679 0.033902679
0.235546947 0.084629998 0.033270262
0.264769197 0.085768640 0.032511353
0.291840553 0.088804960 0.035041034
0.316129267 0.091840573 0.034914549
0.345224530 0.094876796 0.040480543
0.377482355 0.099430993 0.046172999
0.413029581 0.104743987 0.052245155
0.443390429 0.110816002 0.058317941
0.476533830 0.114863738 0.065528452
0.512207448 0.119417928 0.069323257
0.549272656 0.124857970 0.075015701
0.588867545 0.128020078 0.086780958
0.628589749 0.131309450 0.089816645
0.674130499 0.136622548 0.096647739
0.721695125 0.140923411 0.102972865
0.767741621 0.144718155 0.108032539
0.816318393 0.147754550 0.114104539
0.854648590 0.163314044 0.119418114
0.899556994 0.174825981 0.130423725
0.949146152 0.183681518 0.146868646
0.997722983 0.201897547 0.165085450
0.022516999 0.082226865 0.033775933
0.040733770 0.091334477 0.030740321
0.052118931 0.089183934 0.026186096
0.060468093 0.087413155 0.027704161
0.067931995 0.088804930 0.028336842
0.086147994 0.082732931 0.016192064
0.112460375 0.091840543 0.024794389
0.136495769 0.096647710 0.029095709
0.159519255 0.098924868 0.031119842
0.183807954 0.099683970 0.028083552
0.208095923 0.099936999 0.030866936
0.233902231 0.101454668 0.031878937
0.261732996 0.103984639 0.032511353
0.288804919 0.107020959 0.035041034
0.313092917 0.110056579 0.032005426
0.342188656 0.113092795 0.041492928
0.371031106 0.117646992 0.048070740
0.401138514 0.122453995 0.052245155
0.434282035 0.122960009 0.058317952
0.467425436 0.131815359 0.072738655
0.504617274 0.136116132 0.076913066
0.542568266 0.140670314 0.080455124
0.579759896 0.146236867 0.089816570
0.622264743 0.152308881 0.092852965
0.664263546 0.157874942 0.095888644
0.710563242 0.161163941 0.099936739
0.758634031 0.163187936 0.105502933
0.807210803 0.172043324 0.123212926
0.847817719 0.183048844 0.123971932
0.892093360 0.194434077 0.132068023
0.938519895 0.203921914 0.147374585
0.979507029 0.217077926 0.168121055
0.033649646 0.111574993 0.030234002
0.041745774 0.120683253 0.029728064
0.062112771 0.123339638 0.033143677
0.076660484 0.119291477 0.031246159
0.085895315 0.118658997 0.030993454
0.099810310 0.112586990 0.025300451
0.118026316 0.111574985 0.028336320
0.140417412 0.117394023 0.029222000
0.162302420 0.120430216 0.031878673
0.188361987 0.122200996 0.037697513
0.212649986 0.124731317 0.037950546
0.238962755 0.122707061 0.038962677
0.265148640 0.125869319 0.041239675
0.291081697 0.130297020 0.045414001
0.317646980 0.133333221 0.044655100
0.346742600 0.138772637 0.048830282
0.375585198 0.141935512 0.057685316
0.404174536 0.146363065 0.061100647
0.437570989 0.148260340 0.063377947
0.470968008 0.156609669 0.075268976
0.511954367 0.161923051 0.079063587
0.551676273 0.165970951 0.082479253
0.588361979 0.172043309 0.092979312
0.630866826 0.178115323 0.098418906
0.677925527 0.184187323 0.103731997
0.722327590 0.190259308 0.107020639
0.769259810 0.193548322 0.111068740
0.815812826 0.200632438 0.123212978
0.858950078 0.209867284 0.130549997
0.905502856 0.222011283 0.141176403
0.951296628 0.234535202 0.158380613
0.989120662 0.249968648 0.181277320
0.039216001 0.137001693 0.034028992
0.048576996 0.141176388 0.029095709
0.060468063 0.145477697 0.041619405
0.081720449 0.145477697 0.040101089
0.097280286 0.143200412 0.035926834
0.109424286 0.139658406 0.032890771
0.123339705 0.137001693 0.039088994
0.144844696 0.133712709 0.033649713
0.162302375 0.137507990 0.030613709
0.186084792 0.141429216 0.040986713
0.212144002 0.144465566 0.043136999
0.238456339 0.146742433 0.041492712
0.264642835 0.147121683 0.044908065
0.288931012 0.152687699 0.051233035
0.314863682 0.154332399 0.052624710
0.342947602 0.158127695 0.055787608
0.376343995 0.167235702 0.061859995
0.404680431 0.171283975 0.069196984
0.437065005 0.175331742 0.073245004
0.475395352 0.179000363 0.077799007
0.511448741 0.185958430 0.085388966
0.555977285 0.191018552 0.083364703
0.593801498 0.197849482 0.092852794
0.634788096 0.205439702 0.100443006
0.680202544 0.209867403 0.104870290
0.728779316 0.214547724 0.112333953
0.774572790 0.221378699 0.115875773
0.820113540 0.229727685 0.122707151
0.864642620 0.236812219 0.134091988
0.909171164 0.244402379 0.140670404
0.959013402 0.256546378 0.160657972
0.997722745 0.273245007 0.184946001
0.043769997 0.159013197 0.046932090
0.056673091 0.159013197 0.037065387
0.066540189 0.161163777 0.044908583
0.079443157 0.164453000 0.053763676
0.100695543 0.162935004 0.042757548
0.113978088 0.161417007 0.039721940
0.126122534 0.159645781 0.046046775
0.141809091 0.156483099 0.045793720
0.166097090 0.151170194 0.034409001
0.181277499 0.157242194 0.040481005
0.206577867 0.160404876 0.043643128
0.232384235 0.164199844 0.043390162
0.259329170 0.166856095 0.043390449
0.283870935 0.172928095 0.052245095
0.308664978 0.173940092 0.055787414
0.336116314 0.176343903 0.059582703
0.365718007 0.182416096 0.064136900
0.402150095 0.193295091 0.068943903
0.432763994 0.199367106 0.080581911
0.472738743 0.201391101 0.083871000
0.511448443 0.205945477 0.086147994
0.550664186 0.212270960 0.090955094
0.593421936 0.221252084 0.091208085
0.634787917 0.229727909 0.099683911
0.678051710 0.235800281 0.104237705
0.724225283 0.241113409 0.109297566
0.772296071 0.244655222 0.118912034
0.817836404 0.256293267 0.122707441
0.864136517 0.263124764 0.136369318
0.910436273 0.270715058 0.146236435
0.952940762 0.279317170 0.155345067
0.998481989 0.291461200 0.179633096
0.061986007 0.183301985 0.062112473
0.077166386 0.183301985 0.049968489
0.083618261 0.185452208 0.048703231
0.089563817 0.189753011 0.048703037
0.100695558 0.193295002 0.042757556
0.121947929 0.181151003 0.039721947
0.135230482 0.179633006 0.044276007
0.147374928 0.179506496 0.047185492
0.163061485 0.178494602 0.046553008
0.187349498 0.175458968 0.046553005
0.208348855 0.178621098 0.049715132
0.229854241 0.183680996 0.050727006
0.253636628 0.187349498 0.051739164
0.280834526 0.188108504 0.055281486
0.308158904 0.194180489 0.061353479
0.337760597 0.197596312 0.067298993
0.366476715 0.202150494 0.073244520
0.396078110 0.208475500 0.078051522
0.432510972 0.214547515 0.078051545
0.468690753 0.220619500 0.086906888
0.505376458 0.228336230 0.089943007
0.544845104 0.236306012 0.091208130
0.590385556 0.242504492 0.094244480
0.638962328 0.248576507 0.100316487
0.682605565 0.257052302 0.104237705
0.726628482 0.267298996 0.108664989
0.772296071 0.278051645 0.115875654
0.817836404 0.284124374 0.128020406
0.866034269 0.290449470 0.142441809
0.914484799 0.300063461 0.152308941
0.958507538 0.312840044 0.161037579
0.992410004 0.327893972 0.176597476
0.071473867 0.195951998 0.056925997
0.072106391 0.201771006 0.062238995
0.089437000 0.201771006 0.052245226
0.102593452 0.202782869 0.053510323
0.115117192 0.205565885 0.054775737
0.116128936 0.208601862 0.054269806
0.137381315 0.201517880 0.056293547
0.152308568 0.199114591 0.057052709
0.167236000 0.197849751 0.055787869
0.187223017 0.196964353 0.055787865
0.205692738 0.196837872 0.049968131
0.228968859 0.199873477 0.053004257
0.253383636 0.202782869 0.055028513
0.280455053 0.203288868 0.058317870
0.305123270 0.209360868 0.064389862
0.334851474 0.215432867 0.070461862
0.366730064 0.223529384 0.075015672
0.397469997 0.231752157 0.079696156
0.429348886 0.235546887 0.084250756
0.468564272 0.247185588 0.092599399
0.507020712 0.251612872 0.094117738
0.547501445 0.258697003 0.096141733
0.592662871 0.266666740 0.102846123
0.630107641 0.272738755 0.103352129
0.678684354 0.281087995 0.107147411
0.725237191 0.291587710 0.114357844
0.772296071 0.302213669 0.123465866
0.817836404 0.305882037 0.130803004
0.863377452 0.314610958 0.140290946
0.911701441 0.320935965 0.149652109
0.958507299 0.330803186 0.161037326
0.997976005 0.343959868 0.182289988
0.074510001 0.220240504 0.056926254
0.086653993 0.224288240 0.065021992
0.087412998 0.228083506 0.062365476
0.104364157 0.226818338 0.055787414
0.121062741 0.225679785 0.059962451
0.126249060 0.226818502 0.064895734
0.141429573 0.226818502 0.065401673
0.159392953 0.222390786 0.065148704
0.173814267 0.220113993 0.062871993
0.189500272 0.220113993 0.062872000
0.211764470 0.218090251 0.065148763
0.229981244 0.220113993 0.063124508
0.255407900 0.222011253 0.066160604
0.282479256 0.222264290 0.069196768
0.306767523 0.226565495 0.073497988
0.333839595 0.236685500 0.075521991
0.365718186 0.244275704 0.078557998
0.398482114 0.254016668 0.081720248
0.428842962 0.257052302 0.087792680
0.461480141 0.266413718 0.092599913
0.502846181 0.274762988 0.096015260
0.542441368 0.279949397 0.096141994
0.585958421 0.288931251 0.104237735
0.628083587 0.295003235 0.109929994
0.673624277 0.303352535 0.114231534
0.719418049 0.315243542 0.114484578
0.766729832 0.327008098 0.122960061
0.813788414 0.331562310 0.130550250
0.859329462 0.339911073 0.139278561
0.906641364 0.347248226 0.148386940
0.950790524 0.355091453 0.156482980
0.989879727 0.367236257 0.176217481
0.080202639 0.244908631 0.064516351
0.092726000 0.247944251 0.069070257
0.101454645 0.249841765 0.070840992
0.106641151 0.252625108 0.067172512
0.121441990 0.249968290 0.064895898
0.133586004 0.247691572 0.072485708
0.148513645 0.247185647 0.072865002
0.166224062 0.246679574 0.073497705
0.182922453 0.245161191 0.071980089
0.196205020 0.245540634 0.072359644
0.219987288 0.243769869 0.075901642
0.240227491 0.243643373 0.077925645
0.257305652 0.244402289 0.075648353
0.284377009 0.244908288 0.078684032
0.308664978 0.248830050 0.081720419
0.335357398 0.255660981 0.082353003
0.365718186 0.266287178 0.084629998
0.399747103 0.275395572 0.083997585
0.431119978 0.279443324 0.088551655
0.466034293 0.288045347 0.097533353
0.500569105 0.298671633 0.097533353
0.541049898 0.304743618 0.098545484
0.580898464 0.313852012 0.104237996
0.628462911 0.321948290 0.110309750
0.676280499 0.330297261 0.117140934
0.724351585 0.339911550 0.121315971
0.767362356 0.354079336 0.120303579
0.815306485 0.360784531 0.129411802
0.861227095 0.369513065 0.138519779
0.906261981 0.379126877 0.149904847
0.951296628 0.386084527 0.161669612
0.984946012 0.397976279 0.174319640
0.095129997 0.261101007 0.079190031
0.098418646 0.264389664 0.076407388
0.104996771 0.265528023 0.076660231
0.116382055 0.266540170 0.079949066
0.127767026 0.269197017 0.079316549
0.139911026 0.269197017 0.082352936
0.152561679 0.269197017 0.080075711
0.167741984 0.268944025 0.080834739
0.186717093 0.269449979 0.083618097
0.207969502 0.272485584 0.086654477
0.231625736 0.272612065 0.086780995
0.251866013 0.272865027 0.086527966
0.269196659 0.271979660 0.084756739
0.285136044 0.269196987 0.079190031
0.309424013 0.275268972 0.082226418
0.335610360 0.278937250 0.083365001
0.365971148 0.285009235 0.085642025
0.400000066 0.293864608 0.090575583
0.436432958 0.302973002 0.087539986
0.477672726 0.312333703 0.102467015
0.515496731 0.324730784 0.107906260
0.550158203 0.337381035 0.106894128
0.587096930 0.343832552 0.109930478
0.638582945 0.356103808 0.110056967
0.687665522 0.365970820 0.114357993
0.735989630 0.375078708 0.119544670
0.784567058 0.384187102 0.123086937
0.830107391 0.393295467 0.132194534
0.875142455 0.402403831 0.141808823
0.918406308 0.413536012 0.153953180
0.959645987 0.424794614 0.170778006
0.996078014 0.433903009 0.188994035
0.107273981 0.288425386 0.088298410
0.113345981 0.294497401 0.088298410
0.114484400 0.297786057 0.081214219
0.126502320 0.298924387 0.086021326
0.145604283 0.299556971 0.097027272
0.149019405 0.299556971 0.088424928
0.166224048 0.299556971 0.083871000
0.181530684 0.297912687 0.086654119
0.198861092 0.296268404 0.092220411
0.220113486 0.296774328 0.092726476
0.238456741 0.296900809 0.092852995
0.257937998 0.298924536 0.090828739
0.276154280 0.300189406 0.089563578
0.294244409 0.299556971 0.088298410
0.318532377 0.299556971 0.088298410
0.340417176 0.303225785 0.093737990
0.369006753 0.309297979 0.093991190
0.403035671 0.317773789 0.094750404
0.439468563 0.324225396 0.099683963
0.473118663 0.336116403 0.099430993
0.516002715 0.345730543 0.105123259
0.556989133 0.357115805 0.106894128
0.596204519 0.368121296 0.109930478
0.644782186 0.383301705 0.112966098
0.691714108 0.393295676 0.115369864
0.737887383 0.402403533 0.121821657
0.785073102 0.411511481 0.128652915
0.836179435 0.420619845 0.132194534
0.876407444 0.429728210 0.146615803
0.915369868 0.442378581 0.156989202
0.954838336 0.455155194 0.172675580
0.996078014 0.464262962 0.198102415
0.117014796 0.322959960 0.087792806
0.127893791 0.321821779 0.099809989
0.133965790 0.325743020 0.093358763
0.137001798 0.332574099 0.089310445
0.153700292 0.335230857 0.099936746
0.166856661 0.325110584 0.098924860
0.175331831 0.329917580 0.094749995
0.193548605 0.329917580 0.091966994
0.211005703 0.327640682 0.095762290
0.232258096 0.325995982 0.094117999
0.250600725 0.325995982 0.094117999
0.266793251 0.328020245 0.096141741
0.284629792 0.327640593 0.096141636
0.303352237 0.325363547 0.097659767
0.327640772 0.327513784 0.099809989
0.347121775 0.329917580 0.095002994
0.368374199 0.329917580 0.101074994
0.399493694 0.337381333 0.101328187
0.437697798 0.350537807 0.103858195
0.473751068 0.357368797 0.109171189
0.512839973 0.369512767 0.111068927
0.556862473 0.381151110 0.113092795
0.598228455 0.394686759 0.114610992
0.649082839 0.407589883 0.115369901
0.693105757 0.420493543 0.120682798
0.741302967 0.429728091 0.123845667
0.788362145 0.439341903 0.131435990
0.834282219 0.450348020 0.140164346
0.875268638 0.457052618 0.141808808
0.918279767 0.471473724 0.160531163
0.957495213 0.486400962 0.175711572
0.998481810 0.497026771 0.200000003
0.127640992 0.351802200 0.092346996
0.136748984 0.356356770 0.102972798
0.144591987 0.357621610 0.107020572
0.154459149 0.356862366 0.096647806
0.162428737 0.366350532 0.099936545
0.179506868 0.358001441 0.107526928
0.190133065 0.357495368 0.100948870
0.204174399 0.360278368 0.101074994
0.222390980 0.359519273 0.100316092
0.242884293 0.356482893 0.097280480
0.256672978 0.356356382 0.095635802
0.278937250 0.358380646 0.097659931
0.296394646 0.361416727 0.100695543
0.314990252 0.356989175 0.103731833
0.336748987 0.358759940 0.106767766
0.360784382 0.360277981 0.107146993
0.379000366 0.363314360 0.101074994
0.402150303 0.360910565 0.105881996
0.438962936 0.373814136 0.105882004
0.475648731 0.383934200 0.109930202
0.514358163 0.393801183 0.112586737
0.556862473 0.405945450 0.116635002
0.599493682 0.420746356 0.117773511
0.648323953 0.435673386 0.119165190
0.693105400 0.446299762 0.120683193
0.735610127 0.458444148 0.129538178
0.786337852 0.467172384 0.131941929
0.830866814 0.477292895 0.139025792
0.872232914 0.490196377 0.149652198
0.913725197 0.497280300 0.160531148
0.956609845 0.512839794 0.180898190
0.995445788 0.524351180 0.201518193
0.140417561 0.378114700 0.103858411
0.146489561 0.387729317 0.108665422
0.152561560 0.392156780 0.111954227
0.161163732 0.393927693 0.111194991
0.175964564 0.388614684 0.100189537
0.190891922 0.391398042 0.113851942
0.202277303 0.391271532 0.108159415
0.215686560 0.391904116 0.103605285
0.233902559 0.391777605 0.106388085
0.252118558 0.388741195 0.103352472
0.263503999 0.389247090 0.100948699
0.282858819 0.390638769 0.101328246
0.309171200 0.393042475 0.104364343
0.330170572 0.395825118 0.107400015
0.348387241 0.395825118 0.110436402
0.373814344 0.396457702 0.112207189
0.397217125 0.397343308 0.111953996
0.416698098 0.399114519 0.107779562
0.447058976 0.399114549 0.107779570
0.481088161 0.408349156 0.109297775
0.518785715 0.419860542 0.110436417
0.559266269 0.432004809 0.111195423
0.601770997 0.444276035 0.116887942
0.646806180 0.461986154 0.118912339
0.690701962 0.475268841 0.120303847
0.733838856 0.485768527 0.125869989
0.776849747 0.497406602 0.138520077
0.825300753 0.503605127 0.136242688
0.868564606 0.519038618 0.150537625
0.912334025 0.530803502 0.168121532
0.952434778 0.537761092 0.186337620
0.988867581 0.546868742 0.204554424
0.155597985 0.423655987 0.112966038
0.161669984 0.423655987 0.112966038
0.167741984 0.422517270 0.113472037
0.175079137 0.423782349 0.113725007
0.185072988 0.428083956 0.112333558
0.197216988 0.428083956 0.109297946
0.212144345 0.425806701 0.107779682
0.226818725 0.426312745 0.105629034
0.243010998 0.428336978 0.106641106
0.261227012 0.428210467 0.109424487
0.279443741 0.430993080 0.109298006
0.296900958 0.431751996 0.109044969
0.319291621 0.432005018 0.110436358
0.345351011 0.432258010 0.113472037
0.363566995 0.432258010 0.116508424
0.388994455 0.434661806 0.114737205
0.413283199 0.435926944 0.113725007
0.434914917 0.435547411 0.113851592
0.459203005 0.432511032 0.116887972
0.486780405 0.435294390 0.114104614
0.520556569 0.442884266 0.113472037
0.559266329 0.453257293 0.113472037
0.601771057 0.465528518 0.113851562
0.644275844 0.480708927 0.110815950
0.689310312 0.498418987 0.112839751
0.734597981 0.513092995 0.119797416
0.779886186 0.524731100 0.132448077
0.825427294 0.533839464 0.147628441
0.868564606 0.545351028 0.158633918
0.914611340 0.556230307 0.173055202
0.958254516 0.565085649 0.189373955
0.991903961 0.574193954 0.207590073
0.167995006 0.471979737 0.116508357
0.171284363 0.469197094 0.116508357
0.181657374 0.473498106 0.116508357
0.192789525 0.472359300 0.117773518
0.205313370 0.473118365 0.118912168
0.217457354 0.473118365 0.115875944
0.227071688 0.473118365 0.112839684
0.245035067 0.471979737 0.113092713
0.261733383 0.473877490 0.114231363
0.275901407 0.475901753 0.115243487
0.302466780 0.478810877 0.112586647
0.320683002 0.479822755 0.114610903
0.342314959 0.479822755 0.116508648
0.368880749 0.480075777 0.119291715
0.387096703 0.482606083 0.119797774
0.414927304 0.487413079 0.120430358
0.439595550 0.487792552 0.120809518
0.462112904 0.485894978 0.120809369
0.488551795 0.482859105 0.117393970
0.515623093 0.485388786 0.117647000
0.548640132 0.490322381 0.118406095
0.586084843 0.498544872 0.121315710
0.626944900 0.508918345 0.124857716
0.672106564 0.521441936 0.124478266
0.714611292 0.536622286 0.123719364
0.758254349 0.551549733 0.130423695
0.801391840 0.563188016 0.142568007
0.842378318 0.572295845 0.155471087
0.879949629 0.578747392 0.170651466
0.922201276 0.588867605 0.184693187
0.964326620 0.600632608 0.202530205
0.997722983 0.615433753 0.224541724
0.180138990 0.518659174 0.115749262
0.185072646 0.515623093 0.123339735
0.198355734 0.520936430 0.123339735
0.200379729 0.521948457 0.117014572
0.212144554 0.518659174 0.117394261
0.234914735 0.518659174 0.121948056
0.244529054 0.518659174 0.115116678
0.260215431 0.523592472 0.117014416
0.279949635 0.523592532 0.118785642
0.293231994 0.524351954 0.117647000
0.316128850 0.523592591 0.116634868
0.341176480 0.528399467 0.119544245
0.360531092 0.527261078 0.121441990
0.386084974 0.526502192 0.123466253
0.407589972 0.527893901 0.123466253
0.435420573 0.529538453 0.123466253
0.464263171 0.535610497 0.120430261
0.488172114 0.534345210 0.121695004
0.516761720 0.532574415 0.118152998
0.542188346 0.531309068 0.121441990
0.571410418 0.536242485 0.121441990
0.605819225 0.540290475 0.123466253
0.642631233 0.546868742 0.127514258
0.684629977 0.559013188 0.127514258
0.727893829 0.571536779 0.131309256
