Assets/Shaders/EldamarStudio/100 Sci-Fi LUTs Pack/LUTs/cube/Grimca LUT.cube
LUT_3D_SIZE 8
DOMAIN_MIN 0.000000 0.000000 0.000000
DOMAIN_MAX 0.903226 0.903226 0.903226
0.007843000 0.007843000 0.015686000
0.053636547 0.019987451 0.019987451
0.162176102 0.018848903 0.036811996
0.267425627 0.012903354 0.023529001
0.389247179 0.022643996 0.032005191
0.522707224 0.048829734 0.066539995
0.688425303 0.072865285 0.090828992
0.873877585 0.104743972 0.125616819
0.016445000 0.057938091 0.024667548
0.061859995 0.061480545 0.019228453
0.162555546 0.081467189 0.034155551
0.264769197 0.085768640 0.032511353
0.377482355 0.099430993 0.046172999
0.512207448 0.119417928 0.069323257
0.674130499 0.136622548 0.096647739
0.854648590 0.163314044 0.119418114
0.043769997 0.159013197 0.046932090
0.100695543 0.162935004 0.042757548
0.166097090 0.151170194 0.034409001
0.259329170 0.166856095 0.043390449
0.365718007 0.182416096 0.064136900
0.511448443 0.205945477 0.086147994
0.678051710 0.235800281 0.104237705
0.864136517 0.263124764 0.136369318
0.080202639 0.244908631 0.064516351
0.121441990 0.249968290 0.064895898
0.182922453 0.245161191 0.071980089
0.257305652 0.244402289 0.075648353
0.365718186 0.266287178 0.084629998
0.500569105 0.298671633 0.097533353
0.676280499 0.330297261 0.117140934
0.861227095 0.369513065 0.138519779
0.127640992 0.351802200 0.092346996
0.162428737 0.366350532 0.099936545
0.222390980 0.359519273 0.100316092
0.296394646 0.361416727 0.100695543
0.379000366 0.363314360 0.101074994
0.514358163 0.393801183 0.112586737
0.693105400 0.446299762 0.120683193
0.872232914 0.490196377 0.149652198
0.180138990 0.518659174 0.115749262
0.212144554 0.518659174 0.117394261
0.279949635 0.523592532 0.118785642
0.360531092 0.527261078 0.121441990
0.464263171 0.535610497 0.120430261
0.571410418 0.536242485 0.121441990
0.727893829 0.571536779 0.131309256
0.888677835 0.612523496 0.168374076
0.258444279 0.700189829 0.131688699
0.283491522 0.704490781 0.144845292
0.349019647 0.706261873 0.147881180
0.439594924 0.709803879 0.149145931
0.542567730 0.713345706 0.150158286
0.655787528 0.719038308 0.162302434
0.762934804 0.720430255 0.162048995
0.906768024 0.735357523 0.201011777
0.409867406 0.886906743 0.279063731
0.444781870 0.895509183 0.300189316
0.482226431 0.893358767 0.294749737
0.553447425 0.893358767 0.301328570
0.641239583 0.889184177 0.309424579
0.739658237 0.897279739 0.314990312
0.836685538 0.899809778 0.332321137
0.943073630 0.891966760 0.351170242
0.016065547 0.028209999 0.057558544
0.054775096 0.023529001 0.057938095
0.142568007 0.035673548 0.081087545
0.221252546 0.056040641 0.091713995
0.326122731 0.066540182 0.105249740
0.468817443 0.083364926 0.131435990
0.645034790 0.094497450 0.144339025
0.845287979 0.111194983 0.176217660
0.026185546 0.061859995 0.059076544
0.058697090 0.062239543 0.070082545
0.131182641 0.071600541 0.081087641
0.211764723 0.087666087 0.086906999
0.319038749 0.102972731 0.109677091
0.459962189 0.125743344 0.130423740
0.638457000 0.140923098 0.149525285
0.826439023 0.160025239 0.180518344
0.072106093 0.128779545 0.090449534
0.095129542 0.135484084 0.089310996
0.142567992 0.134725004 0.086527541
0.218469188 0.150790632 0.098292544
0.328905374 0.173434645 0.117140636
0.465401918 0.199367359 0.134598091
0.651359618 0.230234101 0.156230554
0.843390286 0.258697212 0.189247057
0.097406536 0.220746174 0.105629183
0.120935731 0.220366627 0.111195184
0.169892296 0.223909080 0.110815637
0.233270183 0.227071285 0.111195184
0.337381303 0.248956189 0.126881987
0.471094340 0.279822737 0.139784738
0.651486456 0.321315616 0.157242179
0.844781876 0.364326298 0.183554634
0.138646200 0.340670377 0.136875346
0.163693905 0.341808736 0.146995559
0.217330739 0.339784980 0.138266727
0.286274612 0.342188179 0.148134008
0.360151559 0.343706369 0.144465551
0.497912645 0.376470476 0.149525464
0.676154196 0.433396846 0.164579287
0.860720873 0.482100010 0.195319235
0.183175281 0.493864447 0.162428528
0.213788986 0.497406870 0.160531282
0.268943638 0.495382458 0.155092001
0.350284725 0.504490793 0.163061097
0.450600922 0.509550512 0.164073348
0.548639953 0.513093054 0.158886999
0.704996824 0.556103706 0.174952537
0.879443467 0.609234512 0.212903067
0.244402111 0.686780393 0.182289839
0.282353252 0.693738282 0.179632828
0.343832940 0.688804567 0.182668820
0.433523268 0.693991244 0.185452178
0.529917479 0.698798180 0.185705110
0.642757714 0.701834261 0.192409992
0.755471051 0.710563004 0.204174578
0.891081333 0.734724700 0.244275793
0.402150422 0.881341040 0.296141416
0.432131231 0.875901461 0.301960677
0.470082074 0.877798796 0.301328093
0.542694271 0.878684640 0.307526857
0.629095495 0.884630084 0.317014486
0.730929852 0.883491516 0.332194835
0.832637370 0.891460955 0.350157827
0.940670311 0.893990755 0.368247837
0.012523904 0.032890998 0.155092001
0.083871000 0.028589547 0.159519464
0.155976996 0.040734001 0.159139901
0.230739728 0.058444355 0.155597538
0.327387363 0.084630094 0.173940092
0.446679205 0.107653253 0.195825085
0.612144470 0.115243189 0.224794373
0.821252584 0.122074664 0.256419927
0.055281550 0.080708094 0.136748642
0.092093542 0.091334544 0.138393462
0.140291095 0.085009545 0.135989547
0.214294642 0.100695550 0.149272546
0.315623194 0.123466447 0.172296196
0.439342350 0.142568097 0.194560528
0.606704712 0.153953344 0.223908782
0.807590306 0.170777798 0.254522175
0.087033898 0.137128085 0.137128100
0.113725096 0.150538012 0.141429558
0.173181176 0.170145184 0.170904085
0.225173637 0.164958641 0.162555441
0.312460274 0.183301911 0.176976278
0.443137467 0.208855256 0.203668371
0.624667764 0.227197796 0.230234191
0.822643757 0.266666949 0.266539931
0.120556280 0.229980633 0.172042727
0.146489292 0.229601189 0.165971085
0.186464190 0.230360284 0.174319729
0.240101635 0.224794284 0.172801644
0.327261269 0.251486272 0.185578898
0.457179248 0.276786834 0.212144181
0.632131159 0.319418073 0.232131839
0.833902657 0.361543268 0.265907913
0.156483084 0.331436098 0.199747190
0.184440538 0.331309289 0.206451654
0.225553274 0.333712995 0.201265007
0.280708641 0.334092528 0.200126633
0.355597496 0.335231006 0.202150196
0.480708361 0.372802079 0.218469188
0.660847545 0.426692158 0.242884398
0.849588752 0.479949266 0.276534081
0.200252831 0.492220014 0.233143643
0.226312369 0.492473334 0.235041082
0.278431624 0.491461128 0.227577627
0.352308482 0.495509177 0.230234176
0.443896383 0.501454830 0.234029368
0.544465125 0.506894112 0.233016834
0.701960683 0.552688420 0.255661011
0.873624444 0.607210577 0.291460991
0.270714760 0.680328786 0.266919464
0.296900511 0.691461444 0.269702673
0.355977267 0.692346394 0.272485793
0.436306089 0.694244206 0.270841271
0.533206522 0.697786272 0.272486001
0.638456881 0.696900427 0.278178424
0.750916958 0.704743624 0.279317081
0.888677895 0.734598458 0.326755196
0.447311580 0.880075753 0.385325581
0.469702721 0.883491278 0.394939899
0.509803832 0.882479429 0.394054621
0.567488730 0.883491337 0.394433737
0.649968147 0.889816523 0.405313045
0.739911437 0.885135770 0.409613669
0.833396375 0.888677895 0.424035132
0.941555738 0.891081691 0.433902591
0.044908639 0.029727997 0.268057913
0.096521437 0.037065350 0.257432193
0.180012286 0.048829637 0.247817636
0.239974648 0.064516351 0.237697631
0.328905463 0.084123835 0.240733624
0.444655478 0.108538643 0.269829512
0.612903237 0.121062636 0.302719921
0.810752451 0.136115968 0.346362919
0.068691090 0.099810444 0.234914273
0.110183179 0.103731543 0.224541381
0.167489097 0.105629183 0.225806624
0.226565629 0.105249636 0.219228297
0.308791816 0.126122996 0.235800087
0.433649570 0.144086003 0.265022010
0.598861516 0.157495290 0.297533095
0.799367547 0.177229717 0.345856637
0.102087639 0.164453000 0.220746279
0.131815642 0.164705738 0.215433016
0.178114831 0.169133201 0.226312280
0.235293910 0.169133201 0.216824993
0.313472718 0.187096894 0.232004821
0.431752026 0.211511910 0.272232831
0.601771057 0.237824425 0.307779998
0.800505936 0.269196540 0.350664347
0.136243001 0.219228297 0.215939268
0.147881180 0.226312175 0.223909080
0.199620381 0.236052930 0.232511178
0.269196242 0.261859626 0.252878278
0.341303170 0.265021801 0.263124466
0.436685354 0.284250289 0.277925253
0.607969522 0.319670916 0.313472629
0.811385036 0.366477102 0.352055252
0.178114727 0.322707176 0.261732996
0.193295285 0.327640742 0.252751261
0.243517086 0.333586276 0.268691093
0.291587621 0.335483760 0.270082265
0.359772027 0.337381393 0.273750603
0.475521684 0.370272279 0.291334480
0.642757535 0.417583913 0.320809454
0.835167348 0.479569584 0.367362142
0.221252635 0.471853465 0.300948620
0.240733728 0.474256635 0.299051285
0.289563358 0.475901484 0.302973002
0.352182269 0.482099742 0.307653278
0.436432928 0.486780435 0.308412373
0.528526127 0.494623572 0.312839746
0.684756756 0.544844806 0.341682643
0.858696878 0.607843161 0.393421829
0.290069550 0.665654480 0.346616238
0.311448365 0.667931437 0.354205996
0.358507186 0.666034043 0.352561802
0.435800254 0.671220899 0.354965180
0.526249051 0.677925289 0.361163914
0.631751895 0.684250414 0.365338445
0.746363163 0.694117904 0.375205934
0.879063725 0.728779316 0.421378791
0.467552215 0.861859262 0.464389384
0.488804579 0.865148664 0.465654761
0.519418120 0.865148664 0.471094131
0.580265880 0.869576454 0.472738832
0.658064604 0.873497725 0.477039695
0.742061913 0.874762595 0.485389054
0.836812317 0.882732391 0.498545051
0.931182742 0.889436781 0.516887903
0.098671801 0.064263187 0.400632173
0.147627741 0.069702998 0.392662972
0.224035293 0.076786906 0.376849979
0.300063282 0.088045545 0.360405207
0.372042954 0.101961002 0.343074203
0.463124722 0.114104547 0.342188388
0.626185715 0.118406095 0.393674463
0.824414790 0.143073961 0.447691351
0.120303638 0.123719089 0.362808406
0.159392536 0.135230541 0.365085185
0.217077911 0.133965984 0.358128101
0.288677722 0.138393447 0.343200296
0.365085185 0.137507543 0.334218830
0.446046919 0.150410995 0.341935545
0.614168167 0.159772098 0.387602776
0.804933608 0.185452059 0.435673714
0.141808987 0.201391280 0.331309199
0.176850259 0.206451744 0.337254822
0.221758187 0.204553992 0.337001979
0.282479525 0.204174548 0.327514291
0.348513395 0.203668386 0.326628476
0.447438121 0.213789001 0.338140398
0.617583811 0.235041201 0.394686997
0.813915253 0.275901228 0.448197097
0.163694084 0.267552435 0.329791188
0.192789301 0.271853268 0.330929756
0.238583431 0.272232711 0.325869381
0.292472810 0.274889261 0.328652829
0.357494831 0.272486091 0.330170840
0.456293374 0.293990940 0.351676285
0.613282800 0.327640712 0.391018212
0.811384976 0.377356082 0.443390191
0.192789182 0.337002188 0.327387571
0.217078000 0.341176540 0.335104465
0.256926090 0.343959153 0.335357308
0.326628387 0.363061547 0.348639995
0.433902383 0.399493992 0.389247179
0.508538723 0.404427618 0.383807361
0.649209261 0.433776081 0.409614474
0.833269596 0.490828633 0.471473664
0.238076985 0.475015938 0.375205159
0.258949935 0.479190350 0.377229601
0.305502981 0.482352972 0.377229661
0.382668942 0.492473334 0.393674821
0.462871432 0.504743934 0.403794914
0.555218458 0.508918464 0.408348948
0.697406888 0.556736469 0.443137378
0.855534315 0.614674330 0.494370997
0.320936084 0.664010227 0.445667386
0.347628206 0.669196904 0.447438151
0.394433767 0.667172790 0.448703349
0.464769214 0.667299449 0.454522520
0.544844687 0.675015509 0.458064586
0.635420799 0.676154077 0.461859554
0.739025891 0.689057231 0.472738475
0.882352710 0.732447982 0.519038320
0.508665442 0.864010394 0.556988955
0.531562269 0.863251209 0.561796308
0.557368577 0.864389718 0.563693702
0.611764729 0.867931664 0.569133341
0.677039802 0.870967746 0.573940396
0.756862760 0.873371601 0.580898166
0.836053073 0.878810823 0.587982237
0.927134573 0.885009348 0.604301214
0.162175730 0.101707987 0.541935205
0.207337275 0.103225797 0.535736859
0.282479465 0.103731737 0.522454202
0.364200085 0.107653253 0.518153429
0.455154896 0.113978542 0.505755484
0.540037930 0.117520481 0.491334707
0.647438586 0.121821538 0.494370908
0.833902478 0.152435064 0.551929295
0.167109743 0.157495290 0.505376637
0.208855078 0.157368809 0.500189900
0.268311292 0.158507541 0.507906556
0.353193998 0.160910740 0.496521115
0.433396548 0.158127993 0.486780554
0.526755452 0.156230360 0.476280928
0.625932813 0.161796361 0.479822785
0.818216383 0.191144705 0.546742260
0.190512627 0.237824082 0.495888799
0.217204332 0.239342079 0.498165786
0.273497820 0.238329828 0.486401111
0.350664169 0.233649716 0.479822457
0.436053187 0.236053020 0.477925003
0.517773807 0.233775914 0.468184441
0.631878376 0.243137360 0.481467456
0.823529541 0.283111960 0.546742260
0.201012075 0.318785638 0.475268692
0.229727924 0.317647278 0.474130362
0.279317170 0.312966466 0.464389801
0.348134249 0.315749615 0.460847557
0.423149765 0.315749645 0.459709108
0.506135345 0.314611256 0.457305282
0.632637501 0.331688643 0.481340647
0.824288487 0.392662704 0.551802456
0.223402739 0.402656704 0.473750651
0.248450637 0.405818909 0.462618381
0.298544824 0.405059904 0.468437821
0.367868543 0.406578094 0.467299253
0.450853854 0.413409173 0.472359002
0.538519859 0.418848455 0.475648195
0.667678714 0.444907993 0.504364192
0.837950706 0.508665442 0.566350222
0.258443981 0.500948489 0.469702452
0.276027828 0.500822425 0.476660281
0.331941456 0.507147431 0.481720179
0.404301018 0.512713432 0.481214464
0.503352225 0.533080280 0.503352463
0.628336191 0.575458467 0.546236694
0.724351525 0.590385735 0.559139729
0.857305288 0.636812150 0.605945468
0.332700998 0.658949792 0.532700717
0.354585826 0.662618399 0.529285192
0.401264936 0.664642632 0.537507713
0.480835080 0.671600282 0.543832839
0.573813975 0.681973577 0.555344760
0.658697188 0.692473233 0.567868292
0.749399066 0.695256591 0.578114986
0.881087899 0.743832588 0.626186013
0.529791057 0.857937753 0.637191534
0.550158083 0.853636742 0.649209321
0.578368187 0.856672645 0.643643379
0.633270025 0.860974133 0.654142916
0.690322638 0.859835327 0.661100805
0.760910809 0.864136517 0.668437541
0.839595199 0.874762893 0.678178310
0.928020477 0.879822791 0.690196037
0.230360284 0.152561277 0.709044993
0.267552257 0.146742538 0.709677577
0.338393271 0.151676089 0.706261873
0.430486917 0.154838577 0.697406888
0.536495745 0.154079467 0.686907053
0.641745687 0.149399281 0.679063559
0.740037799 0.153194278 0.670461535
0.846932411 0.161669627 0.666160464
0.227830276 0.196078539 0.681973577
0.270714819 0.197090253 0.697659492
0.335610539 0.195825189 0.692852497
0.424414963 0.196963832 0.684123993
0.524225116 0.198481932 0.677419364
0.630740166 0.195193008 0.669449747
0.734092057 0.196584523 0.663883507
0.836432695 0.203162640 0.657558501
0.243263558 0.285895079 0.678051531
0.287033707 0.285895079 0.680202305
0.340544075 0.287160307 0.676407278
0.429095656 0.283365160 0.674636185
0.529411674 0.284883171 0.670335412
0.627577305 0.282100022 0.666793227
0.732068360 0.283871055 0.659329593
0.842504799 0.293991268 0.656040430
0.278178334 0.379126906 0.662745237
0.300695717 0.382922292 0.661353707
0.354838699 0.382795632 0.653636694
0.436306208 0.383554548 0.656040549
0.527514160 0.383048624 0.654775441
0.624288321 0.385325909 0.649462163
0.723845899 0.385325909 0.644275546
0.839468718 0.401770800 0.658317566
0.305123568 0.485389084 0.653004527
0.332321107 0.487539440 0.656293333
0.386590540 0.487666368 0.651359797
0.457811564 0.488172024 0.648323715
0.536242545 0.488425463 0.643516660
0.627577245 0.486780733 0.644402504
0.723466456 0.489184380 0.647564530
0.840986848 0.522327781 0.667425632
0.351422995 0.590005994 0.653130829
0.375711262 0.594939828 0.657179177
0.421884656 0.595572293 0.654142976
0.490449220 0.597596288 0.655534267
0.574699402 0.601264894 0.655407548
0.663504481 0.605945528 0.658823550
0.743579745 0.612397432 0.658949971
0.866792917 0.653257251 0.698039293
0.394939810 0.692979276 0.650474250
0.402530134 0.692979276 0.655660987
0.449841678 0.691334546 0.656925738
0.518658876 0.695256531 0.658823490
0.600632668 0.697659731 0.657684863
0.694876552 0.715749323 0.678178549
0.800505579 0.747248292 0.711954296
0.890322506 0.774572670 0.733080268
0.542567670 0.860214829 0.730550230
0.558760583 0.855787158 0.732953668
0.587476075 0.856925607 0.739405513
0.639089048 0.860720634 0.739784598
0.708538651 0.865148664 0.752814233
0.781024456 0.868184984 0.758760214
0.844402254 0.874383450 0.769892097
0.919670999 0.887412608 0.778621316
0.304870129 0.242251620 0.885515451
0.335483521 0.242631167 0.879317045
0.399493992 0.248956442 0.873118341
0.491840452 0.249968410 0.876786768
0.592789352 0.259582222 0.872485638
0.697533250 0.277545750 0.864769101
0.809867501 0.293105125 0.864262998
0.922074616 0.318405569 0.852877617
0.312587082 0.285515130 0.873877585
0.346362889 0.282479435 0.872359455
0.405186594 0.283238471 0.870082319
0.492473245 0.287918985 0.869702816
0.591524184 0.299683690 0.867805183
0.701454759 0.312081128 0.857811153
0.807969689 0.329791039 0.854775310
0.912966490 0.345983565 0.844782054
0.354079604 0.369386554 0.860847414
0.376597136 0.382542431 0.866793096
0.430866897 0.377988458 0.867046356
0.512207031 0.380771399 0.862365365
0.607210994 0.386590838 0.858696818
0.710689247 0.395445883 0.858570337
0.811385393 0.411511362 0.854269564
0.917646825 0.424794406 0.853636622
0.415559769 0.486148238 0.850094974
0.439089060 0.484756470 0.856799603
0.475015849 0.488677979 0.853004396
0.544845045 0.491207898 0.853889763
0.626185656 0.495003045 0.851612747
0.715876043 0.496268123 0.847564936
0.811764896 0.509171486 0.846173227
0.910436451 0.516508460 0.846679211
0.470461577 0.594433963 0.842125416
0.491207778 0.595698535 0.847691119
0.531056106 0.598229170 0.848070681
0.584060252 0.598229170 0.846046686
0.651739180 0.602530003 0.844528913
0.731689036 0.606324732 0.847311556
0.819734395 0.605186522 0.842125177
0.913219392 0.612649977 0.838962376
0.518532515 0.688930571 0.853130698
0.529158890 0.697027326 0.852751255
0.566856265 0.696015537 0.851865709
0.622264266 0.700695634 0.847691238
0.686274230 0.703478932 0.849336028
0.750284672 0.703731537 0.845161378
0.833396554 0.709930241 0.844402313
0.912333667 0.712333620 0.840607345
0.558254242 0.786211252 0.849715412
0.570777833 0.790132880 0.857684851
0.601770937 0.788868070 0.849462271
0.651486576 0.792283416 0.846805990
0.708412111 0.793168604 0.849462271
0.778747618 0.795951962 0.847185493
0.846300006 0.799241066 0.849336028
0.917014420 0.808096170 0.854395866
0.607210577 0.880328596 0.854142785
0.627071500 0.884250581 0.863377452
0.644022584 0.884250581 0.860341609
0.685009420 0.881720603 0.861226976
0.737254739 0.885388970 0.863630772
0.802656591 0.884250581 0.856925726
0.867172897 0.891713977 0.872232795
0.939025760 0.908918619 0.890828431
