Assets/Shaders/EldamarStudio/100 Sci-Fi LUTs Pack/LUTs/cube/Harnasia LUT.cube
DOMAIN_MIN 0 0 0
DOMAIN_MAX 1 1 1
LUT_3D_SIZE 32
0.086274996 0.003922000 0.000000000
0.092346996 0.000885613 0.000000000
0.098419003 0.000000000 0.006451774
0.110816158 0.002529999 0.016824998
0.132068545 0.008981547 0.028968997
0.153320938 0.018089935 0.041112997
0.169513315 0.029727999 0.048197001
0.187982693 0.036938708 0.052624710
0.208476007 0.040734001 0.055661093
0.226692006 0.046806004 0.058697484
0.247817874 0.049968131 0.058823999
0.267045975 0.055028513 0.060847737
0.287539274 0.063377991 0.065021999
0.311069012 0.075521998 0.071093999
0.326249421 0.087665990 0.077165999
0.353446990 0.097406797 0.090448797
0.379253179 0.109551191 0.104110993
0.400505543 0.125363976 0.116255142
0.421757996 0.143580019 0.128399938
0.451359749 0.153447360 0.137760654
0.476027727 0.168247983 0.150663733
0.502340257 0.183428124 0.164832264
0.538519979 0.192789495 0.176976979
0.568880796 0.207969904 0.189121008
0.601518273 0.223150283 0.203542277
0.637697577 0.238330290 0.217330977
0.675648153 0.253004134 0.229474992
0.706008852 0.265148908 0.241618991
0.746995568 0.279949814 0.259076655
0.785958350 0.295129716 0.275522172
0.822391212 0.311195195 0.290702373
0.858824015 0.329412013 0.305882007
0.089310609 0.003922000 0.009108387
0.104490995 0.000885613 0.012143999
0.108412229 0.006451774 0.012143999
0.118658938 0.012903225 0.019860934
0.137001991 0.021505097 0.032764386
0.150284544 0.033270322 0.050221384
0.166476920 0.042378064 0.044655066
0.188235298 0.049082711 0.051486410
0.210752711 0.053637095 0.057938386
0.226692006 0.061986394 0.058697488
0.247817874 0.070967518 0.064642996
0.267045975 0.072232388 0.064895995
0.286400646 0.077419251 0.069196738
0.308538646 0.087413035 0.077166066
0.329285026 0.096774377 0.083238766
0.346869230 0.108918376 0.091713957
0.373181581 0.121695191 0.104110993
0.398102343 0.136242986 0.115622565
0.421757996 0.149652019 0.125363544
0.448577076 0.165085360 0.140290976
0.474889368 0.172802001 0.151802391
0.500316262 0.184439987 0.162808001
0.532447994 0.195951626 0.171030715
0.562808037 0.214041889 0.186084613
0.600000024 0.229222268 0.202783182
0.634914637 0.241619304 0.217330977
0.670588136 0.254016131 0.229981065
0.706008852 0.271220893 0.244655386
0.741682589 0.283364981 0.259456187
0.781657159 0.298165768 0.275522172
0.821125805 0.314231366 0.291587979
0.861859620 0.332447618 0.308918387
0.096647777 0.018975774 0.018216226
0.107526615 0.020240385 0.023403160
0.114105001 0.019354774 0.015686000
0.118405774 0.027197998 0.023276322
0.133839324 0.035799868 0.036053453
0.153067768 0.047944639 0.045414221
0.167742088 0.055408221 0.051612679
0.187855765 0.064515837 0.050727416
0.212397203 0.069323190 0.059582900
0.228969276 0.077040255 0.060974225
0.245667085 0.081846900 0.064642996
0.268943757 0.088930771 0.070714995
0.286274403 0.092599422 0.073245004
0.305502802 0.101707809 0.081087776
0.326755166 0.110816188 0.087160058
0.349904835 0.122327767 0.095635958
0.369639426 0.134471774 0.107779965
0.395066351 0.148386985 0.119923957
0.419354796 0.160531014 0.129031971
0.446426302 0.171157360 0.141556144
0.471853703 0.184439987 0.152941033
0.498165727 0.193042263 0.164832264
0.528905690 0.205186531 0.173561007
0.565338552 0.219354808 0.188740894
0.591777027 0.235294268 0.197596580
0.631246209 0.249082968 0.214421302
0.667678773 0.259455770 0.227830291
0.707400084 0.274383128 0.243010670
0.743832827 0.289436966 0.256040812
0.783807576 0.303352177 0.276533931
0.822770178 0.319417983 0.295509428
0.862744987 0.337633997 0.316255778
0.108286157 0.044023000 0.028589323
0.114863776 0.047058932 0.033396613
0.119670935 0.046679158 0.031625614
0.125237003 0.047944319 0.022011161
0.132068098 0.054016318 0.039848387
0.152814865 0.064389870 0.046426225
0.170778155 0.072739154 0.048197001
0.187096998 0.080455445 0.056799415
0.210626110 0.088045254 0.062112898
0.229348809 0.093611963 0.065148517
0.244655281 0.096774124 0.068184868
0.263377368 0.101834320 0.071979836
0.287666142 0.107906319 0.078052126
0.303985000 0.116635159 0.084124163
0.326249242 0.124731407 0.090196155
0.348639995 0.137508139 0.101201631
0.368880183 0.148387000 0.109551191
0.391397536 0.159898579 0.124098986
0.416318804 0.171410173 0.133839220
0.442125350 0.182036355 0.144465715
0.467552125 0.193042308 0.157242253
0.496901035 0.205186307 0.168374121
0.527893662 0.217330992 0.180518821
0.562808573 0.229475006 0.192283094
0.595952153 0.242631435 0.204427406
0.625932992 0.256420135 0.213409618
0.665402055 0.268058211 0.228083313
0.707147121 0.279443324 0.242504597
0.744338751 0.295508951 0.257558495
0.784313500 0.311954170 0.272991925
0.825047374 0.328020185 0.297280192
0.861480176 0.346236318 0.321568996
0.122327998 0.074003547 0.040354453
0.125743166 0.076660387 0.044149160
0.128399774 0.075774774 0.044275545
0.133586377 0.075648159 0.043263547
0.143073559 0.077545993 0.037950546
0.155218333 0.083617993 0.053130932
0.172042996 0.092220314 0.053889774
0.188235149 0.100569375 0.057558414
0.204554096 0.108538635 0.067805447
0.225806490 0.111575022 0.070841067
0.241619319 0.114610672 0.073877320
0.258064538 0.120050505 0.076913290
0.278937280 0.126122996 0.081087738
0.302466959 0.132194996 0.086907476
0.326375425 0.138266996 0.092852995
0.349019319 0.151549801 0.106514730
0.368374169 0.163314342 0.117520384
0.385705084 0.172801659 0.125237539
0.413029552 0.181910068 0.137381569
0.437571168 0.193421558 0.146742806
0.462998062 0.205186471 0.158886790
0.491207838 0.217330992 0.173687115
0.530297399 0.229601488 0.188614503
0.557874918 0.241998553 0.194939554
0.591651022 0.253384024 0.207083836
0.628083766 0.266287506 0.221631780
0.664643049 0.278305054 0.233776435
0.704111397 0.287413418 0.245920435
0.741303027 0.303352505 0.262997985
0.780898333 0.321188927 0.279063731
0.822391212 0.339405179 0.296900660
0.858824015 0.357621998 0.321189463
0.128399998 0.101327926 0.049462065
0.134471998 0.101327926 0.058570448
0.135736927 0.101833992 0.055913933
0.138772994 0.103857927 0.055913929
0.146109939 0.107905999 0.059202932
0.158253938 0.101833992 0.059202932
0.172928378 0.110436320 0.064263321
0.186969995 0.116255701 0.064642869
0.201138258 0.121062867 0.068184994
0.219734490 0.126755416 0.073877454
0.238077000 0.129791066 0.076913066
0.251739562 0.136875182 0.079949319
0.270588577 0.144338995 0.084123932
0.296394944 0.150410995 0.089943089
0.311574548 0.156482995 0.092979476
0.337887466 0.169765785 0.108538985
0.362681895 0.180391982 0.121695124
0.385452121 0.188235074 0.131562561
0.409993917 0.200126857 0.146489948
0.434534937 0.209234521 0.155850589
0.464516282 0.218848661 0.164958805
0.495382845 0.229475006 0.176090926
0.527261019 0.241745502 0.188614503
0.557621896 0.256925911 0.197722912
0.589753270 0.264768928 0.206325233
0.625047326 0.277419388 0.220619917
0.661480129 0.293611914 0.236812055
0.698039412 0.305629432 0.248956040
0.737507761 0.314737827 0.263756871
0.776470602 0.328905642 0.277672410
0.817331195 0.345477194 0.293864876
0.858824015 0.363694012 0.318153083
0.129411995 0.128652319 0.066160642
0.132953674 0.126122639 0.062618710
0.141176447 0.128272861 0.067425549
0.144844994 0.128652319 0.066287160
0.151296556 0.131055862 0.070335321
0.161290333 0.127134651 0.070335321
0.170904636 0.128652319 0.070335321
0.186084598 0.134471700 0.075015999
0.201391101 0.139026091 0.079064094
0.221378654 0.146869317 0.086907320
0.237065002 0.150031447 0.087539770
0.255281508 0.153067589 0.090575382
0.270714998 0.161163971 0.094749995
0.293105692 0.168627635 0.100569025
0.310562551 0.174699634 0.103605412
0.335357398 0.185578629 0.113851987
0.361163974 0.197596520 0.127261192
0.385452121 0.205945626 0.136369571
0.409740984 0.218089938 0.147754982
0.431499332 0.227451295 0.159898981
0.459582299 0.234661639 0.169007063
0.493358582 0.244149312 0.180139184
0.527007997 0.256166816 0.193801016
0.562175810 0.266540229 0.205313236
0.592536569 0.281720579 0.216698319
0.628462911 0.289942950 0.224667981
0.666540027 0.303731799 0.238330126
0.704996526 0.315876305 0.254522622
0.741555691 0.330423504 0.269322813
0.781024575 0.341303080 0.284503162
0.821379185 0.357495219 0.300063252
0.863883972 0.377356321 0.322706997
0.131056279 0.154332399 0.076154292
0.134092331 0.151296362 0.073371291
0.143073767 0.152561620 0.075395636
0.149652168 0.151802406 0.074636087
0.156103715 0.151422858 0.077292837
0.166476935 0.150916919 0.081087992
0.170651600 0.151296377 0.081087992
0.184693277 0.152687699 0.084376991
0.199873090 0.155724078 0.088172093
0.219354495 0.163061470 0.093738481
0.233143583 0.169639528 0.095762290
0.251992494 0.172675252 0.097786449
0.271347642 0.177988634 0.101960704
0.290322691 0.186843991 0.108538702
0.309929967 0.192915991 0.115749404
0.332067966 0.202150688 0.124351695
0.357874960 0.214294702 0.134977892
0.380897969 0.224794552 0.144086108
0.403162569 0.237950712 0.153194264
0.431246370 0.242378354 0.165085718
0.458190978 0.254522681 0.176976740
0.490575224 0.261606812 0.188109115
0.526754975 0.273244858 0.202909410
0.560151815 0.285388887 0.212017804
0.596963823 0.294117540 0.224161997
0.630107582 0.307906598 0.236305967
0.668311059 0.317267329 0.244402051
0.705502391 0.328273177 0.261480182
0.743959308 0.343073845 0.277039826
0.783807576 0.359772116 0.290575176
0.822391212 0.371916682 0.306641191
0.863377988 0.390891999 0.327134699
0.134850994 0.177102998 0.082226098
0.137887388 0.175584793 0.082985193
0.144339010 0.175331771 0.084250554
0.154206172 0.178368092 0.089057766
0.158001453 0.172675639 0.082985096
0.169765905 0.174952343 0.090195939
0.174066991 0.173940092 0.091714002
0.181657091 0.174699187 0.096520998
0.198355094 0.174699187 0.100316100
0.213535503 0.177735582 0.097280480
0.228083640 0.185072973 0.100063130
0.245541245 0.190891936 0.103099257
0.266034544 0.196963742 0.107273996
0.287033916 0.206072137 0.113599032
0.307779551 0.212650195 0.125237077
0.329031765 0.221125796 0.134218797
0.351043284 0.230234176 0.144086093
0.377229601 0.241113186 0.154459476
0.396078199 0.255914092 0.163820148
0.427450985 0.260215104 0.175711632
0.458190978 0.268943727 0.186338082
0.487539232 0.281341046 0.197217122
0.524098516 0.290449411 0.212270990
0.556356728 0.304364204 0.219607994
0.591271281 0.314231098 0.230233982
0.630107224 0.323845327 0.242378160
0.667552054 0.335990012 0.255028129
0.701707423 0.345350653 0.270208418
0.741176307 0.359012991 0.285388827
0.780139327 0.375205487 0.298797965
0.821632147 0.393169075 0.314990282
0.858064950 0.405313104 0.333207101
0.140922993 0.195319012 0.097406492
0.143959388 0.198355407 0.100442879
0.144844994 0.196837217 0.096900970
0.149146169 0.199114174 0.097659841
0.158001453 0.206072047 0.104237489
0.167109057 0.203036442 0.098165497
0.176343828 0.197722822 0.097786017
0.185072690 0.196837217 0.104364008
0.195319489 0.198987991 0.112460107
0.207463503 0.198987991 0.109424487
0.228462875 0.202024370 0.112207137
0.247312024 0.207337499 0.115243264
0.265654981 0.215559974 0.119418003
0.283997536 0.227324530 0.125743032
0.302213490 0.236432910 0.134851411
0.322959781 0.245414153 0.141682491
0.344212174 0.253004372 0.150917009
0.368121207 0.259329975 0.163567096
0.401518434 0.265402019 0.178747490
0.431498975 0.277419537 0.190891504
0.460088223 0.289057493 0.199240997
0.486527234 0.299303979 0.205566481
0.511954486 0.305629015 0.212270990
0.551422894 0.314737409 0.224415004
0.583681107 0.326375484 0.236305982
0.618595600 0.339658111 0.248450324
0.658443630 0.354205996 0.261100918
0.700948358 0.366349995 0.276280493
0.743073583 0.378368139 0.291460812
0.780139089 0.392410129 0.304869950
0.815686584 0.408602446 0.321441799
0.855028570 0.426565498 0.348387480
0.149904877 0.219354734 0.106767870
0.144212395 0.216571391 0.109803513
0.149398997 0.219607770 0.108538896
0.150916994 0.219354734 0.108285993
0.156230226 0.223149881 0.114990413
0.172928795 0.227703929 0.116508737
0.182036415 0.222137988 0.115496740
0.191144705 0.222643733 0.118785731
0.201011986 0.225426972 0.124604642
0.213156015 0.223276734 0.121568471
0.225300744 0.223276734 0.124351867
0.240480870 0.230360597 0.127387479
0.256926119 0.237317979 0.130423635
0.275395185 0.245414048 0.135230869
0.296267956 0.251866281 0.146995410
0.316887766 0.260974050 0.156103805
0.341176182 0.270082057 0.164200053
0.366476536 0.277545989 0.173687726
0.395319194 0.283618003 0.182036847
0.420367002 0.295255989 0.191650525
0.450474471 0.307400465 0.205565736
0.481846839 0.317520738 0.213662252
0.514104664 0.323845744 0.218089983
0.548007786 0.335736752 0.230233997
0.582922161 0.347121865 0.240101278
0.616698325 0.359266192 0.251612842
0.655155003 0.372422755 0.263251185
0.697659731 0.384566724 0.273624420
0.742820621 0.396710724 0.296773821
0.778494358 0.408854932 0.312713176
0.816065907 0.422896713 0.325995833
0.863630831 0.439089000 0.343200266
0.146868750 0.245667234 0.123972245
0.152941257 0.240607113 0.120936118
0.149398997 0.241872266 0.121695019
0.156736165 0.243643492 0.121189088
0.159772247 0.244402498 0.124983996
0.171410605 0.250474513 0.123086669
0.182036936 0.252498239 0.125616997
0.192789257 0.248070955 0.127261281
0.203035995 0.252245396 0.132953733
0.215180010 0.251739472 0.133712500
0.227324739 0.249589249 0.136495858
0.239468992 0.249589235 0.135483742
0.255028635 0.258696854 0.141935289
0.274130285 0.265654325 0.147881255
0.293611377 0.271727085 0.156483248
0.314863771 0.282226682 0.162175536
0.339152187 0.289816499 0.172802120
0.365844131 0.297786236 0.181783974
0.391777247 0.303858280 0.187856019
0.416318476 0.315496236 0.198734909
0.444402218 0.325742990 0.204047993
0.473750859 0.336749136 0.214674130
0.507273495 0.344212741 0.218342736
0.544465721 0.358254522 0.234282270
0.579886019 0.368374258 0.246173292
0.616065741 0.379126906 0.256672978
0.653131127 0.390639007 0.269323081
0.692599833 0.402782977 0.281467438
0.733712733 0.412903249 0.297786206
0.775711119 0.426818430 0.316761464
0.807716548 0.440101087 0.331941843
0.852498710 0.455281496 0.345224530
0.144591644 0.270714641 0.144085988
0.152182132 0.268058270 0.138013989
0.156989232 0.267299414 0.135104641
0.160151809 0.271347642 0.137508124
0.168501109 0.270968080 0.139405280
0.173813999 0.274762988 0.133333281
0.182416320 0.278304964 0.134851307
0.192030638 0.278051704 0.137887567
0.204174638 0.275774986 0.140923187
0.216318652 0.278431147 0.146615639
0.229601741 0.276786864 0.150916860
0.242884636 0.276913643 0.151043370
0.256166995 0.278052002 0.150284275
0.276660413 0.286653668 0.161416993
0.293105602 0.291840822 0.165717989
0.314863771 0.302719980 0.171663478
0.336875200 0.312966645 0.176976383
0.363567144 0.319038630 0.188488573
0.387855977 0.325110644 0.195066661
0.411005676 0.335610300 0.206704661
0.442504466 0.348134011 0.213156089
0.472865254 0.356230259 0.218216479
0.500695646 0.365338624 0.221758142
0.539152741 0.379506916 0.236938819
0.575205624 0.391271353 0.250600994
0.614167988 0.400379300 0.263883621
0.653637052 0.410499722 0.277039647
0.690702200 0.423276275 0.292852432
0.729791403 0.433902472 0.308032811
0.770398378 0.445414156 0.323213160
0.811637819 0.460594565 0.338393569
0.846046984 0.475775003 0.353574008
0.153194040 0.292979032 0.161543041
0.153700039 0.295509428 0.155977041
0.157242000 0.296901017 0.152055740
0.165338263 0.298671991 0.152815029
0.177356452 0.303605497 0.158127993
0.180392057 0.300569117 0.152055994
0.188235283 0.302593321 0.153067738
0.197849661 0.302846372 0.155850753
0.207210958 0.300316006 0.158633962
0.219354972 0.300316006 0.161669582
0.234155864 0.300569057 0.167615056
0.249589205 0.302846283 0.170145065
0.264516354 0.305376381 0.170777634
0.280202031 0.308412045 0.174320027
0.292346805 0.311448425 0.174320027
0.313093007 0.320683002 0.180518761
0.336116195 0.331056178 0.188109025
0.358001143 0.340038002 0.195319533
0.382289976 0.346109986 0.204427943
0.404048353 0.355471343 0.215306967
0.435926706 0.367615700 0.222264290
0.472612232 0.380519003 0.227324158
0.503099442 0.386717498 0.236559018
0.539405763 0.398735046 0.245793909
0.574320257 0.410879046 0.256926030
0.611891270 0.421884716 0.270208657
0.653637052 0.431752115 0.284882993
0.693105400 0.446932465 0.303098977
0.732321382 0.459709048 0.318911850
0.773308277 0.471599996 0.334851176
0.816698551 0.484629601 0.350790590
0.862239003 0.499810040 0.365971029
0.156230420 0.326375365 0.170651406
0.162302420 0.323339760 0.170651406
0.160657644 0.328020394 0.167235628
0.163314000 0.329032212 0.167994887
0.171789706 0.327893525 0.173687860
0.186464056 0.324857891 0.176343977
0.192029998 0.326881468 0.172802299
0.203668281 0.329917669 0.172675818
0.215306565 0.330170721 0.173308402
0.222390592 0.327640384 0.173814341
0.234535322 0.330550253 0.179759815
0.251359999 0.334977806 0.185831815
0.266666561 0.337001741 0.187223181
0.280202031 0.335736424 0.186464027
0.301454425 0.338772804 0.195572406
0.313599169 0.339405388 0.193168581
0.334345430 0.344971389 0.197216958
0.358001143 0.352940977 0.205186814
0.382289976 0.364326000 0.219607532
0.406578034 0.378747344 0.220366567
0.434029043 0.386969984 0.228589311
0.467299134 0.397975683 0.236432537
0.500063062 0.411005497 0.245667398
0.533459485 0.420113891 0.257811397
0.574319720 0.432131380 0.267046243
0.614926875 0.444275707 0.278178364
0.656419694 0.455787808 0.289942980
0.693105400 0.468184829 0.297026992
0.729917586 0.483365208 0.315243661
0.768753707 0.494370550 0.336369365
0.810625970 0.505882025 0.358760178
0.856167018 0.521062374 0.381151408
0.154459193 0.357368588 0.182162985
0.162935004 0.351929158 0.186969981
0.169007003 0.348893017 0.186969981
0.171789959 0.354205996 0.185451791
0.179000601 0.355344325 0.188108727
0.188108742 0.356356710 0.187096864
0.198102608 0.355977267 0.189879507
0.202529892 0.357368588 0.186843902
0.214674085 0.358886778 0.187602982
0.225679815 0.357495099 0.190891981
0.239974737 0.360278457 0.191903979
0.256166995 0.361290604 0.193927988
0.272106260 0.364326596 0.198102638
0.284503579 0.362808406 0.198355600
0.301454395 0.363694012 0.205313221
0.320303589 0.366729766 0.207210794
0.335483968 0.368247956 0.210246399
0.356736153 0.374699563 0.216571748
0.377482980 0.386843622 0.224667847
0.406578034 0.396963984 0.228336602
0.434661478 0.408348858 0.234028861
0.467046231 0.415938914 0.243137121
0.501960754 0.428336293 0.252245516
0.537634492 0.441998690 0.262112826
0.573307574 0.453383803 0.276534081
0.614167988 0.466919422 0.285895079
0.655154824 0.479063988 0.297026992
0.693484843 0.487412989 0.306893975
0.734724581 0.499809980 0.325995833
0.769386113 0.520303607 0.347754568
0.809360802 0.531688571 0.368500769
0.854902029 0.542314827 0.386717200
0.162049383 0.386211187 0.203415364
0.166603580 0.384693384 0.200379387
0.170525193 0.382289797 0.202150390
0.176597178 0.380518556 0.202150390
0.185452446 0.384946018 0.202529833
0.192662805 0.385705113 0.201770931
0.199747324 0.386211187 0.202276871
0.211638272 0.387729377 0.203541711
0.216951191 0.387729377 0.202024087
0.231372699 0.387729377 0.207337186
0.245034859 0.389121056 0.206071988
0.259202987 0.390133202 0.209107995
0.276280642 0.391271561 0.209107995
0.289057821 0.391398042 0.211764842
0.304237753 0.390133202 0.216571987
0.321821421 0.394054562 0.220872998
0.338519990 0.397090167 0.220872998
0.356736153 0.399493992 0.228083193
0.374952972 0.408096015 0.230233952
0.402783215 0.418975532 0.233270347
0.434661478 0.429601640 0.240101248
0.468058109 0.438709527 0.250221252
0.504870355 0.447944373 0.259835660
0.539911807 0.461733103 0.268943697
0.574826181 0.476154387 0.279570073
0.611258507 0.488298386 0.293358773
0.651613057 0.501834214 0.304617047
0.693105400 0.507906199 0.319797158
0.735230565 0.522327542 0.339910984
0.773940325 0.533965349 0.356862575
0.808222413 0.557368577 0.379380167
0.851866007 0.566603184 0.392789185
0.175838426 0.414168119 0.228715986
0.175838426 0.416571945 0.219101980
0.176470995 0.417457551 0.214927569
0.179633409 0.418722540 0.214927569
0.186843961 0.417584002 0.216066018
0.196457639 0.414041609 0.219607607
0.203036055 0.413535535 0.220113546
0.212144285 0.415180236 0.219481140
0.229095176 0.418089986 0.220240071
0.241239965 0.418089986 0.223276466
0.252751589 0.418089986 0.221758261
0.264895558 0.418089986 0.222264126
0.278810620 0.418595910 0.226059139
0.294244051 0.421884626 0.226818100
0.309803963 0.419987559 0.230613381
0.326755136 0.423529536 0.234787971
0.344085753 0.427450925 0.239089131
0.359898567 0.429854125 0.237823978
0.378115356 0.429854155 0.237823978
0.402783364 0.439721674 0.241239920
0.433902711 0.451233536 0.248070806
0.467425704 0.462998092 0.256925642
0.506767631 0.472232938 0.269196928
0.540670693 0.484376967 0.279316664
0.573434711 0.498165816 0.289057255
0.608855307 0.511321962 0.297659546
0.646300137 0.523466110 0.311321646
0.691713989 0.529791117 0.332573980
0.733332992 0.545224607 0.352561355
0.772928357 0.559392869 0.369133413
0.808728635 0.570145130 0.383681566
0.845161438 0.591397583 0.401897579
0.172802046 0.444528997 0.234788030
0.172802046 0.444528997 0.234788030
0.174952820 0.444782019 0.231625810
0.180265844 0.447311997 0.230107993
0.189879596 0.450980455 0.231246442
0.205059975 0.441872090 0.240354046
0.212143958 0.440860003 0.241365984
0.218216032 0.442504704 0.239721701
0.229601204 0.445540935 0.238456860
0.253383964 0.448450059 0.241492525
0.262618870 0.448450059 0.244528890
0.274003953 0.448450059 0.240986958
0.288424969 0.448450059 0.238203958
0.306388080 0.449209094 0.238962919
0.324604839 0.455281824 0.248070493
0.340164810 0.458191186 0.249462008
0.357115954 0.459962010 0.253004402
0.375078976 0.460215002 0.256040812
0.393295020 0.460214972 0.249968022
0.411511779 0.465780973 0.255534738
0.439974725 0.474256784 0.263251245
0.472359240 0.484629989 0.271346986
0.503731966 0.496521026 0.278304547
0.540164769 0.508664966 0.293484926
0.571789980 0.520809591 0.305881977
0.606577992 0.531815350 0.313598663
0.646300137 0.541682184 0.320430070
0.688804865 0.553826928 0.341682374
0.726248920 0.565464973 0.357621789
0.764958560 0.579886198 0.373308152
0.802403569 0.593674958 0.390006602
0.836053014 0.606577992 0.411006004
0.180898353 0.483238399 0.257558733
0.180898353 0.483238399 0.251992702
0.185199350 0.483238399 0.254142940
0.190133005 0.483238399 0.251107007
0.196963906 0.485135943 0.248071015
0.202530295 0.480835170 0.249968424
0.215180352 0.481846780 0.256546348
0.223403051 0.482099742 0.258697063
0.232890606 0.483997494 0.258697391
0.251106620 0.487033606 0.259709239
0.263630867 0.487160087 0.259962231
0.278810978 0.487160087 0.260974377
0.294750005 0.487160087 0.258697391
0.312460065 0.487160087 0.258444339
0.325616837 0.488172203 0.257431924
0.351043791 0.491840571 0.261733174
0.370778203 0.494876593 0.265148729
0.389626920 0.495509177 0.269323409
0.405692756 0.493358403 0.265401453
0.426692069 0.496141762 0.273244739
0.450601101 0.498418748 0.281214744
0.480202496 0.504870534 0.288298607
0.509045005 0.515243709 0.292725861
0.545477808 0.527387738 0.302593261
0.579633296 0.544085681 0.313219637
0.614673972 0.557242393 0.327640682
0.653636754 0.568754017 0.338646442
0.691587508 0.583174884 0.350790769
0.731436074 0.597975850 0.366730183
0.767994642 0.610246837 0.381910086
0.805565834 0.623529732 0.402403444
0.840860009 0.635673761 0.431246370
0.188108996 0.518911719 0.270462006
0.188108996 0.518911719 0.271979988
0.188614994 0.518911719 0.274256974
0.201012164 0.518911719 0.273497730
0.210246742 0.518532276 0.268184751
0.214800924 0.515496671 0.268184751
0.217836991 0.519418120 0.269449741
0.231625691 0.522454143 0.272232741
0.244276077 0.521948099 0.274257004
0.261732966 0.522707164 0.274257004
0.274003744 0.522833705 0.276154727
0.288298696 0.524731457 0.276154727
0.305376381 0.523592830 0.275016099
0.323086500 0.523086727 0.275016040
0.340164542 0.524731457 0.278558046
0.358633757 0.523339629 0.278431535
0.382922173 0.526375651 0.281467527
0.403542131 0.530044436 0.287792563
0.419987708 0.530803263 0.289816499
0.440734118 0.531435847 0.286527336
0.465781450 0.532574475 0.295635730
0.490069747 0.532574475 0.301707983
0.514737546 0.539152741 0.304111242
0.545857072 0.551296771 0.313219637
0.585705280 0.562302470 0.326122522
