Assets/Shaders/EldamarStudio/100 Sci-Fi LUTs Pack/LUTs/cube/Harnasia LUT.cube
LUT_3D_SIZE 5
DOMAIN_MIN 0.000000 0.000000 0.000000
DOMAIN_MAX 0.903226 0.903226 0.903226
0.086274996 0.003922000 0.000000000
0.187982693 0.036938708 0.052624710
0.326249421 0.087665990 0.077165999
0.502340257 0.183428124 0.164832264
0.746995568 0.279949814 0.259076655
0.131056279 0.154332399 0.076154292
0.184693277 0.152687699 0.084376991
0.309929967 0.192915991 0.115749404
0.490575224 0.261606812 0.188109115
0.743959308 0.343073845 0.277039826
0.156230420 0.326375365 0.170651406
0.203668281 0.329917669 0.172675818
0.301454425 0.338772804 0.195572406
0.467299134 0.397975683 0.236432537
0.729917586 0.483365208 0.315243661
0.197217122 0.553320289 0.282606006
0.241745695 0.557874858 0.289437145
0.358507365 0.561543524 0.299304545
0.506262004 0.570019126 0.315875977
0.737507880 0.643263817 0.399620801
0.395319432 0.822770417 0.505123436
0.433017135 0.828083456 0.501328588
0.532700598 0.831246018 0.508412182
0.661353767 0.835799932 0.528652787
0.815053582 0.850221395 0.560151577
0.113724999 0.042504996 0.162175983
0.183048993 0.057558414 0.149398699
0.282479405 0.130170405 0.181151405
0.439468682 0.224288404 0.252751291
0.701201618 0.310309678 0.336875200
0.146742716 0.144212693 0.135736704
0.190259397 0.173307985 0.174952686
0.272991687 0.205692679 0.202403277
0.438836247 0.275015682 0.264895380
0.699557006 0.362681508 0.347627699
0.181404278 0.313599110 0.230487123
0.213156000 0.313599110 0.233776107
0.281847388 0.325363666 0.249209389
0.439848542 0.390132964 0.295256108
0.702846050 0.482353061 0.382036775
0.220999256 0.538646579 0.343706697
0.263251126 0.539911509 0.340037853
0.352561802 0.546109796 0.343327045
0.488677830 0.554965019 0.357748419
0.727007866 0.637950718 0.443896353
0.418595701 0.819607615 0.523466170
0.454269588 0.822643638 0.531815350
0.539531708 0.824035466 0.540417612
0.664895773 0.833522916 0.563440859
0.812776506 0.845667601 0.594433725
0.128779411 0.088298410 0.355723977
0.200379282 0.115116984 0.337128103
0.297533393 0.160910830 0.322454393
0.435926557 0.237065122 0.359392524
0.675648153 0.334218562 0.449336231
0.167995006 0.216192529 0.307399958
0.204933703 0.215180412 0.300821990
0.275900990 0.228209987 0.302087396
0.414294958 0.292979002 0.356736094
0.664263010 0.386211097 0.453636885
0.190891996 0.321062386 0.323086798
0.222264409 0.330929816 0.329917669
0.331562370 0.393674791 0.381909966
0.432384670 0.409993827 0.404174387
0.667932034 0.501074910 0.488678187
0.257052392 0.521948278 0.423402727
0.295888692 0.529158413 0.426691711
0.371536791 0.538266957 0.436559111
0.482352704 0.552687824 0.457811415
0.702213466 0.640986621 0.536622465
0.445034742 0.809740543 0.593801618
0.469575852 0.812017858 0.606830835
0.546363056 0.814927578 0.614294827
0.662365913 0.823149920 0.627071440
0.807210386 0.837824166 0.660847545
0.128399864 0.198228985 0.584819496
0.216445565 0.212903127 0.577482283
0.350917280 0.240733832 0.563441098
0.486654282 0.274636269 0.535737276
0.679696441 0.342441529 0.577229917
0.176850125 0.296268255 0.548387110
0.232131571 0.303099543 0.534977853
0.342694253 0.310056806 0.529158711
0.462744981 0.327640831 0.526122570
0.671726763 0.400632530 0.580518484
0.217709988 0.413662553 0.518785655
0.265274942 0.418595672 0.518152833
0.354206234 0.428083539 0.516761303
0.456546664 0.441113114 0.519923806
0.669576287 0.510815799 0.604048371
0.264895976 0.540544093 0.532827377
0.305755705 0.549399197 0.535989940
0.396963805 0.563061297 0.556862950
0.553320289 0.624921143 0.622897148
0.708032787 0.661480129 0.656926095
0.461859524 0.805818558 0.688930929
0.491966903 0.804806709 0.693737924
0.569512844 0.809361041 0.705755651
0.668943763 0.818216562 0.720430076
0.797090292 0.835546911 0.741429269
0.205565944 0.342820942 0.850094616
0.284629941 0.349652082 0.841619074
0.437697172 0.369639367 0.836432338
0.604427636 0.393168807 0.819481432
0.767868459 0.430486917 0.801770747
0.258570790 0.425173819 0.837064743
0.319670916 0.430740058 0.830866694
0.447438210 0.441619217 0.824414849
0.601391554 0.456293523 0.811638355
0.755850673 0.475268900 0.798608601
0.340923369 0.559898734 0.801012218
0.390638769 0.562175810 0.807463706
0.480835050 0.567741752 0.801138163
0.603795230 0.570018888 0.797217011
0.746995449 0.574952364 0.792156994
0.401265115 0.689310789 0.800252736
0.436938643 0.693358839 0.804174304
0.520176768 0.689690053 0.796584427
0.625679910 0.692599654 0.793042421
0.752940834 0.703099072 0.796710610
0.496394366 0.822770476 0.812270641
0.525869310 0.827324569 0.817457438
0.593421996 0.824035466 0.824794173
0.697026908 0.831625283 0.824035585
0.841113567 0.875015616 0.879063666
