Assets/Shaders/EldamarStudio/100 Sci-Fi LUTs Pack/LUTs/cube/Harnasia LUT.cube
LUT_3D_SIZE 8
DOMAIN_MIN 0.000000 0.000000 0.000000
DOMAIN_MAX 0.903226 0.903226 0.903226
0.086274996 0.003922000 0.000000000
0.132068545 0.008981547 0.028968997
0.208476007 0.040734001 0.055661093
0.287539274 0.063377991 0.065021999
0.379253179 0.109551191 0.104110993
0.476027727 0.168247983 0.150663733
0.601518273 0.223150283 0.203542277
0.746995568 0.279949814 0.259076655
0.122327998 0.074003547 0.040354453
0.143073559 0.077545993 0.037950546
0.204554096 0.108538635 0.067805447
0.278937280 0.126122996 0.081087738
0.368374169 0.163314342 0.117520384
0.462998062 0.205186471 0.158886790
0.591651022 0.253384024 0.207083836
0.741303027 0.303352505 0.262997985
0.134850994 0.177102998 0.082226098
0.158001453 0.172675639 0.082985096
0.198355094 0.174699187 0.100316100
0.266034544 0.196963742 0.107273996
0.351043284 0.230234176 0.144086093
0.458190978 0.268943727 0.186338082
0.591271281 0.314231098 0.230233982
0.741176307 0.359012991 0.285388827
0.144591644 0.270714641 0.144085988
0.168501109 0.270968080 0.139405280
0.204174638 0.275774986 0.140923187
0.256166995 0.278052002 0.150284275
0.336875200 0.312966645 0.176976383
0.442504466 0.348134011 0.213156089
0.575205624 0.391271353 0.250600994
0.729791403 0.433902472 0.308032811
0.162049383 0.386211187 0.203415364
0.185452446 0.384946018 0.202529833
0.216951191 0.387729377 0.202024087
0.276280642 0.391271561 0.209107995
0.338519990 0.397090167 0.220872998
0.434661478 0.429601640 0.240101248
0.574826181 0.476154387 0.279570073
0.735230565 0.522327542 0.339910984
0.188108996 0.518911719 0.270462006
0.210246742 0.518532276 0.268184751
0.244276077 0.521948099 0.274257004
0.305376381 0.523592830 0.275016099
0.382922173 0.526375651 0.281467527
0.465781450 0.532574475 0.295635730
0.585705280 0.562302470 0.326122522
0.734471679 0.620746315 0.383428544
0.246299550 0.672738850 0.345351279
0.271094292 0.665401876 0.365591466
0.306767881 0.674256682 0.360910535
0.376217902 0.674383581 0.367868543
0.448576689 0.676660299 0.365591258
0.534472048 0.680581808 0.380897790
0.628589571 0.688425303 0.400885254
0.746742427 0.714737415 0.436432511
0.395319432 0.822770417 0.505123436
0.418342590 0.825426579 0.485389024
0.446679592 0.830613434 0.501834333
0.499177575 0.829095244 0.502466619
0.568880379 0.833396375 0.514231563
0.640607238 0.834534764 0.527387619
0.727134645 0.844275594 0.548513293
0.815053582 0.850221395 0.560151577
0.107020542 0.028209999 0.074383095
0.132068545 0.021126000 0.077546000
0.192030087 0.061100997 0.098671995
0.251486272 0.102213547 0.129664645
0.330170661 0.142061740 0.164073542
0.439089119 0.193042547 0.207716808
0.570904553 0.241239995 0.241745546
0.728779018 0.293737978 0.294876516
0.119544543 0.080708094 0.084629998
0.143453106 0.089310989 0.085768543
0.184946090 0.106514998 0.113599092
0.247691289 0.137887105 0.135104433
0.334977657 0.175458282 0.171283543
0.437191486 0.221758097 0.206072092
0.561543286 0.258444071 0.243643284
0.706388593 0.305755794 0.290955096
0.150917456 0.159392655 0.125364006
0.167868093 0.161796555 0.138772994
0.191650644 0.167235643 0.139152542
0.246047094 0.191903979 0.147627726
0.328652859 0.232257918 0.183681354
0.426059455 0.269829541 0.217330635
0.560151994 0.316002548 0.260341734
0.724731028 0.364832163 0.314357996
0.157115638 0.258064657 0.167994633
0.177988991 0.261985838 0.179506898
0.204933539 0.261985838 0.177103177
0.252751648 0.270968080 0.183301911
0.321948171 0.304744065 0.203668281
0.418089658 0.341556102 0.239595369
0.557368815 0.379759490 0.276786655
0.702846169 0.429474920 0.320556521
0.176470995 0.375711620 0.221758187
0.188994199 0.375205368 0.227957100
0.221378744 0.377103031 0.234282196
0.274636626 0.382289559 0.233396381
0.335736752 0.386970371 0.242758185
0.429222196 0.414674103 0.263503820
0.563567162 0.467678666 0.299683839
0.717014551 0.519671023 0.354838639
0.192283541 0.509424508 0.288172185
0.212776557 0.506641269 0.290575445
0.255028635 0.508918464 0.290575385
0.307400644 0.515243411 0.295635641
0.374952555 0.519670844 0.304743767
0.455661178 0.525869727 0.312080741
0.569513023 0.563567221 0.337760806
0.725616574 0.616698265 0.399493814
0.249209717 0.659203112 0.368374527
0.279570252 0.661859393 0.369133532
0.312207550 0.667552114 0.373181552
0.374952644 0.670714974 0.382795453
0.445793778 0.668690503 0.391018212
0.530423760 0.674383581 0.397217095
0.614674270 0.678684115 0.406704813
0.733206809 0.705249786 0.447438389
0.401897103 0.826312304 0.514990389
0.430233836 0.824035585 0.505123019
0.453384042 0.820872664 0.514611065
0.502593040 0.827197909 0.519038200
0.568753600 0.830613434 0.524098456
0.641618967 0.836179554 0.536748886
0.726248860 0.840607226 0.559519589
0.814294577 0.846299767 0.581783473
0.116002090 0.045541000 0.187982187
0.154459104 0.049335998 0.181783989
0.195952103 0.069703005 0.167615101
0.253131092 0.106514998 0.178114742
0.321315169 0.159772083 0.214674100
0.411385000 0.214168340 0.255028635
0.526122630 0.263124377 0.298418999
0.690575600 0.314104974 0.353573799
0.128146544 0.115622640 0.153574005
0.155218095 0.108032994 0.149525285
0.183807537 0.121442094 0.162176102
0.237444893 0.146868736 0.186464086
0.312333852 0.191524550 0.222137615
0.401517928 0.236179546 0.259708822
0.515243471 0.277672559 0.298924595
0.685515523 0.332320899 0.354332507
0.151296899 0.170778006 0.165338203
0.167742088 0.171157554 0.179000631
0.209235087 0.204427302 0.206831098
0.243770003 0.208349183 0.203288734
0.308791876 0.241239890 0.237444982
0.398608357 0.280834764 0.270209074
0.531688750 0.326628655 0.313978463
0.695255995 0.379886150 0.364832044
0.177609354 0.254901826 0.211512089
0.187729448 0.261226833 0.219734535
0.216698438 0.269070536 0.228336722
0.245288089 0.272612214 0.232257724
0.313472390 0.300822258 0.255028665
0.396205157 0.337507993 0.282352746
0.529411554 0.383681387 0.323466301
0.682605684 0.434914619 0.372801900
0.199240908 0.367362291 0.264516264
0.206072196 0.363441199 0.267931908
0.235926792 0.370525002 0.274257004
0.271094263 0.371284068 0.280075729
0.323592305 0.375964373 0.285136163
0.413535535 0.411258638 0.310689539
0.541302979 0.461353362 0.346363187
0.700189352 0.518912017 0.400126427
0.215432987 0.495382756 0.334851742
0.227198184 0.496521294 0.332827121
0.261732996 0.499177724 0.337508082
0.309044600 0.503098965 0.341682166
0.371157378 0.509550691 0.345097840
0.444402218 0.517267704 0.348640084
0.568500638 0.555597723 0.384187013
0.714863658 0.615180373 0.445160985
0.266160578 0.649841845 0.407337010
0.290322572 0.656166852 0.408981830
0.322327554 0.657052279 0.416445374
0.376850188 0.658570409 0.413788736
0.443010539 0.662618577 0.422643840
0.518153250 0.664136767 0.428589612
0.605818868 0.671347380 0.438456386
0.727007985 0.701328278 0.481088102
0.421125859 0.818848729 0.538646400
0.432005137 0.822643757 0.534218788
0.462618411 0.820872664 0.541429341
0.509424090 0.823529303 0.549019277
0.571536899 0.827450871 0.557621777
0.646173358 0.829221785 0.570524752
0.722833633 0.834408343 0.584566772
0.813535511 0.842378438 0.600252688
0.122707352 0.058949642 0.298798651
0.158001453 0.073118635 0.293864906
0.212017640 0.100189999 0.277292997
0.257811278 0.124477997 0.264010280
0.321315169 0.165717736 0.276154429
0.403288990 0.218089834 0.305249870
0.527513921 0.270208687 0.353700221
0.674130559 0.331815153 0.416192114
0.147754639 0.137128189 0.252878189
0.163061097 0.144845188 0.250601083
0.206957996 0.155091897 0.260088354
0.241240084 0.164453089 0.247058645
0.307526827 0.199367553 0.270968080
0.395699114 0.241619438 0.311827898
0.511068881 0.292220265 0.356862843
0.667172790 0.346489817 0.414168417
0.161922649 0.206451640 0.248956367
0.183807641 0.204806834 0.250221640
0.212397188 0.216192186 0.252498627
0.244149536 0.226438999 0.256926090
0.304744184 0.253383815 0.289057285
0.385705203 0.294623792 0.326248854
0.510183752 0.341555983 0.374446571
0.663124382 0.398734987 0.426691979
0.175964639 0.270208985 0.262365282
0.185705096 0.268690974 0.265907645
0.228083193 0.289816380 0.288677752
0.279696286 0.330170631 0.326755285
0.320809543 0.329791278 0.325489819
0.390892088 0.353573620 0.342694551
0.513599277 0.395825654 0.381277561
0.661859274 0.449715286 0.436432809
0.207843006 0.370145619 0.320556402
0.218216449 0.372928381 0.320430160
0.249588639 0.380391836 0.334977835
0.287918806 0.386970401 0.337128460
0.327008039 0.392410189 0.341429353
0.408475727 0.422643721 0.366603196
0.523972154 0.467678756 0.404553801
0.676660359 0.527893603 0.460594445
0.237571001 0.490322351 0.389247268
0.252245277 0.489563465 0.383175194
0.278431445 0.496521205 0.386337698
0.317141086 0.497280478 0.385705143
0.371536702 0.502719641 0.398734987
0.443896353 0.512966454 0.410499483
0.553194106 0.550537527 0.438076913
0.702340424 0.618722379 0.498418719
0.294370294 0.640227914 0.460721254
0.307653368 0.644528627 0.459582448
0.337381274 0.645793915 0.462365836
0.383554548 0.647564828 0.467552274
0.445414156 0.656293392 0.474636495
0.522201419 0.659961998 0.481720358
0.598734915 0.663251519 0.485515267
0.723086774 0.701075256 0.530550122
0.442378432 0.816445172 0.583934069
0.450980246 0.811890960 0.581151187
0.474762678 0.815686166 0.583807409
0.520936072 0.817710340 0.591777444
0.574319959 0.819481254 0.591397762
0.643263578 0.826059520 0.604300976
0.719797254 0.831751764 0.619607925
0.811764777 0.838456750 0.635926425
0.130044192 0.123718992 0.420620173
0.161796540 0.129538342 0.402530372
0.223403096 0.148007289 0.396331280
0.279316634 0.171537191 0.388108820
0.336116165 0.191904187 0.372042984
0.408981264 0.225173727 0.377482444
0.529285550 0.275015891 0.427577198
0.679569781 0.338646591 0.485135823
0.148007393 0.189247534 0.382922173
0.184819549 0.187223196 0.379886210
0.220619738 0.196963936 0.374446273
0.273497999 0.211511895 0.363820553
0.326375544 0.219734639 0.355597377
0.397469908 0.245920286 0.377988547
0.516888142 0.294117719 0.422643811
0.662365735 0.350411087 0.480328977
0.182542995 0.244276091 0.357242376
0.193295360 0.257305741 0.358886987
0.227324277 0.252878189 0.362808287
0.269196719 0.263630748 0.353320390
0.317267269 0.268690884 0.352435380
0.391651094 0.299177885 0.379127204
0.511195540 0.343833268 0.431498975
0.665907741 0.407210648 0.494117647
0.194813445 0.306641400 0.357242167
0.211765006 0.316887736 0.363187850
0.236559168 0.319544464 0.356356472
0.279190421 0.336495638 0.368500739
0.327514172 0.342694640 0.377988815
0.395066619 0.370524883 0.403289169
0.506135225 0.407969654 0.440860182
0.649968445 0.463504285 0.499557436
0.204554185 0.379886389 0.372928381
0.228083372 0.376470715 0.373561174
0.259456187 0.393295288 0.383807361
0.309424162 0.417077839 0.406451464
0.382289559 0.461353362 0.451992184
0.430107474 0.456673145 0.442124933
0.527893484 0.485642046 0.477039993
0.667172611 0.538899124 0.532194793
0.239721999 0.492599458 0.427324712
0.259329379 0.492978901 0.434408516
0.295762330 0.498798281 0.439721823
0.343832999 0.515749514 0.457052708
0.395825416 0.523213387 0.467298925
0.450221479 0.529032111 0.475142449
0.553953290 0.566223741 0.506261766
0.693738222 0.623782039 0.558380663
0.311827898 0.637571394 0.509424329
0.334218740 0.641366601 0.517647207
0.362428546 0.646173418 0.523972213
0.404048175 0.648197114 0.527387798
0.458697349 0.650094807 0.530929446
0.521821678 0.656420171 0.538013518
0.594939828 0.663377643 0.542694271
0.722327590 0.705502629 0.587982297
0.447438210 0.811005771 0.623782158
0.466540217 0.807716608 0.631119311
0.486147732 0.807463467 0.630486965
0.530423403 0.813283026 0.634155810
0.579506397 0.814927399 0.643010616
0.646046758 0.822770417 0.649462283
0.721315444 0.826185644 0.662745178
0.803162336 0.837191582 0.674003780
0.129411995 0.182036728 0.546362698
0.164579287 0.188235536 0.547501445
0.233902737 0.201264992 0.535230815
0.305882633 0.219734535 0.530550241
0.381024927 0.236559182 0.509804010
0.452245742 0.256419718 0.495256215
0.527261317 0.281214297 0.500948727
0.677166522 0.340670556 0.557242393
0.157494992 0.229854539 0.518026710
0.186464190 0.232890531 0.519038439
0.234661534 0.242378339 0.515749514
0.299557626 0.251739532 0.507779717
0.368880361 0.259076476 0.494876444
0.431878716 0.275268912 0.482858747
0.512839973 0.296394527 0.485894799
0.663630784 0.349651992 0.546489239
0.177103087 0.305123359 0.497027367
0.208096266 0.305502981 0.495888710
0.244781822 0.301075310 0.489690006
0.298039436 0.309424073 0.488298595
0.358127713 0.319164932 0.485389173
0.428336352 0.324351490 0.476280719
0.510689139 0.346995562 0.491713971
0.666413307 0.407969743 0.558254361
0.205313087 0.361290038 0.475774556
0.222011745 0.362555355 0.474256545
0.257685006 0.367995083 0.474383384
0.301581383 0.371157467 0.474509567
0.363061637 0.376217723 0.468817443
0.413788706 0.380897999 0.470082194
0.502972603 0.405060083 0.499177724
0.654901981 0.464895457 0.563820183
0.225300729 0.431878924 0.485641986
0.240101337 0.434281915 0.478051752
0.275901288 0.438962817 0.484756470
0.328273296 0.451612830 0.495762169
0.384566456 0.459709346 0.501960635
0.439342171 0.468311191 0.507906497
0.529411674 0.494623750 0.538519800
0.665907741 0.551549911 0.595825672
0.248703718 0.505123436 0.497406453
0.267678648 0.504743934 0.492726296
0.298924744 0.514990687 0.510183632
0.352435410 0.525869846 0.518152833
0.427577376 0.554585457 0.543200552
0.516887963 0.591524482 0.587476492
0.580265701 0.599620402 0.587981999
0.695129514 0.636432827 0.628336251
0.306261808 0.636559308 0.560531557
0.325490057 0.642125547 0.568880618
0.361543566 0.644149244 0.575458527
0.409361273 0.651233196 0.586590588
0.481467485 0.660341501 0.604807019
0.541808546 0.667299211 0.607337296
0.605186701 0.671853304 0.607969761
0.721568763 0.718152940 0.655660987
0.463377416 0.805565774 0.675521851
0.470967561 0.803541839 0.683364689
0.502087474 0.805059671 0.680075943
0.543706357 0.808981478 0.688804805
0.589373529 0.811258793 0.697027147
0.649209321 0.816192567 0.703225672
0.718026340 0.824035585 0.712333858
0.798355520 0.834534764 0.729791224
0.137887001 0.251233280 0.698545575
0.179000542 0.254901826 0.697786450
0.256040484 0.262238979 0.696394384
0.340290934 0.275901616 0.688425303
0.429980993 0.291334450 0.675142288
0.514863968 0.306641459 0.659582555
0.594939828 0.325743288 0.649841785
0.681214333 0.344085813 0.642251968
0.158381000 0.283744723 0.675142705
0.195193008 0.287286758 0.679443240
0.256926090 0.295256287 0.676280975
0.335610420 0.302213877 0.670082211
0.420113862 0.314357907 0.667552352
0.503984690 0.328146547 0.648576736
0.583680928 0.334345281 0.634408534
0.663250983 0.356609821 0.625173807
0.194307372 0.355597675 0.663377643
0.216318622 0.361796200 0.656546295
0.271726906 0.365717798 0.659961700
0.342947334 0.368500918 0.654775381
0.418216169 0.373561174 0.646046758
0.495635569 0.378115177 0.636685729
0.573813677 0.387602478 0.631878555
0.672106266 0.411764741 0.640733957
0.231625557 0.430107892 0.638203502
0.252877891 0.434535265 0.635800362
0.295129478 0.432131648 0.637065172
0.347121924 0.433396637 0.631372213
0.414421201 0.439595193 0.629095197
0.486021459 0.440101266 0.622390568
0.558507144 0.442378253 0.616824865
0.656799674 0.463630468 0.635041237
0.254269481 0.496521294 0.629222155
0.275268912 0.503732204 0.632005274
0.314737380 0.507400274 0.627830446
0.369133413 0.509424508 0.628336072
0.425932854 0.509803891 0.622517586
0.492093503 0.511448205 0.624035597
0.556736529 0.513725460 0.616318643
0.670714736 0.546742558 0.654269099
0.288804561 0.579127014 0.639721513
0.310816169 0.582795620 0.644022822
0.344212651 0.584946334 0.635041237
0.395446092 0.583428323 0.638203502
0.461479992 0.592915535 0.641239762
0.530170560 0.601138473 0.646046519
0.593674541 0.608602464 0.653257549
0.699936748 0.650600612 0.690069556
0.321821272 0.647564530 0.630866826
0.340291023 0.647564530 0.644275844
0.373307973 0.650853574 0.644528747
0.417204291 0.657052219 0.644655287
0.482353091 0.661985993 0.654902279
0.569386423 0.686653852 0.679190278
0.664895833 0.725363493 0.716887951
0.738519728 0.740164161 0.737254679
0.462492108 0.798355162 0.720303535
0.478304744 0.799240768 0.733206987
0.496520758 0.804680228 0.733080387
0.544465363 0.803035975 0.738266885
0.598481894 0.812523961 0.749272406
0.665654659 0.819354713 0.762555122
0.731436014 0.825932801 0.773181081
0.801011801 0.842631161 0.786970258
0.205565944 0.342820942 0.850094616
0.238709345 0.340544224 0.843516767
0.304870248 0.351423055 0.840353906
0.391397625 0.359645575 0.839848161
0.486527801 0.376849771 0.834282160
0.581404269 0.389879644 0.827577472
0.673624218 0.410119921 0.814800620
0.767868459 0.430486917 0.801770747
0.219987452 0.366856515 0.839215338
0.244781330 0.377608776 0.836305737
0.310436517 0.376091182 0.833143771
0.394560367 0.383681059 0.828715801
0.480961174 0.396584511 0.822264194
0.574319899 0.410120040 0.816951275
0.666413784 0.424794495 0.802529693
0.752687931 0.439594805 0.792409837
0.266160786 0.437571138 0.828209817
0.293864399 0.441239625 0.825173855
0.343706161 0.448703080 0.829854488
0.411638319 0.451612830 0.826059163
0.494497001 0.457684875 0.818089843
0.580645204 0.467425615 0.810120344
0.667678893 0.475648165 0.803541899
0.754079461 0.485641956 0.798355579
0.315623105 0.514611065 0.811132252
0.331182897 0.518279314 0.809740543
0.373940527 0.521442294 0.809993327
0.431119442 0.522580624 0.806451559
0.498545229 0.525237083 0.802529871
0.574952364 0.526881397 0.795066595
0.657558382 0.530297101 0.791903675
0.744465590 0.534724414 0.787096620
0.349525601 0.587982118 0.796710610
0.373560965 0.596837342 0.798987806
0.409361243 0.596710682 0.800632477
0.455913782 0.597469807 0.797722995
0.515117168 0.598734975 0.792156935
0.583048999 0.597975850 0.791524410
0.662492096 0.597469807 0.788614750
0.743200421 0.601517975 0.778620958
0.394433707 0.671853483 0.804300606
0.409361124 0.672359169 0.806072116
0.436685592 0.673118293 0.806451619
0.485768795 0.673877358 0.798355222
0.545477629 0.673624337 0.794686854
0.605945528 0.674383461 0.794307590
0.677166462 0.676154375 0.791271329
0.749651730 0.680834770 0.788614631
0.423276603 0.739531755 0.796204567
0.442125529 0.742315054 0.802403450
0.467805415 0.741049945 0.799367130
0.509930253 0.740923405 0.795825422
0.562808156 0.742061734 0.796078384
0.633396745 0.749145746 0.797216654
0.701708019 0.757621646 0.800632358
0.772801876 0.762681842 0.814421237
0.496394366 0.822770476 0.812270641
0.513092577 0.827071309 0.818090022
0.535483718 0.827324390 0.812397361
0.572548985 0.824288249 0.818848729
0.616951227 0.823908746 0.821631789
0.680581868 0.831372321 0.824794531
0.756229877 0.843264043 0.836812079
0.841113567 0.875015616 0.879063666
