Assets/Shaders/EldamarStudio/100 Sci-Fi LUTs Pack/LUTs/cube/Harriet LUT.cube
LUT_3D_SIZE 8
DOMAIN_MIN 0.000000 0.000000 0.000000
DOMAIN_MAX 0.903226 0.903226 0.903226
0.054901998 0.000000000 0.000000000
0.079569548 0.008222548 0.008601999
0.127007991 0.031373002 0.032131903
0.178241640 0.048197355 0.050980002
0.235041186 0.081467383 0.076027803
0.303605229 0.117267467 0.101833992
0.396964282 0.151929289 0.136242703
0.528652787 0.194939971 0.179253653
0.063883543 0.053636547 0.032891002
0.090954997 0.057558544 0.035673548
0.128905535 0.070082448 0.041872449
0.177103087 0.082605734 0.064642638
0.234788448 0.106514990 0.082732551
0.301201552 0.137381539 0.113851927
0.392662823 0.172675729 0.148766294
0.524351299 0.212144077 0.183301792
0.083871000 0.129285097 0.065780997
0.104237996 0.133207098 0.062998451
0.142694190 0.130803093 0.080708101
0.184946001 0.150031537 0.091587894
0.243643284 0.167615101 0.111195087
0.317646742 0.189879835 0.140290901
0.405566186 0.224668100 0.167615280
0.542061865 0.263503999 0.202276900
0.101454645 0.205819279 0.113851637
0.119038284 0.212144181 0.122200996
0.158254191 0.218469277 0.124478094
0.198987991 0.224288642 0.132321283
0.250600994 0.241619632 0.151297003
0.323719025 0.256420016 0.162808374
0.418848842 0.288804591 0.188361928
0.555597425 0.336116076 0.227956802
0.116761386 0.303225994 0.158127993
0.138772994 0.309424192 0.167362362
0.164579093 0.313978285 0.174699381
0.213030085 0.317140996 0.179886445
0.271853358 0.329791397 0.194307387
0.346110165 0.345603913 0.210373446
0.446299732 0.377482384 0.223403096
0.585958242 0.424035549 0.263883471
0.133332998 0.436811745 0.223276466
0.157494992 0.439974546 0.232637271
0.194939986 0.447185397 0.232763991
0.254522383 0.451486647 0.238456637
0.322580457 0.452245742 0.247438461
0.393421739 0.465907454 0.260341734
0.497027457 0.488298714 0.283112019
0.623782575 0.538140297 0.329032302
0.180391997 0.584819555 0.293105692
0.207590282 0.585326016 0.303731978
0.245667174 0.591903865 0.308539093
0.307400286 0.590385854 0.311195612
0.381024659 0.597469747 0.323339462
0.461606741 0.605692744 0.339279026
0.548892975 0.620746553 0.360025585
0.658950031 0.647058725 0.398861527
0.344465584 0.754838586 0.461985767
0.372928292 0.763693929 0.445414305
0.404174685 0.766097307 0.456925571
0.450853765 0.769386172 0.468311220
0.509677231 0.774825752 0.472865403
0.586337328 0.778873861 0.492472827
0.663757205 0.784819603 0.519165039
0.753700256 0.799240768 0.554965377
0.058444452 0.007843000 0.044275545
0.078810550 0.012524000 0.052118547
0.125364006 0.033650000 0.066160642
0.171536997 0.062998444 0.082985193
0.225173831 0.093990996 0.108032897
0.302087426 0.124098733 0.134345546
0.388867825 0.160151735 0.160657808
0.515876174 0.196584374 0.196584374
0.070967548 0.057558548 0.053636547
0.098797999 0.061859995 0.065022089
0.128525987 0.074383095 0.074383095
0.172801644 0.094370544 0.096394993
0.230360389 0.118279383 0.112460345
0.298039436 0.144465730 0.139025539
0.384819716 0.180518746 0.167868540
0.525363624 0.221884817 0.207716718
0.095256448 0.126502544 0.096774444
0.112966098 0.130044192 0.101454549
0.136748642 0.134725094 0.111701451
0.181783885 0.148007289 0.111195087
0.236938730 0.168374196 0.133586347
0.307400644 0.189879745 0.154712453
0.396078557 0.224035203 0.180265993
0.531309605 0.264263093 0.215180352
0.104996994 0.211005643 0.132700637
0.114358090 0.204301283 0.132321090
0.151170090 0.211385280 0.139784634
0.193421990 0.223909095 0.153194368
0.249842197 0.238077268 0.161669731
0.315875918 0.257684976 0.181657076
0.420366615 0.290828556 0.207842827
0.554585516 0.335483700 0.239721999
0.114484094 0.303478748 0.176217377
0.138646200 0.304364532 0.182163358
0.164958641 0.303478867 0.177735284
0.215053827 0.310562849 0.192283645
0.270714700 0.319923729 0.198481843
0.339784980 0.340290755 0.214547992
0.439089447 0.376090854 0.237191558
0.579759777 0.426312834 0.278557926
0.134851098 0.430107266 0.234535098
0.152814806 0.431372464 0.236938536
0.194307283 0.437191814 0.243263721
0.245035097 0.440860271 0.242378548
0.315116823 0.449841917 0.253763258
0.387602448 0.456925809 0.269576281
0.486021459 0.483238459 0.291714013
0.613915026 0.532701015 0.332827389
0.167742014 0.572169363 0.311701566
0.201265290 0.577482522 0.302593529
0.235799909 0.579380274 0.308159351
0.301960588 0.584187388 0.317394018
0.375838101 0.591144562 0.330170661
0.458191186 0.603921533 0.347248346
0.552434802 0.618469238 0.372548997
0.667805195 0.650853932 0.419101804
0.337761015 0.753952980 0.465148747
0.368374139 0.761163890 0.454016328
0.396331578 0.758127570 0.463503838
0.443263650 0.762428939 0.470967889
0.504237950 0.770145237 0.480581760
0.580518544 0.773181438 0.495635599
0.662871778 0.783934295 0.521315157
0.751043379 0.797722876 0.553573847
0.057937995 0.020366903 0.104997002
0.083491549 0.025047095 0.102593094
0.128526002 0.043896098 0.114357993
0.168374196 0.069702901 0.125363991
0.226439089 0.100189991 0.146362990
0.298545092 0.132700726 0.172296077
0.381277263 0.166856185 0.198102280
0.511068642 0.197469994 0.231372714
0.080328643 0.068564542 0.106515095
0.088931441 0.066160537 0.106894545
0.126122996 0.081467189 0.115117088
0.178747997 0.101834096 0.136369199
0.227703825 0.124478087 0.150790647
0.292979181 0.153826550 0.175837919
0.388361752 0.184819803 0.204680532
0.520050466 0.220366627 0.240606889
0.092473097 0.129285097 0.127641007
0.104237996 0.141050100 0.138266638
0.141808987 0.148893103 0.147248179
0.185705096 0.152308732 0.154712543
0.236559182 0.172296196 0.170777991
0.308412343 0.197849348 0.194307178
0.389753461 0.225553289 0.215306878
0.524730742 0.263503999 0.251359969
0.114104547 0.209867284 0.161669731
0.126628548 0.214168549 0.168753758
0.157115638 0.216065988 0.175332084
0.195066199 0.229475081 0.184061006
0.248703644 0.239215821 0.198608637
0.317900121 0.260341823 0.214547992
0.411891282 0.291208386 0.240860552
0.552308500 0.334345371 0.271726787
0.127767101 0.300822198 0.216318995
0.138646290 0.298798561 0.211512089
0.170777991 0.307906300 0.213029996
0.214294732 0.313346207 0.223276183
0.264895797 0.324351162 0.230360284
0.337760717 0.343326926 0.245288000
0.443769664 0.375711560 0.268564373
0.583428144 0.425806373 0.312334061
0.141682267 0.430739999 0.269449979
0.151676446 0.431499094 0.264262825
0.193927839 0.432511210 0.267425716
0.246299729 0.436938673 0.272612303
0.315243661 0.446426481 0.284377098
0.386337817 0.455028355 0.296141893
0.486780256 0.481594086 0.318279535
0.614041805 0.531941772 0.357748061
0.174446568 0.569006622 0.328905582
0.193295270 0.575964510 0.331182659
0.237824172 0.576343954 0.336622268
0.301201582 0.580898523 0.343326837
0.371536940 0.591018379 0.353700161
0.459076703 0.604680598 0.374446750
0.548639834 0.620113552 0.395192653
0.667299211 0.654522359 0.445414454
0.331055850 0.753953159 0.463756770
0.352814227 0.752940834 0.468184739
0.383048415 0.760784328 0.480708450
0.439847946 0.761922836 0.488551319
0.501581192 0.763567448 0.498291999
0.580012321 0.770524621 0.513092756
0.658317685 0.784187317 0.539278746
0.750158310 0.794813454 0.568500817
0.065528356 0.028589644 0.169892281
0.087792993 0.034408998 0.168753639
0.130044088 0.053636644 0.175458282
0.173181280 0.076786995 0.176596642
0.227198184 0.108917996 0.197849557
0.296521366 0.138646185 0.219860733
0.382289290 0.170904279 0.244402274
0.516887784 0.201391667 0.291208148
0.087413348 0.080328546 0.170778096
0.102720000 0.089057446 0.171536997
0.129664630 0.093231991 0.178241551
0.173181280 0.106514893 0.183301985
0.226439089 0.130803183 0.197722837
0.290575266 0.159013197 0.221252635
0.387096941 0.187982291 0.254522294
0.519291759 0.218848825 0.291840553
0.101581454 0.143453196 0.185325637
0.108538643 0.142947555 0.193927646
0.148640454 0.153953448 0.201011643
0.179379985 0.167235747 0.208855346
0.235040992 0.181404352 0.221378624
0.307780176 0.200506181 0.237318188
0.400505841 0.231119573 0.265907705
0.535989702 0.258190930 0.301834524
0.108158998 0.216951281 0.218596011
0.123466350 0.218469188 0.210626185
0.157115638 0.225932628 0.225173727
0.204047635 0.242757991 0.237697631
0.255281389 0.249462634 0.242758095
0.323339462 0.263883471 0.259962261
0.425047278 0.298798651 0.285388917
0.554838598 0.335104257 0.323339641
0.123592645 0.305502981 0.259456098
0.137128100 0.309044719 0.257052273
0.174446553 0.314104974 0.265654892
0.219860822 0.321947992 0.267552614
0.274257183 0.327767015 0.276913434
0.346489549 0.352435291 0.298419088
0.446046770 0.383301735 0.317141086
0.587349951 0.422264218 0.357874781
0.129411995 0.431625366 0.309171647
0.147122175 0.437824190 0.314610720
0.192409739 0.438203722 0.316382110
0.249462530 0.441619366 0.323845714
0.315622985 0.450347990 0.328652620
0.387982130 0.460973799 0.340290815
0.485515088 0.487412900 0.361669570
0.621758342 0.535104215 0.403795153
0.167741925 0.573054552 0.378494889
0.191903889 0.579000771 0.382922262
0.229222074 0.578241765 0.378494889
0.297280282 0.585325897 0.387982219
0.373181373 0.595066488 0.400885254
0.461859375 0.604048014 0.416698039
0.552435100 0.622390866 0.436305910
0.672991872 0.658064306 0.477798820
0.330929935 0.745856941 0.501201749
0.346868575 0.754206061 0.499557257
0.390385836 0.759266317 0.510689437
0.438203424 0.760025442 0.514990389
0.496268153 0.764706016 0.526122749
0.576597035 0.769765675 0.542188346
0.663630664 0.781024456 0.568121254
0.752814531 0.798102438 0.597469807
0.066666998 0.044655193 0.241999179
0.088551797 0.054016385 0.239215821
0.133965984 0.068058096 0.246047094
0.177355722 0.092852540 0.245920181
0.230234176 0.119797379 0.261606187
0.295256197 0.142568186 0.272359461
0.389247149 0.170651481 0.303732067
0.523845792 0.202530026 0.353067636
0.078937188 0.096268184 0.249462545
0.100442998 0.101454735 0.240860537
0.132827535 0.108412348 0.243896633
0.178241536 0.121821538 0.254649103
0.229601383 0.136622548 0.264009982
0.294117540 0.161290094 0.274004161
0.390259206 0.193548098 0.312207520
0.525869608 0.221252248 0.362302363
0.101201907 0.156609997 0.250727385
0.118785545 0.164958656 0.258444101
0.142568082 0.166856200 0.264009982
0.188108906 0.178241640 0.264769077
0.241240084 0.186464190 0.274004191
0.304237843 0.204427272 0.292979091
0.401518285 0.234282106 0.325743079
0.536495924 0.262744904 0.365591258
0.108285807 0.225173831 0.272106618
0.121821642 0.233016819 0.277292967
0.154206291 0.234534815 0.281467557
0.204427183 0.245540634 0.296015203
0.249715373 0.255281270 0.303099275
0.322074831 0.273371279 0.315116912
0.427830637 0.296900809 0.344085842
0.563820243 0.328526109 0.386843562
0.117647000 0.310183376 0.310183376
0.137634456 0.312080711 0.312333852
0.172422275 0.321189106 0.319671094
0.222644091 0.334472179 0.328273177
0.289057165 0.356356382 0.346110195
0.360657722 0.362175703 0.352435380
0.459456444 0.381277472 0.374952674
0.596331418 0.422011167 0.416318983
0.125996456 0.435926735 0.367994726
0.142694294 0.436306268 0.367488980
0.183302000 0.441619366 0.374825716
0.241240084 0.451486647 0.379506737
0.314357936 0.461353451 0.390765190
0.398861527 0.468311280 0.400253177
0.496141553 0.496015221 0.414420992
0.628969133 0.537128508 0.462492138
0.150411278 0.580012500 0.424288541
0.180265993 0.579380333 0.436938584
0.219861075 0.585705519 0.437697470
0.289563358 0.590385854 0.440733463
0.372549057 0.600505769 0.452624977
0.462492257 0.612650335 0.464895666
0.553320825 0.628715813 0.488425285
0.677419245 0.662618339 0.530929744
0.317140728 0.749398828 0.543326616
0.334471762 0.759519339 0.552182257
0.370145231 0.757874668 0.550284505
0.426565439 0.762428999 0.560151935
0.496520966 0.765464962 0.567615330
0.576217532 0.775585055 0.584313750
0.660088480 0.784946442 0.602909565
0.752561569 0.803541958 0.632511079
0.062872000 0.070461996 0.330676734
0.087539554 0.076786809 0.329664469
0.141555831 0.091587991 0.342567712
0.190259382 0.106008738 0.338519722
0.250601172 0.126881793 0.345983267
0.315116704 0.150790736 0.350284725
0.391397566 0.175711736 0.373434484
0.528399646 0.203288928 0.429095566
0.076154195 0.108918093 0.333586484
0.091967016 0.115116991 0.328779459
0.134092093 0.125869632 0.334092528
0.188361645 0.137507647 0.339026153
0.248576924 0.150663838 0.348007530
0.315875709 0.176976472 0.364832491
0.399493992 0.193927556 0.383807361
0.538519621 0.224414721 0.433143586
0.087033369 0.173054993 0.349272370
0.108665258 0.176976472 0.352814615
0.149778903 0.178873926 0.349272370
0.194307387 0.187982291 0.351169825
0.260467857 0.203668386 0.355850905
0.320177048 0.214294747 0.367994994
0.404174626 0.240480989 0.389374018
0.547754526 0.265907824 0.444655418
0.092346743 0.247058630 0.365211815
0.111954361 0.248703539 0.367615640
0.150917366 0.252245277 0.370777905
0.200885549 0.259962291 0.369513065
0.267805189 0.271853268 0.383554667
0.338646710 0.282858968 0.388741106
0.429728091 0.304364622 0.413409382
0.575711429 0.339152455 0.471726805
0.094371006 0.330043942 0.377229661
0.116255619 0.333459646 0.400505900
0.158380896 0.336369634 0.391018212
0.216318905 0.342188209 0.403542101
0.282605976 0.354332596 0.413029909
0.362808019 0.367994964 0.429474920
0.474889010 0.390638649 0.446426481
0.604680359 0.428715914 0.494117767
0.109803997 0.436685711 0.432511210
0.125237256 0.440480709 0.439974666
0.172296092 0.447058558 0.438456476
0.239342630 0.451359838 0.443643093
0.316382200 0.465148449 0.459203094
0.411005467 0.487412721 0.479569733
0.516888022 0.503858268 0.497912467
0.639342248 0.533586442 0.532700598
0.141556278 0.580139458 0.502087295
0.158886790 0.580518961 0.499304235
0.209993631 0.581657410 0.504617095
0.281846792 0.592916012 0.507653058
0.370904386 0.607210875 0.528778970
0.469323307 0.619481564 0.540164292
0.568247795 0.633776248 0.559392989
0.693231702 0.671726882 0.592156768
0.305882484 0.748386562 0.601897538
0.322960198 0.750537217 0.603541672
0.353826582 0.754838645 0.606704652
0.410752326 0.759898901 0.609740496
0.482732624 0.768880546 0.615433335
0.567488790 0.772422314 0.630107641
0.659962356 0.790132642 0.650854051
0.760910690 0.804806769 0.673750579
0.015433725 0.094749995 0.472106278
0.063377552 0.100695737 0.472738832
0.132448003 0.108918183 0.477292836
0.206324920 0.124984346 0.477292538
0.280328989 0.140290990 0.478178471
0.358128011 0.159392744 0.488425285
0.447564542 0.184946001 0.502466559
0.541935146 0.209234998 0.514737427
0.016951432 0.137381256 0.471220553
0.062618367 0.140923277 0.473371267
0.132953644 0.143706545 0.482099652
0.207210541 0.154332906 0.485389084
0.286147714 0.167994738 0.488677919
0.364705741 0.186337993 0.491840631
0.456420064 0.206325024 0.503858507
0.555471122 0.230993077 0.525996089
0.021252640 0.192662895 0.475774825
0.058064468 0.193801552 0.479569644
0.134092093 0.199746802 0.476660460
0.204301089 0.206704378 0.484756321
0.284882993 0.220113903 0.487539470
0.366097450 0.230992988 0.498039186
0.454522341 0.252119094 0.513472259
0.555597782 0.273245066 0.533459961
0.008855007 0.270208985 0.490702271
0.032131907 0.269196570 0.492852539
0.125237063 0.272486001 0.491461068
0.207337350 0.280328989 0.496268243
0.290322393 0.290196002 0.509550631
0.378874183 0.304364353 0.518532693
0.476660579 0.319038630 0.536116540
0.588614762 0.344085902 0.557368875
0.001644712 0.368121386 0.512080967
0.028463159 0.367109358 0.518785536
0.121694908 0.364832371 0.517267764
0.201897636 0.368753970 0.525616825
0.295129567 0.373560965 0.530803382
0.390512258 0.387096763 0.538519859
0.497786254 0.401644379 0.556736171
0.613408983 0.429348826 0.583301723
0.012270746 0.469829261 0.546742260
0.055281527 0.474762946 0.544844627
0.141935304 0.476786762 0.548766494
0.227956995 0.477039754 0.557368636
0.320177376 0.482479125 0.565338314
0.413662195 0.496015191 0.573560774
0.526755214 0.516381741 0.591144562
0.652245164 0.543959498 0.619102001
0.134851277 0.598861337 0.596204877
0.164453000 0.593042076 0.596457541
0.211891368 0.600505590 0.594939768
0.287286907 0.604427516 0.599367142
0.372422546 0.617836833 0.610879421
0.477039754 0.633776307 0.625300288
0.597216487 0.659962177 0.656040609
0.708538890 0.685515404 0.674509645
0.306514859 0.754838586 0.676533997
0.312713534 0.757747829 0.677292943
0.347880840 0.757495463 0.670841336
0.410119861 0.762175977 0.680202425
0.486021459 0.768880308 0.691207886
0.572801828 0.780265331 0.702972591
0.667931736 0.796963811 0.715622902
0.768753588 0.812776864 0.739658535
0.001265167 0.124351650 0.660974205
0.002783166 0.125616819 0.656925738
0.128653020 0.133586153 0.657431662
0.225932628 0.141176611 0.658190548
0.329791009 0.159772187 0.667805433
0.428462803 0.178873822 0.669829309
0.528273523 0.201771259 0.680455387
0.634661615 0.234281793 0.684376717
0.000379548 0.162049383 0.660594285
0.000000000 0.161543518 0.651360035
0.111827664 0.164832443 0.662492096
0.227451026 0.175332174 0.667046070
0.329411656 0.188614994 0.674130201
0.431119531 0.209740654 0.676786661
0.533965945 0.230360717 0.686147809
0.646172941 0.259329796 0.696141362
0.002656832 0.223655924 0.665528297
0.001644715 0.222643808 0.664136469
0.097027279 0.224414811 0.665654540
0.220746472 0.232511267 0.668310940
0.327767372 0.242757991 0.669449508
0.429854274 0.261606753 0.677925229
0.537887156 0.279063731 0.683618009
0.646679401 0.306009054 0.701328576
0.002783356 0.299936771 0.669702888
0.004427749 0.302972794 0.674256682
0.052877843 0.302972883 0.671853185
0.207843125 0.312839806 0.678051949
0.322706997 0.324478000 0.683364928
0.437824309 0.336116076 0.685262263
0.547374845 0.357621670 0.697912812
0.655534387 0.379886270 0.707653344
0.000000000 0.407590359 0.682732403
0.002403808 0.402023733 0.687033534
0.011638205 0.401771069 0.685388684
0.191397816 0.400759161 0.691840589
0.321189195 0.411385179 0.692472756
0.439089060 0.428083569 0.701075196
0.555344582 0.446552724 0.709550738
0.670335472 0.468817145 0.715875983
0.000759092 0.530170560 0.704996586
0.006831187 0.525996208 0.706135392
0.106135309 0.526249230 0.709171534
0.224668011 0.524351537 0.708412468
0.334345013 0.522833526 0.710815668
0.459329456 0.532194555 0.721695006
0.575711489 0.551802456 0.730297267
0.689310551 0.569006562 0.737001836
0.178621009 0.664769351 0.738899291
0.200379446 0.660215378 0.737128317
0.249715433 0.656926274 0.742694378
0.324857533 0.658950210 0.742441177
0.408096135 0.664895296 0.747121871
0.506894231 0.667046249 0.753320634
0.614042044 0.676154077 0.757368445
0.730044127 0.698418796 0.778747857
0.347375363 0.781151235 0.767868400
0.348766536 0.777102768 0.779506862
0.381530404 0.780392170 0.780265391
0.436938584 0.782542646 0.782795548
0.499809951 0.786464214 0.779759586
0.580518425 0.798608482 0.790765464
0.682352841 0.813029468 0.811638296
0.792915583 0.834661543 0.832004726
