Assets/Shaders/EldamarStudio/100 Sci-Fi LUTs Pack/LUTs/cube/Harriet LUT.cube
LUT_3D_SIZE 5
DOMAIN_MIN 0.000000 0.000000 0.000000
DOMAIN_MAX 0.903226 0.903226 0.903226
0.054901998 0.000000000 0.000000000
0.114104696 0.024541706 0.029095709
0.208602414 0.060847409 0.057558831
0.321821243 0.131435990 0.109930255
0.528652787 0.194939971 0.179253653
0.080075711 0.111827992 0.058190994
0.129791275 0.114104696 0.069322996
0.210879117 0.140923277 0.091840707
0.333839118 0.186085120 0.140290692
0.540796876 0.250853688 0.198228970
0.109803997 0.262239397 0.133332998
0.151675999 0.266160816 0.147501692
0.238709405 0.277925402 0.172043398
0.359392703 0.309045106 0.190891996
0.577102721 0.382036775 0.242631406
0.138393119 0.464136392 0.236432865
0.197216690 0.479063720 0.234534949
0.299304098 0.486654252 0.258696705
0.428842396 0.504364252 0.282606006
0.634914756 0.567741990 0.346995533
0.344465584 0.754838586 0.461985767
0.393801451 0.767615438 0.455660969
0.478431165 0.770524740 0.469197005
0.604553819 0.779886067 0.498291910
0.753700256 0.799240768 0.554965377
0.059456002 0.015053997 0.090575702
0.116381988 0.034028992 0.096141987
0.196837410 0.082732707 0.121315278
0.315243423 0.142567843 0.172295704
0.515876055 0.198482111 0.223023564
0.087919287 0.111827992 0.107906409
0.128147006 0.126881421 0.127513990
0.204680413 0.149778396 0.149778411
0.320809126 0.190006122 0.184440404
0.527008057 0.252118856 0.238709643
0.114358000 0.255660981 0.174825862
0.157242283 0.265148699 0.192283407
0.229854703 0.277925402 0.198102415
0.354838520 0.306388259 0.226818413
0.562681556 0.377103090 0.279696494
0.144465417 0.466666967 0.267425984
0.189373702 0.464389443 0.276027977
0.290448993 0.480455250 0.287159979
0.425553381 0.495509535 0.307779670
0.627450764 0.562555254 0.369386256
0.333080024 0.754965425 0.457178712
0.380012304 0.759772480 0.475648463
0.476786882 0.764579177 0.486780614
0.601012170 0.775078654 0.514104724
0.752435386 0.795066476 0.562175393
0.066034414 0.031373002 0.205312997
0.119670987 0.051992703 0.209614113
0.197469994 0.092220411 0.212523401
0.316255540 0.145224258 0.251233220
0.517520368 0.197469994 0.320556641
0.096394710 0.129158705 0.220746115
0.124857992 0.137002110 0.217457101
0.207590133 0.163188115 0.234787986
0.318785548 0.197469994 0.261227101
0.527640700 0.248197690 0.327387512
0.113724999 0.262239397 0.258317381
0.156609699 0.265148699 0.259582818
0.243263826 0.296900809 0.295635819
0.364326239 0.311954230 0.311321825
0.567868412 0.374193639 0.361796349
0.124857999 0.459455937 0.351170391
0.178874120 0.470588565 0.348260283
0.288424999 0.480075806 0.364326209
0.423656136 0.493864655 0.381277382
0.631625772 0.566856384 0.444908381
0.312966615 0.750284135 0.529412031
0.370904267 0.755218148 0.530929685
0.462112576 0.760658026 0.536495805
0.592536330 0.774193287 0.563061357
0.759013355 0.799367547 0.617203951
0.057811871 0.076534003 0.364073128
0.122580275 0.091587991 0.367362380
0.224667698 0.122960411 0.372928232
0.343453258 0.159898862 0.384693235
0.529664934 0.205312997 0.447564632
0.067552134 0.166477114 0.369006842
0.130044565 0.170018837 0.374572963
0.227957115 0.185072824 0.383301824
0.345730394 0.211258993 0.393801242
0.542441607 0.254775435 0.460594803
0.072612047 0.293611377 0.402909249
0.134218872 0.298292249 0.409487665
0.246932089 0.310309708 0.421631545
0.374573112 0.325110376 0.432763964
0.583301723 0.372422516 0.495256215
0.104743868 0.468058139 0.470968008
0.161417007 0.481720120 0.476154417
0.283871382 0.492852509 0.486653835
0.449462235 0.527893245 0.520050287
0.653510451 0.569766104 0.566856325
0.307653427 0.747121692 0.617583752
0.343706578 0.752561271 0.622390509
0.441745579 0.764326274 0.627071321
0.591524184 0.778747559 0.649335742
0.761922538 0.805565894 0.685641766
0.001265167 0.124351650 0.660974205
0.093485251 0.127514154 0.655660510
0.275395393 0.151170239 0.662871838
0.454775393 0.186464131 0.675901592
0.634661615 0.234281793 0.684376717
0.002656833 0.202403530 0.663504243
0.064642757 0.203162670 0.660594702
0.276154637 0.220113844 0.665781081
0.457432210 0.248956680 0.678937316
0.641872227 0.291840792 0.696773946
0.003921838 0.344845206 0.681087971
0.001644708 0.349019498 0.679822981
0.260341644 0.359139502 0.689563394
0.462998062 0.383428186 0.694496870
0.660215020 0.418722630 0.715116918
0.019228268 0.561036885 0.718911767
0.112460628 0.559645832 0.714737296
0.297785938 0.557748079 0.714737296
0.495002925 0.570145488 0.733333588
0.697153568 0.600885510 0.743832707
0.347375363 0.781151235 0.767868400
0.368880361 0.781404316 0.772422314
0.464262962 0.784946442 0.779759467
0.606324911 0.801644266 0.795066416
0.792915583 0.834661543 0.832004726
