Assets/Shaders/EldamarStudio/100 Sci-Fi LUTs Pack/LUTs/cube/Harriet LUT.cube
DOMAIN_MIN 0 0 0
DOMAIN_MAX 1 1 1
LUT_3D_SIZE 32
0.054901998 0.000000000 0.000000000
0.054901998 0.000000000 0.000000000
0.061353773 0.002150774 0.004300999
0.070461839 0.005186839 0.007843000
0.079569548 0.008222548 0.008601999
0.088677935 0.011258936 0.014673999
0.100315996 0.016825000 0.023276320
0.114104696 0.024541706 0.029095709
0.127007991 0.031373002 0.032131903
0.133080006 0.031373005 0.035167519
0.150790751 0.037192002 0.038203873
0.164958984 0.043263994 0.045287736
0.178241640 0.048197355 0.050980002
0.193422034 0.051739033 0.051486064
0.208602414 0.060847409 0.057558831
0.221378997 0.072358996 0.068437994
0.235041186 0.081467383 0.076027803
0.250853986 0.088172406 0.080961145
0.269070029 0.097280040 0.093105942
0.287286729 0.103605002 0.096900649
0.303605229 0.117267467 0.101833992
0.321821243 0.131435990 0.109930255
0.346109986 0.137507990 0.121821992
0.370398819 0.143580005 0.127893999
0.396964282 0.151929289 0.136242703
0.428463310 0.161037311 0.146742329
0.463378072 0.170651123 0.158380941
0.490702420 0.182795882 0.167488530
0.528652787 0.194939971 0.179253653
0.569892347 0.207083955 0.193169177
0.614168167 0.220113590 0.204807386
0.662744999 0.235293999 0.207843006
0.054901998 0.006072000 0.006072000
0.060973998 0.003036387 0.012143999
0.058823772 0.009487612 0.007843000
0.069450155 0.013029613 0.007843000
0.086021766 0.014673999 0.009740546
0.097786322 0.020366549 0.023782384
0.101834059 0.028462935 0.024794385
0.115749404 0.031751998 0.030739997
0.130044386 0.034408614 0.033649713
0.136116400 0.034408621 0.032131910
0.150917262 0.043137483 0.040986512
0.166983247 0.051360253 0.046299610
0.179000735 0.058444384 0.053257290
0.190385640 0.063630775 0.057558771
0.205566019 0.069955796 0.063630827
0.218342602 0.079064183 0.072106190
0.232004791 0.084503770 0.077545613
0.247185156 0.088804983 0.080961145
0.262998015 0.100316435 0.093105935
0.281214714 0.112207398 0.094117999
0.301328242 0.120683119 0.100695640
0.319797248 0.131435990 0.109930255
0.340290993 0.137634501 0.121948473
0.370398819 0.146616399 0.130929619
0.399241000 0.154965103 0.139278904
0.427324235 0.166856274 0.149778381
0.458823353 0.179759383 0.161416680
0.493738025 0.191903502 0.170524925
0.523719192 0.198735282 0.179633215
0.565591097 0.211891130 0.194939941
0.609360754 0.226185590 0.206957623
0.653636634 0.241365999 0.207843006
0.059202999 0.020746548 0.016445000
0.065274999 0.017710386 0.016065774
0.064895771 0.018975774 0.009234775
0.066919833 0.025553387 0.013282773
0.083870992 0.026818320 0.018595772
0.097786225 0.031119548 0.024920933
0.106641449 0.033270095 0.029601775
0.114610761 0.042378061 0.031246062
0.129538313 0.044655096 0.036812000
0.137002006 0.046046779 0.037950713
0.149652094 0.050474644 0.040101126
0.162808210 0.059582509 0.049209252
0.177862093 0.065275222 0.055407774
0.189247057 0.069576263 0.061480224
0.202530190 0.077546000 0.067552224
0.219607770 0.083871029 0.076027960
0.233269960 0.091461226 0.082099967
0.248450339 0.095256209 0.083997548
0.263630778 0.107400239 0.093105942
0.283744693 0.113093011 0.100569226
0.301960975 0.123339735 0.104364224
0.320935905 0.133459985 0.113219127
0.338393480 0.141935498 0.124351718
0.366730034 0.151043907 0.137507871
0.394939989 0.160151705 0.142315060
0.425300300 0.170651332 0.151423082
0.453889906 0.183554769 0.161796004
0.487033606 0.192409769 0.169259667
0.524604619 0.205692664 0.178368047
0.565591335 0.215306953 0.192789629
0.608854949 0.230992734 0.209234759
0.648829758 0.247437999 0.214294776
0.062744997 0.037697840 0.026059322
0.068816997 0.035926610 0.023023387
0.073497772 0.037191771 0.017330838
0.074257001 0.038962997 0.014041997
0.082605712 0.041998707 0.029601548
0.094244093 0.045035094 0.028716162
0.104364157 0.048071161 0.029981323
0.116381988 0.049209606 0.034282450
0.129285082 0.058317222 0.038836062
0.139405489 0.062365487 0.045414001
0.148892999 0.064136706 0.046932161
0.162302166 0.067425735 0.051739249
0.173307806 0.075395286 0.058570638
0.188741192 0.075901292 0.064769126
0.203921825 0.082985416 0.071852997
0.219608158 0.090955161 0.077798799
0.232511193 0.097027160 0.082606032
0.248956576 0.103731729 0.086274825
0.265402019 0.115243331 0.092346855
0.284883201 0.120303519 0.102466650
0.304237813 0.128399730 0.112207316
0.322454095 0.136495993 0.118279316
0.338393480 0.148007497 0.127134636
0.365717918 0.157115906 0.140037745
0.393042266 0.166224018 0.148640126
0.419228286 0.174193323 0.153194308
0.451107055 0.186337993 0.161290064
0.483744711 0.193927988 0.166603148
0.522074640 0.206704646 0.180391982
0.561796188 0.221378952 0.191018403
0.606831074 0.233522967 0.206578374
0.643263876 0.250979990 0.218342826
0.063883543 0.053636547 0.032891002
0.070335090 0.053257097 0.029475160
0.076660231 0.055407774 0.026059322
0.084883004 0.057178997 0.028083161
0.090954997 0.057558544 0.035673548
0.093991384 0.060594931 0.032637935
0.102466673 0.065781541 0.032891002
0.114104696 0.068564542 0.035800450
0.128905535 0.070082448 0.041872449
0.144085944 0.079190068 0.050980069
0.150916994 0.080328546 0.054648869
0.163061246 0.080328546 0.059708990
0.177103087 0.082605734 0.064642638
0.186211482 0.088425472 0.067931995
0.206957862 0.091461122 0.076913118
0.223403245 0.099304341 0.081214353
0.234788448 0.106514990 0.082732551
0.243643552 0.112840012 0.084376991
0.264896005 0.121948421 0.090449013
0.283365011 0.128653005 0.102087006
0.301201552 0.137381539 0.113851927
0.319797248 0.147881001 0.124351993
0.338266969 0.154206023 0.130550504
0.365338385 0.163567469 0.139658198
0.392662823 0.172675729 0.148766294
0.418595761 0.180771977 0.155344531
0.445414603 0.188235536 0.162428617
0.484882951 0.200379536 0.165465012
0.524351299 0.212144077 0.183301792
0.562807918 0.225679725 0.197849661
0.599620223 0.239974529 0.207716927
0.636053026 0.252118528 0.216824546
0.072991937 0.074888937 0.045034997
0.082100324 0.071853317 0.038962997
0.079949319 0.073624097 0.033396937
0.082732230 0.075395003 0.034155708
0.090954997 0.075774550 0.041745547
0.097026996 0.078810930 0.038709935
0.107653059 0.081847318 0.043263998
0.117646694 0.083744928 0.046679288
0.128525987 0.084503829 0.050221160
0.141049549 0.088298462 0.054016452
0.150410935 0.094496936 0.060214933
0.163061246 0.095508933 0.065780997
0.179379985 0.097785927 0.070714638
0.195319101 0.103605092 0.074003994
0.204427481 0.106641471 0.080075994
0.220366850 0.114484727 0.084250741
0.234029055 0.120556735 0.085768931
0.246426210 0.124730989 0.087666340
0.264896005 0.131056041 0.096521020
0.283365011 0.140164420 0.108159006
0.299683720 0.144971728 0.118405730
0.317394048 0.151549816 0.128020182
0.338266969 0.160278022 0.136622503
0.362555027 0.172422811 0.145730913
0.389626920 0.181783631 0.154838577
0.415559888 0.190891728 0.158380687
0.442378253 0.200506061 0.159899011
0.481847316 0.215559915 0.174573377
0.521315694 0.225047752 0.185578898
0.562555254 0.236432835 0.199240968
0.603162527 0.249082908 0.211764649
0.642125010 0.261226922 0.225932926
0.077039681 0.093611643 0.052118998
0.083618388 0.090575390 0.051106997
0.090576001 0.091840774 0.051486772
0.091081642 0.093611643 0.047818158
0.098924771 0.093991093 0.051106866
0.107147001 0.097026929 0.052372254
0.113219641 0.097532995 0.054395996
0.125363633 0.102213673 0.058823705
0.135357410 0.103225768 0.061859548
0.145730644 0.102719843 0.064895488
0.152435198 0.108665317 0.070840999
0.163567320 0.114737310 0.072865002
0.179379985 0.116887957 0.079063646
0.197090060 0.121315606 0.084629998
0.208475739 0.124351412 0.086147994
0.222391114 0.132194787 0.094623797
0.239089310 0.138267189 0.097912803
0.253889889 0.141935632 0.100189671
0.270208955 0.148007661 0.107400045
0.288424999 0.159392670 0.119291648
0.308538735 0.164706051 0.125742897
0.328020245 0.168754309 0.132573992
0.350790799 0.176344112 0.140037701
0.372675657 0.186084494 0.146742910
0.396963626 0.198229253 0.155850708
0.426818669 0.208981618 0.164958671
0.456040710 0.218722314 0.168501064
0.491461307 0.227830440 0.179633439
0.533460081 0.240227491 0.192156971
0.574699640 0.251107097 0.202530205
0.618089855 0.265022278 0.213915303
0.660847306 0.280455321 0.227450997
0.080075711 0.111827992 0.058190994
0.086148061 0.110436313 0.056546707
0.092220291 0.110056765 0.058697060
0.097027451 0.113093153 0.059203450
0.102340452 0.112713702 0.056926157
0.108918063 0.111954480 0.059962220
0.118785642 0.115749404 0.066287383
0.129791275 0.114104696 0.069322996
0.139658377 0.120176695 0.070841387
0.146995783 0.119797476 0.072106235
0.156483293 0.123845696 0.078051709
0.168247983 0.129917696 0.081720419
0.180391997 0.134851336 0.086274415
0.197343037 0.137887657 0.094623707
0.210879117 0.140923277 0.091840707
0.225427076 0.147121802 0.099051081
0.242125660 0.154711992 0.106641285
0.259709120 0.158507437 0.111068562
0.274889290 0.164579719 0.118152715
0.294497013 0.171284005 0.128146708
0.314610720 0.181024730 0.136242956
0.333839118 0.186085120 0.140290692
0.356230289 0.192789689 0.146362692
0.379000902 0.200379521 0.152435094
0.404174685 0.211764559 0.160784408
0.432637334 0.221125975 0.168500692
0.466540426 0.232763991 0.176849991
0.501075387 0.241112977 0.184819728
0.540796876 0.250853688 0.198228970
0.581657350 0.266287118 0.206957489
0.624162197 0.278431684 0.216951504
0.668943703 0.295129716 0.229095712
0.083871000 0.129285097 0.065780997
0.089184090 0.129285097 0.063504286
0.095256098 0.129285097 0.064010225
0.100063063 0.130550265 0.066034161
0.104237996 0.133207098 0.062998451
0.108412258 0.127894089 0.065275066
0.118279539 0.130424097 0.071853325
0.129791290 0.133080378 0.077672482
0.142694190 0.130803093 0.080708101
0.145730600 0.136875093 0.077672489
0.157495096 0.140796870 0.081846997
0.171663344 0.144339010 0.086654164
0.184946001 0.150031537 0.091587894
0.197596058 0.153067946 0.102972932
0.213282496 0.156103671 0.098419003
0.229221791 0.161543086 0.103605285
0.243643284 0.167615101 0.111195087
0.261859864 0.173687086 0.116634667
0.277166069 0.179759845 0.125490069
0.297912389 0.183807835 0.133839354
0.317646742 0.189879835 0.140290901
0.338393122 0.198988020 0.147881091
0.353953004 0.208096415 0.153826579
0.378241807 0.214801013 0.159266010
0.405566186 0.224668100 0.167615280
0.434914619 0.234788164 0.174573079
0.468817145 0.241366118 0.182163030
0.505249858 0.253257066 0.188993990
0.542061865 0.263503999 0.202276900
0.583048463 0.277925402 0.212144077
0.624921083 0.294370979 0.220746204
0.667425871 0.306515008 0.232890993
0.089943007 0.144465506 0.077925012
0.092979386 0.144465506 0.077925012
0.098292485 0.144465506 0.077798530
0.103099324 0.145730674 0.079190172
0.107273608 0.148387492 0.081214465
0.119418390 0.148387492 0.078178085
0.128652647 0.148134500 0.080455333
0.136242509 0.150031775 0.083744720
0.142694190 0.152055502 0.086780876
0.148766994 0.152055502 0.089816488
0.160531491 0.158127487 0.089690007
0.174699739 0.160025015 0.093991004
0.187602833 0.162555009 0.099936515
0.197596058 0.168247566 0.106008552
0.215812817 0.171283945 0.109044939
0.233902469 0.176723495 0.114105001
0.247438192 0.182795495 0.120303482
0.258823484 0.188867480 0.125743061
0.277039528 0.194939524 0.128779456
0.297912389 0.201012254 0.134851500
0.315369725 0.206957981 0.139152259
0.332827121 0.214168370 0.145350784
0.353953004 0.223276034 0.156862974
0.378241807 0.232384443 0.159898594
0.407083988 0.241366297 0.167615280
0.437317818 0.250601143 0.173940673
0.468817145 0.259582907 0.179127425
0.505249858 0.268690526 0.194307014
0.536369622 0.280582130 0.206451654
0.575964570 0.296141893 0.215180472
0.622137666 0.312586963 0.223909080
0.670461535 0.324730992 0.238962993
0.101833999 0.168374732 0.087159872
0.096141517 0.165464863 0.090069741
0.101328127 0.165464863 0.092219971
0.104870126 0.165464863 0.092978872
0.107020542 0.166856542 0.094370544
0.116635002 0.169386864 0.096394807
0.131309450 0.166856542 0.093358420
0.141176566 0.168121710 0.097279996
0.149272636 0.171157643 0.100063220
0.157495096 0.173307866 0.098798394
0.166476995 0.176217735 0.104743868
0.174573004 0.178241745 0.106767610
0.187096775 0.181657091 0.110815644
0.199999869 0.188993871 0.114610866
0.212902948 0.189373419 0.114990413
0.228715926 0.194813609 0.122833796
0.247944176 0.200885743 0.129411861
0.263883561 0.206325173 0.135483861
0.279822886 0.210119888 0.140796959
0.298038870 0.216191888 0.143833354
0.319164723 0.224161863 0.149778873
0.338393122 0.230234131 0.153826609
0.359645486 0.235547215 0.160151631
0.381150931 0.244654894 0.168753967
0.407716393 0.253763288 0.176344156
0.437444299 0.262871653 0.185452178
0.467299074 0.272992074 0.191524193
0.496520996 0.286907256 0.197090402
0.535610557 0.296014905 0.209613845
0.573814332 0.307906538 0.219987333
0.618216395 0.324731439 0.228968978
0.664768994 0.342947751 0.242125124
0.101833999 0.184566990 0.098291993
0.105882257 0.187602848 0.095256127
0.102339998 0.186717242 0.100316226
0.108411998 0.186717242 0.105882153
0.111448087 0.186717242 0.107779704
0.122201189 0.188108936 0.107526667
0.134345323 0.190133184 0.111575186
0.144591987 0.190385789 0.108538799
0.152561739 0.192662984 0.112713344
0.160404533 0.194433764 0.112207733
0.171537131 0.199493855 0.113852248
0.182669252 0.198482245 0.117899992
0.189879894 0.200759247 0.120935895
0.203289226 0.208222508 0.124225251
0.217203975 0.208222508 0.127767250
0.229728058 0.215053856 0.134978056
0.246426255 0.218090251 0.139532253
0.265907556 0.222517669 0.143327251
0.281087995 0.225553304 0.146616265
0.299051017 0.231372252 0.149905100
0.319164723 0.235546991 0.152941480
0.340417117 0.244402379 0.159898862
0.361922473 0.249715716 0.165211499
0.386969894 0.258823365 0.174319893
0.412776798 0.269955784 0.179380283
0.441492468 0.279063791 0.189879984
0.472865134 0.288677990 0.200632334
0.504743695 0.302340150 0.209740698
0.542694151 0.316255361 0.214673966
0.583934069 0.328905433 0.226818413
0.623782516 0.340417594 0.237065226
0.664769232 0.357115984 0.249209255
0.101454645 0.205819279 0.113851637
0.107147381 0.209614277 0.110056639
0.112207510 0.211385280 0.109171279
0.112966284 0.212523639 0.114231154
0.119038284 0.212144181 0.122200996
0.129664868 0.211385280 0.119923703
0.139532000 0.213915318 0.121062636
0.150664002 0.214674562 0.124478288
0.158254191 0.218469277 0.124478094
0.165085286 0.219228283 0.128273472
0.172422737 0.223908633 0.127261356
0.185705349 0.225047246 0.130424023
0.198987991 0.224288642 0.132321283
0.208349407 0.229854628 0.134851605
0.222643852 0.229854628 0.138266996
0.236558944 0.235926792 0.146742806
0.250600994 0.241619632 0.151297003
0.269449562 0.242252052 0.153194413
0.285641968 0.245287687 0.154712349
0.303605288 0.249968290 0.157495275
0.323719025 0.256420016 0.162808374
0.345983267 0.261480153 0.166856632
0.367362112 0.270588487 0.175458282
0.392662555 0.279696375 0.181530550
0.418848842 0.288804591 0.188361928
0.449842215 0.300695926 0.193295628
0.480708331 0.309803694 0.205439642
0.516508520 0.321315259 0.219987437
0.555597425 0.336116076 0.227956802
0.597975612 0.349019468 0.237444401
0.640480459 0.366856247 0.250474602
0.674636662 0.377229631 0.262871653
0.109803997 0.240987033 0.133332998
0.110309996 0.240733996 0.133332998
0.116508745 0.240733996 0.132194772
0.124099001 0.241745874 0.132194906
0.130171001 0.244528577 0.135104030
0.136243001 0.241492972 0.135104030
0.142820999 0.243263751 0.132068351
0.151170000 0.243769750 0.132321313
0.163567156 0.242251992 0.136116087
0.175711930 0.248323992 0.145224482
0.176723957 0.251486182 0.142694190
0.187096789 0.252751023 0.146489471
0.202276632 0.253889680 0.149778962
0.217457011 0.256673038 0.150791034
0.229601786 0.256673038 0.147754654
0.244149208 0.261480033 0.153067768
0.259076178 0.265781194 0.158128038
0.275268584 0.269070446 0.159519449
0.296521008 0.272106081 0.168627068
0.314990669 0.274889380 0.172169387
0.335104704 0.281720757 0.178747728
0.357115984 0.290828943 0.186337993
0.381530464 0.300063044 0.192662984
0.403035909 0.309297919 0.193168998
0.426565558 0.316129029 0.199241251
0.456420302 0.324984014 0.206957951
0.492853045 0.336875111 0.214548036
0.526249409 0.345983475 0.226692021
0.564958692 0.360151857 0.238330007
0.607463539 0.372296214 0.252245188
0.652625203 0.385325998 0.268437594
0.695129991 0.409614027 0.283618033
0.109803997 0.262239397 0.133332998
0.115875997 0.259203017 0.133332998
0.120682992 0.258949965 0.139784768
0.126122728 0.258949965 0.146363154
0.130171001 0.259961933 0.153447285
0.136243001 0.262745351 0.156356394
0.147375003 0.262239397 0.148766726
0.151675999 0.266160816 0.147501692
0.158001095 0.268058300 0.149778411
0.172675550 0.266539991 0.151296481
0.179000571 0.269702852 0.148766875
0.191904083 0.272738546 0.157874554
0.208349183 0.275142044 0.163187563
0.223529026 0.277925402 0.159898639
0.238709405 0.277925402 0.172043398
0.253257364 0.282732397 0.166603208
0.266919374 0.285768390 0.169765949
0.280961156 0.287665963 0.173940822
0.299557418 0.293358415 0.177735448
0.318026423 0.293611377 0.181277767
0.338140309 0.299936712 0.186211407
0.359392703 0.309045106 0.190891996
0.381530464 0.318279803 0.192662984
0.408854902 0.330423832 0.204807013
0.432637542 0.337381393 0.205312997
0.462492287 0.346236348 0.209993571
0.499431044 0.358380526 0.218089700
0.538393378 0.370272249 0.235800400
0.577102721 0.382036775 0.242631406
0.616571546 0.396584570 0.255281627
0.659962177 0.411385387 0.274003983
0.707273960 0.430866390 0.298798412
0.112207189 0.283491790 0.142947599
0.118279800 0.282859176 0.147754595
0.126502037 0.277672589 0.152055591
0.131562158 0.280961454 0.157115802
0.134598449 0.284376770 0.161290452
0.138646200 0.285388917 0.160278067
0.144971803 0.290701985 0.165211499
0.155471087 0.287412971 0.161037177
0.160025090 0.290448993 0.164073184
0.171916500 0.292346299 0.167362601
0.183174998 0.292725861 0.164452866
0.193295509 0.291714251 0.165465251
0.209614351 0.293990970 0.173434600
0.224794030 0.297027022 0.170904607
0.239974409 0.299177796 0.178747818
0.255154788 0.303984791 0.183681190
0.268816978 0.307020783 0.179126993
0.282226145 0.307653368 0.183175400
0.300442964 0.311954588 0.189753041
0.321062833 0.314863771 0.195193157
0.343073785 0.324351490 0.198229060
0.363820255 0.331435770 0.201770991
0.384060770 0.336495966 0.202150494
0.413661897 0.348639995 0.212017804
0.438709557 0.356229991 0.212776512
0.469955623 0.366476625 0.220999330
0.507400334 0.379632890 0.231625527
0.544971406 0.391777694 0.244149059
0.584440410 0.401517957 0.251739800
0.622137487 0.418975115 0.266666949
0.662744999 0.434535205 0.285768747
0.709803998 0.449715614 0.311574996
0.116761386 0.303225994 0.158127993
0.122833766 0.306261986 0.164199993
0.128020227 0.306515187 0.168754190
0.134598166 0.301708013 0.167235866
0.138772994 0.309424192 0.167362362
0.145224258 0.311701179 0.168880254
0.147754446 0.313725173 0.170398191
0.153953284 0.317773372 0.174699381
0.164579093 0.313978285 0.174699381
0.175205484 0.319291204 0.179253951
0.185705185 0.316508174 0.178115323
0.200885311 0.319038272 0.179127067
0.213030085 0.317140996 0.179886445
0.228083372 0.319544196 0.179759949
0.244528607 0.321315408 0.184566796
0.259708971 0.325237155 0.189753190
0.271853358 0.329791397 0.194307387
0.284629792 0.330423802 0.191904187
0.301960766 0.333459973 0.198355436
0.322960198 0.336496025 0.203162521
0.346110165 0.345603913 0.210373446
0.370398164 0.356736332 0.212397188
0.390132785 0.357621849 0.212523669
0.420493186 0.368374199 0.218848705
0.446299732 0.377482384 0.223403096
0.471979797 0.384946048 0.224541366
0.509930253 0.399873465 0.242758065
0.545350850 0.413030088 0.255913913
0.585958242 0.424035549 0.263883471
0.626692057 0.438709348 0.272738963
0.663124382 0.458190769 0.292220384
0.706767976 0.470967978 0.314611018
0.124098979 0.324604541 0.175711557
0.128905982 0.329411536 0.181783557
0.131562218 0.333333313 0.183807760
0.135230586 0.333839387 0.181783825
0.139405519 0.331562102 0.172675148
0.151549563 0.337381124 0.182036489
0.154838577 0.338393122 0.182921991
0.158760145 0.338772655 0.183934122
0.165844083 0.341809064 0.186211407
0.181024477 0.344844669 0.186211407
0.191650853 0.341049522 0.187476560
0.205565974 0.343073726 0.188867882
0.222770259 0.346868724 0.190891623
0.234662011 0.347121686 0.188614979
0.251739562 0.347501129 0.192030132
0.266919792 0.349272341 0.195572138
0.280961573 0.351676136 0.201644361
0.291334987 0.354712546 0.206451982
0.306514651 0.357748181 0.206451982
0.326628357 0.361416906 0.209234625
0.349778444 0.368247956 0.214168161
0.374699563 0.377988696 0.221505567
0.399114043 0.381278038 0.221885040
0.428968787 0.390385658 0.225932658
0.455407977 0.399493843 0.231878549
0.482353181 0.410499603 0.237950966
0.511195540 0.419608027 0.245034978
0.544718385 0.434535384 0.265907824
0.584187150 0.448324114 0.277166307
0.626059294 0.463377476 0.286274165
0.666793168 0.480075717 0.298418552
0.703225970 0.495256126 0.313598961
0.136243001 0.358001024 0.190891996
0.136243001 0.358001024 0.196963981
0.134598240 0.360657781 0.194433987
0.135863006 0.361163855 0.189121038
0.142441154 0.358886570 0.184819967
0.154585913 0.361922950 0.196963951
0.161669984 0.362682015 0.196204677
0.168880686 0.361037314 0.195066035
0.177735850 0.360025138 0.195319057
0.187096521 0.363061517 0.195319057
0.202276886 0.366097122 0.201138794
0.214927003 0.370398551 0.202656999
0.229854301 0.374193966 0.204048321
0.246806055 0.374446929 0.206831038
0.255914420 0.377482533 0.212903008
0.268184990 0.377861977 0.211511806
0.283618003 0.378114998 0.213788956
0.300442606 0.379000634 0.218596026
0.315623075 0.382037044 0.218596026
0.333586007 0.387856007 0.221378669
0.355850488 0.391777247 0.222517028
0.381151140 0.396584302 0.225300312
0.408222467 0.402530491 0.230993465
0.435546905 0.411638141 0.240101099
0.463124275 0.420746326 0.248703286
0.492979020 0.434029013 0.256167024
0.526375949 0.449968100 0.263251007
0.562807918 0.459076464 0.275395006
0.596331477 0.476660669 0.288298696
0.634029090 0.492599696 0.298418701
0.672865212 0.507147253 0.311068624
0.709298015 0.519545019 0.331815034
0.134471640 0.405312747 0.208855003
0.140037641 0.408096105 0.212144360
0.146489412 0.408096105 0.216065586
0.147248372 0.409234762 0.214421019
0.150284365 0.408475637 0.211764559
0.157621518 0.411512017 0.211891368
0.169766277 0.409487784 0.216445044
0.176344365 0.409234762 0.217204079
0.185073018 0.408096105 0.218342721
0.196204886 0.409108251 0.218342721
0.213914871 0.412144572 0.218595743
0.229095265 0.413156450 0.220620006
0.244275659 0.415433735 0.222897023
0.261986375 0.415433735 0.227071404
0.273624420 0.415939689 0.225553706
0.289943010 0.416572094 0.229221910
0.305882424 0.419608086 0.233017206
0.323466301 0.421505511 0.238456801
0.338646740 0.420240372 0.236306012
0.356609732 0.426059395 0.239089370
0.374825716 0.432131380 0.245920464
0.397343248 0.435040742 0.249588937
0.423023373 0.437824041 0.253890008
0.453004628 0.449589193 0.260341495
0.482605696 0.456420094 0.269449681
0.513219357 0.465022415 0.275775075
0.545604408 0.478558034 0.281973630
0.575205684 0.492219836 0.296394378
0.611638308 0.506641150 0.305882215
0.650474727 0.522960186 0.321441948
0.690955281 0.538140357 0.339784533
0.729285359 0.552182436 0.366729736
0.133332998 0.436811745 0.223276466
0.135609999 0.443643123 0.224415123
0.147627771 0.440733731 0.231245950
0.155470997 0.439468563 0.233016729
0.157494992 0.439974546 0.232637271
0.163567007 0.446046919 0.229601666
0.176596895 0.449715406 0.222137675
0.187096953 0.446679443 0.228462696
0.194939986 0.447185397 0.232763991
0.207084000 0.448323727 0.235040992
0.221252471 0.449335873 0.236938730
0.239341989 0.450347990 0.235040992
0.254522383 0.451486647 0.238456637
0.271980017 0.452245742 0.244528696
0.287413001 0.452245742 0.241492659
0.304364473 0.452245742 0.248956665
0.322580457 0.452245742 0.247438461
0.340796947 0.457558721 0.254649132
0.357242256 0.458317488 0.256672770
0.377103001 0.461733222 0.255408108
0.393421739 0.465907454 0.260341734
0.411637992 0.469955474 0.265401870
0.434535205 0.470334977 0.266919494
0.466666818 0.480708510 0.274762750
0.497027457 0.488298714 0.283112019
