Assets/Shaders/EldamarStudio/100 Sci-Fi LUTs Pack/LUTs/cube/Hatilde LUT.cube
LUT_3D_SIZE 8
DOMAIN_MIN 0.000000 0.000000 0.000000
DOMAIN_MAX 0.903226 0.903226 0.903226
0.003922000 0.000000000 0.000000000
0.157874644 0.000000000 0.012144452
0.331436098 0.000000000 0.025047194
0.494370282 0.000000000 0.046552639
0.651107192 0.000000000 0.090828799
0.797216713 0.000000000 0.146742731
0.927008271 0.000000000 0.193421990
0.996078014 0.029221769 0.253889799
0.122580543 0.132827535 0.099051543
0.203668177 0.122960091 0.086148091
0.344718188 0.144591644 0.084250554
0.506514847 0.129285097 0.101328440
0.655408025 0.114610821 0.133713186
0.812270701 0.113851637 0.182036534
0.927387834 0.136116087 0.228968814
1.000000000 0.176090881 0.276154250
0.282732189 0.285136193 0.256040275
0.345097840 0.278431654 0.299683660
0.414421290 0.276534110 0.235800087
0.529664397 0.265148640 0.198608637
0.664389551 0.307906270 0.230234191
0.806325376 0.303478807 0.249335736
0.924731016 0.314863920 0.286527663
0.999240935 0.333965927 0.332195103
0.452878267 0.468057930 0.431625277
0.488551676 0.468816817 0.466539830
0.566223860 0.480961263 0.519418120
0.619861305 0.468057930 0.396837622
0.712460339 0.411005646 0.317014426
0.808855176 0.463124484 0.344718397
0.920177281 0.484250277 0.379506916
0.997469962 0.490701884 0.412397295
0.604300976 0.664389372 0.634282351
0.623402715 0.666793168 0.667045891
0.688931286 0.665148437 0.725237250
0.718785226 0.676533818 0.720683277
0.782289565 0.643263578 0.568754196
0.843769729 0.546869159 0.442251831
0.927261293 0.595445871 0.478431284
0.992536187 0.642884016 0.532574356
0.717140973 0.797343731 0.836179733
0.733206928 0.800126433 0.854143262
0.765717983 0.802023768 0.886021435
0.801897466 0.815306723 0.944844723
0.820240736 0.811511874 0.893232107
0.872232735 0.791524470 0.775331914
0.942441583 0.678811014 0.604554176
0.997469962 0.712333977 0.638836384
0.818216562 0.904491007 0.991777301
0.823150277 0.901834249 0.998102307
0.839468658 0.906135261 1.000000000
0.871347368 0.912839949 1.000000000
0.889690161 0.917267442 0.996837080
0.887539566 0.915623009 0.998355269
0.934598029 0.888171971 0.941049576
0.989373505 0.814674437 0.807969749
0.899683595 0.960910797 1.000000000
0.901075363 0.960025430 1.000000000
0.908665001 0.962808073 0.996457756
0.935736775 0.961037338 0.997343183
0.948134005 0.964705646 0.998861313
0.946110010 0.967994750 0.998102248
0.949145794 0.964832127 1.000000000
0.964832127 0.959645987 0.997343183
0.003542452 0.061859995 0.258190632
0.162935093 0.000000000 0.249968082
0.348766178 0.000379548 0.238962993
0.499557525 0.002783356 0.264516443
0.650348186 0.000000000 0.276913434
0.800505698 0.000000000 0.287665904
0.929917693 0.000000000 0.310183376
1.000000000 0.000379548 0.345983535
0.000000000 0.206451640 0.274636656
0.167362541 0.157874644 0.280961543
0.355344713 0.114358090 0.258949727
0.510562718 0.085768446 0.277039647
0.658317387 0.022643998 0.280834645
0.805312753 0.006831091 0.303731620
0.919797540 0.038076915 0.316508204
0.998355269 0.129664883 0.351423204
0.130423635 0.291840672 0.288677752
0.250727177 0.290322661 0.295383006
0.380645305 0.280455291 0.334218651
0.514357924 0.284756660 0.314105093
0.660594344 0.287539303 0.331056625
0.800379694 0.285136163 0.339152306
0.922074735 0.293991208 0.369386643
0.999620438 0.317520618 0.401897371
0.352055728 0.458317280 0.402530193
0.425047725 0.461480260 0.449335724
0.539152324 0.472738713 0.528779209
0.604174376 0.466539919 0.459455937
0.695888221 0.421505302 0.392915726
0.796963990 0.468184739 0.425680012
0.912966430 0.472359270 0.439974576
0.994560421 0.481720388 0.465148658
0.556356490 0.651486814 0.628083646
0.587223053 0.653004587 0.648070812
0.659076214 0.663630545 0.714104831
0.721821487 0.678558111 0.771663487
0.770904541 0.651359916 0.624667943
0.831878603 0.559392571 0.502466917
0.911701560 0.607210577 0.539785087
0.988108754 0.646173358 0.575838089
0.699303925 0.789879680 0.831878603
0.709803939 0.798482001 0.848829925
0.750410914 0.805186689 0.881340563
0.801897407 0.813409328 0.944465160
0.818848908 0.813409269 0.923845410
0.862492144 0.791144907 0.804048002
0.931562126 0.688298583 0.647691488
0.994560421 0.724351525 0.682985306
0.810878813 0.897027016 0.993422031
0.811005533 0.907146990 0.994813263
0.832131505 0.906135261 0.998355269
0.872865438 0.915623248 0.996204734
0.896267951 0.921948195 0.995445848
0.888804555 0.911701560 0.999620438
0.927640736 0.890575290 0.953447104
0.983934045 0.811638534 0.812397480
0.890828490 0.962302148 0.999620438
0.894370854 0.964832127 0.996078014
0.906388223 0.965717554 0.996204793
0.925616384 0.965970755 0.997469962
0.951549351 0.966476560 0.996584475
0.948513627 0.966856062 0.997722805
0.949145794 0.967489004 0.997343183
0.973307788 0.953447223 1.000000000
0.000000000 0.157369092 0.523339272
0.001138547 0.024162002 0.508032858
0.329032272 0.000000000 0.474889189
0.498292267 0.000000000 0.450094759
0.644022465 0.002403808 0.461480111
0.789879441 0.002024260 0.487792552
0.909044981 0.000000000 0.500822365
0.997975767 0.001517998 0.499178082
0.003162904 0.284377187 0.547628164
0.000000000 0.224794179 0.525236964
0.298039556 0.104997091 0.495129377
0.507021070 0.046552639 0.466160387
0.657432139 0.024667740 0.479949534
0.791271567 0.009108282 0.492979079
0.904743969 0.007969638 0.492852449
0.996584177 0.010246637 0.502340376
0.000000000 0.415180176 0.556989372
0.003162904 0.408601820 0.556230247
0.293864995 0.321948171 0.530423343
0.517267287 0.247565091 0.479063839
0.650348127 0.249841988 0.492979199
0.792789698 0.233775929 0.501581192
0.908412158 0.234787986 0.503984928
0.998734832 0.268058002 0.519797444
0.082100160 0.448197365 0.504617214
0.200632155 0.441872299 0.496394724
0.352561265 0.436432362 0.502719820
0.537634194 0.435293794 0.535230994
0.654016614 0.432511300 0.530929744
0.781277418 0.429981172 0.538646460
0.898292243 0.443643183 0.556230128
0.989753127 0.464642733 0.571789920
0.333586276 0.617330551 0.588994384
0.395951718 0.616571546 0.607084334
0.517141223 0.622011304 0.637697458
0.666413844 0.638456404 0.734345198
0.727261305 0.633017182 0.706768036
0.801771104 0.580897927 0.612523615
0.886780500 0.626059353 0.647185206
0.981277823 0.640860260 0.677292883
0.593548238 0.776597261 0.773813963
0.629854441 0.776597202 0.799746692
0.688804448 0.780012727 0.840986848
0.760657609 0.797975779 0.909045041
0.813282728 0.817457438 0.969892621
0.842378676 0.787855685 0.863883793
0.910562813 0.704743922 0.730044544
0.975584805 0.747248530 0.768374503
0.767362475 0.895888507 0.982036531
0.780518472 0.895888507 0.986970067
0.812523782 0.903858185 0.998355269
0.851486623 0.908918619 0.995319247
0.897406459 0.918659210 1.000000000
0.896268010 0.908538997 0.996711016
0.911828101 0.892979205 0.983807564
0.975585222 0.813535571 0.854648769
0.887160063 0.963566959 0.999240935
0.893991113 0.962681711 0.998734832
0.910183191 0.961796045 1.000000000
0.928779244 0.969133377 0.998734832
0.952688098 0.973308086 0.997343302
0.956230283 0.968248069 1.000000000
0.955091894 0.969386756 1.000000000
0.965338111 0.960910797 0.997343183
0.002276998 0.273497999 0.798734903
0.002783356 0.195066184 0.799620867
0.003542477 0.004174544 0.763946593
0.471347630 0.001138644 0.710183620
0.643263340 0.000758999 0.670967817
0.777102828 0.000000000 0.669449806
0.901075363 0.002783356 0.674256623
0.996204793 0.000000000 0.676280797
0.000000000 0.359646082 0.814420998
0.001517999 0.314231277 0.804680467
0.000379566 0.156989530 0.786337852
0.462365270 0.030486995 0.718911946
0.641998827 0.002403808 0.679317236
0.777735829 0.000759096 0.683997333
0.905755699 0.002656546 0.682859004
0.995445728 0.017836703 0.672486007
0.000759096 0.523086727 0.844781578
0.000000000 0.489310622 0.831751943
0.000000024 0.392915726 0.804427743
0.426312178 0.265528083 0.755344391
0.643390357 0.210626185 0.692093790
0.777482212 0.216445535 0.695762336
0.894876420 0.237697735 0.694370449
0.996204793 0.257938027 0.687412977
0.005566002 0.628842652 0.842883945
0.000758999 0.627704203 0.830360711
0.030360566 0.611637831 0.839847982
0.436685622 0.510057271 0.781277478
0.640101552 0.393169284 0.709930420
0.766477048 0.396205276 0.710057259
0.880961239 0.412650257 0.705123246
0.981909811 0.428589612 0.705629647
0.001138547 0.658570647 0.765971005
0.016698375 0.655028403 0.761037171
0.271220833 0.645287812 0.762681901
0.465401381 0.628083706 0.762302458
0.631499052 0.585451901 0.753320754
0.757368803 0.575078905 0.733333528
0.863883495 0.590765417 0.748387098
0.962049067 0.619228363 0.771916687
0.275268644 0.726249456 0.752182364
0.337508023 0.726881742 0.757874727
0.464263171 0.730929613 0.776723742
0.607463717 0.739152193 0.807716548
0.755850613 0.766223729 0.900695741
0.809740543 0.775331914 0.913219631
0.875648081 0.724477828 0.828716040
0.937887311 0.772801936 0.859203219
0.658697248 0.881467640 0.937760830
0.680835187 0.882479489 0.938393116
0.723213196 0.881340981 0.964832067
0.793168902 0.889942884 0.993421972
0.865401745 0.909677625 0.998102367
0.913219392 0.918785453 0.997596145
0.901581287 0.896647573 1.000000000
0.949651957 0.826438844 0.918912351
0.858823419 0.967742026 0.996078014
0.869576156 0.960784316 0.994180679
0.893991053 0.963946462 0.997596204
0.920556784 0.965970755 0.998861372
0.950537801 0.966603398 0.995445788
0.967488945 0.975458443 0.997722983
0.967362463 0.970018983 0.998861372
0.971410632 0.966223836 1.000000000
0.001518192 0.340923190 0.983175218
0.000000000 0.304111302 0.987982154
0.002277095 0.149525270 0.978368163
0.155851007 0.006578353 0.955091834
0.579253197 0.000000000 0.909677386
0.746995449 0.003035997 0.866413593
0.880961359 0.000759096 0.868311405
0.990006149 0.001265167 0.858191371
0.001897643 0.417836994 0.985579014
0.000000000 0.385705054 0.982036591
0.001138644 0.278178096 0.981657207
0.087792195 0.156230539 0.970904589
0.573307693 0.009487636 0.921695173
0.754965127 0.001138644 0.869070232
0.878684342 0.001644712 0.871094108
0.984945774 0.001897547 0.854902148
0.002403808 0.543074191 0.996204913
0.002783356 0.521694720 0.999620438
0.000000000 0.452119052 0.982416153
0.025426824 0.318026304 0.964832366
0.552561343 0.250474185 0.928779244
0.746236444 0.187096998 0.871094048
0.874636412 0.194054380 0.880961180
0.984440148 0.232131630 0.861859679
0.000000000 0.705123484 1.000000000
0.000000000 0.690954804 0.994180560
0.038709652 0.644528866 0.996078074
0.320050359 0.560151517 0.987729430
0.537254810 0.443010718 0.949146271
0.736369610 0.375964373 0.880455434
0.868690610 0.379886001 0.883997381
0.972675443 0.400632620 0.859835565
0.002403808 0.779633164 1.000000000
0.000379548 0.777609169 0.999620378
0.179380089 0.776091158 0.997596204
0.442125440 0.761796176 0.996584356
0.601012170 0.669196367 0.972042918
0.723972261 0.560278177 0.904996634
0.855028510 0.557874560 0.883617938
0.958253980 0.576596975 0.869576216
0.038709838 0.810119927 0.963567197
0.100822106 0.802656472 0.965718091
0.309424371 0.795951843 0.958886802
0.465907395 0.786970377 0.960278273
0.599367380 0.765338600 0.942947328
0.732447684 0.736369550 0.923592687
0.835926771 0.710942686 0.903605282
0.925616622 0.742441654 0.921315551
0.242757797 0.843137264 0.907273769
0.306262195 0.836179376 0.897280157
0.447438300 0.843010545 0.913472414
0.601264954 0.851612628 0.942062020
0.736369431 0.863504410 0.982036352
0.862365663 0.886274397 0.997216761
0.894117475 0.886274517 0.998481810
0.929664850 0.849209428 0.985072613
0.740922987 0.959392607 0.998861372
0.757495224 0.956609488 0.996457636
0.794686854 0.960278034 0.998481989
0.860847533 0.960910797 0.998482049
0.913978636 0.969259799 0.998734832
0.956356347 0.976976395 0.995825350
0.975458443 0.978114963 1.000000000
0.973054945 0.969007194 1.000000000
0.008096008 0.395825475 0.998102248
0.000379548 0.374319941 0.998481810
0.000000000 0.294623882 0.999240935
0.007463646 0.151422918 0.998481989
0.354585648 0.047058560 1.000000000
0.656546712 0.002024260 0.997975767
0.823782563 0.001644712 0.993548274
0.954459071 0.000000000 1.000000000
0.005060257 0.445161104 0.996584415
0.001518192 0.424794495 0.997975767
0.004427552 0.360405117 0.999240994
0.001517999 0.234029278 0.998481989
0.355977356 0.168880463 1.000000000
0.649715483 0.047817752 1.000000000
0.817583978 0.000379548 0.987855971
0.950284660 0.000000000 0.996837080
0.003415642 0.556103766 0.997343361
0.002783258 0.538393319 0.995066464
0.002656642 0.496647745 0.996584296
0.000000013 0.398102373 0.997722924
0.365844011 0.331182480 0.995698631
0.643137515 0.273245186 0.997975767
0.815433025 0.190512449 0.997216582
0.955471039 0.195446089 0.997469962
0.031119550 0.700189650 0.998481989
0.070967734 0.691334248 0.996457696
0.143453300 0.663377762 0.993927717
0.285388768 0.596331358 1.000000000
0.407590300 0.493864626 1.000000000
0.637571394 0.442124993 0.994560003
0.801264763 0.361922920 0.991271257
0.944591880 0.371031076 0.997722924
0.288551718 0.837950349 1.000000000
0.351170450 0.830486834 0.999620438
0.448450178 0.814800799 0.997216702
0.555850744 0.782668948 1.000000000
0.602150619 0.711954653 1.000000000
0.668943465 0.615433097 0.997216761
0.808728516 0.534851372 0.996963978
0.947121739 0.535104275 0.995951891
0.396204650 0.877925456 0.994307280
0.426818460 0.874004006 0.995952010
0.498671919 0.879190683 1.000000000
0.593042135 0.875142634 0.993295372
0.695762098 0.867678642 1.000000000
0.758001149 0.805186749 0.995952010
0.818596005 0.693105459 0.994307280
0.928272784 0.704743743 0.994687021
0.411258638 0.916887999 0.996711016
0.443390638 0.913599014 0.997216702
0.497786462 0.910942256 1.000000000
0.566729665 0.904237926 0.998355269
0.651107073 0.892220020 0.997216702
0.740037680 0.866666734 1.000000000
0.819861054 0.842378318 0.994813263
0.905249894 0.844528496 0.999620497
0.384819537 0.939658582 1.000000000
0.402403116 0.936242759 0.995446026
0.487539142 0.939152300 0.995066166
0.638456345 0.945983529 0.995825350
0.783680916 0.950664222 0.998481810
0.895509005 0.961669505 1.000000000
0.971790254 0.976976335 0.997090399
0.973434746 0.968248010 0.997343183
0.000000000 0.435926974 0.998355269
0.000000000 0.417204291 0.998355269
0.000000000 0.369766057 0.997722745
0.006704646 0.260594636 0.998355269
0.077419281 0.199620470 0.996837080
0.540290952 0.146995366 0.997343183
0.745351315 0.022137981 0.995445967
0.895635307 0.001644712 0.995698571
0.001644712 0.472106248 1.000000000
0.000000000 0.460594565 0.997722745
0.004933716 0.415812641 0.996204853
0.000759096 0.329538256 0.998355269
0.083870918 0.256167084 1.000000000
0.543326795 0.216571644 0.997216702
0.747627974 0.135104090 0.998355269
0.892599523 0.008096258 0.995825469
0.000000000 0.563694119 0.996078014
0.001644712 0.557748318 1.000000000
0.003035997 0.522833347 0.998481870
0.000000014 0.463124365 0.998861432
0.174446449 0.376091093 0.997722864
0.552688181 0.340164512 0.998355269
0.753953159 0.292599440 0.998481870
0.896141768 0.220999449 1.000000000
0.095635653 0.695508897 0.996078253
0.148892835 0.687792540 0.997216642
0.242251456 0.667046010 1.000000000
0.331309170 0.619861007 1.000000000
0.406578004 0.547754467 0.998861432
0.587223411 0.488425106 0.998861372
0.759898603 0.442883909 0.997722983
0.895762086 0.370525122 0.997090399
0.478684336 0.821758211 0.993928015
0.514611065 0.817963600 0.998861372
0.558001578 0.816066027 1.000000000
0.596078575 0.783934295 0.998355269
0.614927173 0.729791403 1.000000000
0.651866138 0.648576736 0.996711016
0.774193525 0.597976148 0.997596204
0.895509064 0.526881576 0.992663026
0.590259314 0.913725495 0.994180739
0.612017989 0.914864182 0.996584415
0.654395819 0.917394042 1.000000000
0.700695753 0.904237986 0.997216702
0.751676202 0.882352948 0.988488197
0.775458455 0.827704012 0.994560242
0.811764717 0.753194153 1.000000000
0.913219452 0.680455625 0.999240994
0.620113552 0.944086313 1.000000000
0.630360425 0.942441583 0.999240994
0.664136589 0.942441583 0.995319307
0.721315622 0.941302896 1.000000000
0.776344359 0.945477366 0.993041992
0.847311974 0.940797269 1.000000000
0.879317284 0.900569022 1.000000000
0.924477756 0.816318572 0.995445967
0.623908758 0.982036531 0.998734832
0.639974713 0.982036531 0.998481870
0.655913830 0.979632974 1.000000000
0.695003211 0.978494465 0.996331334
0.749905109 0.974193454 0.998734832
0.800379515 0.960151792 1.000000000
0.860088527 0.940796912 1.000000000
0.954838634 0.951170206 0.999241054
0.000000000 0.465401828 0.998734832
0.001644715 0.451612979 1.000000000
0.002024263 0.419355005 0.997343183
0.003035990 0.359772384 0.998861372
0.004174638 0.271853179 1.000000000
0.404174328 0.249968171 0.998102248
0.661859453 0.216065958 1.000000000
0.834155679 0.162428617 0.997343183
0.000000000 0.494370848 0.998734832
0.000000000 0.482226372 0.995446026
0.000379548 0.455281526 1.000000000
0.000759096 0.401012003 1.000000000
0.001138640 0.310309917 0.998861313
0.418849081 0.290955007 0.995445848
0.659582615 0.257938176 0.993168771
0.835546970 0.210626364 1.000000000
0.003794989 0.570778012 0.994054258
0.004554276 0.562555552 0.997343302
0.002656833 0.543073893 1.000000000
0.005819362 0.496774286 0.998481870
0.044402286 0.424794465 0.994180858
0.462871492 0.395192742 0.999240875
0.677546024 0.367868364 0.998861313
0.844275892 0.324478120 0.998734832
0.145350739 0.686907113 0.996204793
0.206198558 0.676533997 0.999620438
0.261353761 0.663124263 0.998861372
0.335989833 0.632384658 1.000000000
0.406451613 0.577988625 0.999620438
0.530297220 0.523086607 0.998734832
0.697533190 0.492978781 0.998102367
0.843896389 0.448830068 1.000000000
0.575458527 0.817710400 0.997216642
0.583681285 0.819228411 1.000000000
0.577482760 0.798102200 0.999240935
0.585705042 0.773307800 0.997469962
0.613535523 0.731941819 0.998481810
0.638203919 0.673244953 0.999620438
0.741935372 0.638583481 0.996710896
0.862491786 0.593169153 1.000000000
0.675774813 0.905502975 0.998102248
0.689689994 0.904870093 0.999620438
0.712586761 0.900063038 0.999240875
0.747501433 0.895003140 0.998734832
0.771157265 0.876913428 0.999620378
0.773055017 0.832890749 0.998734832
0.802403331 0.774193406 0.998102248
0.891207933 0.733965695 0.999240875
0.726755023 0.956609726 0.993168712
0.737254798 0.959645629 0.998734832
0.763441145 0.954206109 0.998102427
0.800126553 0.958633661 0.996457815
0.842884362 0.960025370 0.996584237
0.876407206 0.948640287 0.997343242
0.890449286 0.912966669 1.000000000
0.921694994 0.860594571 0.997722745
0.762428641 0.977862000 0.997343183
0.765211821 0.981657207 0.997343183
0.788487971 0.980771661 0.995445907
0.822390974 0.980645359 0.998734832
0.855913937 0.979253650 0.998734832
0.897912800 0.984566808 1.000000000
0.947121799 0.988361835 0.997090399
0.966350675 0.968753815 0.998734832
