Assets/Shaders/EldamarStudio/100 Sci-Fi LUTs Pack/LUTs/cube/Hatilde LUT.cube
LUT_3D_SIZE 5
DOMAIN_MIN 0.000000 0.000000 0.000000
DOMAIN_MAX 0.903226 0.903226 0.903226
0.003922000 0.000000000 0.000000000
0.287413090 0.002277292 0.021252289
0.572801828 0.000000000 0.068057984
0.833649278 0.000000000 0.160910994
0.996078014 0.029221769 0.253889799
0.238709390 0.242631391 0.211258397
0.361290097 0.237065107 0.195572391
0.579000533 0.261859685 0.187729403
0.837950528 0.267805248 0.237444818
0.996204793 0.297280103 0.313725531
0.535610378 0.562428772 0.533080220
0.613409221 0.578494489 0.613156021
0.708159447 0.562428772 0.486653775
0.846046627 0.516002417 0.399367541
0.996837437 0.567615747 0.465780765
0.742441118 0.827703953 0.884756267
0.774320126 0.834914625 0.927514136
0.826944828 0.848956525 0.983807981
0.888424993 0.820873141 0.827957273
0.996204793 0.731309295 0.666413784
0.899683595 0.960910797 1.000000000
0.909677088 0.961036921 0.997469962
0.935357451 0.961543381 0.992030203
0.944591820 0.968753815 0.998355269
0.964832127 0.959645987 0.997343183
0.000000000 0.137634695 0.455787390
0.292599708 0.000000000 0.417204380
0.572802246 0.001644708 0.412270665
0.822770119 0.002277292 0.448829681
0.998734832 0.001265167 0.448576957
0.000000000 0.356736094 0.478051782
0.256673098 0.277925402 0.454522371
0.574446499 0.208601996 0.432890385
0.821632028 0.182163268 0.440101206
1.000000000 0.229095206 0.480328500
0.282732278 0.529411495 0.511701524
0.446300089 0.536242783 0.541809082
0.662365377 0.545098066 0.610499561
0.813662410 0.539152563 0.562049508
0.991397679 0.562049091 0.601012170
0.692219973 0.815306842 0.859076560
0.731309116 0.818975151 0.890069664
0.825426996 0.844402313 0.987096846
0.870208859 0.823782265 0.888677835
0.990765214 0.755091786 0.760531366
0.890195906 0.962302148 0.993927896
0.901834309 0.967362165 0.998987913
0.937381148 0.970651567 0.998734951
0.952688098 0.969765961 0.995698690
0.967109084 0.957368672 0.995319188
0.001265006 0.309929967 0.925237238
0.002909714 0.122707106 0.900695503
0.518406391 0.000632584 0.817963243
0.799620271 0.000000000 0.779759645
0.994307399 0.000000000 0.767615616
0.000632584 0.495256096 0.939278483
0.002909714 0.398861408 0.906261802
0.502466619 0.204680815 0.836938739
0.796963871 0.137381405 0.786590397
0.989373803 0.199620634 0.772802174
0.000000000 0.716634750 0.936242759
0.000000000 0.700948358 0.937255085
0.514611244 0.588487923 0.883997798
0.787223399 0.478684783 0.812776804
0.972801983 0.512839794 0.795066655
0.181404337 0.758380890 0.833649397
0.346742868 0.753573656 0.835040808
0.612523496 0.755344689 0.860341489
0.815560102 0.793801665 0.957495570
0.925996244 0.798355222 0.921315432
0.805060148 0.964326382 0.994687021
0.843010545 0.954458833 0.998735011
0.921315312 0.971410811 0.999367416
0.969386518 0.978494585 1.000000000
0.972043216 0.968121350 0.997343183
0.000000000 0.407969981 0.997090161
0.002277292 0.339658290 1.000000000
0.001897590 0.145351276 0.997976005
0.675775111 0.000000000 0.998987854
0.938266754 0.001265167 0.998987854
0.001897579 0.528526127 0.999367416
0.000632580 0.480202705 0.999367416
0.003288997 0.317141265 0.999367416
0.669956148 0.235800281 1.000000000
0.934977591 0.157495350 1.000000000
0.235547066 0.770525098 1.000000000
0.385199040 0.753193974 0.998987854
0.503226042 0.661100388 1.000000000
0.689943254 0.534218788 0.997343421
0.932068050 0.456799686 0.997343421
0.476154357 0.900189996 0.987223148
0.541176558 0.893611968 0.996710598
0.681846976 0.892346621 0.997090161
0.794433951 0.834535122 1.000000000
0.924477935 0.733333290 0.996711016
0.425300747 0.948007643 1.000000000
0.466793329 0.946995497 0.998102427
0.629474878 0.943453372 0.996963859
0.883617580 0.957874656 1.000000000
0.971157610 0.968501091 0.996078014
0.000000000 0.465401828 0.998734832
0.000000000 0.430233806 0.997343183
0.002656833 0.303352147 1.000000000
0.482858926 0.242378086 0.998355269
0.834155679 0.162428617 0.997343183
0.004301121 0.547501564 0.997090101
0.001644708 0.525616646 1.000000000
0.000632584 0.437065125 0.998102427
0.514484406 0.361290514 0.996457875
0.842757642 0.296647668 1.000000000
0.431751758 0.751802802 0.999367416
0.453763306 0.737381041 1.000000000
0.508412182 0.683744848 0.999367416
0.623782396 0.595319271 0.999367416
0.856546760 0.526375353 1.000000000
0.692472756 0.926249027 0.994813144
0.723212838 0.917520583 0.998734832
0.782669365 0.907147527 0.998987854
0.802150488 0.855154991 1.000000000
0.899050832 0.766603112 1.000000000
0.762428641 0.977862000 0.997343183
0.777608752 0.983301938 0.995698869
0.834914565 0.979127109 0.998102427
0.913851976 0.981783986 0.998987854
0.966350675 0.968753815 0.998734832
