Assets/Shaders/EldamarStudio/100 Sci-Fi LUTs Pack/LUTs/cube/Hatilde LUT.cube
DOMAIN_MIN 0 0 0
DOMAIN_MAX 1 1 1
LUT_3D_SIZE 32
0.003922000 0.000000000 0.000000000
0.037318386 0.000000000 0.006072000
0.075015768 0.000000000 0.007843000
0.115749322 0.000000000 0.009108162
0.157874644 0.000000000 0.012144452
0.197343796 0.000000000 0.015180064
0.241872311 0.002530322 0.018216323
0.287413090 0.002277292 0.021252289
0.331436098 0.000000000 0.025047194
0.370904505 0.000000000 0.031119972
0.419101745 0.000000000 0.034282129
0.457558244 0.000000000 0.039341994
0.494370282 0.000000000 0.046552639
0.536369085 0.000000000 0.055913996
0.572801828 0.000000000 0.068057984
0.611638367 0.000000000 0.080202602
0.651107192 0.000000000 0.090828799
0.689943135 0.000632576 0.102466553
0.726375997 0.003668965 0.123718977
0.760025382 0.001138643 0.133839354
0.797216713 0.000000000 0.146742731
0.833649278 0.000000000 0.160910994
0.864009976 0.000000000 0.172928497
0.894370854 0.000000000 0.182036906
0.927008271 0.000000000 0.193421990
0.959013283 0.000000000 0.206957653
0.985831976 0.000000000 0.221631989
0.994939566 0.000000000 0.233775988
0.996078014 0.029221769 0.253889799
0.997849226 0.064389341 0.269828945
1.000000000 0.099936560 0.281973213
1.000000000 0.133332998 0.294117987
0.025174389 0.024288775 0.024288775
0.037318386 0.024288775 0.015180387
0.081467539 0.030740000 0.014800613
0.118532538 0.035926387 0.012650161
0.152941093 0.039088938 0.013662547
0.200379416 0.036432773 0.027324840
0.244908586 0.028842453 0.020240452
0.287160099 0.029854707 0.024541706
0.329158813 0.024288584 0.031119775
0.370904505 0.006071997 0.037191972
0.416192591 0.000253002 0.040354129
0.460594893 0.000000000 0.041366000
0.499304414 0.000000000 0.048829637
0.539911449 0.000000000 0.061985999
0.581910193 0.000000000 0.074129984
0.615939140 0.000000000 0.086274602
0.651106834 0.000000000 0.098418988
0.687539279 0.000632576 0.109677374
0.726375997 0.003668965 0.123718977
0.762808740 0.001138643 0.133839354
0.800253093 0.000000000 0.148639992
0.836685658 0.000000000 0.162934750
0.867172837 0.000000000 0.173560992
0.900442839 0.000000000 0.197217301
0.930803597 0.000000000 0.206325084
0.959266365 0.001391672 0.214926988
0.983301580 0.008602446 0.225173682
0.994939566 0.036432773 0.239847988
0.996078014 0.065654546 0.254648805
0.997849226 0.093738154 0.269828945
1.000000000 0.121568739 0.284629583
1.000000000 0.148513392 0.303225607
0.059329774 0.050727770 0.048576996
0.065022543 0.055028774 0.041619383
0.083617769 0.057179000 0.036812000
0.129664540 0.061226934 0.029980775
0.162555084 0.065401547 0.025047548
0.204047874 0.071220711 0.033143938
0.250094950 0.067425996 0.038836453
0.293991387 0.063251317 0.033017065
0.333206981 0.064263448 0.040860415
0.372928768 0.049715344 0.049715776
0.414041817 0.040733546 0.050727677
0.459582955 0.032637808 0.057811283
0.502213955 0.027704034 0.062745057
0.542441308 0.022896806 0.076154545
0.581151009 0.017204547 0.084503531
0.620746553 0.012902999 0.094496831
0.655661166 0.006831004 0.108159415
0.689690053 0.003036009 0.121568561
0.726122975 0.001518195 0.135230795
0.760657966 0.003289417 0.142441362
0.795192957 0.004048030 0.149652004
0.834155560 0.006324997 0.166856259
0.868311465 0.009234495 0.179759741
0.905755937 0.019354772 0.200000033
0.930423796 0.032258321 0.210752696
0.956609905 0.041998960 0.222643644
0.979127049 0.052119315 0.232510835
0.994560003 0.077292956 0.247691199
0.996078014 0.099936545 0.260720819
0.997849226 0.126248926 0.277672380
1.000000000 0.148387194 0.290575504
1.000000000 0.170145541 0.308032781
0.093738161 0.086907312 0.072865322
0.103099376 0.082858995 0.074383318
0.113978542 0.088045388 0.070461541
0.140290484 0.091081321 0.061100323
0.181277245 0.087666161 0.047438227
0.215939015 0.094497159 0.042504773
0.258696944 0.100316316 0.051865999
0.298798233 0.103984997 0.058064613
0.341303051 0.103984997 0.054269325
0.378747851 0.101454675 0.063377969
0.418090016 0.093864456 0.066413999
0.459076583 0.086021416 0.072486058
0.504617691 0.078052156 0.083870672
0.546995401 0.066919446 0.095635898
0.584439993 0.059835583 0.101708151
0.618216217 0.053130869 0.106388509
0.657432377 0.050347641 0.121062502
0.693864942 0.039468646 0.134977728
0.727893829 0.033396643 0.148892984
0.766350567 0.035673670 0.156989157
0.799746871 0.037444733 0.165591165
0.829095304 0.040480603 0.172675297
0.866666794 0.046552621 0.189879984
0.902719915 0.060594387 0.205818996
0.933586240 0.072991721 0.218722150
0.957368612 0.088804960 0.226438805
0.977609038 0.107021250 0.241619229
0.995066166 0.121442132 0.256799579
0.997343183 0.140923277 0.268058002
0.996584058 0.159645647 0.282479227
0.999620438 0.179126844 0.300696015
1.000000000 0.196963996 0.313599139
0.122580543 0.132827535 0.099051543
0.141176105 0.116887860 0.110816091
0.152940869 0.114737093 0.112966314
0.169892251 0.119923703 0.104743637
0.203668177 0.122960091 0.086148091
0.234028950 0.116888091 0.061859321
0.272232652 0.122201093 0.066666417
0.309424222 0.133965537 0.077039704
0.344718188 0.144591644 0.084250554
0.387223005 0.144591644 0.078178555
0.426818609 0.140290633 0.084124096
0.466287225 0.135357097 0.091840804
0.506514847 0.129285097 0.101328440
0.551802993 0.123466119 0.115749091
0.591397822 0.120429769 0.121821828
0.622390807 0.116508193 0.124984547
0.655408025 0.114610821 0.133713186
0.694244504 0.116129093 0.152435511
0.730676591 0.110057093 0.161543161
0.773940504 0.111954287 0.170651361
0.812270701 0.113851637 0.182036534
0.842757702 0.114104763 0.193168670
0.864642501 0.117267624 0.202530041
0.895509303 0.128905639 0.214927092
0.927387834 0.136116087 0.228968814
0.957242191 0.144591868 0.240986660
0.982542455 0.155977577 0.250727534
0.997722864 0.159013182 0.265907884
1.000000000 0.176090881 0.276154250
0.998608351 0.194813401 0.288424700
0.996584058 0.211385459 0.303731620
0.999620438 0.226565093 0.321948439
0.162048921 0.160151929 0.138519928
0.183301315 0.160151929 0.147628322
0.195445642 0.154965028 0.152941108
0.207084030 0.157241866 0.149905026
0.227956951 0.162428468 0.137761250
0.264389724 0.165464863 0.116508864
0.289689869 0.149272859 0.099810414
0.320303410 0.150917158 0.096268162
0.353447020 0.161290124 0.098292097
0.393294990 0.171916798 0.105502933
0.432890624 0.177735806 0.113978796
0.472359240 0.179759532 0.120556861
0.509550631 0.177861869 0.124857925
0.545730233 0.172042891 0.127893865
0.588234901 0.169007272 0.133965865
0.625426590 0.173181728 0.147248790
0.660341382 0.174193740 0.155344933
0.697280169 0.174067229 0.164579570
0.733712971 0.170777857 0.173687920
0.767362356 0.170271859 0.182795525
0.804680526 0.174572796 0.195698738
0.838583291 0.176596925 0.208349064
0.867678881 0.174952790 0.217710420
0.904110968 0.181024805 0.232890844
0.932700932 0.185831502 0.245287865
0.958254635 0.192156523 0.255154908
0.979506850 0.201770991 0.262744993
0.994686484 0.210626334 0.275015503
0.999240875 0.216318786 0.287539721
1.000000000 0.228462830 0.299177825
0.998608351 0.240733594 0.311827898
0.996584058 0.250853866 0.324984074
0.198987633 0.200126633 0.172928318
0.212650344 0.195066646 0.174446389
0.233902723 0.195066646 0.190006554
0.245793954 0.193674967 0.194939807
0.260088623 0.196837410 0.190132767
0.283617854 0.199873254 0.173181385
0.312460303 0.200379312 0.154459313
0.333459705 0.180518612 0.127767235
0.362555414 0.180771410 0.118026413
0.402023822 0.191144973 0.127134800
0.438962609 0.202529982 0.131182536
0.472359508 0.212650508 0.142315179
0.509171307 0.220619962 0.149399325
0.543706059 0.222896963 0.152688324
0.577102780 0.217584059 0.158760309
0.622011364 0.212144643 0.164832309
0.660341442 0.214674637 0.178114995
0.698418498 0.215307057 0.187476143
0.736748636 0.216065675 0.198482290
0.770398736 0.218342960 0.200000301
0.801897347 0.222137958 0.207210630
0.835040927 0.225173831 0.218469441
0.865401626 0.222264320 0.227577791
0.897027314 0.223529324 0.237950593
0.928905308 0.229601309 0.253130943
0.953700006 0.234281972 0.265527964
0.973940372 0.242251888 0.274383068
0.989120543 0.251359761 0.284503311
0.998734832 0.257811308 0.304237664
0.998228788 0.262112528 0.314611197
0.998355269 0.273750603 0.325996310
0.998608351 0.287792325 0.338140309
0.238709390 0.242631391 0.211258397
0.254143149 0.241492689 0.211258397
0.266160756 0.233143687 0.219228253
0.287413150 0.234408855 0.241239861
0.300695777 0.234788403 0.246552646
0.316382110 0.236559168 0.236432582
0.337254703 0.240354106 0.217077792
0.361290097 0.237065107 0.195572391
0.380265802 0.216571614 0.159139603
0.414421201 0.217710182 0.154965177
0.446046740 0.219860703 0.156609520
0.483364791 0.233649507 0.164073214
0.513725579 0.246932626 0.175079346
0.548639774 0.259582698 0.181657404
0.579000533 0.261859685 0.187729403
0.618089616 0.262365699 0.193801388
0.663630843 0.259329677 0.201391593
0.702087224 0.258064687 0.210879117
0.739531755 0.258064449 0.218975648
0.771790087 0.259456038 0.221631989
0.806578398 0.262745380 0.230360687
0.837950528 0.267805248 0.237444818
0.868564188 0.266286910 0.246300176
0.894370854 0.267805099 0.252371818
0.924731016 0.270714402 0.264389664
0.953700006 0.276786357 0.278178364
0.974952400 0.282353044 0.290828466
0.991271138 0.289183944 0.302213848
0.996204793 0.297280103 0.313725531
0.999873519 0.301580876 0.329538167
0.995951772 0.308159262 0.340417564
0.996711016 0.325616419 0.353320688
0.282732189 0.285136193 0.256040275
0.298671871 0.286653787 0.256040275
0.311954528 0.281973183 0.264010072
0.323086470 0.276913255 0.273118258
0.345097840 0.278431654 0.299683660
0.359140038 0.277293205 0.299684018
0.372549087 0.281594098 0.286021948
0.391650885 0.283365190 0.262365788
0.414421290 0.276534110 0.235800087
0.435673714 0.258317322 0.199367300
0.461227059 0.248703286 0.190259293
0.492852330 0.251486450 0.191777349
0.529664397 0.265148640 0.198608637
0.559266210 0.280582070 0.207463995
0.588108897 0.293738186 0.213535994
0.624161899 0.303352088 0.223403081
0.664389551 0.307906270 0.230234191
0.708665490 0.308538675 0.237444997
0.742314994 0.302846164 0.237444997
0.773687601 0.302340180 0.241745830
0.806325376 0.303478807 0.249335736
0.840228021 0.305756062 0.264010131
0.873624384 0.308665186 0.273244977
0.897406816 0.311069012 0.278178185
0.924731016 0.314863920 0.286527663
0.952940941 0.319291174 0.297154069
0.979254007 0.324857265 0.307780027
0.997722983 0.327893645 0.321948320
0.999240935 0.333965927 0.332195103
1.000000000 0.342568070 0.341809064
0.999747038 0.346109658 0.354079574
0.993674994 0.361290097 0.369260013
0.331308991 0.327641010 0.307653487
0.340417385 0.324604601 0.307653487
0.354206294 0.323971987 0.318406284
0.366603643 0.325996011 0.325743318
0.378495038 0.330044061 0.327008069
0.405819416 0.320936441 0.348260462
0.412270695 0.322327673 0.348260850
0.424161911 0.325490206 0.331309378
0.444782108 0.325110912 0.302592933
0.472106487 0.316002518 0.269196510
0.493358821 0.297786474 0.238583505
0.516887963 0.288172483 0.223656222
0.545224369 0.288678348 0.218722507
0.577482998 0.298798084 0.219608009
0.598735392 0.317014813 0.225680009
0.629981279 0.332574159 0.243769795
0.665148854 0.342820883 0.256799489
0.702593565 0.348007888 0.261732996
0.742062032 0.351043522 0.261733025
0.775711417 0.350917011 0.270082384
0.807083964 0.350917011 0.275142252
0.836685658 0.351043522 0.282732129
0.864515960 0.351170003 0.297532976
0.897912443 0.351170003 0.309677005
0.926248789 0.355850488 0.316888034
0.952308297 0.361795992 0.323213488
0.976217628 0.367362082 0.329032421
0.997469962 0.370398432 0.332068056
0.997343183 0.370777994 0.348893166
0.997975767 0.380012691 0.363061428
1.000000000 0.391144872 0.375205457
0.999746978 0.394686520 0.387475997
0.374066740 0.370145738 0.350537747
0.383175135 0.372928351 0.353446871
0.394433737 0.369892508 0.355597645
0.406325012 0.370398462 0.365212023
0.417330950 0.374825746 0.371410608
0.442125678 0.378367782 0.390132666
0.456799746 0.374320179 0.401265055
0.467552304 0.376596868 0.396458030
0.482985735 0.378873855 0.376723349
0.499557376 0.376217246 0.347627968
0.521062732 0.364199728 0.317140728
0.540290833 0.343959481 0.284756482
0.561669528 0.330044210 0.264010102
0.587729156 0.324730873 0.251865894
0.616951406 0.332320958 0.255281746
0.643010795 0.350537747 0.261353731
0.676913381 0.369259924 0.274004042
0.710815966 0.382922441 0.282100171
0.738899171 0.390512645 0.288930893
0.772802234 0.399114281 0.300062895
0.808096349 0.399493754 0.307400465
0.839468956 0.398481876 0.310436606
0.866793334 0.396584630 0.315876216
0.894623816 0.396584630 0.325236857
0.921188831 0.396584630 0.335104138
0.950663984 0.402782917 0.343200624
0.977482855 0.410372853 0.350790858
0.991524398 0.415813029 0.356230289
0.994180977 0.416192591 0.364579558
0.996710896 0.417963386 0.382036805
1.000000000 0.425932825 0.395572484
1.000000000 0.430992723 0.405692756
0.414547741 0.418722242 0.391018242
0.421631902 0.417710364 0.387982100
0.434914738 0.418469250 0.403162271
0.444528759 0.417963326 0.409993470
0.454016507 0.420619488 0.420240343
0.475015849 0.423402488 0.435167760
0.499304235 0.425932795 0.455913812
0.513092935 0.427830487 0.461733192
0.525237322 0.429727823 0.450347781
0.533586502 0.428463012 0.424288213
0.548387110 0.426944762 0.387982249
0.571663737 0.416824490 0.359645724
0.589879751 0.392156750 0.323972046
0.609487474 0.371536970 0.297153473
0.629221797 0.358127743 0.284250677
0.667299032 0.373813868 0.289690256
0.693105638 0.385958254 0.294244051
0.725616813 0.403415561 0.301707864
0.751296580 0.415306985 0.309424549
0.775838077 0.430486917 0.319291264
0.807337403 0.441492736 0.329537988
0.839468956 0.441998750 0.336749136
0.865907729 0.440227985 0.340038240
0.895129919 0.442125231 0.347248614
0.922201276 0.442125231 0.356356800
0.949272573 0.442125231 0.365464807
0.978495002 0.447817504 0.374066979
0.990638971 0.450853884 0.380138993
0.996204972 0.455660969 0.390892088
0.996204972 0.457432181 0.400000006
1.000000000 0.462239116 0.415686190
1.000000000 0.469449759 0.425933242
0.452878267 0.468057930 0.431625277
0.458950281 0.465022027 0.430107266
0.468058407 0.464136630 0.436559051
0.481720656 0.466540098 0.454016268
0.488551676 0.468816817 0.466539830
0.505249619 0.468057930 0.479443520
0.528778911 0.471726596 0.501707911
0.551802337 0.476407260 0.517899990
0.566223860 0.480961263 0.519418120
0.570398748 0.478305101 0.497785926
0.578747630 0.479949385 0.462365687
0.596711099 0.477166325 0.428716004
0.619861305 0.468057930 0.396837622
0.637571335 0.437191874 0.356862456
0.649715304 0.407210886 0.326375663
0.679063559 0.398861647 0.315876007
0.712460339 0.411005646 0.317014426
0.736748934 0.418342620 0.321315199
0.763567328 0.433017015 0.327893913
0.785325766 0.448703289 0.339025915
0.808855176 0.463124484 0.344718397
0.839215994 0.477293015 0.355850756
0.863883495 0.478304982 0.365338624
0.893232226 0.482352704 0.373434633
0.920177281 0.484250277 0.379506916
0.948893011 0.485388935 0.388614953
0.977229834 0.485388935 0.396204650
0.990638971 0.485388935 0.401011646
0.997469962 0.490701884 0.412397295
1.000000000 0.496141464 0.425047398
1.000000000 0.497406662 0.435040861
1.000000000 0.505502999 0.447185636
0.490070015 0.513852060 0.475395083
0.495382994 0.511574745 0.481214106
0.501708031 0.510689139 0.485135823
0.510563076 0.512713075 0.491967052
0.521948159 0.518152654 0.503478587
0.534092128 0.515117049 0.518658996
0.554079413 0.518912077 0.541682661
0.575584829 0.525743127 0.560658097
0.594054282 0.529791057 0.570272088
0.606199026 0.529791057 0.567235708
0.610120237 0.529791057 0.538773119
0.622517467 0.527767301 0.506135404
0.641366661 0.523213446 0.470714509
0.662619114 0.513852060 0.432005078
0.674763083 0.477419347 0.386463940
0.695762038 0.447438329 0.357621372
0.719291449 0.433523059 0.341429114
0.743327022 0.439848036 0.337507576
0.767615080 0.451992095 0.346616000
0.789120436 0.464389741 0.360025376
0.810625792 0.476534039 0.366983026
0.833902299 0.490196049 0.372043163
0.863883495 0.508412063 0.386844009
0.890954912 0.514990091 0.398735046
0.915749550 0.519291341 0.404048324
0.942820966 0.522833705 0.410373330
0.971410096 0.525111079 0.418722063
0.989626825 0.525111079 0.418722063
0.997469962 0.529918075 0.429348648
1.000000000 0.535737038 0.442757815
0.999240994 0.540417433 0.457052231
0.999240994 0.537381053 0.469197005
0.535610378 0.562428772 0.533080220
0.532573998 0.568500757 0.536116600
0.540037751 0.568374217 0.539784849
0.551043510 0.568374217 0.546615779
0.564073324 0.570018768 0.557621300
0.567489207 0.572802126 0.561163664
0.589753211 0.569765866 0.586464047
0.613409221 0.578494489 0.613156021
0.632511258 0.586464226 0.633522987
0.639595389 0.581404209 0.643137574
0.648830295 0.581404209 0.622644126
0.656672955 0.579379976 0.589374065
0.669955611 0.577482402 0.553573728
0.686906993 0.574572742 0.517014503
0.708159447 0.562428772 0.486653775
0.722707212 0.525995970 0.436306238
0.739784956 0.492978990 0.398608655
0.758127928 0.474762797 0.375458628
0.779759824 0.476280838 0.373940349
0.801265180 0.491208166 0.374699384
0.824414849 0.503858387 0.387349725
0.846046627 0.516002417 0.399367541
0.866919875 0.529664397 0.414168388
0.888172328 0.547881186 0.420240402
0.910689652 0.556735933 0.425300688
0.936748922 0.564579010 0.433902681
0.965591073 0.570398450 0.446805477
0.986590445 0.567615747 0.455154806
0.996837437 0.567615747 0.465780765
1.000000000 0.570651591 0.476154149
0.997343421 0.576976418 0.487412781
0.990132570 0.585957766 0.499556988
0.573940575 0.615812540 0.581151366
0.566097200 0.614674330 0.586591005
0.573813558 0.614294589 0.598229349
0.583174944 0.617836714 0.604807019
0.596837342 0.620493412 0.615432918
0.612017751 0.617457509 0.622517288
0.620746613 0.625047207 0.633775890
0.643390298 0.620366573 0.656167030
0.665401757 0.627956808 0.682732463
0.678051770 0.628462791 0.706388533
0.684629858 0.630613565 0.700948656
0.687665999 0.630613565 0.673624575
0.696774065 0.627956748 0.639089227
0.710689604 0.626438618 0.604174256
0.727640390 0.620746434 0.571663320
0.748892784 0.603794813 0.529285431
0.762555361 0.571916223 0.483744591
0.774952769 0.538393259 0.443263859
0.787349999 0.513598800 0.411891401
0.813409328 0.513093114 0.409234583
0.834661782 0.522580802 0.407336831
0.858444035 0.535736799 0.419481128
0.879443765 0.550663829 0.434408486
0.898418903 0.564326584 0.442757785
0.915117264 0.580265522 0.455661088
0.934724927 0.592409432 0.461986452
0.959519088 0.603035808 0.475648373
0.980771422 0.605692387 0.490449041
0.993800998 0.607716739 0.502213538
0.995825410 0.611258745 0.509044766
0.996963978 0.613156199 0.517773569
0.995445788 0.617710412 0.529917598
0.604300976 0.664389372 0.634282351
0.605819225 0.661353767 0.643390357
0.605692565 0.659835815 0.646806121
0.614041388 0.659329414 0.656926155
0.623402715 0.666793168 0.667045891
0.642378151 0.662998199 0.680708289
0.656546474 0.665022075 0.692346394
0.669196904 0.668943405 0.706261575
0.688931286 0.665148437 0.725237250
0.706388354 0.670461535 0.755597651
0.714484215 0.676660001 0.761669874
0.716508210 0.677672148 0.751043558
0.718785226 0.676533818 0.720683277
0.730676889 0.673244596 0.687918723
0.747121930 0.668943763 0.655787110
0.764073193 0.658443987 0.623402953
0.782289565 0.643263578 0.568754196
0.794434130 0.615306616 0.530550241
0.802277207 0.576343775 0.484250754
0.823276341 0.553320527 0.457432181
0.843769729 0.546869159 0.442251831
0.864010274 0.553953290 0.440227568
0.887413502 0.570524871 0.453004360
0.909804225 0.584060967 0.466287076
0.927261293 0.595445871 0.478431284
0.941049993 0.609234512 0.492220342
0.960531056 0.623276353 0.503479242
0.983807385 0.630360186 0.522707343
0.992536187 0.642884016 0.532574356
0.997343242 0.649209380 0.542441189
0.993422031 0.654395998 0.550790548
0.996963978 0.652625382 0.564832151
0.631119132 0.704996526 0.693105698
0.640733719 0.703225911 0.705882072
0.644908547 0.701707959 0.707906246
0.648070931 0.702340364 0.708033085
0.652245104 0.705376089 0.711448252
0.667172432 0.705629110 0.731435597
0.680455267 0.705629110 0.744465113
0.696268260 0.706261694 0.758253813
0.710183620 0.707020581 0.773054779
0.725364029 0.710056961 0.794307172
0.734724700 0.718279243 0.809361219
0.738393128 0.721947670 0.811132371
0.740670145 0.720176756 0.795951962
0.746995151 0.717394114 0.766350210
0.764073372 0.712081075 0.737127960
0.777988791 0.704237878 0.709044635
0.793801546 0.695509076 0.672612250
0.809614539 0.683365107 0.613915265
0.821758568 0.653004229 0.580518782
0.838203609 0.618975103 0.537507832
0.855154693 0.591397703 0.500695944
0.870714664 0.580645084 0.476787090
0.889057875 0.589753449 0.476660579
0.915370286 0.603921890 0.491334528
0.935230970 0.615180254 0.502466559
0.950663984 0.625679910 0.517140925
0.962808132 0.637824535 0.529285550
0.989500046 0.647058666 0.550158381
0.998102248 0.663630366 0.558760524
1.000000000 0.680328786 0.567868471
0.999494016 0.687033594 0.578620732
0.993421972 0.690069973 0.599873126
0.667551994 0.738393009 0.744718969
0.667551994 0.741429389 0.759898603
0.670714855 0.739658237 0.764073014
0.677293003 0.738140047 0.766350329
0.688677907 0.738772571 0.772169948
0.700821936 0.741808951 0.778241932
0.708158970 0.742061973 0.788108647
0.721568406 0.743706703 0.800758719
0.737255037 0.746489823 0.815180182
0.746616423 0.749525487 0.827704370
0.755977094 0.755470991 0.851865947
0.761037230 0.759772182 0.865022302
0.764958918 0.759139955 0.861227334
0.771283925 0.753826976 0.839215934
0.780392349 0.753826976 0.817963541
0.787855923 0.748513997 0.783934295
0.800759017 0.743706763 0.753067851
0.818722188 0.738013983 0.720177412
0.836938977 0.725869954 0.680708945
0.849082947 0.698292613 0.633396506
0.865527987 0.660721481 0.587223351
0.882479131 0.628842711 0.549272895
0.898165524 0.614041567 0.525237501
0.919417977 0.623149931 0.522201061
0.936622322 0.635040939 0.523213029
0.950663984 0.646932304 0.535357296
0.962808132 0.659076989 0.556610048
0.974952877 0.671220958 0.568754017
0.991018176 0.677798927 0.579000831
0.998102248 0.693991184 0.591398180
1.000000000 0.708032966 0.605186939
0.999494016 0.708285987 0.618089974
0.692852736 0.766224086 0.787982762
0.692852736 0.766477168 0.789247692
0.695002973 0.767362773 0.800126314
0.700569153 0.767488897 0.807084024
0.710815907 0.769006729 0.816572189
0.720556736 0.769639313 0.825047433
0.732700706 0.770145357 0.828589737
0.737634480 0.770145357 0.835547090
0.747881234 0.773561120 0.848829865
0.756989121 0.780645251 0.867046356
0.768880904 0.783807397 0.890828431
0.777988493 0.783807635 0.898924410
0.784819663 0.785325766 0.903478682
0.791777313 0.784693062 0.895382702
0.790765107 0.784693062 0.874130368
0.797470272 0.782289863 0.855281711
0.806578338 0.778115213 0.825680315
0.821631908 0.775079012 0.795825779
0.837697923 0.769386768 0.756356776
0.855913997 0.760025382 0.725237072
0.873750806 0.734598279 0.682352781
0.890828371 0.697406828 0.637571216
0.904490471 0.664769411 0.597343624
0.925742924 0.644655287 0.562429190
0.940164626 0.653763652 0.559392810
0.956230342 0.664009988 0.564452708
0.971663415 0.674762726 0.581151128
0.986084878 0.686907351 0.593295753
0.992915988 0.699051321 0.610752702
0.995319366 0.708918333 0.622011364
0.996204972 0.723592579 0.637950599
1.000000000 0.729285359 0.655787408
0.717140973 0.797343731 0.836179733
0.717140973 0.795445979 0.841872454
0.726881683 0.801138699 0.844529212
0.727387607 0.798608720 0.846046805
0.733206928 0.800126433 0.854143262
0.739278913 0.803162456 0.866287291
0.749019742 0.803162456 0.879822791
0.761163712 0.801517725 0.877925456
0.765717983 0.802023768 0.886021435
0.773687243 0.808855236 0.906135201
0.785705447 0.812144279 0.920809507
0.793928266 0.814926982 0.940290451
0.801897466 0.815306723 0.944844723
0.809740663 0.818595529 0.949399233
0.809993327 0.816951215 0.936369538
0.814168334 0.814547539 0.917520463
0.820240736 0.811511874 0.893232107
0.829728127 0.808475614 0.866793334
0.839848220 0.805439651 0.834914684
0.861606717 0.796837330 0.798102200
0.872232735 0.791524470 0.775331914
0.891461134 0.768247843 0.733839273
0.904870272 0.732195139 0.685894966
0.926122665 0.700822353 0.637571216
0.942441583 0.678811014 0.604554176
