Assets/Shaders/EldamarStudio/100 Sci-Fi LUTs Pack/LUTs/cube/Heonild LUT.cube
DOMAIN_MIN 0 0 0
DOMAIN_MAX 1 1 1
LUT_3D_SIZE 32
0.000000000 0.000000000 0.000000000
0.006072000 0.003036387 0.000000000
0.022896774 0.003922000 0.000000000
0.041619159 0.002656839 0.000000000
0.057178997 0.000000000 0.000379548
0.075395003 0.000000000 0.003415935
0.101201318 0.000000000 0.011511676
0.120303407 0.001644708 0.012397002
0.139279082 0.003162904 0.007843000
0.178747505 0.000126518 0.007843002
0.200758874 0.002909871 0.010752871
0.242251739 0.001897744 0.011765000
0.290449262 0.000000000 0.012903354
0.333207041 0.000000000 0.015433032
0.378747374 0.000000000 0.012397422
0.436306179 0.000000000 0.014168192
0.497027367 0.000000000 0.014168195
0.558380663 0.000632576 0.013029993
0.622137964 0.003668965 0.019102003
0.680329084 0.001138643 0.022390649
0.743706465 0.000000000 0.023529001
0.805439413 0.001012128 0.026565127
0.857052505 0.004048480 0.035167519
0.908665717 0.007084098 0.032131903
0.958001554 0.005566292 0.038203701
0.987097025 0.003922000 0.047311660
0.993169010 0.003415936 0.056925997
0.999240994 0.000379552 0.069069989
1.000000000 0.000000000 0.086527638
1.000000000 0.000000000 0.104743943
0.999114394 0.000885608 0.119417988
0.996078014 0.003922000 0.125489995
0.003036387 0.009108387 0.000000000
0.009108387 0.009108388 0.003036387
0.023782387 0.012144226 0.003036387
0.041619159 0.011764774 0.001771226
0.057558544 0.009108387 0.000000000
0.078431390 0.009108387 0.000379548
0.099177703 0.011638064 0.011005610
0.125490084 0.010499711 0.015686000
0.146109998 0.008476002 0.012397001
0.169639125 0.003162902 0.007843002
0.209108219 0.000126517 0.010752871
0.243263632 0.000885613 0.011765000
0.287412882 0.001138644 0.014041998
0.330676705 0.002783355 0.018722387
0.381783754 0.000000000 0.018469423
0.429727972 0.000000000 0.017836999
0.489437163 0.001518192 0.018722387
0.551043689 0.002403811 0.017204423
0.609993994 0.000632580 0.016065612
0.679317117 0.000885612 0.016571613
0.739911437 0.000000000 0.023149736
0.800379276 0.000000000 0.028589385
0.854269087 0.000885613 0.035420511
0.911701381 0.001012098 0.038203903
0.958760500 0.001771000 0.041998997
0.989879966 0.000885613 0.051739365
0.998228967 0.000885613 0.063504063
0.999240994 0.000379552 0.078178376
0.994687021 0.000000000 0.085009374
0.997469962 0.000000000 0.101707555
0.999114394 0.000000000 0.121694803
0.996078014 0.000885613 0.140670389
0.003922000 0.022517774 0.000000000
0.014295000 0.020366998 0.005186613
0.022517776 0.022517774 0.001771226
0.041998934 0.024288548 0.004301226
0.059329771 0.021758679 0.003542000
0.078810938 0.018216226 0.000000000
0.097912543 0.022897225 0.005818998
0.119164921 0.020999132 0.011385000
0.146236420 0.018216226 0.012144097
0.170018792 0.014927223 0.010246778
0.208601817 0.013915129 0.015053870
0.246046722 0.006831263 0.020113997
0.286527276 0.004174776 0.018090002
0.329791099 0.003922000 0.019860968
0.381404191 0.002783358 0.021758227
0.437065363 0.000000000 0.021758227
0.488678128 0.001518192 0.020240422
0.551170051 0.003289424 0.019608002
0.613409221 0.000253032 0.018089812
0.675775111 0.000000000 0.024288548
0.736116409 0.000000000 0.022390807
0.794307232 0.000000000 0.028463127
0.849082530 0.000000000 0.033270255
0.906767726 0.000000000 0.036306132
0.957495093 0.000000000 0.039468996
0.989120901 0.000000000 0.051106967
1.000000000 0.000000000 0.065275058
1.000000000 0.000000000 0.080455437
0.998988032 0.000000000 0.091966994
0.994686782 0.001771217 0.101580963
0.998734832 0.001265166 0.118152589
0.998228788 0.000000000 0.138646230
0.003922000 0.037697840 0.001265161
0.014800839 0.037191771 0.009867161
0.027324613 0.034661774 0.004807162
0.038962997 0.036433000 0.000000000
0.060215384 0.036433000 0.007210547
0.079317003 0.032131452 0.007337161
0.101328157 0.034914482 0.008855159
0.119923696 0.036938746 0.011638161
0.143453181 0.032384161 0.010879065
0.173813984 0.032384157 0.012903326
0.210372865 0.031119321 0.018848838
0.246552661 0.025047265 0.021125996
0.289816439 0.018216647 0.026059354
0.332827210 0.011006129 0.020366840
0.381404191 0.003922000 0.020366579
0.437824368 0.001518196 0.026059322
0.497786492 0.001518192 0.023276035
0.553067625 0.003289424 0.020240424
0.617963016 0.000253032 0.019608010
0.676660478 0.000000000 0.025427040
0.736116409 0.000000000 0.029475261
0.790765226 0.000000000 0.028463127
0.845161021 0.000000000 0.031625994
0.899430573 0.000000000 0.035800260
0.950284362 0.001265161 0.042631287
0.987349629 0.000000000 0.047564968
0.998987973 0.000000000 0.063756995
0.997470021 0.000000000 0.076660275
1.000000000 0.000000000 0.087918982
0.998228788 0.000506056 0.105122961
0.996963620 0.002656839 0.118152589
1.000000000 0.000000000 0.133332998
0.003922000 0.053257097 0.005439999
0.013409161 0.055913933 0.014927452
0.025679773 0.053257544 0.012523999
0.042378157 0.049335998 0.004174837
0.057558544 0.049715545 0.001517999
0.078810938 0.049715545 0.016698387
0.104743771 0.052245222 0.019608000
0.127893537 0.053257097 0.019608000
0.149525195 0.052877549 0.019987453
0.179885983 0.052877545 0.016951067
0.212396860 0.051486418 0.021884548
0.246932209 0.044781841 0.021884711
0.286780715 0.037571192 0.020746354
0.341176540 0.034282546 0.023529001
0.384060800 0.013662694 0.017710006
0.439342380 0.004174742 0.026059603
0.497786462 0.001518192 0.029095713
0.561417043 0.003289424 0.023655586
0.619101584 0.000253032 0.020619972
0.674762905 0.000000000 0.023529196
0.732068419 0.000000000 0.026185740
0.789626777 0.000379548 0.029222127
0.844402015 0.000379548 0.032511473
0.893737793 0.000379548 0.038836449
0.942314506 0.002277288 0.049082987
0.979759276 0.002530328 0.058443986
0.999746978 0.000000000 0.064515993
0.993674994 0.000000000 0.070587993
0.997469962 0.000000000 0.078557819
0.998608351 0.000000000 0.095382482
0.996963620 0.000000000 0.116634592
1.000000000 0.000000000 0.131815001
0.003922000 0.071473867 0.017583998
0.016066000 0.071473867 0.008475611
0.023402933 0.071979932 0.015812840
0.039848156 0.069702774 0.016318837
0.063630544 0.067931548 0.013661998
0.078810938 0.070967935 0.013661998
0.102592997 0.073497608 0.018722389
0.127387464 0.073244646 0.019608000
0.152941033 0.070714772 0.021125998
0.185957983 0.068057939 0.026059451
0.213408872 0.076786801 0.025932934
0.251865476 0.073750935 0.024920680
0.292852342 0.067172870 0.023023065
0.338140160 0.061606929 0.023529001
0.389753282 0.055534936 0.023529001
0.449462384 0.032511268 0.032131605
0.503099144 0.014800941 0.035168003
0.556103408 0.003289424 0.029728297
0.622137964 0.000253032 0.026691973
0.682605743 0.000000000 0.032005005
0.736622214 0.000000000 0.033775933
0.787729323 0.001012128 0.035294127
0.835294366 0.003415935 0.038583472
0.892978847 0.003415935 0.047691099
0.942314506 0.003415935 0.056293346
0.979759276 0.002530328 0.064515986
1.000000000 0.000000000 0.070587993
0.999746978 0.000000000 0.076659992
0.998987973 0.000000000 0.080075830
1.000000000 0.000000000 0.091208182
0.999493957 0.000000000 0.107020922
1.000000000 0.000000000 0.119671002
0.001391678 0.092220321 0.024667999
0.005946002 0.097280316 0.028209932
0.024541777 0.101581320 0.025553320
0.041366484 0.101075158 0.029727999
0.067552313 0.097659320 0.026438773
0.084882930 0.094243929 0.015686000
0.107653640 0.099809997 0.025806645
0.135230631 0.101201318 0.025553612
0.162808195 0.101328187 0.024667999
0.194433838 0.103605479 0.027198002
0.229601517 0.104617506 0.029981323
0.267046124 0.105629385 0.034029320
0.312966287 0.103478961 0.037064996
0.359898418 0.102087632 0.040227320
0.406957537 0.100569651 0.031119321
0.465780914 0.087286845 0.026312325
0.529411554 0.070967764 0.033143871
0.584819317 0.052625094 0.031373002
0.649715245 0.030613646 0.030234354
0.703352392 0.005059999 0.027957007
0.760278106 0.001265003 0.041618992
0.813535571 0.000000000 0.047438256
0.863503993 0.001391678 0.051992800
0.909171224 0.001391678 0.056293420
0.957748175 0.001391678 0.069955602
0.986590624 0.001391678 0.076786995
1.000000000 0.000000000 0.083238572
1.000000000 0.000000000 0.095382310
1.000000000 0.000000000 0.103858151
0.998228788 0.000000000 0.115749262
0.998355269 0.000000000 0.130803198
1.000000000 0.000000000 0.142947644
0.000000000 0.118405983 0.032384705
0.001391679 0.124478407 0.033523001
0.012397360 0.128905699 0.035294000
0.034914911 0.129917696 0.032763999
0.062239394 0.127260953 0.033523005
0.085515700 0.124984115 0.029727764
0.113725632 0.129032105 0.027450930
0.141302973 0.126881406 0.036306288
0.169386089 0.128399402 0.034028992
0.197090283 0.134471953 0.034028992
0.238203749 0.136369705 0.033649869
0.280328751 0.137634441 0.035420999
0.323972195 0.136875331 0.036939003
0.374572814 0.140164688 0.043010686
0.422896922 0.142947689 0.037824012
0.475521594 0.137507886 0.032131713
0.539278746 0.126881689 0.029095709
0.602529824 0.117267407 0.031373002
0.665274978 0.090955094 0.031373005
0.719544411 0.070208766 0.035167638
0.776344121 0.040227808 0.042125404
0.826944947 0.024035558 0.055281289
0.878810704 0.015306923 0.060594797
0.924351513 0.001644708 0.063630804
0.967488825 0.000000000 0.074130282
0.993548334 0.000000000 0.086527660
0.998861313 0.000506064 0.092093930
1.000000000 0.001644708 0.107273526
1.000000000 0.000000000 0.117140807
0.999873519 0.000000000 0.134851366
0.994180799 0.000000000 0.148639798
0.993422031 0.000000000 0.158507288
0.001517998 0.150284186 0.039974902
0.000000000 0.154838771 0.037697613
0.005566002 0.159519315 0.033776004
0.022011224 0.159519196 0.035799999
0.049715545 0.154585645 0.032005094
0.082732856 0.157621935 0.044149186
0.114105314 0.160911098 0.038836099
0.145856977 0.161037490 0.040100995
0.178494275 0.155724183 0.043137003
0.199746698 0.161796182 0.043136999
0.241239607 0.164959058 0.040986776
0.286780417 0.167994931 0.041492902
0.333080024 0.170271739 0.039975002
0.379633188 0.173561096 0.034915000
0.432258278 0.179633081 0.038456671
0.484629959 0.180012465 0.036685713
0.541555822 0.176976278 0.033649903
0.605186582 0.172169283 0.033649903
0.665527999 0.160531268 0.033649914
0.721441805 0.148387268 0.041239653
0.777608931 0.129032552 0.049968380
0.834535122 0.098419130 0.061353870
0.877166390 0.062998392 0.064769007
0.925110817 0.038836557 0.069702998
0.969892442 0.025174182 0.078052089
0.993548334 0.019734379 0.088804565
0.996078014 0.016698254 0.098419033
0.998861372 0.017963544 0.113345727
1.000000000 0.010373366 0.125489905
0.998481989 0.009867101 0.139658377
0.997976065 0.013662194 0.163061470
0.985832036 0.013662194 0.166097090
0.007589996 0.186717004 0.043010518
0.001517999 0.186717004 0.043010518
0.000000000 0.191271022 0.034282006
0.009361154 0.193421677 0.032764010
0.034535140 0.191018462 0.044149108
0.086148299 0.194054067 0.056293864
0.116635308 0.192030355 0.045667652
0.145856991 0.191018522 0.044022780
0.178494290 0.192157000 0.049209006
0.217963457 0.198228985 0.043137006
0.250853837 0.201391876 0.043137006
0.292852759 0.204427749 0.047058519
0.339532256 0.206324995 0.049462173
0.388741583 0.206957519 0.047059011
0.446426690 0.213029504 0.053130995
0.501455069 0.216698319 0.051865682
0.557495534 0.217963472 0.047311526
0.614295006 0.217710480 0.042757526
0.665907562 0.217710465 0.042757530
0.723466098 0.206072479 0.048323527
0.777229667 0.195825756 0.052624751
0.829222143 0.181657374 0.059076518
0.880202055 0.160152003 0.070841014
0.925743282 0.148007989 0.082985811
0.971410275 0.128400192 0.090196483
0.995951533 0.110689819 0.097912796
0.996078014 0.095635861 0.107526653
0.996078014 0.077419110 0.119671419
0.998861372 0.054775611 0.137254938
0.996457994 0.047311801 0.149778694
0.992410004 0.053763140 0.163946971
0.991903961 0.068311036 0.187349483
0.002024001 0.228968740 0.048955999
0.001770999 0.228968740 0.048955999
0.000000000 0.228968740 0.044654999
0.000000000 0.234787911 0.047944155
0.013535772 0.238330185 0.061226871
0.065148927 0.236305788 0.048071001
0.111701436 0.236811727 0.055155128
0.151170239 0.237444580 0.052498706
0.189373925 0.239468843 0.056799740
0.226692334 0.243390590 0.055028737
0.254522711 0.240733743 0.051865868
0.298039347 0.243770123 0.055913866
0.347881287 0.249082968 0.061985865
0.400759101 0.254142791 0.063503996
0.458444178 0.252245605 0.053636994
0.506514788 0.260720789 0.057305802
0.564199626 0.261733055 0.058317546
0.624667823 0.260974169 0.057684869
0.680834889 0.263250858 0.057684872
0.726881921 0.260468215 0.060468223
0.782163262 0.250600994 0.066413738
0.832764089 0.240480736 0.069449872
0.880075514 0.225553617 0.073877372
0.920050740 0.218975604 0.083238810
0.961037219 0.204554319 0.099936984
0.990005970 0.191524610 0.107147321
0.996078014 0.181910411 0.114231057
0.996078014 0.170904458 0.128779024
0.996078014 0.168627352 0.135610119
0.998861372 0.156989366 0.154585287
0.997976005 0.158380821 0.168247715
0.997976005 0.169513226 0.182415992
0.002024256 0.273497760 0.055028513
0.000000000 0.281593740 0.055028513
0.000000000 0.277545750 0.056799248
0.000000000 0.280075759 0.051992409
0.000379548 0.286906928 0.064136714
0.025680311 0.283870548 0.054142997
0.102593578 0.285388738 0.060214989
0.146489650 0.287033439 0.058064707
0.194687098 0.287792563 0.058823999
0.239974722 0.287033468 0.058823999
0.277798861 0.286274344 0.061986379
0.313219726 0.291334510 0.062997989
0.361796528 0.292093873 0.064515993
0.413915277 0.297659725 0.066793032
0.464515954 0.301707655 0.063504264
0.520683050 0.306261688 0.057305802
0.566223860 0.309297681 0.061859995
0.626312375 0.305629492 0.064769253
0.685388923 0.304490805 0.064769261
0.733965814 0.303984851 0.069576353
0.779506922 0.300948739 0.074509993
0.828716099 0.293105483 0.081594124
0.872358978 0.283238500 0.084883243
0.917520523 0.277166486 0.092093900
0.963061213 0.270335466 0.103984982
0.988614619 0.257938057 0.119417973
0.998102248 0.251739532 0.124857247
0.998102248 0.245667547 0.135483414
0.998102248 0.242504746 0.146742508
0.996331036 0.238962755 0.156356469
0.997975767 0.234661728 0.172422245
0.997975767 0.240354478 0.180391997
0.006198998 0.336116552 0.062239353
0.000885613 0.344844908 0.061100997
0.001138644 0.345224559 0.064389870
0.002276998 0.343073905 0.064895511
0.001897547 0.348007470 0.062618896
0.003415935 0.344971269 0.061100706
0.067299351 0.344718248 0.066160642
0.146869391 0.346615970 0.073624358
0.196205273 0.350411236 0.067552537
0.255407780 0.345856577 0.067931995
0.303099006 0.345603555 0.069196992
0.345857024 0.347121805 0.073245026
0.387602925 0.351675898 0.072864994
0.435420662 0.349146277 0.067552023
0.479189992 0.356483132 0.070588410
0.536621988 0.360910535 0.069829643
0.591650844 0.364705473 0.070967987
0.638456762 0.361037284 0.075774990
0.697659612 0.354965299 0.075774997
0.744971395 0.353320926 0.082479641
0.790512204 0.352561831 0.088551633
0.837065279 0.348513573 0.094623633
0.876786649 0.342441529 0.103605494
0.921315432 0.336369276 0.110689640
0.965338171 0.328020245 0.123592630
0.992409647 0.322833925 0.134598255
1.000000000 0.314737499 0.146236345
1.000000000 0.311701715 0.152940914
1.000000000 0.309804082 0.166603297
0.999367416 0.308412582 0.178747594
0.997216642 0.304111540 0.193548217
0.997216642 0.304111540 0.200885266
0.011005969 0.422897041 0.071093999
0.002656613 0.425679654 0.068311356
0.001897742 0.425173789 0.071474001
0.004933871 0.424667925 0.074256904
0.007969548 0.427197605 0.071979545
0.004933936 0.424161971 0.075015932
0.046932258 0.422137827 0.074762970
0.122074470 0.420493096 0.078937635
0.201265275 0.420999110 0.086527899
0.271094501 0.427071095 0.089563511
0.325869739 0.427577138 0.085389003
0.375458747 0.426059335 0.085136227
0.421252638 0.422770470 0.085515775
0.467552096 0.419734061 0.080202028
0.507020414 0.422770441 0.083238415
0.564452350 0.423403025 0.086527772
0.623149693 0.424920887 0.091840796
0.677166522 0.426059097 0.099557064
0.728779078 0.419987082 0.099557079
0.771536827 0.416951418 0.106641330
0.815053523 0.415560037 0.114610992
0.858823299 0.414042056 0.120936029
0.907146990 0.407843560 0.127134532
0.943832815 0.401644319 0.136242941
0.980265558 0.391524047 0.152182028
1.000000000 0.383301675 0.166982740
1.000000000 0.380519003 0.176091060
1.000000000 0.377482623 0.185199440
1.000000000 0.376597047 0.201517999
1.000000000 0.378115237 0.216697991
0.999746978 0.380772054 0.230739653
0.999746978 0.380772054 0.251992047
0.001897590 0.462365389 0.077165999
0.001897590 0.462365389 0.077165999
0.000000000 0.467298776 0.078684345
0.001897745 0.470208526 0.082353160
0.005313422 0.472865224 0.084124275
0.011005931 0.472738713 0.087159917
0.002909673 0.479823112 0.080075666
0.085009404 0.479822934 0.077798583
0.192662969 0.476660192 0.080455266
0.265022516 0.472612232 0.083491534
0.314484775 0.475775093 0.095256008
0.370398760 0.478178352 0.095508993
0.422138274 0.476533771 0.097280212
0.470588475 0.471347183 0.098418787
0.525237143 0.468310773 0.101454392
0.571916401 0.468943357 0.106893972
0.623655796 0.470461547 0.109297559
0.674130261 0.471600235 0.112460136
0.725743473 0.465528220 0.117773816
0.763441145 0.465022236 0.112207107
0.812523901 0.462492049 0.122580312
0.859582543 0.461100370 0.133839116
0.901074946 0.459455878 0.142314911
0.943579793 0.450348258 0.151423320
0.980265558 0.444149077 0.167362392
1.000000000 0.436811775 0.185578734
1.000000000 0.432384372 0.200379759
1.000000000 0.432131350 0.209487408
1.000000000 0.426438808 0.218595803
1.000000000 0.425173789 0.234914348
0.999114394 0.427577376 0.250094593
0.996710598 0.432384372 0.264136821
0.000000000 0.511448383 0.097659595
0.000000000 0.518659174 0.083238609
0.002150774 0.518659174 0.089689836
0.001138643 0.522960007 0.093232155
0.001518196 0.525237143 0.095509440
0.003542200 0.523213387 0.094497055
0.004174679 0.525996089 0.099430472
0.052624788 0.531815469 0.098544791
0.166476786 0.529538393 0.099303886
0.249209389 0.523466349 0.099051274
0.320429951 0.521315634 0.103604987
0.369007200 0.522327781 0.107652992
0.425553620 0.522706926 0.107652992
0.478178293 0.518405795 0.109424219
0.530676782 0.517520189 0.112460375
0.575711608 0.519291401 0.122706786
0.624288380 0.516255379 0.125742793
0.671600103 0.516635001 0.127640367
0.717900217 0.515875757 0.135483921
0.767615736 0.510562778 0.137634680
0.809740782 0.508665502 0.139152393
0.858823478 0.505629241 0.149778590
0.899683475 0.503984571 0.157495305
0.939911604 0.497153699 0.166603699
0.977861762 0.494876802 0.177988783
0.998987854 0.489057392 0.194560453
1.000000000 0.482479304 0.211259067
1.000000000 0.476786584 0.224162132
1.000000000 0.471473575 0.235673621
1.000000000 0.472485542 0.255407929
0.997343421 0.472865194 0.272865176
0.991271019 0.474383384 0.283491790
0.001518192 0.561543345 0.115875989
0.000000000 0.570651710 0.102213793
0.002150774 0.570272386 0.100316405
0.006452000 0.572802365 0.108159184
0.003795190 0.576091051 0.111827984
0.001518192 0.575332105 0.112207249
0.001518192 0.574320257 0.116761178
0.031372424 0.575838149 0.116761178
0.133080199 0.578115404 0.121315181
0.230233982 0.573561370 0.119038470
0.308285773 0.571916699 0.121821508
0.372042805 0.569386363 0.125869378
0.425174057 0.565970719 0.127008021
0.482226074 0.562934399 0.127640530
0.531309187 0.565464795 0.130676597
0.580265760 0.563313961 0.137887165
0.621252358 0.567868531 0.145477384
0.671094060 0.561163962 0.146109790
0.717140973 0.560657620 0.153446957
0.766476929 0.556862414 0.155471161
0.814294875 0.551169932 0.163441181
0.859835327 0.548134267 0.171537176
0.902719498 0.545098007 0.178874165
0.942188680 0.540417373 0.189373896
0.976343989 0.535863400 0.200759351
0.997469664 0.531688750 0.208728701
1.000000000 0.527008235 0.222896993
1.000000000 0.521948159 0.237065241
1.000000000 0.517014384 0.252625138
0.995445788 0.514990330 0.262998164
0.997216761 0.519291401 0.290322572
0.991271019 0.516888201 0.303225994
0.003922000 0.609487712 0.128019989
0.000885613 0.617330909 0.123339325
0.001518198 0.618849099 0.121568330
0.004554432 0.617204487 0.126502141
0.009867433 0.621758521 0.132194579
0.004301425 0.624035180 0.138013557
0.003289424 0.621378839 0.143453136
0.026186163 0.620620131 0.142314568
0.098797992 0.620620131 0.139025554
0.214168385 0.620620131 0.139025554
0.293991327 0.621252537 0.140670434
0.360151917 0.618595839 0.146363139
0.420872867 0.615180016 0.152561605
0.481340617 0.606324673 0.155344963
0.528399587 0.610879362 0.158001140
0.578115404 0.609234631 0.161543146
0.624288738 0.607336879 0.166729763
0.666287065 0.610879540 0.169765994
0.720935941 0.601771116 0.172801599
0.769386351 0.598228753 0.174319714
0.816065609 0.594560087 0.181277439
0.859709144 0.588867664 0.192789555
0.904996514 0.585832000 0.204680547
0.944465578 0.582795739 0.215812564
0.977735579 0.576850116 0.226691991
0.997469664 0.570019066 0.235926881
1.000000000 0.561922669 0.239468560
1.000000000 0.564705968 0.251359552
1.000000000 0.562428892 0.268184632
0.996584356 0.559898555 0.281214535
0.990638554 0.559266150 0.289690018
0.996710598 0.559266150 0.317014456
0.003921997 0.655029058 0.140164092
0.000885612 0.658064663 0.152308851
0.000000000 0.665907800 0.151929215
0.000253032 0.671220779 0.154459223
0.000759032 0.673371017 0.162555471
0.000759032 0.667299032 0.165591061
0.000253032 0.661986053 0.168880358
0.015053781 0.661100745 0.165591300
0.072485693 0.663124979 0.160531059
0.211132035 0.663124979 0.166350052
0.288677692 0.666034102 0.163440928
0.352687865 0.662745059 0.169007316
0.411764622 0.659202993 0.177862361
0.472233027 0.657938004 0.185705066
0.529917359 0.651865959 0.185705066
0.579380274 0.654016852 0.183554858
0.625174403 0.653257787 0.185832009
0.669323504 0.650348008 0.191018462
0.720935941 0.644276023 0.194054097
0.767236054 0.640733600 0.199873760
0.813029706 0.639594972 0.207337230
0.855534375 0.637064993 0.216698170
0.892852545 0.631372571 0.225933015
0.932320893 0.628336906 0.232005030
0.967235923 0.620746672 0.238583028
0.990638971 0.613282979 0.246552765
1.000000000 0.607463956 0.254649013
1.000000000 0.604427516 0.260720998
1.000000000 0.601897836 0.275268853
1.000000000 0.597090542 0.290702254
0.999240994 0.592409611 0.303352416
0.999746978 0.589627028 0.313978106
0.001138643 0.728400111 0.213535488
0.000885612 0.731435716 0.217330888
0.000000000 0.732321084 0.220873117
0.000000000 0.733206749 0.222264469
0.000000000 0.731309116 0.227957115
0.000000000 0.730044067 0.223782524
0.000000000 0.736622393 0.224288464
0.070714481 0.730170786 0.227071390
0.151928961 0.727134883 0.225553215
0.257179052 0.725111067 0.229601473
0.321821362 0.725237548 0.229727983
0.383554757 0.724225223 0.232764110
0.439342350 0.718912065 0.236559391
0.496015400 0.715117097 0.237824395
0.548639715 0.709045112 0.232763737
0.603921592 0.707780123 0.244781539
0.644149363 0.708918750 0.244022965
0.682226300 0.707147539 0.246300101
0.729538381 0.703225732 0.251486510
0.783934116 0.699937105 0.257305473
0.833270192 0.696900725 0.255787760
0.877546012 0.693991125 0.260468215
0.913599253 0.687919080 0.269450098
0.942441642 0.682226598 0.275522083
0.977356017 0.674636424 0.290702075
0.995446026 0.666919708 0.298798084
0.999493957 0.660847723 0.306514829
0.997216642 0.655534685 0.314864099
0.999873459 0.652498305 0.328905910
1.000000000 0.649462581 0.345857024
1.000000000 0.646173418 0.362934947
1.000000000 0.645035088 0.377735823
0.001897740 0.766350746 0.250727475
0.003794996 0.775079072 0.257558376
0.000000000 0.774066746 0.258443981
0.000000000 0.775331914 0.257179141
0.000000000 0.771157444 0.263251305
0.000000000 0.768121481 0.270841449
0.041745927 0.771916270 0.262238979
0.097659707 0.776090980 0.267172694
0.209234476 0.770777822 0.271473438
0.288172185 0.770019174 0.275648206
0.346236497 0.767995000 0.277672470
0.402909249 0.764073491 0.276027709
0.455281526 0.759898722 0.277545720
0.508159339 0.754332721 0.274509966
0.559772134 0.751549721 0.275015622
0.606198490 0.752182484 0.278178275
0.654775679 0.752182484 0.287286282
0.691081405 0.750917315 0.285641998
0.739152670 0.746615708 0.289183974
0.789247513 0.745477319 0.297153711
0.832511187 0.738646686 0.303225726
0.877039969 0.735610306 0.301201701
0.911954463 0.730676711 0.309044957
0.948134124 0.728146732 0.311574966
0.980012536 0.719797432 0.319164991
