Assets/Shaders/EldamarStudio/100 Sci-Fi LUTs Pack/LUTs/cube/Heonild LUT.cube
LUT_3D_SIZE 5
DOMAIN_MIN 0.000000 0.000000 0.000000
DOMAIN_MAX 0.903226 0.903226 0.903226
0.000000000 0.000000000 0.000000000
0.120303407 0.001644708 0.012397002
0.378747374 0.000000000 0.012397422
0.805439413 0.001012128 0.026565127
1.000000000 0.000000000 0.086527638
0.000000000 0.118405983 0.032384705
0.141302973 0.126881406 0.036306288
0.422896922 0.142947689 0.037824012
0.826944947 0.024035558 0.055281289
1.000000000 0.000000000 0.117140807
0.001897590 0.462365389 0.077165999
0.085009404 0.479822934 0.077798583
0.525237143 0.468310773 0.101454392
0.859582543 0.461100370 0.133839116
1.000000000 0.426438808 0.218595803
0.003922000 0.784566998 0.267932117
0.157368898 0.797343135 0.290448844
0.563820183 0.782669246 0.307906091
0.866919994 0.766982973 0.337634236
1.000000000 0.736875415 0.391903818
0.523592412 0.955724001 0.511574745
0.599620342 0.960025072 0.529917717
0.714104772 0.958506763 0.532320797
0.881973267 0.942694843 0.545983672
1.000000000 0.933585942 0.574193597
0.002277292 0.001644708 0.344085783
0.278684378 0.006198711 0.377103090
0.478051871 0.002277292 0.387349755
0.893864870 0.229601622 0.648197353
0.996331334 0.114737451 0.617710114
0.002277292 0.206704393 0.336496115
0.126249403 0.141302973 0.369260073
0.520177186 0.195319086 0.438330233
0.883365035 0.334092319 0.628715932
1.000000000 0.204680324 0.573561132
0.001644708 0.458443791 0.426312387
0.000000000 0.467678785 0.430613488
0.508538902 0.458823502 0.442757785
0.849968493 0.435546786 0.467046291
0.999367416 0.453510612 0.498165905
0.000000000 0.780645430 0.513219416
0.227830470 0.784566641 0.534851432
0.592662811 0.771916568 0.545983613
0.860468268 0.757115960 0.556482911
0.997722745 0.739911318 0.578747630
0.628842592 0.946995497 0.640733778
0.677419305 0.949904978 0.648577034
0.773687601 0.941682518 0.656799495
0.901581347 0.938393235 0.661353707
1.000000000 0.931182861 0.678431332
0.000632584 0.000000000 0.830360770
0.298165828 0.000000000 0.830360770
0.687160254 0.000000000 0.850601256
0.972801983 0.213029653 0.850600839
0.996710598 0.558760405 0.892346561
0.000000000 0.181530699 0.827451110
0.086400896 0.178368092 0.834281802
0.652878046 0.229474902 0.844275713
0.961416662 0.413535774 0.851866245
0.997343183 0.634788334 0.892093539
0.000000000 0.540037870 0.802783012
0.037824091 0.528652668 0.803795040
0.598482192 0.538267136 0.830233991
0.938519716 0.639595389 0.851486564
1.000000000 0.775584757 0.903604984
0.045793891 0.763314545 0.803162634
0.338899314 0.771916330 0.811258554
0.625932813 0.760404944 0.813915372
0.870967686 0.762049556 0.808728397
1.000000000 0.793547988 0.828083456
0.628209591 0.945983350 0.779759407
0.707653105 0.942947507 0.790765107
0.840480864 0.934851110 0.812017798
0.954206109 0.929285109 0.825933218
1.000000000 0.925742924 0.832890809
0.000000000 0.001012128 0.984439969
0.219481528 0.008096251 0.986970007
0.551549494 0.106514640 0.980518997
0.850221157 0.322960109 0.979506850
0.997976005 0.554079652 0.971663117
0.000632580 0.251233399 0.973181605
0.249082655 0.274130404 0.974952579
0.581657112 0.337254941 0.976217747
0.855408132 0.465021819 0.968374550
0.998102248 0.629095316 0.972042799
0.419608027 0.567236066 0.961922705
0.498671651 0.571537137 0.961290121
0.682352960 0.602277279 0.964199841
0.896015167 0.660721123 0.959518969
0.996710598 0.755217910 0.966729999
0.485895127 0.748260140 0.946110129
0.576597333 0.756736100 0.943580151
0.760151505 0.777988374 0.938899279
0.931688905 0.804174244 0.951044023
0.997722685 0.871220946 0.961923122
0.699557066 0.923466086 0.947122216
0.740670323 0.927008212 0.945603907
0.821884632 0.931941926 0.944591761
0.959898770 0.927007794 0.926628828
0.998734832 0.927134693 0.937761128
0.119670734 0.189879626 0.997469962
0.287539691 0.214421317 0.996710837
0.517267406 0.287918776 1.000000000
0.760658145 0.416319132 0.995825291
0.963566959 0.569006801 0.996078014
0.300569326 0.350284666 1.000000000
0.398861319 0.369892359 0.998734832
0.589879811 0.422896683 1.000000000
0.792156696 0.518279493 0.997976005
0.981277823 0.626438975 1.000000000
0.575584769 0.596964240 0.997343183
0.617836893 0.611005545 0.996457696
0.731055915 0.635546982 0.999367416
0.872738779 0.683618069 0.998987854
0.996837378 0.742694736 0.999367416
0.815559745 0.802656710 0.989626825
0.850600958 0.822517455 0.997722745
0.891967177 0.820872724 0.999367416
0.958886981 0.824414790 0.998355269
0.998355269 0.863251150 1.000000000
0.859329581 0.895509005 0.992156982
0.878557861 0.899304032 0.998987973
0.926502228 0.910689414 0.998734832
0.993547976 0.924351633 0.995445967
1.000000000 0.953194022 0.996204793
