Assets/Shaders/EldamarStudio/100 Sci-Fi LUTs Pack/LUTs/cube/Heonild LUT.cube
LUT_3D_SIZE 8
DOMAIN_MIN 0.000000 0.000000 0.000000
DOMAIN_MAX 0.903226 0.903226 0.903226
0.000000000 0.000000000 0.000000000
0.057178997 0.000000000 0.000379548
0.139279082 0.003162904 0.007843000
0.290449262 0.000000000 0.012903354
0.497027367 0.000000000 0.014168195
0.743706465 0.000000000 0.023529001
0.958001554 0.005566292 0.038203701
1.000000000 0.000000000 0.086527638
0.003922000 0.053257097 0.005439999
0.057558544 0.049715545 0.001517999
0.149525195 0.052877549 0.019987453
0.286780715 0.037571192 0.020746354
0.497786462 0.001518192 0.029095713
0.732068419 0.000000000 0.026185740
0.942314506 0.002277288 0.049082987
0.997469962 0.000000000 0.078557819
0.001517998 0.150284186 0.039974902
0.049715545 0.154585645 0.032005094
0.178494275 0.155724183 0.043137003
0.333080024 0.170271739 0.039975002
0.541555822 0.176976278 0.033649903
0.777608931 0.129032552 0.049968380
0.969892442 0.025174182 0.078052089
1.000000000 0.010373366 0.125489905
0.006198998 0.336116552 0.062239353
0.001897547 0.348007470 0.062618896
0.196205273 0.350411236 0.067552537
0.387602925 0.351675898 0.072864994
0.591650844 0.364705473 0.070967987
0.790512204 0.352561831 0.088551633
0.965338171 0.328020245 0.123592630
1.000000000 0.309804082 0.166603297
0.001518192 0.561543345 0.115875989
0.003795190 0.576091051 0.111827984
0.133080199 0.578115404 0.121315181
0.425174057 0.565970719 0.127008021
0.621252358 0.567868531 0.145477384
0.814294875 0.551169932 0.163441181
0.976343989 0.535863400 0.200759351
1.000000000 0.517014384 0.252625138
0.001897740 0.766350746 0.250727475
0.000000000 0.771157444 0.263251305
0.209234476 0.770777822 0.271473438
0.455281526 0.759898722 0.277545720
0.654775679 0.752182484 0.287286282
0.832511187 0.738646686 0.303225726
0.980012536 0.719797432 0.319164991
0.998734832 0.698418617 0.367615521
0.134345487 0.867552280 0.371789992
0.270335376 0.876407564 0.382795542
0.390765458 0.872991860 0.394433767
0.531056166 0.873624623 0.393042564
0.673624277 0.862998247 0.403162360
0.815559506 0.855155230 0.413156271
0.955724299 0.845667541 0.423402548
1.000000000 0.827956855 0.448450536
0.523592412 0.955724001 0.511574745
0.558380604 0.964199960 0.526501954
0.606957495 0.962808073 0.531688690
0.673877060 0.958507359 0.533965766
0.764326155 0.951928794 0.536495805
0.855913818 0.944718599 0.540164769
0.961922705 0.940544248 0.545350969
1.000000000 0.933585942 0.574193597
0.003542452 0.000000000 0.133080184
0.097786091 0.000000000 0.130297631
0.155724198 0.014927000 0.130297542
0.296774030 0.041618999 0.223656178
0.552561641 0.003795093 0.338267058
0.796204984 0.000000000 0.373687267
0.974699259 0.001644712 0.371031016
1.000000000 0.000000000 0.312207311
0.000000000 0.079443544 0.125616640
0.054016095 0.057178997 0.133080184
0.169386744 0.062618993 0.151043296
0.309550822 0.092093550 0.232890621
0.543200433 0.011385183 0.302719742
0.769512832 0.000000000 0.331309289
0.937760770 0.002024260 0.305249721
0.998734832 0.002530012 0.251233369
0.000000000 0.165591642 0.151422739
0.011005903 0.171537101 0.162428737
0.166223735 0.158507541 0.178494275
0.341935456 0.165085286 0.212144181
0.567236066 0.076280743 0.238456637
0.777229428 0.009614361 0.226692066
0.966350257 0.001644722 0.230486721
1.000000000 0.001265179 0.265148908
0.000000000 0.323592573 0.228336379
0.006325001 0.331562459 0.236306265
0.130550191 0.335863203 0.220240623
0.368247628 0.334345102 0.213914916
0.581403852 0.332067996 0.225174069
0.772169352 0.307020903 0.239721715
0.947248399 0.280202210 0.251739562
0.999240935 0.269323260 0.275648326
0.000000000 0.546995819 0.279190630
0.000379548 0.558380485 0.284756631
0.026565470 0.559645772 0.276407182
0.393801272 0.558127820 0.274256915
0.618089437 0.547880948 0.282226622
0.804680645 0.530676663 0.298039436
0.962807953 0.516761422 0.323212832
0.998734832 0.507273674 0.348133922
0.005566196 0.751169860 0.373054892
0.000000000 0.754459262 0.375205815
0.180012748 0.756989360 0.381024361
0.448197424 0.749146104 0.385199159
0.644908309 0.741176248 0.389879644
0.819734454 0.733459473 0.403162360
0.971536815 0.712713540 0.424415290
0.998102486 0.693358302 0.451106995
0.178621128 0.863377690 0.434281915
0.293358296 0.867931843 0.460721374
0.413788915 0.864136696 0.461606622
0.537507653 0.860973954 0.465528011
0.676280797 0.851992249 0.471726835
0.811005712 0.845794082 0.478304625
0.944844961 0.840101302 0.483617812
0.998355269 0.820872843 0.495129615
0.562049389 0.954458833 0.565464675
0.593295634 0.959392309 0.563567102
0.635293901 0.952561557 0.582289636
0.696900725 0.948893011 0.585704982
0.773687482 0.950031400 0.579506516
0.867172778 0.944465637 0.591650784
0.961164057 0.933712959 0.598988175
0.991903603 0.930676460 0.598102808
0.001517998 0.003162904 0.430613369
0.152308643 0.007084000 0.438076913
0.353826463 0.003162904 0.466666460
0.511954367 0.000379548 0.462238997
0.598481774 0.000000000 0.481087744
0.845287681 0.204048097 0.645161211
0.987729192 0.361163974 0.725110412
0.995572209 0.307779729 0.700189710
0.000000000 0.069323443 0.420240641
0.000000000 0.045793545 0.425933272
0.299810290 0.001897546 0.451866269
0.510183811 0.000379548 0.463883847
0.594813466 0.095509090 0.489184290
0.825426757 0.261100560 0.636179388
0.979253769 0.351802468 0.701581061
0.996078134 0.287160009 0.667299032
0.000000000 0.255281210 0.406325281
0.000379548 0.241999090 0.428715825
0.161923081 0.179253191 0.458823472
0.495382845 0.199114636 0.498924434
0.634155512 0.266793370 0.526881576
0.841872215 0.414041460 0.662871599
0.984566450 0.423656166 0.690575540
0.997975767 0.380012631 0.653257489
0.005566002 0.387223363 0.457432032
0.007463547 0.383807898 0.456672996
0.009108108 0.381910384 0.458190918
0.383175462 0.350411296 0.478684008
0.620114088 0.417204291 0.531309545
0.819734275 0.484124094 0.627956808
0.964958847 0.433143854 0.612270951
0.998102248 0.377356231 0.552308679
0.002403808 0.546616256 0.492473394
0.007084097 0.550916851 0.503605366
0.021252383 0.557621598 0.508286238
0.379506558 0.553826451 0.512207389
0.610879421 0.543706357 0.516255379
0.795192599 0.531941354 0.523718834
0.953194261 0.527134418 0.530550301
1.000000000 0.540417492 0.548639953
0.002783356 0.746489763 0.565591574
0.009234905 0.745730519 0.571663499
0.230866194 0.744338989 0.571537018
0.479190290 0.741303086 0.577229619
0.666160822 0.729032040 0.582922220
0.812397420 0.725237012 0.579759538
0.962302566 0.712207258 0.591018200
1.000000000 0.709044933 0.606578112
0.243769377 0.848830283 0.565338373
0.354332745 0.859455764 0.588488340
0.475268662 0.859835625 0.600252867
0.601391435 0.850221455 0.610626161
0.714358032 0.843263805 0.615812540
0.827830851 0.840607226 0.615433097
0.949146032 0.832384348 0.613535464
1.000000000 0.823276639 0.629601598
0.646552503 0.943959653 0.664263129
0.667678654 0.947248757 0.665654778
0.702972889 0.944592059 0.673371196
0.752435088 0.942567766 0.676913202
0.814041913 0.943200588 0.685009360
0.891966879 0.937381387 0.687665880
0.973181486 0.933839262 0.685642123
1.000000000 0.928905547 0.702214062
0.001138644 0.000000000 0.745351255
0.121948451 0.000000000 0.752181828
0.381277651 0.003922000 0.745224357
0.609234631 0.000000000 0.766097605
0.825300276 0.000000000 0.789626896
0.911069036 0.116888262 0.778747559
0.987855971 0.377102911 0.810878873
0.998481810 0.598102272 0.871220648
0.001138644 0.036053002 0.721315682
0.002783356 0.006451639 0.731561959
0.335863560 0.001517998 0.740164697
0.571157277 0.002783356 0.754332602
0.802909672 0.012903375 0.774446249
0.895129561 0.216571912 0.760657728
0.981783628 0.401771009 0.802150726
0.998734832 0.604174733 0.865781009
0.001138644 0.267172873 0.728399813
0.003162904 0.230613634 0.735863268
0.176976830 0.216825098 0.751043737
0.531941473 0.229474932 0.758633494
0.778368175 0.298292011 0.776470721
0.904870570 0.402150542 0.783554614
0.978747725 0.530423939 0.816318750
0.997722805 0.683997512 0.869196773
0.000000000 0.458064258 0.709677577
0.000758999 0.456673235 0.718532264
0.047058742 0.433776349 0.725490272
0.440354526 0.409993559 0.748260558
0.727261126 0.467172652 0.767995298
0.892979145 0.540923655 0.778115153
0.970145285 0.629728138 0.811511934
0.998481810 0.725236893 0.863630474
0.002656546 0.595699191 0.718405843
0.002403808 0.596331239 0.725743234
0.031119468 0.594433725 0.733333409
0.385578752 0.587349772 0.730550230
0.659582555 0.587602556 0.745097816
0.877672613 0.656040370 0.782036722
0.972675622 0.728905439 0.824414790
0.996331334 0.734218836 0.832131684
0.000000000 0.754458725 0.750284374
0.034155644 0.752435207 0.754585862
0.298418492 0.745730639 0.755092025
0.504743636 0.741429329 0.752941012
0.683491647 0.731941581 0.756609797
0.826185942 0.726122618 0.752814770
0.957621634 0.738772810 0.764452875
0.999240935 0.742441535 0.752308726
0.299936444 0.856293619 0.722074628
0.384313732 0.860341549 0.726249158
0.493864536 0.857178807 0.731815338
0.623023570 0.849462330 0.736369610
0.755471170 0.841745317 0.750158191
0.859709263 0.838203788 0.756483257
0.955597937 0.833270013 0.750917256
0.997596204 0.829981029 0.759646058
0.651233375 0.947248638 0.746615589
0.685515285 0.944212794 0.752055883
0.734598219 0.941935718 0.764073372
0.807969391 0.936495841 0.775205433
0.867299080 0.933586240 0.784693241
0.922580719 0.930676699 0.783934474
0.988867640 0.928652823 0.785325646
0.996964037 0.931182444 0.789373875
0.007843000 0.000000000 0.886653960
0.011005634 0.004807003 0.883744597
0.327514321 0.000000000 0.895256042
0.540543735 0.000379548 0.895256102
0.740038216 0.009107991 0.906514823
0.927893519 0.205439627 0.910562992
0.999240935 0.389500260 0.904237926
0.997723043 0.544591784 0.907906294
0.000000000 0.041872274 0.877545834
0.000758999 0.030360628 0.887159824
0.294117570 0.022643730 0.888172090
0.522833467 0.030360553 0.896141946
0.738899589 0.126249105 0.900569439
0.914484560 0.278937459 0.900189996
0.998861372 0.419228554 0.892726243
0.998861372 0.551675975 0.903225780
0.005566099 0.237191379 0.883491278
0.003921903 0.246299833 0.889057279
0.233649567 0.258191258 0.891334295
0.511195660 0.289942831 0.889057279
0.724098563 0.349019468 0.892979205
0.903225958 0.441113025 0.895382941
0.998481870 0.541049957 0.900822163
0.997216642 0.640227616 0.911701202
0.001518192 0.460594267 0.871727228
0.062998101 0.462112367 0.874004006
0.240480542 0.442757815 0.879949510
0.506514907 0.464136481 0.887286365
0.719924390 0.501327991 0.892220140
0.888551593 0.569259524 0.889310658
0.995951891 0.637950838 0.892599523
1.000000000 0.702340424 0.904237866
0.002403808 0.605819166 0.851359963
0.015180374 0.607842803 0.863124490
0.307526618 0.609740555 0.867172837
0.557241976 0.624920785 0.872359455
0.720809579 0.630866408 0.882732391
0.884124041 0.676660657 0.879316926
0.996837318 0.728146434 0.897153795
0.998734832 0.790385962 0.908285797
0.216445014 0.732827485 0.861100614
0.297279924 0.734472096 0.864136696
0.423276395 0.735483944 0.858823538
0.561669827 0.738267183 0.865401506
0.707779944 0.742188215 0.855660975
0.870588243 0.761796296 0.864262879
0.997596264 0.807716548 0.889943182
0.998481810 0.858696818 0.918026626
0.386970162 0.846552789 0.854016185
0.446805656 0.852119029 0.861226797
0.520683050 0.854396164 0.854648948
0.630360544 0.847312093 0.853890002
0.755091608 0.847438395 0.853889883
0.869829297 0.837571025 0.849083006
0.957874537 0.837065041 0.850601077
0.999620438 0.843263745 0.852625072
0.613915026 0.941429675 0.827324390
0.649841905 0.945351243 0.830613732
0.711827517 0.941935718 0.836432397
0.791777432 0.940037966 0.843769789
0.875521958 0.933459401 0.850727201
0.952434778 0.928905368 0.856546640
0.996204793 0.928146482 0.864136696
0.997343183 0.924604595 0.864389598
0.000000000 0.002024260 0.968247950
0.008349283 0.000758999 0.962808311
0.280708432 0.000000000 0.965464830
0.474130183 0.023529364 0.967109621
0.655281126 0.121568628 0.966350734
0.828968704 0.267299175 0.964326501
0.980898261 0.405566305 0.969765723
1.000000000 0.545983374 0.961290061
0.002024260 0.096521266 0.950917184
0.005692640 0.096394360 0.960784614
0.259329528 0.110436454 0.962302446
0.461480051 0.143579900 0.956862509
0.649589002 0.211005896 0.958507538
0.823023438 0.315369993 0.964578986
0.970777810 0.434535325 0.956230283
0.998482049 0.549778283 0.958760023
0.005186648 0.274509639 0.964326501
0.040607385 0.284756452 0.957115710
0.295382768 0.301201582 0.958760023
0.499177724 0.332447469 0.962049186
0.672232389 0.384566903 0.960531175
0.838709474 0.460974038 0.961796343
0.979632854 0.543326974 0.954712510
0.998102248 0.641492724 0.963693976
0.132953912 0.447817892 0.950031459
0.189753190 0.452118754 0.954079390
0.378241301 0.462745011 0.943453670
0.549272597 0.484629989 0.947501600
0.706768036 0.526248991 0.951549590
0.846426249 0.572169721 0.952435017
0.974572837 0.631878674 0.947627783
0.999240935 0.698798299 0.959392548
0.388362110 0.615812421 0.940543890
0.450221360 0.630234122 0.938899517
0.556356609 0.641239941 0.935230970
0.634408474 0.638077021 0.944845080
0.747121811 0.654522836 0.940670490
0.878558218 0.684376717 0.940923512
0.991397738 0.734218657 0.950790703
0.996204972 0.788361788 0.952435076
0.420114189 0.729031980 0.934977770
0.473244727 0.731182635 0.931941569
0.562681556 0.739785075 0.935483932
0.680202127 0.746868968 0.936875463
0.803036392 0.764199972 0.930676758
0.899304152 0.775838017 0.932827473
0.995066285 0.812270999 0.942568183
0.998482049 0.856799722 0.950284719
0.531056643 0.819481730 0.935610771
0.569766223 0.822391033 0.929664552
0.622390985 0.826818466 0.933080018
0.696520984 0.828715801 0.924351275
0.783301651 0.838709354 0.925237060
0.878304541 0.839721739 0.920809448
0.984440327 0.854648829 0.926755250
0.998102248 0.896520913 0.939152420
0.668437541 0.935104132 0.931689024
0.696394682 0.928525746 0.937761128
0.725742817 0.933079898 0.933459759
0.775458455 0.942188561 0.927766919
0.850727141 0.931182325 0.918658972
0.944465399 0.927007794 0.918532789
0.995572209 0.926248908 0.924477875
0.999240935 0.927134633 0.926881969
0.001644712 0.078304559 1.000000000
0.040986910 0.088171810 0.994813263
0.267678380 0.118532464 0.996837080
0.441112995 0.161163628 1.000000000
0.606578290 0.231246367 1.000000000
0.756483197 0.330423981 0.996204972
0.898292303 0.434534967 0.998355269
0.997722745 0.544592023 0.992409527
0.001644712 0.160784364 0.998355269
0.060594466 0.168754265 1.000000000
0.277545929 0.189626902 1.000000000
0.450853944 0.225553527 0.999240935
0.609740615 0.283491522 0.996711016
0.761922896 0.369765997 0.995952010
0.899937034 0.456546277 0.995698571
0.999620438 0.547627985 0.987349749
0.126628667 0.320430189 0.993548274
0.234408289 0.331562221 0.997975707
0.365591466 0.352182180 0.998481870
0.509424388 0.379380018 1.000000000
0.649589181 0.423529476 0.996837258
0.792915761 0.483112156 0.993042469
0.916255534 0.553826511 0.988867998
0.997975767 0.632384539 0.992789030
0.342947453 0.475521922 0.993422031
0.398229122 0.484882802 0.995066285
0.479063928 0.501454830 0.990259290
0.585958183 0.521442235 0.991145015
0.707147539 0.551296592 0.996711016
0.818848670 0.590512514 0.986464083
0.935357213 0.637950897 0.986084640
1.000000000 0.689816594 0.988741517
0.577608943 0.652751267 0.990259051
0.602277100 0.651486516 0.986337900
0.630233645 0.651992381 0.991144896
0.674383342 0.650474370 0.986211479
0.768627465 0.669196725 0.987982035
0.868816972 0.698165417 0.987096727
0.965844512 0.727387369 0.982796013
0.998481810 0.769133627 0.986590862
0.655028403 0.750031531 0.975458264
0.682479262 0.757242084 0.986084580
0.730423808 0.763187706 0.981277525
0.799620748 0.779127002 0.985705078
0.847311974 0.780518472 0.980645239
0.911827683 0.788488507 0.976596773
0.989120543 0.817584217 0.981657028
1.000000000 0.846299529 0.983301699
0.636432528 0.815939248 0.982289493
0.672106147 0.815939248 0.977229536
0.710942388 0.821379066 0.976344109
0.770777822 0.827704251 0.973307967
0.849462271 0.839468241 0.968248248
0.940290689 0.857685268 0.975964427
0.994433701 0.865275025 0.975458264
0.998734832 0.901454985 0.978747725
0.774066806 0.900316119 0.979632795
0.781910300 0.905249834 0.980391979
0.804554105 0.906388342 0.983048737
0.845414221 0.908159196 0.976343989
0.894497097 0.914737403 0.974446714
0.948133945 0.919923782 0.973814011
0.995825231 0.923086822 0.966350436
1.000000000 0.938393235 0.970145345
0.119670734 0.189879626 0.997469962
0.195951998 0.201897353 0.998355269
0.321948111 0.225553781 1.000000000
0.449335814 0.260847598 1.000000000
0.587729394 0.322833627 1.000000000
0.724731445 0.394560456 0.998102248
0.855281532 0.480076253 1.000000000
0.963566959 0.569006801 0.996078014
0.166223854 0.241998881 0.997343183
0.235420570 0.254522383 0.997343183
0.339658469 0.278557956 1.000000000
0.467299014 0.310309917 0.997722745
0.602277040 0.361163825 1.000000000
0.729664624 0.424415052 0.998734832
0.851359844 0.498545140 0.998102307
0.968753815 0.577229381 0.993801296
0.324857771 0.378874153 1.000000000
0.365464658 0.394813299 1.000000000
0.449968338 0.405313015 0.996710896
0.544844925 0.434914798 0.997722745
0.656673074 0.473244905 0.998102307
0.772169471 0.523592830 0.997975767
0.882226408 0.577861905 0.997469962
0.986084580 0.641872048 0.998734832
0.474889547 0.516888261 1.000000000
0.507906616 0.529791176 0.995951772
0.559898615 0.539278984 1.000000000
0.634408772 0.559266031 1.000000000
0.724478006 0.583681285 0.998734832
0.816318691 0.614168346 0.998861372
0.909930348 0.652118862 0.995825350
0.993674755 0.702213764 0.998481810
0.660215139 0.665022016 0.995825350
0.670967698 0.673118472 0.997596204
0.686780572 0.670082390 0.998102307
0.727893770 0.673245013 0.997216642
0.799493968 0.692093194 0.997596204
0.871852934 0.716761589 1.000000000
0.948513448 0.741429269 0.997343481
0.998734832 0.776343942 0.997216642
0.819607735 0.796837747 0.992410004
0.834661543 0.800759017 0.993928015
0.856166840 0.804553866 0.998734832
0.862745345 0.799746811 0.998481870
0.875395358 0.791904032 1.000000000
0.934092641 0.802150607 0.997343183
0.988867760 0.823782504 0.998734832
0.998102307 0.846805751 0.999240875
0.819987476 0.841619313 0.995825231
0.831119359 0.843769491 0.999620438
0.857431829 0.847312093 0.998861432
0.894117355 0.860214770 1.000000000
0.942820847 0.868184686 0.998734832
0.985199213 0.874763250 0.998734832
1.000000000 0.878052235 0.996078014
1.000000000 0.905629396 0.995445967
0.859329581 0.895509005 0.992156982
0.863630533 0.898291945 1.000000000
0.884376585 0.900821984 0.998734832
0.911195636 0.907273650 0.994686604
0.946236789 0.907147169 0.998861313
0.983681023 0.921062529 0.996204793
0.997722745 0.932826996 0.994939983
1.000000000 0.953194022 0.996204793
