Assets/Shaders/EldamarStudio/100 Sci-Fi LUTs Pack/LUTs/cube/Herewine LUT.cube
LUT_3D_SIZE 8
DOMAIN_MIN 0.000000 0.000000 0.000000
DOMAIN_MAX 0.903226 0.903226 0.903226
0.000000000 0.003922000 0.062744997
0.010120095 0.005060451 0.060341999
0.111195087 0.024288096 0.098798096
0.202403635 0.042631354 0.124984354
0.310183376 0.080581993 0.150537804
0.407336980 0.127007723 0.182163253
0.508412540 0.185578987 0.236558989
0.634534776 0.249968782 0.299557149
0.007463549 0.053636547 0.077166550
0.034409001 0.050474543 0.094497450
0.116255544 0.074383095 0.115243092
0.209487736 0.098292544 0.132068455
0.300695986 0.125616536 0.155597642
0.401897281 0.162049085 0.198988184
0.504870534 0.209867001 0.250727296
0.623276591 0.262365669 0.294623703
0.035926998 0.151929095 0.141809002
0.080961540 0.156610101 0.130803198
0.144086093 0.163694099 0.148007289
0.229475081 0.183681548 0.172801644
0.316508412 0.204427481 0.190385997
0.413156211 0.233775914 0.229854733
0.513852179 0.272738814 0.271853387
0.642631412 0.327640831 0.325363725
0.120050631 0.259076267 0.199620277
0.138393179 0.265780926 0.204680637
0.196078718 0.265780926 0.218975633
0.261859626 0.277545631 0.221505269
0.335104167 0.292093456 0.246426642
0.420240521 0.313219249 0.272612363
0.520303905 0.344844937 0.303858280
0.639848232 0.386337817 0.351929307
0.198861182 0.363567173 0.279064178
0.213029996 0.380391836 0.286527663
0.247564897 0.379127294 0.282859057
0.308285803 0.383427918 0.292220175
0.371410161 0.386211157 0.307147354
0.447691739 0.403035730 0.325996190
0.546742558 0.435547262 0.351676106
0.661859632 0.478557974 0.395445973
0.283997715 0.501707971 0.352815002
0.299304187 0.508918524 0.360151559
0.327766836 0.506388605 0.360404998
0.375964373 0.510057092 0.371537119
0.431751937 0.509171426 0.374066740
0.503099203 0.519164741 0.395698994
0.586337984 0.532194734 0.411891460
0.693737984 0.579506576 0.457305461
0.364326268 0.619481564 0.430993259
0.382036358 0.625174284 0.429222286
0.413409173 0.626565278 0.439342171
0.449082911 0.634028912 0.449082911
0.498165578 0.631372511 0.452119082
0.562049031 0.636432767 0.463377744
0.627956510 0.640733838 0.483871251
0.712460160 0.669323325 0.516635060
0.501201749 0.766476750 0.553446949
0.518911719 0.772043049 0.567109406
0.540543795 0.774319768 0.572422504
0.571663618 0.779506624 0.575584948
0.608728766 0.778241754 0.584566593
0.666034341 0.780139029 0.592662573
0.719291747 0.784692764 0.611511648
0.782162786 0.791271627 0.633269548
0.000000000 0.008981547 0.092472993
0.010120095 0.012144451 0.092473000
0.104111090 0.028589549 0.118279189
0.190638632 0.070082352 0.150031641
0.288551629 0.103731737 0.181404531
0.393674731 0.149398983 0.224541545
0.491840303 0.194560543 0.259708822
0.619102061 0.247438073 0.313725531
0.003542452 0.053257097 0.108538538
0.031246092 0.058317542 0.120303541
0.108792096 0.082985096 0.137887090
0.200885639 0.109297633 0.161416993
0.292599648 0.137507737 0.190385908
0.384187013 0.174193531 0.225173920
0.482858837 0.212650254 0.259708852
0.595192611 0.259582549 0.305882514
0.043770093 0.155092105 0.165338188
0.083364643 0.155471548 0.170778081
0.147248194 0.167235658 0.181024998
0.223655730 0.180518642 0.194307178
0.309803724 0.207210749 0.223276079
0.400253177 0.235294014 0.248323888
0.499683350 0.269323200 0.288298309
0.626438677 0.320936054 0.339026123
0.110183179 0.260721266 0.215686634
0.145983532 0.256799370 0.223655730
0.189753622 0.267805189 0.229475081
0.251612902 0.269702643 0.239215627
0.329285026 0.285768300 0.259203196
0.408349007 0.305755734 0.283111840
0.504996479 0.337381482 0.315623164
0.621378720 0.377988279 0.352055639
0.192789093 0.363061637 0.284882724
0.201897383 0.370651394 0.281214178
0.242758006 0.368121296 0.289943218
0.303226084 0.379632831 0.302846432
0.367109627 0.382669032 0.312207520
0.435547054 0.399114639 0.331941724
0.533586144 0.425300181 0.358633727
0.655913949 0.467931807 0.404048264
0.285894990 0.482985526 0.360025346
0.294750005 0.495508701 0.363693982
0.325489819 0.491840571 0.373434514
0.366856635 0.497785985 0.376850158
0.424920827 0.502087355 0.383554548
0.492219806 0.511068702 0.390765250
0.573687732 0.530297458 0.419861197
0.688930750 0.573181272 0.460847437
0.364452809 0.602403343 0.433776289
0.371031255 0.617330849 0.441239804
0.397975981 0.614800751 0.439089119
0.435294300 0.620746195 0.445034862
0.485136002 0.625806272 0.452371925
0.548893273 0.627451122 0.466539830
0.614041865 0.633649409 0.474509567
0.700822234 0.656040430 0.503984928
0.503479004 0.760657609 0.558380365
0.520935595 0.765844464 0.563314438
0.536242902 0.770018935 0.569513023
0.566856623 0.770018637 0.577861905
0.604933500 0.773054600 0.591903806
0.658570409 0.778367996 0.593801498
0.713092983 0.781277478 0.611638308
0.783554733 0.789121032 0.632637620
0.000000000 0.032131903 0.169133291
0.010120095 0.030613905 0.176344097
0.109550998 0.032891002 0.187223092
0.194560632 0.074762739 0.199746996
0.289816290 0.115875989 0.233522981
0.381909728 0.167489082 0.266793370
0.484756470 0.215433180 0.304743797
0.612650335 0.265021920 0.350663841
0.000379549 0.066160642 0.168374196
0.046173096 0.071980000 0.174699187
0.108792089 0.090828985 0.190385997
0.197722733 0.114357986 0.212397084
0.291081548 0.150790647 0.242631540
0.379632831 0.191144809 0.269955635
0.476660728 0.229095727 0.300442845
0.593674600 0.273624212 0.342441201
0.046173193 0.152688190 0.205186188
0.086527549 0.166476652 0.204806745
0.158254087 0.176976278 0.223276168
0.222770631 0.195445642 0.243263721
0.310183167 0.219355002 0.266413987
0.394433826 0.248703346 0.294624001
0.489436984 0.280455112 0.323592305
0.619354725 0.329284906 0.369259804
0.129032284 0.256799281 0.254396260
0.147501633 0.265528172 0.259962171
0.199999720 0.271347553 0.276154548
0.256419837 0.277166188 0.283997536
0.328146458 0.292093456 0.300063193
0.405186802 0.313598812 0.317646742
0.498924553 0.342947245 0.345351100
0.617583752 0.383934289 0.387349635
0.206831098 0.361163974 0.314990193
0.216951296 0.369765997 0.322453737
0.253004283 0.372169256 0.329158992
0.299177974 0.375332177 0.331815422
0.360405087 0.383934289 0.343200266
0.434408724 0.397976100 0.359646082
0.525616348 0.427704096 0.383934289
0.642757714 0.469955713 0.425173908
0.288677812 0.487665743 0.392283440
0.301960558 0.486021519 0.387855977
0.326375753 0.490322351 0.397722721
0.369766086 0.493358463 0.398355663
0.426186085 0.499430746 0.404806733
0.489563465 0.503225684 0.414800763
0.570524871 0.526249468 0.436432391
0.684503496 0.575331926 0.476027817
0.355471402 0.603162527 0.450474352
0.375079066 0.609740853 0.453130811
0.398482114 0.613282859 0.462238967
0.439342260 0.615307033 0.466160595
0.490322351 0.618848741 0.471473664
0.546236753 0.625427008 0.481340945
0.617204309 0.632890284 0.497406483
0.700189471 0.656673074 0.528779328
0.500442624 0.755470812 0.564958870
0.513598740 0.762934923 0.574320078
0.530170798 0.765717804 0.572801888
0.564452767 0.767235816 0.580898285
0.607969940 0.770524979 0.595572472
0.654142857 0.770398438 0.600505650
0.712966144 0.781657159 0.619607806
0.777102947 0.787982523 0.642631650
0.000000000 0.031373002 0.261732996
0.013662450 0.029854808 0.264516532
0.113851637 0.052118741 0.267172992
0.201264992 0.081846647 0.273497999
0.292219996 0.127261445 0.294244349
0.386590838 0.171030834 0.314864069
0.483744621 0.222011641 0.353067636
0.609234631 0.273750812 0.398102283
0.001138644 0.086906992 0.255787641
0.051233545 0.096774541 0.259329259
0.127261549 0.106135540 0.269955724
0.205945283 0.122960180 0.270714730
0.290322542 0.156230554 0.287539274
0.376850098 0.195825383 0.324478090
0.477040261 0.238077268 0.353067517
0.592662632 0.287160099 0.392283440
0.060215093 0.169133186 0.277672619
0.100189999 0.179000646 0.276154637
0.164579093 0.190006450 0.293105990
0.230739638 0.200885743 0.294624001
0.311069101 0.225173727 0.315369844
0.394433796 0.258190840 0.338772625
0.493105739 0.295509279 0.377356023
0.615306735 0.338013619 0.418089837
0.130170628 0.263503909 0.302719623
0.159266546 0.267425627 0.304237723
0.208728641 0.282352626 0.328273267
0.275268614 0.299936980 0.344718277
0.339911193 0.307780057 0.350158095
0.412270725 0.327008009 0.372802168
0.505123258 0.351549536 0.399114341
0.620493293 0.390638649 0.431499273
0.205565736 0.370271832 0.351928979
0.229980841 0.369766086 0.368753731
0.263630629 0.376470536 0.373181283
0.312586963 0.387855977 0.378873855
0.370525151 0.391397715 0.383934259
0.442631274 0.406198651 0.402909189
0.532321095 0.431752086 0.423529625
0.648323774 0.473497719 0.464263111
0.294370741 0.485768467 0.430234075
0.307653457 0.488931090 0.425932914
0.335483879 0.492852449 0.435420752
0.370777726 0.497406483 0.437697738
0.426438719 0.505376399 0.442758083
0.491460711 0.511195719 0.452877969
0.578873992 0.530297399 0.470082343
0.686401010 0.572422504 0.510689437
0.355471283 0.604807258 0.485388905
0.380645007 0.612776518 0.493232042
0.401012182 0.613788903 0.488551706
0.441745579 0.618216276 0.499936998
0.491840541 0.623149991 0.502593398
0.548639834 0.625047266 0.509930253
0.617204249 0.634028912 0.522454262
0.706135273 0.661479771 0.552055418
0.499809742 0.759013295 0.603162467
0.509804189 0.761037290 0.596963942
0.531562328 0.768500924 0.605818987
0.563440800 0.765338421 0.606451571
0.603668451 0.765717983 0.617077649
0.657684624 0.771916211 0.628083587
0.711574912 0.779380083 0.640101254
0.781530738 0.792662621 0.664769113
0.001518192 0.028969193 0.357242376
0.012397190 0.037065350 0.349778533
0.129285291 0.069576286 0.353320390
0.215812638 0.100569353 0.361669838
0.299937189 0.139405370 0.365970999
0.384693086 0.176850185 0.375837922
0.482479364 0.224794567 0.406831086
0.613915324 0.277292997 0.452371806
0.003415545 0.110056736 0.345856816
0.054016095 0.116255634 0.344338745
0.143706545 0.126755089 0.349778563
0.218848646 0.144845098 0.352181852
0.300822288 0.170778185 0.364832640
0.383174986 0.202024192 0.379759640
0.475774914 0.242884293 0.399620295
0.596078217 0.287539661 0.448703349
0.090069897 0.195699081 0.354965091
0.116508275 0.206451535 0.355217844
0.173814192 0.208349094 0.361290067
0.243643284 0.221252441 0.364705712
0.316508383 0.236559168 0.376091093
0.394940108 0.263251185 0.390133172
0.491714090 0.297027081 0.424668074
0.619607806 0.335610449 0.470335186
0.155724183 0.280834645 0.377735198
0.175711542 0.285894990 0.381530374
0.221632093 0.294876754 0.388235629
0.280708462 0.303858280 0.397596538
0.343453646 0.311321616 0.397470027
0.415433109 0.334092438 0.417457193
0.501960516 0.356356472 0.442251742
0.623023331 0.388741076 0.472612202
0.214548185 0.371410191 0.410626173
0.237950638 0.374446154 0.418216527
0.272612274 0.383175194 0.426312178
0.323592365 0.397217184 0.432257831
0.397343367 0.417584151 0.456166983
0.457558453 0.427830368 0.459582418
0.539658487 0.439595163 0.477292985
0.650980651 0.477419347 0.514737368
0.294370562 0.484250277 0.464895815
0.312966555 0.490954906 0.472865522
0.335736811 0.496267796 0.478052169
0.382289559 0.506135285 0.484250337
0.434788167 0.510816157 0.492852271
0.497406483 0.519418180 0.498418778
0.582795560 0.537381470 0.516761541
0.690448821 0.575711429 0.555091798
0.367488980 0.607210457 0.524984181
0.382163286 0.612143934 0.531182587
0.404933542 0.617330670 0.532068133
0.443010837 0.619228184 0.538267016
0.493611544 0.626818478 0.544718504
0.556230307 0.632637799 0.554332554
0.622011304 0.639215648 0.563441038
0.714737833 0.666034281 0.594433546
0.492725968 0.757748127 0.628209949
0.507779956 0.758254170 0.632384658
0.524857700 0.763693571 0.629601657
0.563820422 0.766097307 0.632890403
0.599746764 0.766476750 0.640101135
0.657938182 0.773560882 0.655407906
0.711068869 0.780265510 0.662238777
0.780265689 0.788741589 0.687412798
0.000000000 0.070334993 0.450474471
0.027071472 0.078937471 0.442757905
0.144338831 0.102466889 0.453004628
0.235547364 0.128779352 0.457052618
0.318658978 0.163187921 0.453257740
0.397469729 0.195572466 0.450600982
0.479949266 0.228589565 0.464895755
0.603668511 0.276027828 0.510942578
0.012523731 0.134977534 0.432890445
0.068057828 0.141935289 0.437697470
0.157748535 0.150663823 0.445287943
0.240733728 0.169892475 0.446046740
0.319418162 0.187855989 0.444781452
0.394686997 0.216065988 0.451992273
0.474256843 0.243516788 0.460847616
0.588361919 0.286147982 0.501834452
0.112713084 0.219734341 0.440860361
0.143959284 0.226691931 0.448450714
0.195319340 0.229475170 0.453130811
0.259582728 0.240860552 0.452624977
0.332447737 0.256167084 0.459835470
0.406704694 0.270209074 0.462112486
0.489816636 0.298418999 0.481847197
0.616192400 0.338646442 0.518406034
0.167995080 0.296141624 0.453257382
0.200379372 0.304617375 0.458064556
0.234029278 0.309171259 0.455661178
0.291714013 0.318279654 0.464010090
0.353067368 0.324984252 0.466666549
0.414800555 0.336369514 0.475774825
0.500316381 0.354712248 0.488678098
0.619355142 0.389373600 0.528779030
0.231372729 0.386843681 0.469702452
0.246173635 0.390765190 0.482226551
0.285515636 0.395951837 0.483617753
0.332953990 0.400632441 0.493864655
0.388867944 0.412396908 0.500189900
0.459329724 0.420113951 0.510436714
0.542441487 0.440986484 0.528779507
0.654395819 0.474636376 0.562555432
0.299557239 0.487665743 0.517394006
0.302340060 0.491967201 0.526754916
0.338013738 0.499304205 0.524857521
0.379886389 0.502466798 0.532953978
0.440101385 0.518152773 0.545983255
0.514863789 0.542567730 0.564073503
0.595698714 0.550284684 0.581657231
0.696900666 0.572042763 0.603415668
0.362807989 0.601138711 0.568627238
0.374320060 0.606957555 0.576090813
0.398861647 0.611259043 0.580138922
0.437824279 0.615939260 0.585072637
0.492979020 0.625806570 0.592662871
0.556356728 0.637951016 0.597343445
0.624415040 0.644781828 0.605565965
0.723592520 0.671474040 0.638962507
0.487792462 0.751549721 0.663504004
0.502086937 0.754332423 0.662871540
0.514990509 0.756609499 0.666666627
0.549652040 0.763693810 0.670461595
0.595066369 0.765211582 0.681846857
0.649082541 0.770398438 0.680581689
0.709550560 0.776217639 0.699810088
0.779000640 0.791524410 0.717773795
0.011385280 0.114990570 0.576343954
0.082353026 0.124857731 0.574067295
0.175332189 0.137761086 0.573307991
0.268058181 0.160910636 0.572928667
0.360910773 0.188741088 0.571031272
0.439974576 0.219734445 0.565970778
0.524730980 0.246046692 0.569513261
0.605059743 0.279949814 0.577609062
0.050474569 0.158380821 0.550916851
0.105755992 0.170777991 0.557748258
0.184819803 0.177862272 0.559645951
0.267298996 0.194307283 0.560784340
0.350664377 0.214168355 0.560025275
0.436559230 0.240101442 0.563440979
0.512207508 0.262871742 0.559645951
0.592662692 0.287286818 0.567236245
0.123466179 0.245920196 0.561543405
0.164326385 0.248197183 0.566730022
0.219228268 0.253004074 0.565591455
0.289816260 0.265148640 0.567488909
0.368880272 0.278178185 0.566982746
0.445540577 0.292093277 0.568121135
0.524604440 0.314104974 0.573308051
0.615306735 0.338772893 0.586338043
0.181151211 0.325742990 0.563440919
0.207969546 0.328905642 0.566982746
0.250600904 0.334851444 0.563820362
0.310562909 0.338013649 0.564579248
0.382163197 0.345730722 0.567488909
0.454143167 0.355977207 0.574699521
0.528146923 0.368880272 0.574699521
0.618215978 0.387223005 0.588488281
0.238076985 0.408096284 0.574826121
0.254775494 0.415053546 0.581657052
0.289057553 0.419102162 0.581910312
0.336875349 0.423529536 0.585578799
0.402656466 0.426059186 0.586717486
0.476154268 0.436811984 0.592536271
0.553067625 0.445793897 0.595446110
0.644908130 0.465781093 0.615306675
0.296394706 0.515875757 0.612650275
0.312966764 0.518911839 0.616698325
0.341050029 0.523592770 0.609740615
0.383048594 0.521315455 0.616698384
0.444908381 0.525237024 0.621252477
0.513852000 0.533459544 0.622391045
0.597596467 0.545224488 0.634914696
0.692726076 0.574066937 0.658064544
0.355470985 0.599873543 0.633523285
0.369892716 0.605818868 0.623782098
0.394687176 0.611638546 0.634661436
0.436179578 0.617204309 0.638456523
0.488804549 0.622770548 0.646932542
0.558000982 0.636432767 0.661226988
0.647564530 0.662618577 0.683871269
0.729412079 0.679696560 0.696141541
0.476407409 0.747248292 0.701834202
0.491334468 0.746362686 0.708412170
0.508159339 0.750284493 0.712460577
0.541935146 0.756229937 0.713851869
0.590512395 0.761796355 0.722327530
0.645287752 0.775838077 0.734092593
0.705882072 0.778621197 0.735863090
0.787096858 0.795825660 0.754079580
0.095761947 0.171536788 0.716887772
0.143706635 0.177988812 0.722074568
0.225553185 0.188614964 0.720935762
0.315369785 0.201265186 0.724730730
0.409487844 0.225174010 0.717899978
0.499177814 0.252877861 0.714610755
0.587729394 0.281467438 0.710309565
0.680328608 0.317899972 0.711574733
0.109297961 0.205565825 0.709550560
0.158380523 0.207590088 0.718658745
0.228083625 0.214927241 0.714737773
0.313851982 0.230613828 0.706009030
0.406325281 0.250853717 0.707020581
0.491713941 0.271347225 0.704870403
0.584313631 0.293738008 0.701707482
0.671979845 0.320809543 0.702339768
0.155976802 0.277672350 0.707020700
0.186970055 0.285388798 0.713598728
0.252624929 0.289057583 0.718785465
0.329664469 0.298924923 0.710056961
0.414674014 0.308918238 0.711574972
0.507400513 0.325363725 0.713092804
0.591650963 0.343959272 0.713599026
0.678810596 0.364705920 0.713978767
0.188235447 0.356483281 0.708412528
0.218595803 0.361543626 0.709930182
0.269070536 0.363314450 0.707779646
0.344592065 0.368374437 0.708412290
0.426312596 0.377861828 0.707400441
0.501075268 0.386843443 0.706641316
0.590385675 0.397849470 0.706767797
0.677039623 0.415686458 0.708412290
0.237444997 0.444655359 0.709930420
0.260721207 0.451612741 0.716002643
0.294497073 0.453130931 0.716002524
0.356483281 0.454395890 0.714610994
0.436685801 0.456420034 0.712839901
0.512207508 0.465401649 0.715243459
0.599241018 0.475648493 0.716761649
0.693105400 0.489563167 0.718279362
0.318026572 0.557748437 0.731941819
0.329917699 0.560278118 0.732827067
0.358760059 0.560404778 0.734471679
0.404174477 0.554585516 0.734345317
0.461732924 0.554205954 0.730297148
0.540670276 0.559772372 0.736242652
0.625300348 0.568753898 0.738140345
0.712586582 0.583807588 0.749145746
0.381783813 0.651360035 0.742568016
0.395698994 0.657052338 0.745351017
0.422517627 0.650853813 0.744465292
0.460721076 0.657179236 0.748133898
0.512460470 0.658823550 0.749019325
0.576090813 0.657558739 0.753193796
0.651233137 0.670461535 0.759393036
0.741682172 0.683744490 0.770525038
0.486780584 0.760025442 0.771663606
0.502846181 0.761416614 0.772042811
0.514357924 0.767235816 0.778873861
0.546489656 0.766729772 0.776976585
0.590765119 0.769133627 0.776723564
0.644402444 0.773813725 0.784692824
0.709297776 0.784440041 0.799367130
0.793927789 0.806957603 0.821505547
