Assets/Shaders/EldamarStudio/100 Sci-Fi LUTs Pack/LUTs/cube/Herewine LUT.cube
LUT_3D_SIZE 5
DOMAIN_MIN 0.000000 0.000000 0.000000
DOMAIN_MAX 0.903226 0.903226 0.903226
0.000000000 0.003922000 0.062744997
0.087665990 0.023529001 0.093484998
0.253763795 0.057558831 0.133332998
0.432637393 0.144212127 0.193295121
0.634534776 0.249968782 0.299557149
0.019987702 0.126881406 0.121315695
0.119038403 0.136369690 0.132067993
0.271094114 0.175585121 0.173307985
0.440481126 0.228968814 0.239721715
0.643643618 0.309677541 0.319797665
0.154965416 0.324351817 0.237318411
0.212903112 0.328272969 0.251106977
0.324351817 0.340037823 0.274635971
0.462998390 0.372422665 0.308285862
0.660594642 0.438203812 0.383934379
0.297153860 0.520936131 0.361923128
0.336116254 0.533966124 0.379633129
0.419481546 0.538899362 0.388488233
0.535483956 0.544465423 0.412903130
0.702087045 0.601011992 0.470967650
0.501201749 0.766476750 0.553446949
0.539025784 0.770777881 0.573434293
0.586717248 0.774952352 0.578874230
0.676913440 0.782162786 0.596204758
0.782162786 0.791271627 0.633269548
0.002277292 0.026818417 0.147121996
0.081467696 0.026818417 0.162175983
0.245919973 0.097786278 0.205692694
0.410752803 0.181151405 0.269070148
0.618722618 0.263250947 0.341049701
0.027197698 0.129158705 0.184693277
0.125616401 0.150410965 0.199746698
0.263251126 0.186085105 0.233143702
0.413915247 0.240354121 0.287033409
0.622643650 0.317899823 0.358633697
0.165085286 0.315496683 0.287033409
0.213156402 0.322707087 0.290954977
0.311574697 0.336115956 0.304364234
0.451233417 0.367868543 0.343959421
0.653130889 0.434914529 0.409740686
0.301834524 0.518279552 0.395319134
0.334218830 0.524478316 0.407336980
0.407463819 0.528779149 0.407083958
0.523212850 0.537887514 0.431245685
0.688045740 0.599114239 0.488931119
0.503984511 0.756736040 0.563440740
0.528146625 0.766223669 0.569006801
0.583427787 0.767109215 0.586717248
0.671600044 0.776217341 0.605059922
0.774573088 0.789753437 0.639848471
0.000000000 0.028083583 0.308032393
0.091587402 0.049082987 0.307653278
0.249841824 0.106641404 0.316508800
0.408349276 0.184439987 0.348513812
0.606325150 0.270082384 0.418468982
0.056925990 0.165464982 0.315496266
0.140291125 0.173940405 0.313219368
0.261227101 0.202403277 0.331815094
0.408349156 0.250474572 0.365844548
0.612270594 0.321441919 0.432637513
0.180518821 0.310562551 0.366223782
0.230866820 0.323339641 0.372422516
0.335483402 0.362934381 0.402150363
0.455787241 0.381910384 0.421378702
0.640986621 0.438836396 0.470840931
0.306008995 0.509803712 0.462618560
0.338393539 0.520303547 0.469829261
0.416571677 0.531309128 0.473118097
0.521568537 0.541808724 0.489816844
0.696268082 0.598481834 0.542188644
0.491208196 0.752688169 0.591650546
0.520050347 0.756609380 0.608222723
0.576849997 0.759898603 0.620620191
0.669449508 0.772422433 0.637065172
0.771031022 0.790006578 0.665148258
0.000000000 0.082479253 0.477799118
0.126375407 0.108286120 0.481340826
0.288424969 0.154079542 0.482605994
0.427830279 0.213789001 0.475901097
0.606704593 0.280581832 0.530423641
0.103351995 0.206325114 0.477040142
0.178874120 0.217077836 0.479443401
0.303478569 0.241619110 0.483997256
0.436559141 0.270462096 0.488171667
0.618469298 0.330297053 0.537887096
0.212523401 0.356103688 0.496521235
0.251106977 0.365591258 0.491966844
0.348893076 0.372675836 0.506767988
0.471220970 0.389753371 0.517267406
0.644276083 0.434535086 0.569639444
0.316761136 0.513978302 0.540670395
0.348134130 0.524098516 0.555471539
0.420114130 0.534598112 0.560784161
0.552308381 0.571916401 0.595446110
0.708032787 0.602656364 0.629981101
0.491334766 0.750790775 0.673624039
0.510183334 0.756609738 0.677545786
0.568121314 0.763567328 0.687792659
0.663251102 0.772422433 0.697533071
0.779253602 0.792030454 0.725363791
0.095761947 0.171536788 0.716887772
0.202276945 0.183554515 0.719417751
0.358506978 0.217203975 0.724098325
0.523213208 0.261985958 0.712586880
0.680328608 0.317899972 0.711574733
0.149145991 0.261985928 0.713852048
0.229601562 0.268817216 0.720809758
0.367868513 0.288045704 0.713851869
0.527134776 0.316255242 0.712334037
0.680328608 0.352561653 0.714231610
0.215812817 0.406072229 0.708918631
0.269449562 0.409360975 0.715875864
0.392409801 0.419228226 0.718785346
0.535104096 0.434282213 0.720177174
0.691334307 0.457811803 0.718026638
0.334724844 0.584060609 0.733712792
0.366350412 0.585705221 0.736748755
0.444402367 0.580139220 0.738393188
0.571284115 0.584313929 0.740543962
0.722453892 0.609614074 0.754711747
0.486780584 0.760025442 0.771663606
0.511068702 0.761922717 0.779126942
0.569766045 0.768500984 0.780897796
0.663124621 0.777861953 0.789247036
0.793927789 0.806957603 0.821505547
