Assets/Shaders/EldamarStudio/100 Sci-Fi LUTs Pack/LUTs/cube/Herewine LUT.cube
DOMAIN_MIN 0 0 0
DOMAIN_MAX 1 1 1
LUT_3D_SIZE 32
0.000000000 0.003922000 0.062744997
0.000000000 0.003922000 0.062744997
0.000000000 0.003922000 0.062744997
0.002529999 0.003922000 0.061480161
0.010120095 0.005060451 0.060341999
0.028336871 0.014168063 0.072485998
0.059203319 0.020746000 0.084629998
0.087665990 0.023529001 0.093484998
0.111195087 0.024288096 0.098798096
0.132447496 0.027324483 0.101834491
0.156609744 0.027450999 0.110689126
0.178874254 0.033523254 0.117773511
0.202403635 0.042631354 0.124984354
0.229475066 0.051486064 0.133332998
0.253763795 0.057558831 0.133332998
0.282858968 0.068437994 0.142947599
0.310183376 0.080581993 0.150537804
0.335104555 0.092093572 0.155470982
0.362429023 0.101201981 0.167615011
0.384187371 0.110309653 0.174193710
0.407336980 0.127007723 0.182163253
0.432637393 0.144212127 0.193295121
0.459835976 0.153700009 0.208475500
0.484124005 0.171916813 0.223655909
0.508412540 0.185578987 0.236558989
0.536875665 0.197722986 0.251486331
0.569260061 0.210879132 0.269197077
0.596584439 0.229095876 0.284377426
0.634534776 0.249968782 0.299557149
0.672232330 0.265907943 0.314737171
0.709550798 0.279822975 0.332574189
0.749019980 0.298038989 0.356862992
0.003036387 0.003922000 0.053636614
0.000000000 0.003922000 0.056672998
0.002150774 0.001771226 0.065274999
0.001771226 0.004680773 0.071346998
0.005566093 0.009994000 0.073624164
0.034408871 0.011132451 0.072485998
0.057684995 0.017710386 0.084629998
0.084630020 0.025427094 0.091840707
0.108159482 0.030360678 0.095762290
0.129411876 0.033396486 0.098798104
0.156483248 0.039341997 0.110562615
0.182922244 0.045667250 0.119797252
0.207337275 0.053636998 0.125743255
0.232511386 0.060847417 0.130803376
0.256799400 0.069702834 0.136369392
0.281088173 0.075774997 0.141176388
0.310183376 0.085136190 0.149019599
0.336875170 0.095762372 0.156103566
0.359392613 0.107273981 0.170651406
0.383934319 0.124731004 0.177229390
0.409234732 0.134598121 0.188994348
0.432637393 0.148260400 0.200379521
0.454016209 0.159772009 0.211638376
0.484124005 0.177988812 0.229727909
0.510689259 0.189373702 0.244908273
0.538519919 0.203541949 0.259203047
0.569260061 0.218975380 0.273244917
0.596584439 0.232131496 0.278304636
0.634534776 0.250348240 0.298797995
0.668690324 0.269449949 0.311195195
0.706135154 0.285009593 0.329158574
0.752055645 0.301075399 0.359898597
0.001771226 0.008223000 0.055281550
0.003036387 0.008223000 0.058317386
0.000000000 0.008223000 0.067805000
0.004301226 0.008981774 0.074889004
0.008475544 0.016445450 0.079190098
0.040607095 0.018216226 0.081467710
0.065907776 0.023276774 0.088931002
0.085262477 0.032637767 0.094497003
0.108033001 0.040733904 0.098545328
0.130676717 0.043769524 0.104364298
0.157748088 0.051865768 0.113978550
0.183048740 0.059962023 0.124098279
0.209108278 0.067931771 0.132067993
0.233650029 0.073497772 0.136116266
0.259835750 0.076913416 0.140290990
0.286274582 0.085768767 0.148513764
0.309045196 0.093358576 0.154585764
0.334345341 0.103731789 0.158760205
0.352561772 0.117394015 0.164832219
0.380897939 0.130803004 0.180265784
0.403288960 0.141429469 0.186337769
0.429095477 0.153320760 0.200759128
0.450094759 0.167741761 0.212523982
0.480455577 0.181910038 0.230740011
0.508539021 0.197596475 0.244528487
0.537254691 0.208095744 0.258317560
0.567615390 0.223782346 0.272233009
0.596584439 0.235926762 0.280202329
0.636685550 0.249082878 0.292725801
0.674383104 0.270841599 0.317520142
0.703731716 0.290702134 0.330676585
0.742188215 0.308412224 0.356483012
0.002529999 0.024414998 0.063883997
0.003036387 0.021884998 0.068184771
0.001771226 0.024414998 0.070082158
0.010120321 0.023150159 0.083491325
0.016951319 0.029222161 0.084250323
0.044149093 0.033143386 0.090322867
0.072485805 0.038709641 0.095129833
0.093105704 0.045540992 0.103098996
0.110563003 0.056166999 0.103858091
0.134851009 0.059708685 0.111954488
0.159518868 0.067299195 0.118532866
0.184819505 0.075142413 0.126375899
0.209108278 0.083112165 0.134345159
0.233396992 0.088931128 0.140164122
0.259709239 0.089942999 0.143200248
0.283238798 0.097153798 0.151043639
0.311322033 0.107526958 0.157369003
0.333206981 0.115369730 0.164705992
0.350285023 0.128020138 0.164832219
0.376850009 0.140417174 0.180012718
0.401517749 0.151296318 0.191904157
0.425806254 0.158380955 0.201012030
0.450601012 0.175711483 0.216192335
0.478684813 0.188994169 0.233270004
0.505503118 0.202150270 0.245667160
0.534219146 0.215939298 0.257811159
0.564073205 0.228589252 0.269955963
0.593674898 0.241492718 0.282100171
0.632131577 0.253637135 0.292978972
0.671094298 0.270335227 0.307652980
0.705755889 0.293738425 0.334092021
0.730803013 0.314990163 0.350410998
0.007463549 0.053636547 0.077166550
0.004807387 0.048323542 0.082479544
0.002909773 0.050094545 0.081087999
0.010879320 0.053130709 0.081214614
0.034409001 0.050474543 0.094497450
0.046552997 0.056546543 0.100569457
0.072739087 0.062998094 0.102720000
0.096521437 0.068311088 0.106514834
0.116255544 0.074383095 0.115243092
0.140543565 0.080455102 0.118279479
0.161922410 0.086148188 0.121315867
0.185199052 0.092220441 0.126376003
0.209487736 0.098292544 0.132068455
0.233776525 0.104364544 0.138646513
0.258064538 0.107526667 0.142061681
0.277925611 0.115369789 0.148386806
0.300695986 0.125616536 0.155597642
0.330170602 0.136242583 0.160531536
0.354459435 0.139278978 0.172675565
0.378368020 0.150284559 0.186843827
0.401897281 0.162049085 0.198988184
0.425047249 0.173560664 0.209740967
0.455407977 0.182669044 0.224920556
0.480202794 0.197343454 0.240100920
0.504870534 0.209867001 0.250727296
0.530423760 0.222390771 0.260088533
0.561417043 0.234662026 0.272612125
0.588741422 0.249841616 0.284756899
0.623276591 0.262365669 0.294623703
0.659709215 0.278051943 0.306261480
0.695509493 0.296394587 0.320809186
0.725869536 0.317647010 0.345097989
0.004427936 0.074888937 0.098418936
0.004427936 0.074888937 0.098418936
0.008223000 0.073876932 0.101581156
0.019102093 0.076154098 0.099303991
0.040480997 0.077798933 0.097533062
0.058696993 0.077798933 0.097533070
0.078431316 0.086401254 0.106135383
0.099557050 0.090069868 0.108792000
0.119291253 0.092599861 0.113345936
0.143579960 0.098671868 0.124351479
0.164958805 0.101833999 0.127387866
0.188235447 0.107400060 0.132447988
0.212523937 0.113472342 0.137381360
0.236812130 0.119544931 0.141682118
0.261100888 0.125616923 0.153826892
0.282985717 0.133586049 0.152435064
0.302213997 0.142694190 0.159012988
0.324351549 0.151675925 0.169639200
0.351423055 0.157494977 0.181783944
0.372928441 0.166097358 0.191144586
0.400379449 0.175711662 0.205059797
0.426186055 0.186337858 0.218216315
0.449335992 0.197849438 0.230993330
0.479696810 0.206957847 0.246172965
0.506768286 0.217077628 0.256799281
0.529411912 0.229474649 0.263124675
0.552688181 0.243643194 0.269703001
0.588741422 0.255914390 0.284756899
0.618722618 0.268437862 0.296900988
0.653636873 0.284123927 0.312080860
0.690954924 0.301454574 0.328399509
0.728905976 0.317647010 0.345097989
0.008981999 0.101201318 0.107020997
0.016571674 0.103731640 0.112080999
0.025174223 0.103731640 0.109930225
0.035800479 0.104996800 0.113472320
0.054143317 0.107653640 0.113599092
0.072359324 0.107653640 0.115749314
0.090575315 0.107653640 0.115749314
0.111827694 0.113472603 0.121568702
0.131688416 0.116635092 0.125490308
0.154205993 0.124478318 0.137634322
0.173055187 0.127640441 0.130929545
0.194307566 0.132700831 0.140038192
0.218089998 0.139911324 0.147122324
0.242631033 0.147122025 0.152308643
0.269196481 0.150917321 0.164452821
0.288678288 0.152182326 0.171789989
0.312840194 0.160910830 0.175205514
0.334724873 0.170019045 0.186337620
0.358254343 0.177988335 0.198481962
0.385072708 0.186843693 0.207843289
0.408222795 0.197849303 0.218848631
0.435294300 0.206577986 0.230360314
0.458064497 0.215559497 0.239215672
0.481214494 0.224667907 0.247185096
0.511575222 0.236052990 0.260088563
0.540543914 0.248196974 0.272232980
0.565844178 0.263377398 0.281847239
0.600253165 0.277545899 0.297027111
0.636432946 0.287160307 0.309551299
0.668564439 0.302846253 0.323466063
0.707779765 0.321947902 0.341808587
0.752182364 0.340417325 0.360278010
0.019987702 0.126881406 0.121315695
0.024162030 0.128273085 0.120809697
0.043643247 0.134092405 0.120429926
0.053257700 0.131562412 0.118658699
0.067299537 0.134219155 0.123592831
0.084250703 0.138013989 0.126628771
0.102466702 0.138013989 0.133712694
0.119038403 0.136369690 0.132067993
0.140290812 0.139405310 0.135104373
0.161543220 0.146742478 0.144592002
0.179886028 0.151675820 0.144591823
0.201771230 0.156736210 0.149651796
0.224161983 0.161670059 0.158380926
0.247944057 0.169765741 0.163946986
0.271094114 0.175585121 0.173307985
0.294496894 0.177861989 0.179000705
0.315749675 0.180898368 0.186590523
0.342314959 0.190512672 0.196963847
0.364579290 0.200632438 0.210120007
0.388108671 0.206451342 0.216192365
0.415180475 0.215812683 0.225553706
0.440481126 0.228968814 0.239721715
0.465275198 0.237064913 0.248323694
0.486527592 0.246173322 0.254395694
0.512966514 0.252624691 0.263377547
0.544718623 0.266160339 0.276913643
0.575837791 0.281340778 0.291587979
0.609234571 0.296521127 0.305629224
0.643643618 0.309677541 0.319797665
0.679949462 0.320809633 0.333713144
0.714231491 0.339025676 0.348007411
0.759772301 0.359519005 0.366982728
0.035926998 0.151929095 0.141809002
0.037444998 0.151929095 0.134978101
0.050727773 0.156862870 0.131056324
0.074510090 0.161164105 0.130044192
0.080961540 0.156610101 0.130803198
0.095382832 0.165338263 0.134219036
0.111575089 0.166097105 0.142568007
0.128146797 0.164452821 0.148007482
0.144086093 0.163694099 0.148007289
0.165338501 0.166729718 0.151043683
0.184440091 0.171916097 0.155471191
0.205186397 0.177988604 0.163314089
0.229475081 0.183681548 0.172801644
0.253257096 0.186970189 0.175838038
0.271473736 0.195572510 0.181404084
0.293737978 0.200632393 0.185831815
0.316508412 0.204427481 0.190385997
0.342694521 0.210500091 0.202023745
0.367362142 0.222391099 0.217457160
0.388867468 0.227703720 0.222264454
0.413156211 0.233775914 0.229854733
0.438963115 0.243390113 0.238962993
0.466413975 0.258190989 0.256799519
0.489563823 0.266666800 0.263504118
0.513852179 0.272738814 0.271853387
0.543200612 0.281340748 0.282985657
0.576091111 0.296015084 0.297659993
0.609234512 0.310942411 0.309803993
0.642631412 0.327640831 0.325363725
0.677039862 0.339531958 0.339026093
0.715749323 0.354965150 0.354079962
0.752182126 0.373181194 0.366223991
0.054143012 0.179253489 0.160025001
0.060215004 0.179253489 0.150917396
0.063883781 0.181404263 0.146236718
0.078052171 0.183428496 0.145730674
0.102213934 0.183934510 0.149019986
0.111321554 0.190006495 0.155091986
0.123213157 0.188614666 0.158507183
0.137255192 0.185705215 0.161922738
0.153194487 0.184946492 0.166224077
0.171410501 0.191018507 0.175332472
0.192662865 0.194054112 0.175458983
0.211764470 0.199241012 0.177735716
0.232510805 0.205313504 0.182289496
0.256293505 0.211258993 0.187982053
0.274509460 0.217330977 0.191018432
0.295129299 0.223529488 0.196584493
0.314990401 0.227957174 0.201012209
0.336622536 0.231752485 0.208096534
0.370018989 0.237824515 0.229348958
0.391903877 0.246932119 0.236432999
0.415053964 0.253889948 0.246173471
0.438457131 0.261100829 0.256166995
0.460341960 0.270334989 0.262871504
0.490702003 0.276407003 0.271979898
0.513851762 0.284882814 0.280961782
0.539531827 0.296521127 0.291461468
0.570019186 0.311195463 0.303732008
0.600379884 0.323339462 0.315876007
0.633523285 0.343579769 0.333332986
0.666919649 0.355723977 0.346109718
0.703984737 0.367362171 0.357242107
0.749146461 0.391397953 0.372296005
0.072358996 0.200758874 0.169512868
0.069702871 0.206577867 0.166223511
0.082226649 0.206577867 0.172169670
0.088298708 0.207589984 0.169133410
0.102466680 0.207969546 0.163946673
0.126754925 0.211511865 0.167488992
0.133332863 0.212523863 0.176091313
0.148007542 0.214800730 0.179886028
0.165212005 0.216318861 0.182922095
0.183428004 0.218089864 0.187729478
0.198734879 0.221252725 0.188108996
0.219987243 0.224288344 0.194181249
0.239089161 0.229474992 0.198988110
0.259329885 0.235040992 0.202782869
0.277545840 0.235799998 0.203162417
0.298165649 0.244275808 0.211005792
0.320935875 0.250853866 0.220619872
0.343200266 0.254648983 0.229095578
0.369765997 0.256166995 0.241239980
0.389247000 0.265022367 0.248576999
0.414168358 0.274130493 0.254648983
0.439468980 0.281214863 0.262744993
0.462745130 0.288298726 0.268943518
0.487539887 0.294370741 0.278051913
0.513345838 0.304996759 0.287160277
0.539405286 0.313345879 0.296268314
0.571284056 0.323466003 0.308412194
0.608855009 0.335609972 0.327766985
0.636558950 0.353067636 0.334598005
0.671220481 0.368753821 0.353573173
0.706641197 0.379759431 0.368121207
0.746110141 0.397976011 0.381277859
0.094623499 0.226059243 0.180644989
0.095635369 0.230107501 0.177609116
0.097406767 0.229854241 0.181277543
0.108791992 0.232384235 0.188362002
0.114104785 0.233522788 0.181910053
0.134851187 0.233270183 0.188235447
0.148513258 0.235799968 0.194307566
0.161163658 0.235799968 0.198482245
0.179380253 0.241113171 0.201897502
0.197596267 0.243643492 0.206198737
0.210878849 0.246552855 0.206325248
0.228083506 0.247564986 0.200252995
0.249335885 0.250600874 0.208222732
0.268185019 0.255534470 0.212396994
0.284630239 0.257305264 0.215938985
0.303225815 0.262491763 0.225174055
0.324478179 0.271600187 0.235800251
0.346995234 0.276913255 0.244149268
0.368500710 0.276913255 0.246299982
0.393295527 0.283238351 0.256673008
0.409613758 0.290448964 0.260847747
0.436432868 0.298418730 0.267805129
0.461859763 0.304617226 0.275015503
0.488045812 0.312586963 0.284123898
0.514358222 0.323212981 0.293232292
0.540037870 0.332574368 0.305123657
0.569260061 0.339658499 0.315496445
0.602656424 0.351802498 0.330676407
0.637571096 0.363187909 0.342694521
0.666666627 0.379632980 0.350537270
0.702593207 0.393801153 0.371663183
0.739025712 0.410120249 0.388361990
0.120050631 0.259076267 0.199620277
0.121947892 0.260974020 0.197723016
0.126122415 0.260847509 0.200000271
0.132700637 0.260467917 0.204680637
0.138393179 0.265780926 0.204680637
0.150537565 0.263504207 0.211511925
0.163187638 0.264389604 0.214674637
0.178621054 0.265780926 0.217457637
0.196078718 0.265780926 0.218975633
0.213915303 0.271094620 0.225047633
0.228589281 0.275395393 0.228715986
0.241366148 0.276407272 0.224921018
0.261859626 0.277545631 0.221505269
0.282606006 0.280076027 0.226818234
0.297786385 0.281340837 0.230233625
0.316508591 0.287918925 0.238836229
0.335104167 0.292093456 0.246426642
0.356989115 0.300569266 0.258570611
0.376217306 0.301581293 0.255534649
0.399367452 0.307147294 0.263883650
0.420240521 0.313219249 0.272612363
0.439468414 0.320303410 0.277672499
0.466666967 0.326501906 0.286653638
0.492979258 0.334598184 0.294749886
0.520303905 0.344844937 0.303858280
0.546489596 0.355344355 0.312334001
0.575332105 0.362935066 0.328020483
0.604554057 0.375711620 0.339025825
0.639848232 0.386337817 0.351929307
0.673877358 0.398988008 0.364579380
0.706894577 0.415053457 0.378114820
0.743579626 0.433270276 0.402403623
0.145857036 0.300063044 0.228210032
0.146363035 0.300063044 0.228462994
0.150664032 0.299810022 0.230360731
0.159519076 0.300822169 0.234155893
0.170271575 0.303732038 0.236305997
0.173307970 0.303732038 0.236305997
0.183934033 0.303985000 0.234029278
0.199114412 0.303985000 0.233144030
0.216319054 0.303985000 0.233902991
0.231499463 0.303985000 0.239974990
0.249336004 0.309551030 0.248703152
0.261986256 0.311827987 0.250221282
0.276280999 0.312713385 0.250601023
0.300063044 0.315749049 0.256420016
0.315243453 0.312713444 0.253383607
0.334471792 0.318785816 0.257558644
0.354712069 0.323592991 0.260847986
0.372928113 0.324857980 0.262871981
0.397216946 0.330929995 0.275016010
0.416951030 0.336749047 0.281341016
0.435673505 0.343074054 0.289057732
0.456167132 0.349652141 0.297659874
0.483491480 0.358886987 0.306767523
0.507906020 0.365211993 0.312966019
0.534724832 0.373308331 0.321821302
0.561416984 0.382669359 0.330044031
0.586970091 0.392283142 0.337634146
0.623402834 0.407463491 0.355850905
0.659329593 0.419987053 0.371157825
0.693738103 0.434155196 0.386337787
0.728905618 0.449968189 0.404174179
0.768374026 0.468185008 0.428463012
0.154965416 0.324351817 0.237318411
0.161037415 0.324351817 0.240354031
0.165844411 0.322201043 0.240606993
0.175711557 0.321062386 0.246299893
0.188361824 0.322074533 0.254269719
0.188488349 0.324984401 0.248449981
0.199114412 0.327514052 0.248449981
0.212903112 0.328272969 0.251106977
0.227956995 0.328272969 0.253637284
0.240607083 0.328272969 0.252118975
0.255787432 0.331182837 0.258190989
0.271600246 0.334851116 0.262871653
0.286653996 0.336115986 0.265781403
0.306135058 0.337001413 0.271600366
0.324351817 0.340037823 0.274635971
0.337128371 0.341809213 0.278811008
0.357242376 0.346110195 0.283365190
0.377103239 0.349145979 0.286400974
0.388108581 0.355217963 0.293231964
0.417963356 0.358507335 0.297027320
0.441998899 0.365971148 0.302593410
0.462998390 0.372422665 0.308285862
0.483491480 0.377102941 0.312839508
0.510815918 0.389246970 0.321947873
0.539784968 0.395572543 0.334977657
0.570904672 0.405060351 0.347501367
0.601391435 0.416065872 0.358380526
0.629474878 0.425680250 0.371031314
0.660594642 0.438203812 0.383934379
0.692219913 0.453889757 0.398482174
0.725869358 0.470587969 0.416318774
0.765338421 0.486400962 0.440606982
0.176090986 0.343832999 0.260847777
0.174952790 0.343832999 0.261480212
0.183175027 0.348133981 0.258064598
0.189500302 0.349651784 0.262618601
0.199747264 0.351549357 0.271347433
0.201770991 0.350537717 0.259202898
0.214294791 0.351170272 0.262997806
0.224794492 0.352561593 0.264642507
0.238456890 0.353320509 0.269196898
0.252245605 0.354964793 0.269449502
0.264895648 0.355470836 0.272738814
0.282099783 0.356482983 0.274762809
0.297659636 0.358000785 0.278557986
0.314357817 0.358253807 0.284630001
0.330423832 0.361290187 0.289816350
0.348639965 0.361922801 0.290448815
0.362302154 0.364959180 0.296521187
0.382669330 0.368627608 0.300442576
0.397090644 0.374699622 0.304743767
0.418469548 0.377988338 0.310436338
0.443137556 0.384819746 0.315369993
0.466919988 0.392915994 0.321441978
0.488298476 0.397596270 0.325869292
0.515622914 0.407463610 0.330423683
0.540670574 0.417330891 0.339532077
0.569386661 0.424921066 0.351676106
0.600759089 0.436053127 0.362808138
0.631878436 0.447059214 0.374952912
0.661859632 0.458823770 0.391903967
0.699304342 0.470967740 0.400505960
0.730423570 0.487918764 0.417330742
0.762302160 0.504616976 0.443136990
0.198861182 0.363567173 0.279064178
0.198861554 0.368121386 0.285136193
0.198355421 0.367868185 0.276280999
0.207463354 0.375205338 0.276534140
0.213029996 0.380391836 0.286527663
0.214927256 0.377355903 0.275901258
0.226565316 0.378368199 0.276913375
0.236938491 0.379886389 0.281340688
0.247564897 0.379127294 0.282859057
0.262745261 0.380644917 0.284376889
0.275016159 0.379253179 0.287412852
0.291208178 0.382289559 0.289943188
0.308285803 0.383427918 0.292220175
0.323466212 0.383554429 0.297533154
0.338646591 0.384060800 0.299809963
0.356230170 0.387729377 0.305629194
0.371410161 0.386211157 0.307147354
0.387223125 0.388614982 0.312586784
0.405439943 0.392915994 0.315622956
0.424921185 0.397722840 0.319924176
0.447691739 0.403035730 0.325996190
0.469956011 0.412144125 0.332068175
0.494243979 0.418722183 0.338140160
0.520177066 0.426438868 0.342567891
0.546742558 0.435547262 0.351676106
0.572422683 0.443263978 0.359393179
0.599241138 0.453763306 0.367868394
0.629601598 0.467932075 0.377988905
0.661859632 0.478557974 0.395445973
0.699304342 0.490701944 0.414168179
0.737381577 0.504617155 0.420240164
0.762302160 0.522833347 0.443136990
0.218848556 0.386084557 0.290702403
0.221252382 0.395192921 0.299683988
0.220619783 0.396331340 0.295635790
0.222643718 0.396457702 0.289943129
0.231372565 0.405566096 0.297533393
0.231878549 0.403541774 0.294497043
0.240101144 0.404300869 0.295888722
0.250221133 0.406704694 0.297659844
0.257937640 0.408855438 0.300442487
0.273118049 0.405819058 0.297406882
0.284756720 0.402782857 0.300189674
0.300316572 0.405186504 0.302593231
0.318659186 0.410120487 0.307400554
0.333586574 0.412650108 0.313219517
0.348387390 0.409614414 0.310942143
0.365338564 0.413156539 0.316255361
0.381151140 0.415939361 0.322960168
0.394560128 0.413535535 0.326628953
0.412776947 0.413535535 0.329664588
0.430360585 0.418469131 0.330803335
0.451739460 0.423908561 0.336369574
0.474762976 0.430360287 0.340543985
0.499051005 0.439342141 0.346868962
0.523339808 0.445414126 0.353952974
0.549272716 0.454395831 0.363314182
0.578494668 0.462112546 0.373307765
0.606325150 0.469196558 0.380392551
0.630866826 0.487160295 0.386717558
0.661227167 0.498039305 0.402150542
0.698039353 0.509550512 0.420872748
0.735484004 0.522200763 0.439595163
0.762808442 0.540417552 0.445667148
0.234029010 0.413409054 0.311954051
0.234029010 0.422517419 0.308918446
0.234282047 0.425174028 0.309298009
0.237824172 0.424921006 0.310562998
0.246553019 0.426818579 0.315749466
0.252624989 0.435926944 0.312713087
0.255661309 0.433902651 0.312207013
0.264389962 0.433017015 0.310815781
0.276027948 0.433270067 0.309803903
0.288298488 0.433143526 0.312586546
0.297659874 0.430107892 0.315369934
0.311069280 0.431119680 0.316382051
0.328779638 0.434408695 0.320050716
0.348767012 0.436938971 0.328399956
0.360911012 0.433902591 0.331435561
0.375711828 0.435673863 0.333965808
0.391145170 0.438962817 0.339026004
0.406704932 0.440860003 0.344844997
0.424921006 0.440860003 0.350917041
0.440354407 0.443643361 0.345604002
0.459582746 0.446932256 0.349778771
0.480076015 0.451233298 0.354585886
0.499051034 0.457558960 0.352941006
0.523339808 0.463630944 0.365085036
0.547628045 0.474256963 0.372169614
0.577735364 0.483364999 0.380139261
0.612397134 0.490449011 0.389500171
0.642757893 0.502593040 0.401644945
0.667298913 0.515243769 0.413282990
0.697659612 0.528905749 0.427704155
0.729158938 0.542947233 0.443390608
0.753700078 0.555598021 0.457812011
0.263124734 0.471347481 0.338773072
0.265907377 0.469323128 0.338520139
0.270208925 0.471979737 0.337634742
0.272738934 0.473244905 0.338899583
0.277672380 0.474004090 0.342314929
0.278937370 0.471094668 0.339279145
0.287539691 0.472612739 0.341302752
0.294370651 0.471474081 0.339911461
0.305376202 0.472232997 0.339152753
0.317520738 0.474256724 0.344212592
0.326754868 0.471347600 0.344465584
0.339911252 0.474383742 0.349525750
0.355091631 0.474763095 0.351043761
0.372549027 0.473118752 0.354712337
0.387223363 0.477672696 0.357747972
0.394560367 0.474636286 0.353573382
0.410120398 0.478431374 0.358507186
0.426565796 0.481467336 0.363946795
0.442631036 0.479317099 0.363567024
0.463630378 0.487665743 0.375205755
0.482605755 0.486907125 0.376723737
0.502846301 0.487160087 0.381910354
0.521442175 0.489690363 0.381151229
0.548387229 0.495762408 0.390639096
0.570398629 0.506388366 0.395951807
0.596964061 0.518532395 0.402909666
0.628083766 0.527893484 0.412523717
0.651613235 0.537760735 0.424667925
0.684630096 0.552561522 0.436812013
0.716382027 0.564832330 0.450727195
0.749905348 0.579000294 0.469449610
0.777988374 0.593042374 0.492220044
0.283997715 0.501707971 0.352815002
0.283238351 0.504364371 0.358507246
0.290322542 0.501580954 0.360404998
0.296395004 0.505376101 0.359139830
0.299304187 0.508918524 0.360151559
0.297785997 0.504364729 0.357115924
0.309171319 0.503352702 0.361037403
0.319923997 0.506641686 0.362428725
0.327766836 0.506388605 0.360404998
0.336495936 0.507147253 0.364199996
0.347627848 0.506261826 0.366350740
0.360783964 0.507400692 0.366603762
0.375964373 0.510057092 0.371537119
0.391144753 0.505502999 0.372295976
0.406325132 0.509930670 0.373687297
0.418089747 0.510689616 0.377102762
0.431751937 0.509171426 0.374066740
0.449082971 0.513851881 0.381403983
0.462997794 0.513345957 0.382162780
0.481846839 0.513852119 0.387349725
0.503099203 0.519164741 0.395698994
0.522327602 0.518153131 0.399746984
0.539405704 0.519418240 0.399873495
0.557874918 0.527261436 0.405439883
0.586337984 0.532194734 0.411891460
