Assets/Shaders/EldamarStudio/100 Sci-Fi LUTs Pack/LUTs/cube/Heyange LUT.cube
LUT_3D_SIZE 8
DOMAIN_MIN 0.000000 0.000000 0.000000
DOMAIN_MAX 0.903226 0.903226 0.903226
0.023529001 0.039216001 0.043136999
0.080708094 0.036052998 0.051359549
0.150411084 0.047817905 0.065022096
0.228715986 0.061100997 0.092473000
0.325869381 0.073624000 0.127640992
0.442504466 0.080455266 0.162555248
0.594307303 0.075521715 0.215306699
0.765338421 0.075900987 0.256419808
0.031752452 0.100695543 0.069323547
0.084250547 0.104617544 0.080328546
0.153953552 0.108159088 0.092473000
0.236179724 0.113978542 0.115496539
0.327767015 0.125363901 0.149272546
0.448703289 0.131688997 0.184819996
0.600126147 0.130550250 0.225174025
0.759140015 0.143074065 0.267299086
0.011764999 0.190385997 0.139405191
0.076027997 0.191524535 0.135483995
0.170778006 0.202150196 0.157495201
0.256926209 0.202909291 0.171157449
0.350790471 0.212271094 0.191144899
0.477292746 0.220493346 0.225553364
0.620872676 0.235800281 0.255408287
0.784946442 0.259203106 0.288931072
0.000000000 0.301707923 0.213029996
0.025174003 0.311195612 0.216318995
0.159772098 0.318659276 0.221631989
0.277545631 0.325743258 0.234914273
0.392283380 0.325743258 0.253131092
0.508159459 0.334724933 0.274889380
0.641492903 0.352181971 0.298292279
0.798734784 0.381910086 0.337887615
0.000000000 0.445667386 0.282100171
0.001138644 0.453889906 0.276533991
0.123845913 0.459709257 0.280455291
0.283491194 0.467552364 0.295762330
0.426059365 0.475522190 0.299303979
0.557242215 0.484376907 0.326628447
0.682985306 0.498039454 0.354079276
0.817457438 0.526628733 0.401517957
0.002024260 0.622896969 0.358507246
0.001897740 0.627197921 0.368753910
0.138519645 0.627704084 0.366097629
0.312207371 0.633396864 0.374825835
0.463124633 0.632258177 0.388108701
0.591271460 0.640354216 0.409360737
0.726249278 0.650853574 0.437318206
0.846046627 0.670082271 0.474383622
0.169892371 0.764579535 0.452877998
0.240480632 0.760784566 0.456799716
0.322453737 0.765464783 0.467678368
0.421378821 0.771789968 0.475901634
0.527640402 0.767868519 0.487160087
0.638203740 0.769765794 0.502340317
0.747248292 0.777988315 0.521821260
0.858317494 0.791777134 0.556862533
0.477798581 0.881467640 0.567741632
0.512207270 0.886274338 0.572928786
0.541682541 0.888424873 0.576090932
0.593295574 0.885135949 0.580265820
0.653889656 0.889437139 0.587476134
0.733333290 0.889183760 0.597722948
0.804680526 0.894496799 0.611384809
0.885388970 0.894370675 0.634281754
0.003542452 0.039974999 0.157874644
0.093232095 0.035673548 0.168880552
0.169639543 0.051739097 0.173940182
0.233522981 0.076407455 0.193548188
0.322200924 0.092473187 0.225553378
0.453004748 0.096141741 0.264895797
0.590891838 0.082479522 0.296900779
0.762681603 0.056799546 0.322833657
0.010626453 0.129285097 0.184946090
0.049715541 0.123087004 0.192789078
0.167994753 0.111321993 0.194686636
0.232637286 0.117899731 0.209614545
0.333333641 0.128905728 0.238962904
0.451866060 0.138773009 0.267172962
0.598861277 0.126502261 0.300822288
0.769892573 0.125110358 0.331562370
0.003162904 0.203668192 0.221758187
0.066666909 0.203288645 0.223276183
0.154333100 0.207210645 0.237444997
0.250601202 0.199747100 0.246046990
0.351549566 0.207969740 0.271094173
0.483365089 0.210753009 0.285515755
0.621758461 0.215433195 0.314990193
0.779885709 0.238203600 0.344085902
0.000000000 0.304111630 0.272106528
0.029854808 0.307780176 0.275775194
0.145604104 0.308918625 0.276786715
0.269323200 0.316255271 0.287792623
0.381656915 0.323718935 0.307400614
0.506008983 0.326881617 0.324351192
0.651106894 0.346869200 0.348892987
0.803921402 0.383048892 0.390765369
0.000379548 0.443263561 0.324225277
0.003415642 0.443263471 0.337128729
0.117267549 0.450727522 0.338772833
0.272612303 0.460594445 0.348386735
0.415053368 0.467172712 0.354965061
0.547754705 0.472611904 0.376850098
0.677798986 0.494497031 0.403035820
0.821505308 0.525490046 0.446805924
0.000000000 0.615306914 0.404933721
0.004554189 0.614927292 0.402909547
0.130297199 0.618722260 0.415686309
0.304111272 0.625174165 0.417077929
0.456167102 0.626945019 0.431119710
0.585452199 0.634914875 0.449209541
0.719797373 0.643769562 0.467931837
0.843263805 0.668437839 0.513092875
0.155850619 0.755218267 0.482605964
0.222011387 0.762049317 0.481594265
0.311195642 0.757242084 0.491461098
0.417583555 0.760278225 0.499051094
0.528273344 0.763314128 0.512839854
0.638583183 0.766603291 0.527513862
0.753068030 0.779506564 0.550664306
0.865907371 0.793168962 0.581404209
0.497912854 0.874636352 0.580897868
0.523339391 0.882985532 0.583934128
0.546995580 0.882099569 0.588488281
0.599114239 0.885515451 0.593674600
0.661227167 0.885135949 0.606451452
0.737001777 0.887918949 0.616698027
0.808222771 0.890575767 0.628589690
0.883364797 0.896141469 0.642883897
0.003162904 0.050094996 0.307147175
0.029728092 0.052498192 0.305123627
0.196584284 0.043896094 0.323592275
0.310436606 0.026818812 0.320050538
0.376723468 0.064516000 0.328273207
0.462745368 0.098545261 0.355976820
0.606072247 0.096520998 0.406578094
0.769133568 0.082353003 0.442251921
0.006704549 0.144971088 0.325996101
0.006325001 0.117520183 0.329538524
0.162049204 0.116381548 0.332954079
0.303099185 0.095635906 0.335357189
0.392156810 0.107779734 0.346868843
0.466413736 0.138014004 0.365844280
0.611132264 0.136748642 0.414927542
0.774572611 0.138266638 0.445414603
0.003162904 0.270968199 0.355724186
0.001138547 0.265148640 0.355217844
0.104111187 0.224035293 0.362682194
0.285388827 0.203415543 0.377609313
0.421505183 0.192789197 0.385705084
0.491081476 0.213156104 0.390512556
0.631119430 0.218596101 0.434914678
0.786717296 0.246932328 0.464516163
0.003162904 0.371536821 0.395825714
0.003162904 0.372295916 0.396584719
0.106515095 0.372675478 0.405312836
0.258317351 0.353826374 0.409107834
0.424035639 0.308412343 0.418975383
0.514737666 0.323339283 0.426059484
0.655534506 0.342315108 0.462618440
0.802403092 0.383048892 0.486274630
0.000000000 0.471600175 0.433017164
0.001517999 0.476786762 0.451739520
0.120177187 0.481847167 0.452751279
0.274004072 0.475395262 0.460214823
0.412017465 0.475522012 0.469323069
0.543832839 0.474256843 0.480708599
0.679822564 0.494876564 0.499810100
0.814041495 0.536622345 0.539278984
0.000759103 0.618975461 0.510183334
0.013156299 0.616571546 0.511701167
0.151296496 0.616445482 0.512587190
0.305249989 0.619227946 0.521948040
0.451360106 0.625933111 0.526249051
0.577482700 0.631752074 0.536622405
0.714737713 0.642630994 0.557748199
0.834914744 0.673877299 0.579632759
0.183934271 0.756736338 0.557115495
0.239847913 0.756357014 0.553194344
0.325489938 0.756103516 0.558886886
0.430487096 0.759266436 0.566097319
0.539911568 0.759898603 0.582036555
0.647058964 0.767362177 0.586717069
0.753573656 0.777988315 0.606578052
0.865022004 0.795319438 0.628210187
0.507273674 0.878810823 0.615939081
0.527893662 0.880076051 0.621378958
0.564958632 0.880075991 0.634029090
0.615180492 0.882985413 0.637065351
0.676153958 0.883491695 0.643263936
0.742694318 0.884376884 0.649462342
0.812397301 0.891334474 0.665907741
0.883491635 0.899050891 0.679190636
0.000000000 0.072359636 0.493864655
0.000000000 0.066160642 0.497026891
0.180518642 0.057305805 0.495762378
0.349905282 0.012270648 0.508412302
0.501707733 0.000000000 0.515496492
0.599114358 0.004807100 0.511954546
0.651992202 0.023023352 0.515243232
0.778494358 0.058444344 0.550790668
0.000000000 0.150411099 0.508032918
0.005566002 0.145350724 0.504996777
0.133080184 0.128146634 0.519038737
0.336369634 0.105123103 0.523339391
0.488804460 0.046173271 0.513725340
0.605186582 0.003036191 0.521695197
0.653889775 0.082859166 0.519165039
0.784693122 0.130423829 0.551802695
0.004301451 0.309424281 0.541303277
0.000379548 0.287792623 0.537760794
0.003542455 0.236559093 0.550917149
0.294876754 0.218596101 0.555217803
0.477799207 0.191145003 0.549651921
0.615432918 0.155850813 0.548513412
0.686400950 0.193927839 0.555217981
0.798102319 0.234281987 0.572675169
0.004553996 0.473118275 0.571157277
0.000379548 0.467931837 0.571916342
0.018216379 0.443769723 0.580265641
0.225047559 0.371157289 0.584566295
0.429474920 0.337887526 0.584819794
0.605439484 0.309677631 0.578368306
0.701201797 0.328652561 0.577356040
0.811638415 0.377356082 0.594433844
0.005186551 0.567995071 0.600758851
0.003162904 0.567109466 0.601012290
0.106388383 0.576723456 0.608601928
0.300316453 0.577102780 0.610878825
0.440733552 0.534218371 0.615180194
0.581657052 0.482353091 0.617204428
0.717393875 0.484124094 0.607969701
0.818975270 0.536495864 0.620746255
0.060847625 0.670714438 0.636812031
0.147248372 0.674762964 0.634155393
0.260468215 0.674256742 0.639342368
0.384187162 0.670714498 0.641619623
0.503731906 0.674383461 0.645920217
0.614800572 0.668058157 0.651359856
0.722454250 0.642251611 0.644149184
0.837444544 0.679443300 0.657811463
0.260594815 0.762808204 0.643263936
0.297912657 0.762049079 0.645414650
0.363314182 0.758001149 0.647944450
0.452118844 0.763946831 0.650601029
0.548007488 0.763946533 0.655660629
0.662112832 0.767741859 0.667298913
0.766350210 0.772422254 0.676407278
0.864642739 0.793674707 0.692979217
0.497153729 0.880329013 0.670334935
0.523592532 0.880076051 0.674763083
0.564958870 0.880708575 0.677166283
0.622137606 0.882099807 0.688804626
0.687539399 0.882858992 0.698924422
0.763946891 0.881467640 0.710815847
0.828462839 0.887666225 0.718152821
0.890575767 0.894496739 0.732320786
0.001518192 0.104110993 0.659835577
0.001518192 0.103351995 0.669829667
0.111195281 0.092346989 0.672486186
0.345351100 0.054395743 0.679443181
0.514737189 0.000000000 0.683365166
0.656040728 0.002024260 0.674130380
0.789879739 0.000000000 0.678810954
0.875521779 0.000000000 0.687666059
0.003162807 0.168121547 0.670714378
0.000000000 0.168374375 0.676027834
0.020872828 0.154712364 0.668311298
0.317267388 0.131182730 0.670334935
0.493485302 0.087286547 0.678304791
0.644908369 0.007210735 0.676281095
0.786717474 0.001897740 0.678304791
0.880455613 0.001897640 0.691208124
0.000000000 0.315749288 0.683491290
0.000000000 0.298292458 0.692472875
0.000759096 0.262365490 0.688931346
0.272991836 0.239974633 0.690195799
0.469449967 0.220746294 0.696141899
0.627197862 0.190638632 0.693485320
0.786464453 0.123719193 0.689563513
0.881467283 0.161037341 0.702719986
0.002276998 0.484250486 0.698292136
0.001138547 0.481088191 0.701960802
0.041366190 0.441239804 0.701075554
0.183807641 0.393169105 0.706894338
0.428336382 0.367868453 0.704996765
0.603541911 0.351928800 0.703099251
0.773434579 0.313978255 0.699937105
0.892220020 0.327387691 0.709803879
0.056166913 0.643516958 0.714484334
0.085262187 0.636685789 0.716128826
0.254395634 0.623782277 0.718659163
0.377103359 0.604553938 0.722707093
0.451739371 0.553320408 0.719544172
0.587223470 0.522074759 0.724604845
0.763820231 0.488045275 0.716382086
0.872738957 0.504364192 0.706515014
0.307526916 0.727766931 0.734472036
0.329664737 0.733713210 0.738013804
0.401138753 0.731941521 0.739658654
0.480581731 0.734345317 0.743074059
0.570904374 0.733080149 0.745983422
0.655155122 0.704364479 0.737254679
0.753953159 0.664263427 0.738646448
0.861100495 0.668690503 0.732321203
0.408222616 0.800126314 0.748893142
0.429348618 0.804933548 0.749019444
0.466540366 0.806578040 0.753447115
0.527008176 0.805312991 0.752308607
0.618595541 0.802530169 0.755597651
0.704491019 0.800632536 0.754712164
0.791524410 0.802529991 0.764452934
0.865907669 0.797090173 0.757115662
0.483111948 0.883111954 0.749019504
0.505502820 0.881720603 0.737381577
0.545097888 0.883997381 0.739152253
0.606704652 0.885515451 0.748133838
0.687159777 0.880961597 0.755724192
0.768247724 0.885768592 0.766982794
0.839974761 0.885136008 0.775205553
0.896900594 0.893231928 0.790512562
0.000000000 0.142820731 0.773940742
0.001518192 0.147627741 0.779127300
0.018722450 0.143073738 0.774952471
0.287666112 0.126628473 0.778620839
0.469955832 0.095256090 0.783807456
0.615180492 0.038330454 0.778114736
0.756356776 0.000379548 0.785578728
0.910942256 0.002530012 0.786970019
0.000000000 0.198608547 0.772169292
0.000000000 0.195825279 0.773940742
0.000759110 0.187982082 0.777482212
0.264642358 0.180139184 0.777988672
0.454142630 0.158760279 0.785072565
0.607336998 0.132447630 0.782163322
0.752561629 0.071727008 0.782163322
0.911068618 0.006957808 0.792283356
0.000000000 0.311448544 0.787602484
0.004427552 0.291334391 0.795699000
0.002024262 0.288045496 0.790259123
0.230740190 0.275268614 0.786590755
0.434408814 0.270967990 0.791271746
0.591650963 0.249335825 0.791397691
0.734471917 0.229981288 0.783301771
0.909424245 0.176976755 0.801897585
0.004048004 0.475774914 0.801265061
0.023149816 0.469955355 0.795066655
0.052371822 0.447185367 0.800758839
0.214168191 0.412650377 0.797596753
0.429854542 0.407969266 0.798987746
0.581783772 0.395698994 0.797975957
0.733839095 0.384440094 0.800505817
0.902593195 0.351043522 0.810499668
0.267298818 0.638203800 0.802656472
0.305376172 0.637065172 0.807337165
0.364958823 0.627577484 0.805945456
0.407969803 0.605566382 0.799999952
0.462492377 0.562807918 0.808349133
0.594433486 0.545983493 0.808222473
0.731562316 0.538140357 0.809234619
0.900442481 0.500442743 0.813409269
0.455914199 0.768121481 0.825173736
0.466540188 0.766097724 0.814168274
0.508285940 0.764073431 0.819607735
0.554332495 0.754332721 0.820240617
0.616192460 0.735483766 0.822896898
0.665528476 0.701328456 0.821125746
0.759013474 0.681594014 0.825300276
0.895002961 0.658444226 0.816951215
0.544718683 0.830866337 0.835294008
0.555850565 0.833523035 0.838456511
0.578874171 0.833270073 0.835547268
0.626818299 0.840227664 0.839215577
0.685641885 0.843390465 0.843517065
0.758760214 0.844275951 0.837444723
0.816445291 0.832131267 0.838583231
0.888931096 0.808222711 0.834408402
0.606704533 0.902213931 0.861732781
0.625426710 0.906008959 0.854522586
0.632890522 0.906135142 0.853004456
0.666666627 0.904870510 0.847058952
0.717773378 0.902593255 0.849842012
0.787223399 0.899303794 0.841366291
0.851107121 0.899303973 0.851739645
0.908791780 0.896394789 0.851233542
0.000000000 0.191777274 0.864642560
0.003794996 0.190891743 0.866287291
0.000000008 0.191777274 0.864642560
0.223655641 0.190132990 0.873624623
0.409108371 0.186210990 0.866919279
0.561037183 0.175458536 0.868564010
0.698292315 0.163946569 0.871473849
0.830360532 0.149272740 0.871220827
0.002403711 0.232890815 0.866919279
0.000000000 0.231246114 0.861859560
0.003162910 0.232131630 0.866539836
0.216192380 0.230613619 0.872865558
0.406578153 0.229348361 0.872991920
0.560405076 0.225679919 0.870841265
0.696647584 0.220746100 0.871220827
0.828589320 0.209614098 0.876281261
0.003162904 0.319544196 0.873371184
0.002024260 0.322200894 0.876787066
0.002277299 0.321188897 0.870841265
0.209108204 0.318153024 0.875142634
0.404933393 0.321062595 0.872485995
0.548007429 0.317014456 0.878684402
0.697406411 0.319291562 0.874636412
0.825300336 0.310815811 0.876281023
0.039848186 0.478810936 0.873624384
0.043263733 0.477166176 0.874256968
0.060721111 0.457811713 0.877545953
0.269449562 0.442378253 0.885895252
0.426565468 0.448830068 0.880835176
0.567109346 0.446046829 0.881720722
0.699430645 0.445793897 0.880834877
0.827451289 0.440101355 0.881341100
0.399114728 0.648703396 0.880455315
0.398102462 0.650853813 0.881088197
0.415812671 0.635294318 0.884124041
0.439721614 0.612397075 0.886780560
0.492220163 0.581151366 0.886780500
0.603795171 0.579633236 0.884630024
0.716635048 0.575585067 0.889563262
0.840227485 0.565464735 0.890195966
0.547122002 0.774193287 0.885515749
0.561669886 0.771157324 0.880455554
0.582542539 0.770018995 0.887033582
0.615306616 0.766477168 0.886654139
0.649082899 0.745983541 0.885009468
0.673877060 0.716508448 0.892599523
0.760404706 0.709551036 0.892473102
0.858950019 0.697153449 0.895003140
0.651486516 0.860721052 0.903858006
0.658570528 0.859329700 0.892472982
0.667805314 0.861353517 0.896774054
0.705882132 0.861353278 0.903352380
0.741808653 0.860468149 0.897533178
0.794053972 0.849968493 0.901201785
0.826691985 0.832258284 0.907779932
0.891840637 0.817204297 0.903352261
0.713219702 0.911321819 0.918405831
0.722707093 0.916255414 0.924351513
0.731182635 0.916255474 0.917900085
0.755724192 0.921315610 0.918785393
0.784693003 0.925110459 0.924604595
0.831878722 0.922201097 0.925110281
0.880076289 0.932067990 0.922580242
0.924098372 0.929285109 0.914358020
0.005312988 0.247311965 0.940037966
0.000000000 0.245919973 0.938140273
0.001265167 0.252498806 0.945350945
0.164959088 0.248070762 0.944085777
0.368880361 0.257811785 0.943833172
0.513472736 0.267552048 0.945856869
0.646173775 0.280329049 0.947628200
0.778114974 0.286653787 0.942694783
0.000000000 0.283871114 0.936369181
0.000000000 0.289310813 0.934598386
0.000759001 0.288045645 0.934092581
0.178241596 0.290322423 0.944339097
0.372043282 0.297912508 0.946742654
0.517267287 0.307020694 0.946869135
0.646805882 0.316002458 0.947248638
0.769892335 0.326502144 0.944718659
0.001897736 0.362555087 0.945350945
0.000379548 0.366477102 0.944971442
0.018975284 0.365211934 0.947374940
0.224541217 0.373054892 0.945983529
0.390259296 0.376090914 0.948387086
0.530676723 0.384693086 0.945350945
0.655914307 0.395825446 0.946236372
0.780012727 0.401138812 0.949145913
0.069070272 0.499304295 0.945477486
0.093105659 0.488804579 0.948134005
0.194433704 0.483997583 0.953700125
0.326502085 0.487413108 0.950411022
0.447058856 0.490322649 0.944718361
0.561669469 0.494117439 0.944718599
0.681088150 0.498418897 0.949272335
0.793801606 0.504743814 0.948134005
0.456925958 0.656546354 0.947121978
0.452624738 0.656546533 0.941429436
0.446552724 0.640607238 0.945983708
0.461859375 0.619607627 0.947248518
0.528273404 0.612397015 0.952814758
0.621252298 0.616698205 0.952435076
0.713219702 0.613409400 0.950158238
0.815053940 0.610246539 0.952055633
0.656926155 0.795066774 0.948387086
0.660467923 0.794560254 0.952055633
0.671220660 0.791397631 0.944338977
0.666160405 0.776597142 0.942314863
0.663630724 0.750790298 0.948513567
0.697406590 0.729411542 0.950537801
0.767615438 0.729791045 0.952435076
0.845161378 0.726375461 0.954838574
0.735863209 0.876154304 0.950537622
0.742188334 0.873498082 0.954079390
0.751296401 0.876028061 0.952688217
0.771663427 0.875395298 0.952182114
0.800632477 0.873498023 0.956230164
0.822770596 0.867931783 0.955850780
0.828336358 0.842758000 0.954712451
0.890069366 0.840480685 0.960910797
0.790006399 0.931055963 0.958380759
0.792283177 0.928399801 0.959139824
0.804174721 0.934851110 0.958253980
0.822517812 0.937507927 0.960530937
0.841745794 0.937128425 0.954332590
0.875901639 0.948513508 0.964453101
0.908665657 0.948387206 0.967742145
0.945603609 0.944085777 0.968753815
