Assets/Shaders/EldamarStudio/100 Sci-Fi LUTs Pack/LUTs/cube/Heyange LUT.cube
LUT_3D_SIZE 5
DOMAIN_MIN 0.000000 0.000000 0.000000
DOMAIN_MAX 0.903226 0.903226 0.903226
0.023529001 0.039216001 0.043136999
0.133712694 0.049335711 0.065022290
0.270714819 0.066666998 0.104616992
0.474889249 0.078431003 0.172675252
0.765338421 0.075900987 0.256419808
0.020873006 0.161543399 0.117393695
0.146489412 0.177861989 0.134724990
0.296268374 0.183428109 0.169386402
0.511448383 0.203036115 0.223276272
0.782922149 0.228589535 0.282858938
0.003289416 0.378621399 0.251739413
0.104617000 0.386211067 0.249462694
0.353193790 0.397596806 0.275900990
0.566097558 0.412650377 0.310562968
0.820872962 0.456546783 0.371536791
0.000000000 0.655281246 0.377735376
0.119291760 0.665401518 0.382795691
0.406325221 0.667046249 0.405186534
0.632764101 0.677799106 0.435673267
0.851359785 0.703984976 0.490828514
0.477798581 0.881467640 0.567741632
0.527513981 0.885388911 0.574573100
0.622770429 0.890575647 0.583301604
0.754079759 0.891207755 0.602023900
0.885388970 0.894370675 0.634281754
0.003922000 0.049335711 0.272991687
0.172295704 0.043136999 0.279569685
0.315243393 0.063757285 0.288045675
0.494117707 0.101581134 0.354712129
0.769892454 0.081087835 0.413915396
0.003922000 0.231499404 0.308665425
0.086653702 0.199746698 0.310310125
0.350537807 0.168374285 0.338393122
0.516382098 0.189626977 0.374067247
0.783934355 0.215559676 0.426059514
0.001644708 0.400506109 0.388109118
0.094117582 0.411385179 0.392915577
0.341050088 0.406451523 0.409993827
0.565085351 0.401897520 0.427324504
0.808981717 0.462492228 0.483617663
0.000000000 0.651360273 0.492472827
0.132068217 0.659202814 0.500695705
0.404680520 0.659456015 0.511321843
0.624288559 0.669956148 0.534851432
0.848576903 0.700695932 0.577103078
0.507020712 0.879822910 0.609360814
0.553320289 0.879822910 0.618595660
0.642757714 0.883618116 0.629980981
0.759645760 0.889943182 0.646679342
0.886021674 0.900315762 0.672612488
0.000000000 0.089563578 0.597090185
0.071600288 0.069955580 0.600632548
0.439468831 0.000632584 0.602277279
0.674256802 0.000000000 0.599999905
0.795192838 0.006451851 0.598229289
0.001644708 0.269070089 0.621505499
0.001644708 0.218722284 0.623149812
0.401897520 0.183428124 0.623149753
0.665781021 0.092852391 0.620114088
0.812144339 0.186211079 0.616824687
0.005819429 0.566983223 0.658444226
0.023655981 0.546363175 0.660974026
0.342188358 0.461732805 0.659709215
0.640606940 0.406831205 0.660088539
0.829854190 0.443643600 0.650601268
0.227577031 0.717267275 0.690448940
0.327513933 0.720935941 0.698798358
0.488677770 0.721821785 0.693991125
0.673244953 0.719670892 0.700442553
0.843896270 0.710310221 0.701960921
0.485641748 0.878178239 0.702086985
0.538013756 0.878431499 0.705629289
0.650221407 0.880075991 0.710562706
0.785452068 0.880708396 0.737507761
0.897786140 0.897153616 0.766350627
0.001012128 0.155977130 0.800252974
0.002529998 0.155977309 0.803795159
0.372169793 0.135483831 0.801897526
0.639469028 0.076786987 0.797343135
0.890955091 0.001265167 0.803921521
0.004554003 0.271979809 0.809361219
0.000000000 0.272359282 0.812271118
0.347880960 0.256040692 0.809740722
0.626818478 0.230360404 0.813662529
0.891208053 0.172675610 0.820873141
0.173813760 0.566603601 0.821758270
0.243263990 0.551929235 0.828336418
0.359645933 0.500948787 0.828969002
0.610878825 0.482732773 0.822770119
0.875268877 0.443137378 0.825173974
0.505503118 0.793422103 0.845414281
0.543200374 0.791398108 0.838077426
0.624920964 0.778367937 0.844022810
0.714105248 0.734725058 0.841366291
0.888677955 0.703985155 0.845034897
0.636812091 0.904490709 0.880708456
0.669070244 0.904870391 0.873497784
0.714357913 0.908159196 0.869829118
0.810246825 0.910436273 0.866919994
0.912080944 0.906767786 0.873751104
0.005312988 0.247311965 0.940037966
0.000000000 0.251233637 0.944085777
0.281973392 0.254522383 0.950663984
0.552182317 0.269323081 0.945350945
0.778114974 0.286653787 0.942694783
0.004174720 0.340796798 0.944085777
0.001012124 0.340164214 0.945350945
0.299683809 0.350284696 0.944086254
0.556483328 0.361163795 0.943326950
0.780012608 0.377862304 0.949904799
0.300316215 0.580771744 0.943327248
0.318026274 0.559139609 0.950158119
0.432004571 0.549398959 0.947248399
0.616445422 0.554585636 0.951549649
0.800379753 0.555976927 0.951170206
0.680202603 0.816319108 0.952688158
0.694497228 0.817710102 0.949145973
0.713219464 0.803921521 0.949272752
0.733080268 0.761796415 0.951802671
0.854269505 0.753953099 0.955850780
0.790006399 0.931055963 0.958380759
0.799620330 0.932827115 0.954206049
0.830993235 0.936875343 0.965591371
0.885515630 0.949272633 0.964452684
0.945603609 0.944085777 0.968753815
