Assets/Shaders/EldamarStudio/100 Sci-Fi LUTs Pack/LUTs/cube/Heyange LUT.cube
DOMAIN_MIN 0 0 0
DOMAIN_MAX 1 1 1
LUT_3D_SIZE 32
0.023529001 0.039216001 0.043136999
0.029601775 0.036179613 0.043136999
0.042125225 0.035294000 0.040986773
0.059835162 0.035294000 0.043010838
0.080708094 0.036052998 0.051359549
0.098924868 0.042124998 0.054395933
0.117140993 0.048197001 0.062492318
0.133712694 0.049335711 0.065022290
0.150411084 0.047817905 0.065022096
0.171663478 0.050853521 0.074130483
0.181277871 0.056799740 0.077419132
0.202530235 0.058823999 0.084503256
0.228715986 0.061100997 0.092473000
0.252498060 0.066666998 0.098545000
0.270714819 0.066666998 0.104616992
0.298544973 0.069070190 0.115496606
0.325869381 0.073624000 0.127640992
0.352055520 0.078431003 0.139784977
0.385452002 0.078431010 0.151929006
0.413282365 0.081214361 0.155724362
0.442504466 0.080455266 0.162555248
0.474889249 0.078431003 0.172675252
0.511574984 0.078557514 0.184946492
0.554079831 0.081593908 0.200126916
0.594307303 0.075521715 0.215306699
0.636558950 0.069196679 0.226312339
0.681088030 0.067172930 0.232890934
0.720556378 0.070208542 0.241998538
0.765338421 0.075900987 0.256419808
0.810879111 0.087286182 0.269828945
0.855534196 0.104237579 0.284629583
0.898038983 0.125489995 0.305882007
0.026565386 0.042251613 0.046173386
0.032637388 0.048323616 0.046173386
0.045161385 0.049588777 0.046173386
0.060341544 0.051739547 0.047817998
0.077672385 0.053510770 0.054775383
0.095888481 0.054269772 0.060467932
0.114105254 0.055281773 0.060973998
0.130676672 0.058697060 0.065275319
0.147374704 0.059962094 0.068058290
0.168627098 0.062998287 0.077166103
0.189879477 0.066033907 0.086274482
0.209614113 0.069955871 0.089563638
0.231372640 0.072106354 0.096647739
0.250221401 0.076027647 0.104870036
0.276786834 0.078811005 0.113725379
0.297406793 0.078811005 0.122201182
0.325869769 0.082732379 0.133712992
0.354459345 0.086906970 0.143959582
0.385452002 0.084503777 0.148893401
0.413282365 0.087286420 0.161037400
0.444402218 0.090322733 0.170524985
0.478937507 0.090575777 0.179759383
0.517394006 0.090575777 0.187855631
0.554079831 0.090702295 0.200126916
0.596584558 0.089184105 0.213029996
0.638203681 0.084377065 0.226059362
0.681088030 0.082353316 0.236432612
0.720556378 0.085388929 0.248070523
0.765338421 0.091081373 0.259835660
0.809108317 0.100695349 0.274636567
0.852498531 0.116381578 0.288045764
0.895003378 0.137633994 0.302846402
0.027450999 0.058190770 0.051360000
0.042125002 0.064262778 0.049209226
0.050347771 0.061732776 0.049209226
0.062998161 0.066033997 0.051739547
0.076407544 0.069576226 0.057811771
0.092852764 0.069576226 0.063883774
0.111068867 0.069576226 0.067046002
0.129285216 0.069576226 0.070335001
0.146489099 0.072865188 0.073877320
0.167741492 0.077293254 0.080202296
0.191144645 0.078178674 0.089310646
0.206324756 0.081214286 0.096394770
0.231245860 0.083112001 0.101834357
0.250980258 0.085135803 0.110942028
0.274509639 0.088172190 0.120050408
0.299177796 0.093105778 0.127008021
0.323466182 0.093105778 0.136116415
0.352561772 0.097280189 0.145730585
0.381404042 0.097280197 0.148766980
0.415433139 0.099810421 0.162302241
0.444655240 0.100948773 0.172548965
0.478810966 0.103731871 0.185452119
0.517140746 0.104617231 0.195066273
0.555597842 0.100569226 0.205186814
0.592283607 0.100442715 0.215180218
0.636179626 0.098797999 0.225932881
0.678937435 0.097533286 0.237824067
0.718406141 0.100569315 0.251612753
0.767488658 0.108412534 0.265907645
0.809487760 0.116255298 0.276281178
0.853384137 0.129790977 0.287160397
0.898419023 0.149778545 0.295509219
0.028716162 0.079443157 0.058697160
0.040607002 0.084250323 0.060720775
0.054901775 0.081720322 0.053510323
0.069070160 0.080708325 0.059835162
0.078557998 0.086021326 0.065148838
0.092852771 0.086021326 0.069449842
0.111827999 0.087286159 0.072991841
0.130044311 0.087286159 0.077672161
0.149019420 0.087286159 0.083744168
0.170271814 0.092346802 0.087286487
0.191903740 0.092599832 0.094876707
0.211891159 0.094623893 0.100695997
0.228589430 0.098798156 0.109044999
0.255281359 0.099304184 0.118279196
0.276533723 0.102340572 0.127387568
0.298924416 0.105250150 0.134092152
0.324731350 0.109550998 0.140417188
0.352688104 0.108918585 0.149525568
0.380645007 0.110689357 0.153826982
0.413788736 0.114990517 0.165464967
0.447691321 0.116129160 0.178114891
0.480076104 0.116129160 0.188235149
0.516634643 0.118785322 0.202782989
0.556103528 0.114990316 0.210752755
0.595825434 0.112207159 0.221126020
0.632637620 0.114737153 0.230233654
0.677166224 0.114231221 0.238835990
0.716635287 0.115749598 0.251739264
0.762934864 0.125363812 0.268184811
0.811258554 0.134472072 0.279823184
0.848956585 0.146236286 0.288046002
0.895635843 0.164453000 0.291461170
0.031752452 0.100695543 0.069323547
0.034788162 0.103352383 0.075774617
0.046426319 0.100695997 0.070335329
0.063757159 0.098924994 0.066666931
0.084250547 0.104617544 0.080328546
0.096394546 0.104617544 0.080328546
0.116128862 0.106388219 0.083238319
0.136116415 0.108159088 0.087159991
0.153953552 0.108159088 0.092473000
0.175205946 0.108159088 0.098545007
0.194307551 0.108159088 0.104616992
0.214927256 0.110183246 0.109803796
0.236179724 0.113978542 0.115496539
0.260721475 0.119544543 0.126881510
0.282226831 0.122454412 0.135736868
0.303858280 0.123845994 0.143200547
0.327767015 0.125363901 0.149272546
0.355344951 0.127514124 0.155977130
0.385705024 0.124478526 0.165085539
0.416445285 0.129791558 0.174193814
0.448703289 0.131688997 0.184819996
0.482732266 0.132068545 0.196963996
0.519291520 0.132068545 0.208855003
0.558759928 0.132068545 0.214927003
0.600126147 0.130550250 0.225174025
0.640606880 0.130550072 0.235926852
0.677925229 0.137001604 0.245667100
0.717394292 0.133965999 0.251739085
0.759140015 0.143074065 0.267299086
0.804807305 0.153067753 0.279823184
0.849715590 0.164832518 0.289943457
0.883112013 0.183048546 0.296015441
0.034788065 0.121947929 0.090575933
0.037824452 0.121947929 0.078431159
0.049462706 0.122453995 0.082732551
0.065907933 0.121441990 0.085262932
0.084250547 0.122833543 0.092473321
0.099430934 0.125869930 0.095508933
0.119165249 0.123339608 0.100568928
0.140417635 0.124604635 0.102845997
0.158886999 0.126375869 0.103857994
0.172169551 0.126375869 0.104617007
0.196331799 0.126375869 0.110688999
0.219607919 0.128399611 0.120809510
0.239974648 0.131435633 0.129158929
0.257685095 0.134724930 0.135989890
0.285009474 0.134724930 0.139025509
0.308918655 0.140037999 0.150284663
0.332700878 0.143580183 0.158380926
0.358127624 0.145983875 0.165085509
0.385705024 0.145730913 0.174193904
0.418849081 0.151043952 0.183301583
0.451739669 0.151423201 0.192409799
0.485136062 0.150917128 0.203035995
0.519291520 0.153320938 0.214926988
0.558759928 0.153320938 0.220999002
0.598228812 0.155597642 0.229348287
0.639595211 0.154838622 0.238962725
0.681088090 0.155850872 0.249083012
0.723466277 0.167362392 0.263883859
0.762934744 0.169639766 0.272612005
0.806451619 0.175964832 0.281467497
0.850727558 0.186084911 0.292473346
0.889183998 0.204300940 0.311195046
0.030234002 0.138140321 0.101707675
0.033270389 0.145730644 0.104743540
0.047059000 0.150031641 0.103352092
0.062618837 0.149525478 0.105249837
0.080329001 0.147880867 0.107147224
0.101960607 0.146616265 0.110183381
0.122200996 0.152182326 0.113219641
0.143453375 0.152434930 0.117646925
0.163187772 0.155471087 0.118532315
0.177103013 0.157242313 0.118532330
0.198355421 0.152182326 0.129411310
0.222644180 0.152182326 0.135483831
0.245793954 0.154711992 0.143200681
0.264263362 0.157748029 0.147881001
0.287033707 0.160025313 0.153193906
0.316761285 0.162429124 0.163440928
0.344339043 0.168374628 0.172549307
0.370651454 0.171790317 0.179253727
0.396078646 0.171790317 0.188361660
0.428969085 0.172296330 0.200000301
0.468058467 0.178368315 0.205312893
0.501328468 0.176217645 0.211132124
0.531815350 0.174573317 0.218469307
0.568880558 0.174573317 0.224541321
0.610626221 0.176850021 0.232890606
0.651739597 0.182668984 0.243390307
0.693738341 0.185705319 0.254143000
0.734218836 0.193801314 0.267299116
0.774066806 0.197976157 0.279696792
0.813535571 0.208096504 0.292346388
0.854902208 0.219987616 0.302466899
0.892726362 0.238203645 0.318785638
0.020873006 0.161543399 0.117393695
0.027197972 0.165718094 0.118532404
0.040987004 0.171030983 0.122453764
0.060468163 0.173308149 0.122960150
0.079064094 0.170271859 0.122580409
0.108412407 0.167235926 0.131941631
0.121948026 0.173434705 0.131689027
0.146489412 0.177861989 0.134724990
0.166982725 0.180138692 0.137001693
0.183048502 0.182289481 0.137001708
0.207336858 0.179885983 0.143706411
0.227324501 0.177861989 0.151802510
0.249335989 0.177861989 0.156736344
0.270841360 0.180391729 0.160531044
0.296268374 0.183428109 0.169386402
0.318152964 0.186464503 0.173687607
0.348513365 0.191018686 0.184313804
0.378241539 0.196458116 0.189879864
0.403542280 0.197469980 0.196963772
0.437824368 0.195825696 0.208855003
0.471979767 0.197975978 0.220240667
0.511448383 0.203036115 0.223276272
0.540417314 0.199367687 0.226565495
0.576850116 0.202403694 0.234155700
0.617836833 0.204680815 0.242504984
0.658950269 0.207716435 0.250221699
0.700696051 0.216318771 0.260847718
0.740164399 0.223529398 0.270714700
0.782922149 0.228589535 0.282858938
0.824035287 0.237065181 0.295129716
0.863504291 0.249588981 0.312966198
0.900695980 0.264768988 0.328146994
0.011764999 0.190385997 0.139405191
0.019354613 0.190385997 0.135610476
0.036432546 0.191018417 0.137634411
0.052878160 0.195319250 0.138140157
0.076027997 0.191524535 0.135483995
0.112460673 0.187729150 0.151422992
0.126628995 0.193295419 0.151929319
0.141935602 0.199114382 0.153700277
0.170778006 0.202150196 0.157495201
0.188994005 0.202150196 0.157495201
0.215179965 0.202150196 0.160404876
0.237191498 0.202909291 0.164706081
0.256926209 0.202909291 0.171157449
0.275395185 0.203162253 0.174193129
0.304237723 0.206198514 0.184819832
0.327261180 0.209993809 0.188868001
0.350790471 0.212271094 0.191144899
0.381151050 0.218343094 0.201517656
0.408601999 0.221505225 0.205060080
0.442757756 0.221252441 0.215686202
0.477292746 0.220493346 0.225553364
0.511448205 0.223529220 0.236179948
0.545097589 0.226565599 0.239089087
0.582163036 0.232005194 0.246299908
0.620872676 0.235800281 0.255408287
0.662744999 0.239595413 0.263125002
0.702720165 0.244149223 0.270715058
0.742441475 0.253510654 0.277546078
0.784946442 0.259203106 0.288931072
0.829475224 0.269576132 0.304111034
0.868058503 0.281467199 0.312966198
0.907526910 0.287539184 0.337255001
0.011764995 0.214674011 0.163693994
0.014800607 0.214674011 0.157621995
0.033143539 0.212523788 0.160278499
0.050854150 0.216065988 0.162428826
0.063883990 0.224920943 0.159772009
0.100315988 0.215812579 0.159772024
0.121568665 0.217077821 0.158001333
0.139278993 0.220366776 0.161543295
0.161669612 0.223402590 0.169639200
0.195066005 0.226438984 0.175711975
0.219101727 0.226438984 0.178621098
0.241492733 0.228463247 0.181657270
0.263757288 0.230234459 0.187096849
0.287539929 0.230487421 0.195445538
0.308791518 0.233523041 0.198481917
0.335230917 0.238962501 0.204301015
0.362176150 0.240354210 0.207084015
0.390259445 0.239595488 0.210626066
0.420619518 0.245667517 0.225806475
0.450853765 0.251612991 0.234914854
0.483364761 0.251612753 0.240354225
0.517773271 0.250853628 0.245793641
0.554206014 0.253890038 0.254269481
0.593675256 0.256926417 0.254269481
0.628463268 0.260088682 0.261480272
0.666413724 0.264516026 0.269197017
0.708792090 0.271473646 0.276787072
0.751296818 0.283618391 0.291967422
0.788362086 0.287666172 0.304111451
0.830487072 0.297912687 0.323339403
0.870588064 0.312080979 0.339152098
0.898418486 0.323971987 0.337255001
0.003036130 0.241871864 0.179253876
0.006072486 0.241871864 0.173181877
0.019860871 0.241871864 0.175711870
0.040101130 0.242125154 0.174193561
0.057178903 0.248576865 0.168121099
0.091081873 0.252118796 0.178241745
0.119924188 0.248071045 0.183301747
0.140923694 0.250348002 0.184693158
0.162681967 0.253383815 0.188234970
0.191777378 0.256420225 0.187855959
0.213535726 0.259455860 0.193927988
0.241872489 0.257432133 0.201012120
0.266919881 0.257558882 0.204680875
0.291208178 0.257558882 0.207969710
0.315117300 0.257938325 0.211005419
0.343579710 0.263377726 0.216444999
0.369892508 0.269449741 0.225553393
0.396458119 0.271220863 0.232384726
0.426818758 0.272738874 0.240733847
0.459962130 0.273244888 0.247564882
0.490448833 0.279063880 0.250854015
0.521821260 0.280075729 0.252878010
0.554459035 0.281340867 0.258317858
0.591144919 0.287159890 0.269449860
0.630613387 0.290196270 0.271726578
0.666666448 0.294623733 0.279569775
0.705629349 0.301201820 0.287666082
0.745730817 0.310942769 0.298039436
0.790891767 0.317773879 0.310562998
0.829854667 0.324604481 0.322706968
0.867805421 0.338393182 0.338899195
0.895129859 0.354585737 0.345983863
0.000000000 0.267172515 0.194434255
0.001012131 0.271220505 0.190385997
0.004681010 0.273244739 0.190892249
0.022897009 0.273244739 0.196964249
0.044528648 0.274762958 0.189753205
0.084503807 0.275901258 0.190385863
0.110816061 0.278431565 0.199494258
0.138140440 0.280329257 0.202277258
0.162428930 0.282985508 0.204933420
0.191018492 0.284756750 0.204427466
0.216571867 0.285768628 0.206071973
0.241872236 0.290828526 0.212143987
0.272233009 0.288931251 0.218975380
0.297786266 0.289437264 0.220366985
0.318532526 0.292979240 0.225173831
0.351676226 0.289690256 0.232637495
0.382036626 0.292726249 0.237191305
0.407337219 0.297153652 0.245920315
0.434914678 0.298545003 0.250600994
0.466034383 0.300569266 0.256673008
0.497533470 0.300569266 0.260847747
0.526881635 0.306388259 0.261986136
0.556483269 0.308538765 0.265275240
0.592916071 0.312713534 0.275522023
0.631625473 0.320556253 0.286906958
0.672485530 0.324984342 0.288551241
0.710689306 0.331056505 0.297280133
0.750158012 0.338646680 0.310942680
0.790892005 0.347121984 0.322707236
0.831119597 0.356736392 0.333080441
0.868564606 0.367868334 0.347628087
0.898166001 0.384946495 0.363188267
0.000000000 0.301707923 0.213029996
0.000000000 0.304364264 0.208855242
0.001012130 0.308286071 0.208981767
0.006958003 0.311195612 0.211005986
0.025174003 0.311195612 0.216318995
0.063883871 0.308918357 0.209487706
0.100822352 0.307526946 0.213282958
0.132447690 0.311069280 0.218595996
0.159772098 0.318659276 0.221631989
0.189753339 0.320177287 0.225806147
0.220619872 0.316761643 0.223655641
0.250221223 0.319671273 0.227703616
0.277545631 0.325743258 0.234914273
0.307653457 0.325743258 0.237444669
0.328526258 0.330044270 0.240860283
0.360025227 0.329917639 0.248197451
0.392283380 0.325743258 0.253131092
0.422644138 0.327008247 0.257431686
0.447944313 0.330549955 0.261479974
0.480075717 0.333586276 0.268437654
0.508159459 0.334724933 0.274889380
0.539532125 0.335736781 0.278937638
0.567362547 0.341555774 0.282099754
0.602783442 0.344592184 0.289183885
0.641492903 0.352181971 0.298292279
0.682352901 0.358759999 0.308285624
0.722833753 0.365338713 0.309297621
0.760404646 0.372043252 0.324984252
0.798734784 0.381910086 0.337887615
0.838709712 0.392789036 0.350537837
0.874257147 0.405819207 0.361417025
0.907653630 0.420999616 0.382163346
0.000253032 0.351297021 0.236559033
0.000000000 0.348513663 0.230233997
0.000253032 0.349525779 0.229222029
0.003036129 0.353320897 0.229222029
0.012523999 0.355471075 0.229222029
0.030739998 0.355471075 0.229222029
0.074509606 0.350917041 0.230993316
0.119797364 0.349778682 0.234535336
0.159519136 0.354079992 0.238583028
0.186843544 0.366223991 0.250726998
0.222896785 0.359266251 0.246679068
0.257052243 0.358001322 0.248197064
0.289183706 0.361670077 0.255154669
0.316761076 0.367236078 0.263756990
0.344086200 0.367236078 0.260721385
0.376470774 0.369892299 0.265148997
0.406325161 0.370145261 0.267932028
0.434788138 0.368754029 0.269829422
0.465148985 0.374826044 0.278937042
0.500063002 0.377862364 0.287286341
0.529664457 0.379254043 0.296394765
0.556989133 0.380012929 0.304491013
0.590385497 0.383301556 0.310689509
0.623782635 0.386590958 0.313978136
0.661733270 0.393674761 0.319544524
0.702087224 0.400505722 0.327261358
0.743074059 0.404554129 0.335863054
0.773434818 0.413662493 0.341935068
0.809361041 0.424921066 0.353320658
0.848323345 0.437318057 0.366224170
0.888171792 0.450347602 0.382416457
0.921568990 0.465528041 0.397596061
0.003289416 0.378621399 0.251739413
0.000253029 0.378621399 0.242631018
0.002150774 0.377988815 0.247058764
0.002024255 0.383681387 0.250474393
0.003036138 0.391650796 0.250474393
0.012524014 0.385831803 0.250474393
0.058570333 0.385831803 0.245414406
0.104617000 0.386211067 0.249462694
0.146362871 0.388487965 0.254269719
0.183807924 0.390511960 0.253763407
0.219861165 0.396837711 0.262998283
0.252245426 0.395699203 0.262871832
0.286653936 0.396331787 0.266413808
0.322833836 0.397596806 0.272865355
0.353193790 0.397596806 0.275900990
0.387729168 0.402403802 0.282479346
0.415939182 0.404807240 0.284883171
0.441619098 0.404807210 0.285009801
0.477292955 0.408222407 0.294117421
0.502086997 0.408728391 0.294876397
0.534598231 0.411258698 0.302466750
0.566097558 0.412650377 0.310562968
0.599493921 0.413662314 0.316761494
0.632890344 0.422770709 0.325869888
0.670841396 0.426059514 0.333712518
0.708918393 0.433143467 0.343579888
0.746615708 0.440986872 0.354079813
0.782542408 0.450095236 0.360151827
0.820872962 0.456546783 0.371536791
0.854395747 0.469196975 0.378368169
0.888171792 0.483744591 0.391018569
0.921568990 0.498924404 0.415812820
0.001518196 0.410752803 0.266919792
0.000885613 0.413156599 0.260215223
0.000000000 0.417457581 0.266160607
0.001518196 0.416698396 0.266666800
0.000000000 0.421631783 0.262492239
0.003036134 0.419607788 0.264515996
0.028336531 0.418595791 0.269069970
0.088172026 0.420240492 0.262997985
0.136748999 0.423276305 0.268311292
0.177862480 0.424920589 0.271853298
0.219228745 0.428336531 0.278051853
0.251612991 0.430360794 0.279064268
0.281973273 0.430360794 0.277546167
0.317394257 0.430866808 0.279823005
0.352055758 0.435167760 0.285009354
0.389626592 0.437571585 0.285641789
0.423023373 0.439089417 0.293231994
0.449462324 0.438836366 0.294750184
0.484123975 0.441872448 0.302087009
0.516634762 0.444528610 0.307652980
0.546615958 0.446426332 0.311448455
0.577988923 0.449462473 0.319038779
0.608602285 0.450980276 0.325237274
0.641998708 0.455534697 0.334345102
0.675395072 0.464643061 0.343453497
0.711827874 0.469323397 0.352561444
0.747248113 0.476913601 0.363188058
0.783680856 0.484124213 0.371157795
0.817963421 0.492978960 0.387349784
0.853890121 0.500822127 0.395951778
0.887539387 0.516508579 0.404933572
0.923972189 0.534724593 0.429221988
0.000000000 0.445667386 0.282100171
0.001518192 0.450221568 0.277545989
0.000000000 0.453890353 0.281340986
0.001265161 0.456167191 0.285894990
0.001138644 0.453889906 0.276533991
0.000000000 0.455028564 0.280708253
0.012144133 0.455028564 0.278684378
0.057811625 0.458191067 0.284250379
0.123845913 0.459709257 0.280455291
0.171663612 0.461226881 0.288045496
0.214168355 0.462745041 0.291207999
0.253131181 0.465275377 0.294244260
0.283491194 0.467552364 0.295762330
0.314357847 0.468311369 0.294496983
0.350790590 0.471853375 0.298038989
0.386590958 0.472485811 0.297786176
0.426059365 0.475522190 0.299303979
0.456420124 0.473750770 0.305376112
0.488931209 0.476786971 0.311448365
0.523845375 0.479823023 0.317520410
0.557242215 0.484376907 0.326628447
0.589626968 0.486401170 0.331689119
0.617710352 0.488930881 0.337255180
0.651107132 0.491967291 0.344971478
0.682985306 0.498039454 0.354079276
0.717773318 0.505756140 0.364579320
0.751296282 0.511828184 0.375332177
0.786716878 0.517900169 0.387476414
0.817457438 0.526628733 0.401517957
0.852371931 0.535736382 0.415686369
0.884882987 0.547501385 0.424414963
0.922454000 0.568121374 0.444402397
0.000000001 0.482100129 0.297280401
0.003668801 0.488172114 0.294876575
0.001771227 0.491461307 0.296394557
0.001265161 0.493232340 0.299303949
0.003922000 0.490575522 0.293990970
0.001138641 0.493358880 0.299556971
0.005060000 0.494497508 0.294244289
0.038836241 0.497153968 0.293991536
0.100949101 0.501581430 0.299937040
0.164705515 0.498545051 0.302972645
0.208095744 0.498418540 0.301834136
0.248576760 0.500442803 0.303858221
0.287792563 0.502719939 0.307273924
0.318658620 0.508538961 0.316381603
0.355091363 0.508918524 0.317520142
0.389120817 0.508412302 0.316381752
0.424288750 0.507779717 0.317014515
0.461859524 0.510183513 0.320050091
0.492220402 0.513219178 0.326122880
0.527514040 0.516255498 0.331562549
0.562681615 0.519924164 0.340164542
0.595699131 0.524604559 0.348640114
0.626059175 0.524857581 0.351929486
0.658950090 0.528399885 0.358507574
0.691334546 0.533713102 0.366856277
0.723212898 0.539785087 0.377988309
0.759139657 0.545857131 0.390639037
0.792536020 0.551929116 0.408728540
0.822517455 0.560657918 0.421631545
0.853257477 0.569765866 0.434408367
0.886653602 0.579000175 0.446805954
0.917014420 0.597216964 0.461986423
0.000000003 0.518532991 0.312460065
0.006071995 0.524604976 0.312460065
0.003289032 0.526375949 0.310056806
0.001265162 0.527893841 0.310309857
0.003921997 0.530044019 0.312207043
0.003921997 0.530044019 0.312207013
0.006198648 0.532827377 0.310183346
0.035800118 0.535610318 0.313219726
0.091967240 0.538140059 0.321316004
0.158633545 0.538013577 0.327261508
0.202023759 0.537887037 0.321568966
0.242504776 0.539911330 0.322074682
0.284250647 0.540670395 0.323972017
0.327767044 0.538899124 0.325490028
0.364199787 0.541935503 0.334598392
0.398228794 0.547122002 0.338140160
0.431625634 0.549399018 0.342188418
0.464895964 0.549652040 0.347375333
0.495256037 0.549652040 0.350410968
0.528399408 0.552688360 0.353700399
0.563946486 0.553826988 0.358886987
0.599114478 0.555344880 0.363440990
0.632131934 0.558254004 0.364073545
0.662492037 0.564326048 0.373181939
0.697659612 0.570145607 0.382036686
0.730803311 0.576217949 0.393927664
0.762176037 0.582289994 0.408855081
0.795572400 0.588361979 0.424035460
0.831625581 0.597090781 0.436811984
0.861986101 0.606198728 0.450727195
0.889183939 0.614420950 0.464769006
0.913978040 0.621505082 0.477166057
0.002783357 0.580013096 0.338773072
0.000505998 0.580519140 0.341555744
0.004427770 0.580139339 0.345856726
0.001518196 0.582036734 0.345983386
0.001138643 0.585452080 0.345983297
0.001138643 0.580645144 0.338773072
0.011258640 0.585705101 0.331182748
0.051233094 0.584060729 0.334219098
0.112713292 0.583681166 0.343327284
0.177482367 0.585705459 0.351423025
0.223782465 0.588488102 0.345857024
0.260214984 0.590512395 0.347881019
0.298165649 0.591271520 0.352814376
0.339911103 0.588741124 0.356356412
0.378874153 0.591777563 0.360404760
0.415306956 0.592410147 0.362302363
0.452118903 0.594687104 0.366476715
0.487413138 0.594687104 0.372548997
0.517773747 0.594687104 0.377735406
0.545351148 0.597469747 0.383554369
0.584440172 0.602403402 0.386590749
0.620620012 0.604174376 0.391777366
0.652245820 0.605312765 0.395572364
0.685262740 0.606071770 0.402023911
0.713346004 0.612144351 0.408854991
0.746869028 0.618216753 0.420240015
0.778115034 0.623782694 0.434914500
0.806957424 0.627577364 0.447818160
0.837697685 0.636306167 0.457684875
0.872106135 0.645414591 0.473244786
0.902340174 0.653637052 0.488551706
0.930423737 0.659709096 0.500695705
0.002024260 0.622896969 0.358507246
0.000885613 0.624794722 0.363441080
0.000253034 0.624541700 0.366729707
0.003289421 0.622770488 0.369006872
0.001897740 0.627197921 0.368753910
0.001897740 0.625679672 0.365717888
0.038583197 0.625932693 0.358507395
0.073750593 0.632005095 0.362555414
0.138519645 0.627704084 0.366097629
0.198861197 0.628463149 0.366097271
0.235673606 0.627703846 0.366350472
0.278810948 0.632637739 0.372169465
0.312207371 0.633396864 0.374825835
0.350663841 0.630613446 0.378873765
0.393421948 0.632005155 0.385199159
0.426691860 0.630739987 0.382036716
0.463124633 0.632258177 0.388108701
0.500948548 0.633270323 0.393674731
0.532574296 0.634535491 0.397216707
0.560152113 0.637318134 0.401391476
0.591271460 0.640354216 0.409360737
0.627703965 0.644402206 0.412397146
0.656546533 0.644655228 0.417710245
0.691714168 0.648197234 0.425553471
0.726249278 0.650853574 0.437318206
