Assets/Shaders/EldamarStudio/100 Sci-Fi LUTs Pack/LUTs/cube/Hira LUT.cube
DOMAIN_MIN 0 0 0
DOMAIN_MAX 1 1 1
LUT_3D_SIZE 32
0.000000000 0.000000000 0.000000000
0.030360773 0.000000000 0.003036387
0.058570772 0.002150774 0.003922000
0.087159999 0.003922000 0.002656839
0.117899641 0.005439999 0.000379548
0.151296809 0.017583998 0.003415935
0.184693322 0.022137677 0.003922000
0.221378684 0.025173709 0.002277292
0.259329289 0.028210096 0.000000000
0.292726457 0.031246489 0.000000000
0.331941843 0.037192002 0.000000000
0.369386494 0.039216001 0.000000000
0.411511898 0.039216001 0.002276998
0.462366015 0.038203936 0.007843000
0.504869938 0.026059173 0.007843000
0.552182138 0.013915009 0.003036004
0.603795350 0.004807003 0.000000000
0.658444107 0.000632576 0.000000000
0.713093042 0.003668968 0.000000000
0.762175739 0.003922000 0.000000000
0.812650204 0.002024260 0.001897740
0.859203279 0.000000000 0.002909872
0.896015465 0.000126512 0.000000000
0.941555917 0.003162904 0.000000000
0.975711524 0.003922000 0.000000000
0.993548334 0.002530328 0.000000000
0.996584058 0.000506064 0.001518063
0.999620438 0.003542448 0.010626442
1.000000000 0.001265167 0.019734144
1.000000000 0.000000000 0.030613415
1.000000000 0.000885608 0.040986992
1.000000000 0.003922000 0.047059000
0.006072000 0.027324386 0.003036387
0.018215999 0.027324386 0.006072000
0.052877769 0.033776160 0.002656613
0.081593938 0.039848384 0.000885613
0.110689476 0.044149384 0.001138547
0.157368809 0.050980382 0.009487935
0.190765321 0.055534709 0.004934001
0.224161685 0.058570445 0.005566289
0.258570194 0.061606482 0.004554001
0.289690077 0.064642876 0.000000000
0.328905463 0.070588395 0.000000000
0.370398104 0.070588134 0.000000000
0.412270516 0.070714645 0.001138644
0.460088700 0.071853355 0.004554356
0.510942757 0.062491946 0.001771000
0.551043570 0.045540787 0.001771000
0.600758970 0.030613586 0.000000000
0.654775262 0.017457413 0.001264991
0.707021058 0.003668965 0.006072000
0.764453113 0.001138644 0.006072000
0.809993863 0.000885613 0.006072000
0.856167138 0.000000000 0.004933615
0.898924589 0.000126512 0.000000000
0.941555917 0.003162904 0.000000000
0.975711524 0.003922000 0.000000000
0.993548334 0.002530328 0.002782990
0.996078014 0.000000000 0.006578064
0.996584058 0.000506061 0.010626442
0.999620438 0.003542446 0.022390973
1.000000000 0.001265170 0.033649351
1.000000000 0.000000000 0.044908211
1.000000000 0.000885613 0.053130999
0.014294773 0.056799546 0.010373225
0.035040773 0.056799546 0.013409387
0.045034546 0.056799546 0.007843000
0.085262477 0.063377611 0.004300999
0.115749776 0.069323093 0.003921548
0.150158092 0.078937545 0.005945934
0.183934316 0.088931091 0.006705001
0.222264394 0.090322770 0.002277292
0.257937968 0.092093542 0.003542000
0.291081786 0.093738258 0.000253001
0.328019857 0.099683769 0.002150774
0.367488742 0.103732027 0.000126518
0.411005378 0.100948676 0.001138644
0.456546307 0.101454742 0.003922000
0.504364431 0.096141361 0.002783358
0.554965556 0.084123790 0.002150774
0.597469926 0.070461974 0.000632582
0.650221109 0.056546755 0.000000001
0.703352213 0.039848529 0.003036003
0.758381128 0.022644190 0.005692774
0.806578457 0.006325077 0.005692774
0.849083245 0.002277002 0.005692774
0.893232226 0.000000000 0.002024262
0.933712840 0.001012130 0.000000000
0.975711524 0.003922000 0.000000000
0.993548334 0.002530328 0.002782990
0.996078014 0.000000000 0.009361063
0.996078014 0.000000000 0.015686449
0.996584058 0.000506059 0.024541749
0.999620438 0.003542443 0.031372540
1.000000000 0.010120345 0.044149198
1.000000000 0.021505548 0.057052772
0.025933161 0.093485154 0.025806321
0.046426326 0.088425159 0.026312385
0.066286929 0.089690320 0.020746548
0.076660156 0.089690320 0.010372999
0.121821769 0.092725933 0.009993549
0.151422992 0.102213867 0.006957936
0.180771634 0.114357993 0.008981999
0.212650403 0.122454315 0.007337291
0.254396081 0.123972312 0.003542000
0.291334808 0.124984324 0.002529999
0.326501995 0.128273323 0.001644709
0.367488742 0.132321253 0.003162905
0.409234613 0.134219006 0.002403515
0.455028057 0.131056160 0.004680839
0.501581013 0.127007902 0.002656839
0.549399197 0.120556489 0.002656839
0.600506306 0.109930359 0.002403808
0.648576677 0.101455159 0.000632576
0.703858018 0.088172324 0.001265162
0.757242262 0.069955945 0.001518196
0.805566430 0.054396167 0.003922000
0.845035076 0.032131389 0.002909872
0.886780798 0.024794335 0.002783351
0.927387953 0.020240318 0.002024257
0.965338409 0.016192446 0.002529999
0.993548334 0.015180647 0.002782990
0.996078014 0.013156255 0.009361063
0.996078014 0.013915158 0.018469442
0.997343183 0.020240318 0.026312659
0.996584058 0.025806375 0.033143766
0.999620438 0.033270355 0.043263569
1.000000000 0.059456319 0.062618837
0.041113548 0.137128085 0.048576999
0.057052933 0.126881644 0.047058705
0.077545993 0.124351770 0.038962774
0.098292090 0.126502544 0.029728225
0.111195087 0.125363991 0.016065547
0.153699875 0.128399611 0.013029936
0.185705096 0.139025643 0.017584000
0.216824859 0.147880957 0.018722292
0.248324096 0.153953537 0.015306548
0.287792504 0.160025537 0.009234544
0.322959870 0.160658002 0.003921547
0.363314211 0.162681833 0.002783256
0.409993708 0.164579093 0.005439902
0.455281109 0.164326057 0.008222548
0.503604770 0.158380553 0.002403554
0.550537348 0.155091792 0.001897547
0.598734975 0.149778903 0.000758999
0.651233494 0.141303107 0.001012028
0.708917975 0.135231078 0.004048416
0.760278106 0.121568725 0.002277190
0.808475614 0.111701548 0.002656740
0.850348115 0.103099391 0.003289420
0.883997500 0.085135654 0.000632540
0.926249266 0.072991639 0.003921903
0.961922824 0.061986096 0.006578255
0.985957980 0.053004645 0.009360999
0.996457577 0.048450574 0.010499611
0.996457577 0.051486179 0.019607989
0.998734832 0.063630447 0.025679987
0.998228788 0.076660149 0.032510981
0.996963620 0.089816287 0.042504571
1.000000000 0.108033091 0.069829002
0.056293935 0.167488858 0.060720995
0.077546313 0.170525253 0.069829389
0.093485154 0.164579242 0.059709094
0.113978311 0.163820148 0.050600834
0.135483861 0.164832383 0.043389939
0.153699875 0.155724004 0.019101936
0.183554322 0.166350573 0.023655998
0.216318458 0.175205797 0.024794290
0.250221252 0.181277931 0.021758098
0.281720519 0.187349930 0.018342935
0.327007860 0.190512061 0.018089935
0.364452511 0.193042263 0.013029939
0.409234643 0.194939867 0.010753000
0.461353898 0.194686830 0.011258936
0.503857791 0.191650450 0.011258936
0.554585397 0.190511942 0.015053930
0.603668332 0.188488185 0.012523744
0.654016137 0.183807880 0.006831000
0.708917975 0.177735850 0.007084035
0.755471051 0.168880492 0.010120421
0.803921461 0.158760130 0.010246934
0.847944319 0.151169941 0.008729002
0.883997500 0.142820820 0.003668927
0.923465908 0.130676806 0.009740938
0.958886862 0.125363514 0.010753000
0.983934224 0.120809540 0.015433243
0.996584058 0.118279733 0.022517126
0.999493957 0.121315345 0.028716378
0.999493957 0.124351628 0.032511089
0.998228788 0.132954001 0.041365966
0.996963620 0.143453717 0.051612597
1.000000000 0.156609863 0.063757002
0.084123999 0.215559959 0.085515320
0.100316375 0.213535711 0.089563705
0.119417995 0.214421317 0.092220321
0.137507468 0.211637959 0.082732640
0.159392536 0.212650180 0.076913416
0.175458312 0.207843348 0.059076641
0.198734954 0.193674967 0.039847996
0.229348332 0.199241325 0.036053002
0.265654415 0.205060318 0.031119322
0.301327974 0.214674324 0.029854486
0.338646173 0.225426763 0.037318319
0.378114820 0.228462905 0.031246066
0.421378583 0.229222000 0.025806645
0.475521713 0.228083357 0.024415322
0.522580266 0.229601547 0.024415322
0.574699521 0.228968963 0.019607712
0.624921024 0.228968963 0.023655869
0.674762726 0.225680068 0.021125894
0.729411602 0.217710301 0.023023643
0.775711715 0.211385280 0.020746354
0.815559626 0.206071898 0.021884996
0.860594332 0.200252771 0.021884996
0.901454806 0.195445970 0.019101996
0.936116219 0.183301955 0.020366998
0.968753815 0.177988678 0.030992988
0.989373982 0.179126948 0.034787986
0.997090280 0.180012643 0.041745383
0.992030144 0.181024507 0.045793891
1.000000000 0.181530476 0.054269798
1.000000000 0.186337620 0.059076622
0.998608351 0.193801299 0.072359227
1.000000000 0.202656314 0.088045642
0.122707106 0.255660981 0.121062398
0.134598076 0.252625018 0.119165078
0.148640111 0.256673098 0.115116984
0.164326116 0.256673098 0.115116984
0.184819505 0.256293565 0.108665437
0.203795046 0.253257632 0.093485050
0.223276332 0.249968782 0.077419475
0.240986690 0.233143687 0.059202701
0.276660204 0.231625691 0.049335793
0.317014217 0.238456711 0.048450410
0.351928741 0.248956412 0.052245572
0.388361514 0.258317262 0.047564741
0.429348260 0.262492269 0.043010637
0.482226074 0.261986077 0.040986959
0.529411495 0.267805099 0.039595284
0.584440231 0.268437684 0.038077090
0.637571156 0.266919881 0.030486897
0.685641944 0.266160816 0.033017118
0.737254977 0.259076416 0.036053248
0.786844075 0.251106679 0.030234352
0.831625700 0.250221372 0.035673700
0.869069815 0.246173099 0.036685571
0.912966311 0.242378399 0.037444502
0.947880864 0.233270392 0.038962699
0.975711524 0.227957115 0.044781692
0.994939983 0.226312399 0.052751370
1.000000000 0.231372476 0.057558414
0.994307280 0.232511118 0.059456151
0.996204793 0.230866402 0.066160820
1.000000000 0.236053094 0.078431681
1.000000000 0.239468500 0.082732700
1.000000000 0.243263409 0.098672003
0.165971190 0.290575176 0.159013197
0.175837904 0.288298488 0.153700098
0.187855721 0.293105960 0.149272412
0.197723091 0.297660083 0.140164092
0.212144181 0.297280550 0.140543640
0.237191975 0.294244170 0.127640352
0.254143178 0.293991327 0.109424412
0.270588189 0.289310873 0.094117880
0.285009295 0.271094114 0.075901099
0.327514082 0.265022099 0.072865479
0.360531092 0.268943965 0.069702998
0.398228616 0.278051823 0.063883588
0.439215362 0.286780268 0.055913739
0.487286150 0.293106019 0.058444060
0.532321155 0.302213758 0.055407681
0.583681285 0.306388080 0.054016195
0.636812270 0.306388289 0.052498195
0.689057171 0.303352505 0.046552986
0.734977961 0.300316125 0.049715117
0.785326004 0.291713923 0.041619439
0.832384706 0.287918925 0.042758089
0.874383092 0.289437205 0.050347969
0.913851500 0.283365160 0.053636603
0.950916946 0.277293026 0.057937998
0.979759455 0.274256825 0.062491994
0.994939983 0.271853179 0.066413574
1.000000000 0.272359103 0.070461966
1.000000000 0.275395453 0.071220994
1.000000000 0.273877263 0.076533981
1.000000000 0.277166367 0.083365180
1.000000000 0.285009682 0.098671995
1.000000000 0.281973302 0.098671995
0.202403992 0.339152008 0.183301985
0.214547992 0.339152008 0.180265605
0.228716254 0.343327075 0.183554500
0.238709837 0.345730841 0.180138826
0.245540604 0.342820972 0.167868048
0.275901377 0.339784592 0.170904458
0.288298845 0.334218502 0.147881165
0.302720010 0.330170721 0.129285514
0.321442097 0.322707295 0.115370288
0.342694491 0.304490507 0.097153500
0.373561233 0.295509368 0.085389026
0.414168209 0.299304217 0.079822764
0.460467756 0.308412135 0.076407149
0.508538604 0.317394048 0.073624469
0.551043272 0.326502413 0.070588082
0.593674541 0.335610181 0.067552306
0.638330102 0.341302693 0.067678779
0.686021566 0.342820913 0.070840999
0.740670502 0.339784533 0.076913007
0.789373755 0.331182867 0.068943843
0.834281981 0.323972493 0.065528497
0.873877108 0.320304006 0.065022372
0.907779515 0.319797963 0.062744997
0.947248757 0.313725173 0.071853399
0.979759455 0.312207013 0.076154202
0.997343183 0.310689181 0.077925012
1.000000000 0.308791906 0.079569593
1.000000000 0.311827540 0.088677958
1.000000000 0.312207013 0.094749995
1.000000000 0.315622926 0.095509239
1.000000000 0.321821988 0.099430978
1.000000000 0.327514499 0.116888002
0.250474751 0.381909728 0.204680875
0.274256706 0.387729466 0.216192335
0.279949516 0.387729466 0.215306729
0.290828735 0.389753729 0.216065571
0.300695598 0.388741612 0.208981276
0.320935726 0.388235539 0.206957668
0.336116493 0.382668823 0.189753413
0.355471432 0.378241450 0.173055038
0.378241688 0.373687625 0.159139872
0.399494082 0.361922622 0.136622638
0.409108460 0.340796739 0.115496740
0.433396995 0.327640593 0.101328492
0.471853375 0.329664499 0.097027093
0.518658936 0.338772893 0.097027026
0.566476643 0.347881258 0.088678323
0.608981431 0.354585856 0.088045739
0.651486218 0.364705741 0.083997868
0.695635676 0.371283859 0.082859159
0.743453801 0.370524764 0.086653873
0.795319259 0.367489129 0.089943223
0.834535241 0.362428993 0.085136130
0.869955838 0.359392852 0.085136130
0.901707470 0.359266341 0.086021736
0.941176772 0.355976939 0.086780779
0.969259977 0.347628027 0.086780585
0.991397619 0.348513603 0.091334537
1.000000000 0.350537747 0.096900739
1.000000000 0.351170182 0.103605308
0.997343183 0.351549625 0.096774049
0.998861372 0.349778414 0.105122961
0.997343421 0.352434993 0.110436343
0.991271138 0.358507007 0.120556869
0.319291472 0.430486739 0.240101501
0.325363755 0.436559021 0.246173233
0.352814734 0.440354496 0.257811755
0.358380824 0.439089328 0.252751440
0.369765848 0.438330233 0.247058496
0.384693265 0.438330233 0.242378175
0.401897371 0.435294360 0.232257903
0.414041728 0.425932586 0.211005524
0.435673684 0.421758324 0.198861331
0.453131229 0.415180236 0.178368479
0.468817353 0.400506139 0.161037624
0.471853495 0.377229482 0.133712992
0.493105859 0.360910743 0.116255596
0.531309307 0.361796528 0.112460248
0.576344073 0.369133651 0.112207405
0.626186073 0.377861977 0.106261991
0.665654480 0.382416189 0.101707801
0.707147121 0.391777247 0.095762312
0.751296699 0.394560248 0.096015289
0.794307709 0.397849351 0.101075351
0.834535003 0.398608714 0.102213994
0.866920054 0.396837503 0.100316249
0.897659779 0.396584511 0.102340475
0.937128425 0.391650856 0.104237735
0.969260275 0.386084795 0.103984706
0.987982273 0.383934498 0.102339990
1.000000000 0.388488442 0.109044865
1.000000000 0.386970252 0.115117244
0.999367416 0.386970252 0.118026674
0.998102248 0.385199487 0.117773481
1.000000000 0.383934140 0.127640486
0.994307280 0.388867497 0.133712992
0.406198204 0.493484914 0.283744633
0.411132246 0.496141553 0.289057523
0.424921095 0.501201689 0.297406822
0.448703676 0.503985047 0.303985238
0.457811296 0.500569105 0.291840464
0.469196796 0.499050915 0.284250259
0.482985556 0.494244218 0.273370951
0.495635539 0.489690125 0.258823216
0.508538663 0.478304446 0.239088833
0.521062851 0.474509746 0.223909110
0.537887573 0.461606920 0.206451759
0.547375202 0.445920408 0.186843768
0.543959558 0.418216288 0.153067648
0.564705968 0.399747252 0.131815240
0.599241078 0.397849649 0.129917637
0.645541012 0.405186474 0.128652632
0.690702260 0.412396818 0.124478087
0.727766991 0.414800644 0.117267281
0.769765913 0.419860661 0.114737608
0.807210743 0.425932914 0.116634995
0.841745973 0.432384372 0.118911989
0.874130249 0.434408635 0.117900118
0.904491007 0.434408635 0.117900118
0.940923572 0.430360615 0.120935738
0.971283913 0.425427288 0.122833282
0.989879966 0.421505630 0.122833282
1.000000000 0.426565647 0.123339348
1.000000000 0.424161851 0.128779531
1.000000000 0.426059276 0.137128621
1.000000000 0.424288511 0.142061964
0.998229027 0.423023671 0.148134202
0.997722983 0.426059276 0.154206276
0.502340078 0.571410120 0.327261031
0.520556808 0.569386423 0.336622387
0.534219027 0.572296023 0.346236795
0.548134208 0.577103198 0.351803035
0.563061595 0.579253972 0.351043969
0.572169185 0.573181212 0.338899195
0.580012381 0.565085351 0.324224740
0.588994086 0.559013367 0.308159113
0.596331179 0.554206014 0.289942980
0.611511528 0.545097589 0.274762601
0.626185954 0.530676961 0.253257185
0.637824297 0.517267585 0.235293835
0.642125428 0.498924494 0.212523445
0.633017063 0.466034025 0.174573049
0.648197412 0.444781661 0.153320685
0.681720614 0.442378014 0.146363035
0.722454190 0.447185040 0.146109998
0.762175679 0.453257114 0.146869034
0.801644921 0.453257114 0.146869034
0.834535420 0.458570719 0.143832713
0.866034448 0.466034323 0.142441034
0.896647990 0.472359031 0.141935170
0.927261055 0.472865015 0.139152512
0.957874835 0.473371029 0.142188132
0.983175039 0.471600324 0.145224318
0.997469664 0.468817383 0.146869034
0.999494016 0.466034025 0.147375092
0.999494016 0.466034025 0.150411487
0.999494016 0.470841020 0.160405010
1.000000000 0.471853226 0.167488828
0.998229027 0.470588446 0.171916202
0.992156982 0.473624051 0.177988991
0.553953230 0.604807258 0.348513395
0.572169244 0.613914847 0.360657394
0.583934188 0.614041388 0.374319762
0.598734975 0.616571546 0.383175135
0.617963374 0.618848801 0.384819835
0.632890701 0.615685940 0.381403923
0.629348636 0.612144113 0.366729498
0.642884195 0.606198788 0.354838490
0.658064246 0.599241018 0.340038002
0.663124681 0.587602258 0.317267299
0.672486067 0.578494608 0.290448934
0.686906934 0.564073563 0.266413808
0.700821996 0.550664186 0.245161593
0.708918154 0.532827497 0.220114172
0.699809730 0.505502343 0.198861808
0.705376208 0.479442984 0.170398623
0.733333349 0.468184590 0.160025224
0.771663547 0.467299402 0.160151556
0.813788891 0.480582207 0.168121383
0.836559355 0.483364850 0.162555397
0.866034448 0.487033725 0.159013093
0.897407115 0.491334707 0.158633545
0.930297434 0.494117379 0.160404891
0.966730237 0.506261408 0.163440496
0.988235414 0.509044707 0.166476682
0.999367416 0.509424388 0.168121397
0.998987973 0.508285761 0.168627456
0.993421972 0.505502343 0.171663851
0.993421972 0.505502343 0.172043398
0.996963918 0.506767392 0.178115383
0.998229027 0.507020533 0.185325801
0.992156982 0.510056853 0.196204990
0.617583573 0.640607595 0.384187400
0.626186252 0.647311985 0.396331400
0.640101194 0.649968386 0.404174417
0.654522538 0.653763235 0.417330593
0.674256802 0.658317327 0.423402756
0.685388684 0.655281425 0.422390640
0.697280407 0.649841905 0.414041877
0.694497406 0.645161569 0.397216797
0.707400262 0.639848471 0.383554757
0.710436225 0.632637382 0.362555385
0.724098623 0.623402596 0.340164512
0.733207047 0.610246539 0.310815901
0.745351017 0.597343445 0.284630150
0.757242382 0.585958540 0.260847747
0.758886755 0.565085173 0.239595383
0.756989181 0.535357416 0.208728999
0.758507371 0.506514788 0.179886401
0.783048749 0.492473215 0.171663597
0.818469167 0.497027159 0.179000750
0.848703325 0.503478587 0.179000780
0.875648499 0.510309696 0.178621054
0.904997110 0.514358103 0.177608788
0.935230970 0.517267585 0.179253504
0.962555170 0.520303607 0.182289690
0.985325933 0.530170321 0.183048591
0.996584296 0.536242664 0.184566796
0.997090280 0.540290773 0.184060737
0.992915988 0.542947114 0.183301643
0.996963978 0.540164411 0.188488185
0.996963978 0.536622405 0.193801388
0.999114394 0.537128389 0.201391578
0.994560182 0.541682601 0.212017789
0.673750579 0.680076003 0.423656166
0.679822981 0.683111966 0.432764173
0.688678384 0.684882939 0.437571198
0.700822413 0.687413275 0.448703527
0.720936179 0.695129573 0.460594565
0.733459413 0.693232298 0.462871552
0.742062032 0.690702379 0.455281496
0.749146163 0.683112144 0.441240162
0.749146163 0.676281095 0.423023373
0.751422882 0.671726704 0.404807180
0.761543036 0.665907681 0.385199487
0.775711477 0.655787349 0.366982847
0.784819841 0.641745567 0.336622357
0.793675184 0.631752312 0.308159500
0.799747169 0.614800811 0.280581981
0.807084143 0.594560385 0.252751589
0.805566370 0.561164021 0.223908991
0.804301381 0.532700837 0.196584627
0.824035406 0.524351418 0.192915991
0.849841952 0.523592412 0.188867807
0.883238256 0.531562090 0.192283645
0.912586927 0.535610378 0.194307387
0.940037787 0.537255168 0.194180876
0.967109203 0.540038168 0.194433898
0.983807385 0.546868920 0.196711197
0.992283463 0.553193867 0.193927854
0.995572209 0.561037242 0.194686934
0.995572448 0.566097379 0.194686934
0.997469962 0.571789980 0.202656373
0.998481810 0.570019186 0.205945387
0.998481810 0.567489147 0.216824785
0.996078014 0.573561192 0.227198184
0.716761529 0.719417691 0.461859554
0.725363672 0.720050097 0.469829112
0.732953906 0.719417691 0.471600115
0.742694557 0.722580254 0.478557855
0.754459083 0.727514505 0.494876951
0.771916091 0.727261543 0.500695944
0.780012608 0.727261543 0.494750202
0.784440398 0.724225402 0.482606113
0.787349522 0.716382027 0.465022504
0.787349522 0.707273602 0.446805716
0.792536139 0.702087402 0.427324563
0.804047823 0.695635855 0.413156182
0.816951215 0.686654091 0.396710664
0.826312482 0.674257040 0.366603553
0.833143532 0.659076691 0.331309289
0.843390107 0.643263757 0.298924744
0.850474298 0.622517288 0.273118287
0.846173525 0.587982118 0.246932149
0.840101480 0.566729724 0.219607711
0.855281889 0.554965138 0.205818772
0.883491576 0.553953290 0.201138481
0.916255295 0.559266567 0.205819413
0.943326652 0.553827047 0.206072405
0.972169399 0.560404956 0.204554081
0.990132570 0.566856265 0.206072271
0.995951653 0.574446201 0.207463786
0.993421972 0.577988505 0.202909186
0.999240994 0.581151366 0.208855435
1.000000000 0.590891957 0.217710540
0.998861372 0.598482132 0.224035546
0.996710598 0.599620521 0.227198154
0.996710598 0.605692565 0.242378563
0.750158012 0.746742964 0.495256066
0.768374801 0.749778628 0.510436416
0.776976943 0.748260736 0.514105022
0.784566820 0.750537813 0.520430207
0.793927610 0.757874608 0.534345448
0.803035975 0.754839003 0.537381113
0.810372949 0.754586041 0.533080041
0.814800799 0.754586041 0.525110781
0.817836881 0.753067911 0.513725936
0.820746005 0.749778509 0.498419046
0.823655844 0.737760961 0.474383265
0.833017051 0.730424047 0.458697051
0.844275713 0.724098980 0.444276005
0.853637040 0.716761947 0.424288869
0.865781009 0.701581597 0.396963775
0.875015795 0.683997393 0.356862456
0.884377241 0.669070005 0.324731052
0.888678432 0.651739419 0.298545450
0.879570007 0.624414921 0.265148968
0.881847382 0.597596586 0.240607232
0.899684012 0.581530988 0.221379012
0.924984276 0.575205982 0.212270930
0.949399471 0.575079501 0.215180054
0.970651865 0.584187150 0.221252054
0.990385950 0.586211085 0.224288329
0.999746978 0.591144681 0.228716031
0.999494016 0.599241018 0.233270019
0.999494016 0.605313003 0.236306414
1.000000000 0.611132026 0.236938998
1.000000000 0.621252477 0.241492972
0.999746978 0.629728377 0.247944593
0.999746978 0.633017063 0.257559001
0.814168453 0.799114704 0.573181868
0.824035168 0.793801725 0.574446857
0.831499159 0.796837330 0.581024706
0.835673928 0.798861384 0.581657112
0.841366470 0.804553747 0.587729275
0.848071039 0.799114287 0.590765536
0.852118790 0.801138699 0.593801141
0.856293499 0.798102736 0.588488102
0.860088766 0.794307768 0.580518663
0.865148604 0.789247632 0.569386303
0.865401626 0.788615108 0.551043749
0.868438005 0.778494835 0.526754975
0.874889493 0.769386768 0.507020772
0.880708396 0.760025740 0.485009700
0.890322804 0.752434969 0.460214883
0.907273769 0.742062211 0.435294122
0.912966430 0.726502299 0.399620652
0.917647004 0.711195529 0.369007349
0.919291377 0.688172042 0.333460093
0.921315789 0.663630366 0.291714370
0.926249385 0.632511020 0.267425627
0.940164506 0.615180254 0.250474513
0.955471516 0.610373080 0.246300086
0.976723909 0.622138202 0.247059077
0.991145015 0.624415100 0.253131092
1.000000000 0.623023450 0.253890067
0.999493957 0.626059353 0.254775375
0.997216642 0.632131338 0.255534470
0.999873459 0.638203323 0.261227012
1.000000000 0.647817791 0.265022010
1.000000000 0.658191323 0.271979600
1.000000000 0.663124740 0.281088024
0.848703742 0.825300694 0.611512005
0.854016304 0.828715980 0.615306973
0.856925726 0.823403001 0.613662243
0.861226976 0.828968883 0.624288142
0.866034329 0.833396494 0.628336251
0.875142753 0.824288487 0.628336728
0.874889374 0.833396316 0.635167956
0.882858694 0.831498981 0.633269787
0.888930976 0.825426996 0.626438797
0.897279978 0.819355011 0.617330670
0.893737972 0.815306962 0.601391435
0.893864512 0.816825151 0.584819674
0.895762265 0.807716787 0.565085173
0.898545027 0.796331763 0.543327153
0.907653451 0.786970377 0.515749395
0.920176983 0.782289505 0.495256186
0.935357392 0.773181498 0.464895844
0.937507927 0.759392738 0.432384908
0.942314744 0.741935432 0.399747163
0.955091834 0.719797432 0.361543447
0.956230462 0.691713691 0.324731469
0.960278451 0.659329474 0.296394706
0.966730177 0.644149244 0.279064238
0.980898142 0.645667553 0.270208985
0.993422031 0.648703754 0.269070238
