Assets/Shaders/EldamarStudio/100 Sci-Fi LUTs Pack/LUTs/cube/Hira LUT.cube
LUT_3D_SIZE 8
DOMAIN_MIN 0.000000 0.000000 0.000000
DOMAIN_MAX 0.903226 0.903226 0.903226
0.000000000 0.000000000 0.000000000
0.117899641 0.005439999 0.000379548
0.259329289 0.028210096 0.000000000
0.411511898 0.039216001 0.002276998
0.603795350 0.004807003 0.000000000
0.812650204 0.002024260 0.001897740
0.975711524 0.003922000 0.000000000
1.000000000 0.001265167 0.019734144
0.041113548 0.137128085 0.048576999
0.111195087 0.125363991 0.016065547
0.248324096 0.153953537 0.015306548
0.409993708 0.164579093 0.005439902
0.598734975 0.149778903 0.000758999
0.808475614 0.111701548 0.002656740
0.961922824 0.061986096 0.006578255
0.998734832 0.063630447 0.025679987
0.165971190 0.290575176 0.159013197
0.212144181 0.297280550 0.140543640
0.285009295 0.271094114 0.075901099
0.439215362 0.286780268 0.055913739
0.636812270 0.306388289 0.052498195
0.832384706 0.287918925 0.042758089
0.979759455 0.274256825 0.062491994
1.000000000 0.273877263 0.076533981
0.406198204 0.493484914 0.283744633
0.457811296 0.500569105 0.291840464
0.508538663 0.478304446 0.239088833
0.543959558 0.418216288 0.153067648
0.690702260 0.412396818 0.124478087
0.841745973 0.432384372 0.118911989
0.971283913 0.425427288 0.122833282
1.000000000 0.426059276 0.137128621
0.673750579 0.680076003 0.423656166
0.720936179 0.695129573 0.460594565
0.749146163 0.676281095 0.423023373
0.784819841 0.641745567 0.336622357
0.805566370 0.561164021 0.223908991
0.883238256 0.531562090 0.192283645
0.983807385 0.546868920 0.196711197
0.997469962 0.571789980 0.202656373
0.848703742 0.825300694 0.611512005
0.866034329 0.833396494 0.628336251
0.888930976 0.825426996 0.626438797
0.895762265 0.807716787 0.565085173
0.935357392 0.773181498 0.464895844
0.956230462 0.691713691 0.324731469
0.993422031 0.648703754 0.269070238
0.998734832 0.661732674 0.283238471
0.909424305 0.896014988 0.716255546
0.914990544 0.905249715 0.725363553
0.932321072 0.906894386 0.747627974
0.950158417 0.896014988 0.720176935
0.950411260 0.885009468 0.660594463
0.985325694 0.855914235 0.564073086
0.996078014 0.796964288 0.431245983
0.998734832 0.740164459 0.360657722
0.937381148 0.954333007 0.805439830
0.943959653 0.960910797 0.818089604
0.953826666 0.959013045 0.821884871
0.963567376 0.959392607 0.829348624
0.973181188 0.958253980 0.790891767
0.990006268 0.947248578 0.743073940
0.995192707 0.934598386 0.667046309
0.996078014 0.891840696 0.553320825
0.000000000 0.015686000 0.146489099
0.117140643 0.000379548 0.126502544
0.259329289 0.003162904 0.129285082
0.411258280 0.000000000 0.123339638
0.592915595 0.001138644 0.125363991
0.796205044 0.000000000 0.128905535
0.959139824 0.000000000 0.129664540
1.000000000 0.000000000 0.130044088
0.007084001 0.130803078 0.136369079
0.110056639 0.126502544 0.122201093
0.241999090 0.135863528 0.130044088
0.399746835 0.144212186 0.132827550
0.590512574 0.132953748 0.131309554
0.787223458 0.088425174 0.129538536
0.948386729 0.022770192 0.133586541
1.000000000 0.023908600 0.138393268
0.131056547 0.286021203 0.182542995
0.213409543 0.288677752 0.208349198
0.270968169 0.260847181 0.160151631
0.429095447 0.287539274 0.161416993
0.623402536 0.289943218 0.159392744
0.814041674 0.270714849 0.152814999
0.962175846 0.260974199 0.149019733
0.997090459 0.259582341 0.153067827
0.364958733 0.466413438 0.295762181
0.425300539 0.480328918 0.324477911
0.475901097 0.463504344 0.284883261
0.511701584 0.400126368 0.207969531
0.666287363 0.408096075 0.191018283
0.831498921 0.425427198 0.189120740
0.963440835 0.422643930 0.191018477
1.000000000 0.415180176 0.190133184
0.636812389 0.658950388 0.445287734
0.692473352 0.666413844 0.453004539
0.727261007 0.664136767 0.451107174
0.768754184 0.629601717 0.374825805
0.778494775 0.546995223 0.264769167
0.874889016 0.524604797 0.239342347
0.978620946 0.546868920 0.242504746
0.999240994 0.564579546 0.247817814
0.834534943 0.808222473 0.601771057
0.854395986 0.811385274 0.626438856
0.885388911 0.816698313 0.641998947
0.889436781 0.798228800 0.583934069
0.919671178 0.763693750 0.487413019
0.940923572 0.687160194 0.355471075
0.985452235 0.643770039 0.298798263
0.997343242 0.660088539 0.312080920
0.903605461 0.890954852 0.715370297
0.911828041 0.898039281 0.731815279
0.928400040 0.899177730 0.749399006
0.935357094 0.894496977 0.726375461
0.954206049 0.880202293 0.674256921
0.978494287 0.857432067 0.584692895
0.999620438 0.796584725 0.461100370
0.996837139 0.739911556 0.373308092
0.944718421 0.958380818 0.805565834
0.944845259 0.962555408 0.819354773
0.952182114 0.959898651 0.833523035
0.964705825 0.959772170 0.831625640
0.968121588 0.958001256 0.811637759
0.985073030 0.950537682 0.754458904
0.997469962 0.930044055 0.679949284
1.000000000 0.885642231 0.572802067
0.000000000 0.042252000 0.295256287
0.047817998 0.011005905 0.285136193
0.247565091 0.004680902 0.262492180
0.409234613 0.002783356 0.266793549
0.592915773 0.001518192 0.262492180
0.793042183 0.000000000 0.255028546
0.956103742 0.000759096 0.249209195
1.000000000 0.000000000 0.251992375
0.000000000 0.175458178 0.283618182
0.020619638 0.132827446 0.273750633
0.241619527 0.132827535 0.251865745
0.412017375 0.125489995 0.255787641
0.591650903 0.073624268 0.260974109
0.779127121 0.001518192 0.246299639
0.949272692 0.002024260 0.254395813
0.992410064 0.001897736 0.252371907
0.000000001 0.282099992 0.262365282
0.076027997 0.274257094 0.260974109
0.257685184 0.264010191 0.253004283
0.430360615 0.269955754 0.264136910
0.622011304 0.261733115 0.260847479
0.807463706 0.243770108 0.267552316
0.951296329 0.227957100 0.261732906
0.998102248 0.229348287 0.265907943
0.220999554 0.436179459 0.307527244
0.328146785 0.434155822 0.339911282
0.457684547 0.448703378 0.376597345
0.487666279 0.394813240 0.292979181
0.644655168 0.414041847 0.288551629
0.823402762 0.414927542 0.289057285
0.964326024 0.405945301 0.290702194
0.998481810 0.405060083 0.289942980
0.572422564 0.630107522 0.466919452
0.632131398 0.635420501 0.477925390
0.724731386 0.655155301 0.521062434
0.744085789 0.619861245 0.448071092
0.741176486 0.528905571 0.340797126
0.855661154 0.526122928 0.325869352
0.964073241 0.551549554 0.329791218
0.998861372 0.560910702 0.328905374
0.815433204 0.795319676 0.622264504
0.841239810 0.798608303 0.635420382
0.877925456 0.805439711 0.672232568
0.895509124 0.790385842 0.640986681
0.910942316 0.754712105 0.546615779
0.928020358 0.673118353 0.426692069
0.987729311 0.645414472 0.380391836
0.998734832 0.669576168 0.388361663
0.896901011 0.886654139 0.734977484
0.907273889 0.889690161 0.734851301
0.928273201 0.893611610 0.761669636
0.941808999 0.893105745 0.763187647
0.951170206 0.877925515 0.716888189
0.979886472 0.855155289 0.635547340
0.996837080 0.794687033 0.512840033
0.998734832 0.750410914 0.448576868
0.940543711 0.957748234 0.819734156
0.941303015 0.956103504 0.820873082
0.951549768 0.956989169 0.836938798
0.963820100 0.965211987 0.852878273
0.974193573 0.957368851 0.825426877
0.986084759 0.949019670 0.782415986
0.997596204 0.935989738 0.711575031
0.997343183 0.892346740 0.609993637
0.000000000 0.082985289 0.479190648
0.001138644 0.026565192 0.469323158
0.223909095 0.004681000 0.426945299
0.414294571 0.002783356 0.399620295
0.609993756 0.002403808 0.403542101
0.797975838 0.002024260 0.402150273
0.952182293 0.001138644 0.382795632
0.996964037 0.000000000 0.370651484
0.009487906 0.197343275 0.463883370
0.001897547 0.144212097 0.459203184
0.225932837 0.133206993 0.422896743
0.412776381 0.118785553 0.388615102
0.603162467 0.058317717 0.393674612
0.785072505 0.001138644 0.389120728
0.942441285 0.001644712 0.377862275
0.998355269 0.000000000 0.361416727
0.008728907 0.364326298 0.474130183
0.005566002 0.337254733 0.459076375
0.231119290 0.267173111 0.427324712
0.431878835 0.255913734 0.396078557
0.629981279 0.227703750 0.399873286
0.799620748 0.188994199 0.381151021
0.956862628 0.134471655 0.378621191
0.997216821 0.127514094 0.370271713
0.007337351 0.432763934 0.414800644
0.041998915 0.431245863 0.415180266
0.290828824 0.405819178 0.396078557
0.464263260 0.390133023 0.391271621
0.639848351 0.382289290 0.385452151
0.809108496 0.372549027 0.384946108
0.956103504 0.363820642 0.388488263
1.000000000 0.370525271 0.387602627
0.346236706 0.572928369 0.439722002
0.424541175 0.580771387 0.449209541
0.590765178 0.584945977 0.501075566
0.714611113 0.595572412 0.534977734
0.705882370 0.514863968 0.423023164
0.850727737 0.532068193 0.426945180
0.958507299 0.543833196 0.426312268
0.998734832 0.546489418 0.429980993
0.750410914 0.750537813 0.622770727
0.779379904 0.761923015 0.630360782
0.833649814 0.768880486 0.665021896
0.897659957 0.782542825 0.700189769
0.895129502 0.749778628 0.629981101
0.909677625 0.662998080 0.502213955
0.974825919 0.655155003 0.473118365
0.998481810 0.681214690 0.483870834
0.877925336 0.875901639 0.737128556
0.892979085 0.879190624 0.744212627
0.908665061 0.884250522 0.770904422
0.945224643 0.894876599 0.792915642
0.949398994 0.885895193 0.770145476
0.971916556 0.856166780 0.693991303
0.991144955 0.790259182 0.579633296
0.996584356 0.761290252 0.527893484
0.935357153 0.953067780 0.835926652
0.934851050 0.959898591 0.839721918
0.944845319 0.960531235 0.850094855
0.961543202 0.963946819 0.871600449
0.974067211 0.958633423 0.872486055
0.980771661 0.951296687 0.829980969
0.996457577 0.936369300 0.762428701
0.998734832 0.892852426 0.658443749
0.007210811 0.137002185 0.665275395
0.000758999 0.070841350 0.653636992
0.095509097 0.033649705 0.604048371
0.430613548 0.000000000 0.564452767
0.609234571 0.005439805 0.533713043
0.798228860 0.002024260 0.527387381
0.949019253 0.003162904 0.521188915
0.995445788 0.002276991 0.511954546
0.001138644 0.239342541 0.635167360
0.003542452 0.178241536 0.636432707
0.089184098 0.149651989 0.604301035
0.433396846 0.113725193 0.554712296
0.605439603 0.042757817 0.520682752
0.784187376 0.001138644 0.519544244
0.945098102 0.000759096 0.516887903
0.998734832 0.000379548 0.510562837
0.000000000 0.399620295 0.641619444
0.003162807 0.360278279 0.635799944
0.044275749 0.281973302 0.611764491
0.453004628 0.256293386 0.560278177
0.629854441 0.219481289 0.521695197
0.802403331 0.180771545 0.517520487
0.953700185 0.124605007 0.518026173
1.000000000 0.079317041 0.499177694
0.004807003 0.538899481 0.632005155
0.000379548 0.535104275 0.629474998
0.183681116 0.482099712 0.615306854
0.469702542 0.391651094 0.558254004
0.647058547 0.361543447 0.513852239
0.805566192 0.343200266 0.503605247
0.950031638 0.315622985 0.504237890
0.998861372 0.304617465 0.497533083
0.033649556 0.573561192 0.555724204
0.181404099 0.576344013 0.540290892
0.359392554 0.559645951 0.537381411
0.527007997 0.521062315 0.518912137
0.684882939 0.502340376 0.514105022
0.823656023 0.502214074 0.517394006
0.953826249 0.498292059 0.512333989
0.998861372 0.502846360 0.518026412
0.521821558 0.696901023 0.581657171
0.563693702 0.703478694 0.578874052
0.662365913 0.704996645 0.604174256
0.795572281 0.715117037 0.650348186
0.877166271 0.733080149 0.690954924
0.874004185 0.638203740 0.563314497
0.964200199 0.662491918 0.568880439
0.999620438 0.681594193 0.569639385
0.803415358 0.841113150 0.709171295
0.824668109 0.844781756 0.722707152
0.869576275 0.854395986 0.750917017
0.908285797 0.868437409 0.784060836
0.957495213 0.884124279 0.826945186
0.965212047 0.851486504 0.757621706
0.977735341 0.781910300 0.645540476
1.000000000 0.773813844 0.615306795
0.917014420 0.950537801 0.830487013
0.919797838 0.950537503 0.846173406
0.931435883 0.953447044 0.852245510
0.948640168 0.959772229 0.877166212
0.971410394 0.961163759 0.893105805
0.979253829 0.960404754 0.878431737
0.993295312 0.942315102 0.817837000
1.000000000 0.894623637 0.719418049
0.001897740 0.176343992 0.791524470
0.005945744 0.111448735 0.789500237
0.000759114 0.090954997 0.778874397
0.393928170 0.005439999 0.738899350
0.632131338 0.000379548 0.681973696
0.789247155 0.003794996 0.656293750
0.944592059 0.000000000 0.649968445
0.996204793 0.001265167 0.638583481
0.002403808 0.268311352 0.790259004
0.001518192 0.216951072 0.777356207
0.001138566 0.175837725 0.771536887
0.391651094 0.131562188 0.730550110
0.627703905 0.010879094 0.670588255
0.790512264 0.000000000 0.654648900
0.944592059 0.000379548 0.645161033
1.000000000 0.000000000 0.640354216
0.002024260 0.411258548 0.793674767
0.002024260 0.380645394 0.779379785
0.004301278 0.302593321 0.770145714
0.405186713 0.275015801 0.730929554
0.646679163 0.214294642 0.669322968
0.796205103 0.165464923 0.645540595
0.942947328 0.109044917 0.639215708
0.998734832 0.051739551 0.633143544
0.001517999 0.570272148 0.788108408
0.007590090 0.554206014 0.780138969
0.207210571 0.500442564 0.761163831
0.416318446 0.410373390 0.732447445
0.662239015 0.363946736 0.669323206
0.812397361 0.327640802 0.643516839
0.939531565 0.308285922 0.636179447
0.999240935 0.300063193 0.628336489
0.003542452 0.672232449 0.757368922
0.080455370 0.670714438 0.752435088
0.318911910 0.660088897 0.756103456
0.530676603 0.615812659 0.735357046
0.685136139 0.515496194 0.676534057
0.819860697 0.473244905 0.633649766
0.950790524 0.466287076 0.635800183
0.999620378 0.459203362 0.631119728
0.322707206 0.721062481 0.697406471
0.371663541 0.713092983 0.685009301
0.470841289 0.702466786 0.681340814
0.592030644 0.680202365 0.670841396
0.711827695 0.638203740 0.641619265
0.838583469 0.619101942 0.640607238
0.947628021 0.628715694 0.638456464
1.000000000 0.626944959 0.648197234
0.570271850 0.789500117 0.668184817
0.606451511 0.787602365 0.673118293
0.685262382 0.790259182 0.683997571
0.787602663 0.801897764 0.716761529
0.888172209 0.824794710 0.769892454
0.952561319 0.851486504 0.815939069
0.959139526 0.765338540 0.695761979
0.999241054 0.783428252 0.695256114
0.829348207 0.926375747 0.791144788
0.852371931 0.930803001 0.798735082
0.873371124 0.929664671 0.819102049
0.910942316 0.941049933 0.852371812
0.954712451 0.951296687 0.882858872
0.983554900 0.966603577 0.918911934
0.989500046 0.953320503 0.879949272
0.998734832 0.893484950 0.777229488
0.003922000 0.222517282 0.905123532
0.002024260 0.171663463 0.904491007
0.001518192 0.144971475 0.892726183
0.251612991 0.086906999 0.873624623
0.602656305 0.000000000 0.840860367
0.802656889 0.003542452 0.783681273
0.944338977 0.000000000 0.774067283
0.999620438 0.000000000 0.765464842
0.000000000 0.297786057 0.895003259
0.006578009 0.258064538 0.900948703
0.000000000 0.216951102 0.888551533
0.260594547 0.179506913 0.873877525
0.605945587 0.070588097 0.841365993
0.803542018 0.000000000 0.794307709
0.944591999 0.001897740 0.779253602
0.996204972 0.001897740 0.763314307
0.001644713 0.430107296 0.890449047
0.000000000 0.401517749 0.900948703
0.000000000 0.338393301 0.891967058
0.294497102 0.303605437 0.874636471
0.622264504 0.248324007 0.837571383
0.805819094 0.151676357 0.789500177
0.949652255 0.066792913 0.775838256
0.999620438 0.029348396 0.763946831
0.043263830 0.584060669 0.893864632
0.073244736 0.570651531 0.892219901
0.142821178 0.524477959 0.887413144
0.349272549 0.444528639 0.872485995
0.638962805 0.401012003 0.841492653
0.817710102 0.331815332 0.789753318
0.947754622 0.298165679 0.767994881
0.999620438 0.284377098 0.759392738
0.218848825 0.726502180 0.904364467
0.325617015 0.720556617 0.892346740
0.469828993 0.696521282 0.884756446
0.596457601 0.650854051 0.871600270
0.670461535 0.553067744 0.846299767
0.823149741 0.487665832 0.790891826
0.950663984 0.453636885 0.767868578
0.996710896 0.450853825 0.752814770
0.419228554 0.795951843 0.877040029
0.464010447 0.795446157 0.872359276
0.545603633 0.789879739 0.869070351
0.653889656 0.778494537 0.871600270
0.766350389 0.753700495 0.859582543
0.836052716 0.641112983 0.804174602
0.941808820 0.598608494 0.754459262
0.995192647 0.597723126 0.751549602
0.476660281 0.835167587 0.815559566
0.503099561 0.826818526 0.800759196
0.557368517 0.823529303 0.798987567
0.653510273 0.808728278 0.801391602
0.744592190 0.792915702 0.792410076
0.837824285 0.756103337 0.764705539
0.931308985 0.745983243 0.755470991
0.995192707 0.758001387 0.761543274
0.593042314 0.883871257 0.764705479
0.628463089 0.885642052 0.770651519
0.688298404 0.885515332 0.775584996
0.777102709 0.892599463 0.803541780
0.860974312 0.906894326 0.827577591
0.934218824 0.928779364 0.879822791
0.983048856 0.957115650 0.934345365
0.997975886 0.895888746 0.834787786
0.000000000 0.261606663 0.984566629
0.001265167 0.221758276 0.987096965
0.000759096 0.184440136 0.983174980
0.025806259 0.153953329 0.967361927
0.517520547 0.050600708 0.962049067
0.767994940 0.001265167 0.938140333
0.942567885 0.001644712 0.906261802
0.997469962 0.002530013 0.890575767
0.002530012 0.328273386 0.980392218
0.000000000 0.296141714 0.980265498
0.000379548 0.242504537 0.977988720
0.040607091 0.217583731 0.977735817
0.521062493 0.158633530 0.961037338
0.766982853 0.005692529 0.937760830
0.929917753 0.000379544 0.896521032
0.997722805 0.002277285 0.891966820
0.000000000 0.444275975 0.979253769
0.003921903 0.421758413 0.986843288
0.002024263 0.370145261 0.984946072
0.066034198 0.330170929 0.966223538
0.537128627 0.287918836 0.959012866
0.779506683 0.213915184 0.937508106
0.932700694 0.044276036 0.894117475
1.000000000 0.015180188 0.897153616
0.054648820 0.588867784 0.979253650
0.067678712 0.575711668 0.980265617
0.087286375 0.541049898 0.976217508
0.257684648 0.470461637 0.967235923
0.572295725 0.431878567 0.953573525
0.787602544 0.377735376 0.931435704
0.932195008 0.289184183 0.895635545
0.998734832 0.266666651 0.893611789
0.450854182 0.732827365 0.975837827
0.491967112 0.728273213 0.973055005
0.564958632 0.714737356 0.969766140
0.599114358 0.661986351 0.966603398
0.640480757 0.588614941 0.960151792
0.805060089 0.536116362 0.940544009
0.933586419 0.458823740 0.902719438
1.000000000 0.435547382 0.888298810
0.557748377 0.836432636 0.967868328
0.589373767 0.836306036 0.969766080
0.643769622 0.837950349 0.970904708
0.723972142 0.820493460 0.969007075
0.792030454 0.786717296 0.956736028
0.824794590 0.693105578 0.943326890
0.933206737 0.623276412 0.902213633
0.997975767 0.584060729 0.880202472
0.604933739 0.890828729 0.948387265
0.619102001 0.888298571 0.953826785
0.664389551 0.888930976 0.949778557
0.733080268 0.886021435 0.952308357
0.812776685 0.885389090 0.956230283
0.882858753 0.880455792 0.948387265
0.929158866 0.784187198 0.920430064
1.000000000 0.727008283 0.874889433
0.613535762 0.936242759 0.916508675
0.622897208 0.940544248 0.913472831
0.655028582 0.933459640 0.913598895
0.707779706 0.933838964 0.909171224
0.774952650 0.920682907 0.913978577
0.849588990 0.914104760 0.907653451
0.919924140 0.891081512 0.891081452
0.985831797 0.878937602 0.890701950
