Assets/Shaders/EldamarStudio/100 Sci-Fi LUTs Pack/LUTs/cube/Hira LUT.cube
LUT_3D_SIZE 5
DOMAIN_MIN 0.000000 0.000000 0.000000
DOMAIN_MAX 0.903226 0.903226 0.903226
0.000000000 0.000000000 0.000000000
0.221378684 0.025173709 0.002277292
0.504869938 0.026059173 0.007843000
0.859203279 0.000000000 0.002909872
1.000000000 0.001265167 0.019734144
0.122707106 0.255660981 0.121062398
0.240986690 0.233143687 0.059202701
0.529411495 0.267805099 0.039595284
0.869069815 0.246173099 0.036685571
0.996204793 0.230866402 0.066160820
0.553953230 0.604807258 0.348513395
0.642884195 0.606198788 0.354838490
0.699809730 0.505502343 0.198861808
0.897407115 0.491334707 0.158633545
0.993421972 0.505502343 0.172043398
0.862872005 0.839468956 0.630740106
0.893991113 0.853763223 0.666666985
0.919797421 0.817584157 0.568627596
0.981530905 0.713978291 0.352055877
1.000000000 0.683238447 0.308791816
0.937381148 0.954333007 0.805439830
0.953320920 0.959013164 0.822643697
0.963313997 0.956988990 0.809234977
0.995066166 0.943706691 0.730170786
0.996078014 0.891840696 0.553320825
0.004554003 0.032384705 0.261859715
0.216445416 0.003922000 0.229854703
0.501328111 0.001644708 0.229854271
0.846426547 0.000000000 0.219355121
0.998734832 0.002530012 0.223655820
0.000000000 0.249462694 0.235040694
0.217457116 0.234408692 0.229474977
0.521948159 0.236685410 0.234408692
0.854269564 0.203036264 0.232131824
0.998355269 0.193674639 0.237318233
0.462365389 0.553447127 0.389373690
0.616065800 0.579380214 0.447691083
0.646805823 0.474003851 0.302466661
0.883364916 0.490702122 0.285388827
0.997722685 0.490069687 0.286780536
0.846805871 0.826691687 0.639721692
0.888045251 0.830992818 0.685894847
0.918153107 0.812017679 0.631372571
0.957116008 0.705502868 0.429221720
0.997469962 0.685515702 0.377988547
0.942568004 0.960277975 0.824541092
0.956609726 0.955977321 0.837444842
0.967236042 0.958886564 0.838077009
0.991903722 0.947248638 0.764958680
0.998355269 0.892093718 0.604933619
0.000000000 0.107273981 0.569006801
0.082479388 0.024541285 0.528399765
0.511448801 0.000000000 0.460341811
0.830107331 0.000000000 0.461606383
0.997343183 0.000632584 0.441366404
0.003288997 0.341682106 0.555217803
0.054269496 0.243263826 0.523213208
0.528399825 0.207210988 0.454396427
0.833522916 0.114357993 0.445920378
0.997343481 0.025680229 0.434155792
0.009108005 0.510689437 0.474003404
0.262997806 0.489057392 0.467552394
0.571536779 0.456419796 0.457052410
0.858191133 0.435800105 0.452498794
0.998735011 0.440859795 0.453257382
0.714737236 0.760404944 0.620240569
0.798987865 0.774193645 0.653889894
0.906767964 0.801265001 0.727513969
0.924098611 0.685262382 0.553573549
0.998355269 0.706261873 0.538519979
0.924351811 0.953067839 0.827703834
0.940037787 0.955977142 0.845034659
0.969386399 0.958253980 0.881214678
0.984566867 0.947628021 0.835547268
0.999367416 0.890448928 0.687919021
0.002909872 0.185452119 0.824921131
0.001012128 0.113219261 0.812017977
0.521948159 0.000632584 0.761417091
0.833776236 0.005819002 0.686654270
0.997976005 0.000000000 0.670208812
0.000000000 0.378874093 0.815939248
0.003542291 0.289689988 0.815433443
0.541429341 0.221631572 0.754585624
0.840227842 0.073877394 0.693105400
0.997722745 0.009487865 0.670335293
0.000000000 0.653510690 0.826818585
0.271600336 0.620240510 0.812144220
0.573940456 0.475395232 0.755218208
0.861479998 0.397975922 0.678431511
0.997722745 0.381910205 0.650347948
0.361164004 0.747375250 0.725743294
0.470840991 0.736875415 0.716002285
0.663124800 0.696394861 0.697407126
0.867932141 0.646426141 0.666920006
1.000000000 0.658823431 0.682605982
0.796963751 0.917267621 0.782795608
0.843263805 0.923845828 0.807463765
0.919418097 0.932953358 0.851233244
0.984060705 0.965591490 0.924224973
0.998734832 0.891461134 0.790385962
0.000000000 0.261606663 0.984566629
0.001012124 0.186717108 0.981657028
0.324604809 0.121694975 0.970271766
0.820113599 0.000000000 0.937887311
0.997469962 0.002530013 0.890575767
0.001265167 0.409614116 0.989373684
0.000000000 0.349145830 0.981657028
0.351169974 0.282479405 0.962934971
0.821505547 0.130929768 0.924857676
1.000000000 0.000000000 0.894623578
0.360024780 0.667552173 0.975331783
0.398861408 0.637191474 0.975205660
0.497153610 0.530423403 0.968248188
0.832890570 0.441745490 0.928779006
1.000000000 0.358380795 0.893231988
0.569386482 0.849841833 0.959012926
0.637950957 0.849588931 0.965844214
0.770904243 0.841492832 0.965591371
0.859203339 0.719418049 0.940543950
0.998734832 0.622264564 0.881214321
0.613535762 0.936242759 0.916508675
0.646173596 0.933965504 0.909551024
0.745350838 0.922580361 0.909551024
0.865781128 0.907273471 0.905882478
0.985831797 0.878937602 0.890701950
