Assets/Shaders/EldamarStudio/100 Sci-Fi LUTs Pack/LUTs/cube/Holdtor LUT.cube
LUT_3D_SIZE 5
DOMAIN_MIN 0.000000 0.000000 0.000000
DOMAIN_MAX 0.903226 0.903226 0.903226
0.011765000 0.047059000 0.105881996
0.148766696 0.037571292 0.112080708
0.332827389 0.028083583 0.102593422
0.584693253 0.039216001 0.097027130
0.898671746 0.027450999 0.077040017
0.035673700 0.156609699 0.104616992
0.162808418 0.151043415 0.105881996
0.337128103 0.166097403 0.101960577
0.589627087 0.191271693 0.093738131
0.899304032 0.217836648 0.046932340
0.121062398 0.323719412 0.080961175
0.200759396 0.330296934 0.087539591
0.361669391 0.330929816 0.084250592
0.607969403 0.383933961 0.022390721
0.918279588 0.430993199 0.000632584
0.190385997 0.602403283 0.000000000
0.284629822 0.609613836 0.000000000
0.468690515 0.614547789 0.005566124
0.678937256 0.618090272 0.000000000
0.937254608 0.660594225 0.001012128
0.312713802 0.907779574 0.007843000
0.389879793 0.909044743 0.001012124
0.558506966 0.912966430 0.007210577
0.763187766 0.914231598 0.001012128
0.979506612 0.912839949 0.000000000
0.015053997 0.058823999 0.153320700
0.152055696 0.052624706 0.155598000
0.312966526 0.066033997 0.159518987
0.552308381 0.051486433 0.160151571
0.890828431 0.000000000 0.151549593
0.072612412 0.144844696 0.146109700
0.154332414 0.152687699 0.149398714
0.318153083 0.168374702 0.154585704
0.559645534 0.186970562 0.151296705
0.889563560 0.197469980 0.138266698
0.124857575 0.313599110 0.139152586
0.204680398 0.316508800 0.153320715
0.351549476 0.323719382 0.135610282
0.601138651 0.369892508 0.122833572
0.914737284 0.420240343 0.075142011
0.197469845 0.602403283 0.012144158
0.281593680 0.603415370 0.005692575
0.461479962 0.606704533 0.006451575
0.672738910 0.611890972 0.000000000
0.941808581 0.657558322 0.003036119
0.318026632 0.904490590 0.000000000
0.390006214 0.903858542 0.002277292
0.562175512 0.908032894 0.000632584
0.765211642 0.912586749 0.002023991
0.976217628 0.908665299 0.000000000
0.115116984 0.050980002 0.251106977
0.199114278 0.057179291 0.251359701
0.332194805 0.073244996 0.247184977
0.576597154 0.024668165 0.270082384
0.893484771 0.000000000 0.285768390
0.135989577 0.171663284 0.235673696
0.206324682 0.169639289 0.232763991
0.336116374 0.170651406 0.236053407
0.574320257 0.169639543 0.253763646
0.896394432 0.129537985 0.279696494
0.168753982 0.315243781 0.222263992
0.230486691 0.319797814 0.230487123
0.386590391 0.335483372 0.235420823
0.616571963 0.359392703 0.244908094
0.917520344 0.399620354 0.257052541
0.162049010 0.591651082 0.218342572
0.271094143 0.591650903 0.220746517
0.457179248 0.596204937 0.208601981
0.673371375 0.608981669 0.207969397
0.949525595 0.651106954 0.235293925
0.335737020 0.897153735 0.228589341
0.402403653 0.904490948 0.234281868
0.569006801 0.905755997 0.241113573
0.769765794 0.906388581 0.247058585
0.982922137 0.910309613 0.266160399
0.218849123 0.067678869 0.452372104
0.301834524 0.068311132 0.450348109
0.455913782 0.044276007 0.441239715
0.646553099 0.001012128 0.429854274
0.920556426 0.001265167 0.478178233
0.213156417 0.191271693 0.435926557
0.291334271 0.193548560 0.438583136
0.449082941 0.183428273 0.429601550
0.631625772 0.163693860 0.431119651
0.923845470 0.132953376 0.472991824
0.203922004 0.374826223 0.428210139
0.278557986 0.374193370 0.426945001
0.453257382 0.364958674 0.427830249
0.656419933 0.364326239 0.424288541
0.933966041 0.405565977 0.472991824
0.211890996 0.602403283 0.424921125
0.304111242 0.601771235 0.433775842
0.490196109 0.612523556 0.442251831
0.712207258 0.629854202 0.461227238
0.953446925 0.658949971 0.497280210
0.430613428 0.899936557 0.525490224
0.490069449 0.902466595 0.527134597
0.613788903 0.901454449 0.532321155
0.777229965 0.903478742 0.532321215
0.977229595 0.906388581 0.542567909
0.275774837 0.107400127 0.798102379
0.366729975 0.097912841 0.793927670
0.544718385 0.055787385 0.792282999
0.752055407 0.000000000 0.794939518
0.981024444 0.000000000 0.791650414
0.268311292 0.235547379 0.793548584
0.359013230 0.229980677 0.792030096
0.538520098 0.219860792 0.787349761
0.757368803 0.198987782 0.787729383
0.977735460 0.183934137 0.785831392
0.259076655 0.450094789 0.783681273
0.357242197 0.448197186 0.789120853
0.544845104 0.445541054 0.789752960
0.758633673 0.446932197 0.786717117
0.974952400 0.446932167 0.785831809
0.324730963 0.691208065 0.787729383
0.405566126 0.686527669 0.790765226
0.568753958 0.688425124 0.791018248
0.765844226 0.686148107 0.793042362
0.964199722 0.692346811 0.790638566
0.420113623 0.912839949 0.807337403
0.480455339 0.913598657 0.811005652
0.619987607 0.911068976 0.803415418
0.791524291 0.910309613 0.815180361
0.959771812 0.920809746 0.834788442
