Assets/Shaders/EldamarStudio/100 Sci-Fi LUTs Pack/LUTs/cube/Holdtor LUT.cube
LUT_3D_SIZE 8
DOMAIN_MIN 0.000000 0.000000 0.000000
DOMAIN_MAX 0.903226 0.903226 0.903226
0.011765000 0.047059000 0.105881996
0.070461996 0.039216001 0.102720000
0.170778006 0.034535099 0.109803997
0.281973273 0.028589644 0.108665355
0.394686997 0.032005191 0.101074994
0.542188168 0.039216001 0.102087006
0.710309505 0.034662005 0.087919287
0.898671746 0.027450999 0.077040017
0.012523999 0.097153999 0.105881996
0.092093542 0.088551991 0.109044999
0.184187099 0.103099450 0.109424450
0.279316723 0.097533442 0.104743548
0.395572364 0.108918093 0.108665451
0.540796936 0.116761096 0.094117999
0.711954236 0.126881793 0.087412819
0.891840279 0.127640694 0.067172848
0.049336094 0.177102998 0.111448102
0.108538635 0.178241640 0.109424450
0.182542995 0.171537101 0.105123095
0.281214178 0.188868001 0.101201907
0.394687206 0.195825189 0.095762096
0.546110213 0.211764738 0.088172257
0.721948445 0.232637376 0.076407716
0.898292005 0.247438088 0.037571181
0.086906999 0.269070625 0.096900649
0.128399998 0.274636626 0.093358904
0.204427287 0.273750722 0.097659551
0.292093277 0.275774986 0.091334648
0.414800823 0.291714013 0.089563712
0.558380485 0.316382170 0.064895630
0.729411900 0.347627968 0.023908719
0.908918202 0.366856635 0.000000000
0.137634367 0.393169194 0.059076812
0.170651391 0.397469729 0.070715077
0.241872087 0.394686997 0.064642720
0.331941396 0.398228824 0.053004820
0.434535176 0.398608357 0.036685631
0.577482700 0.434155822 0.010879266
0.753320694 0.467552483 0.001518192
0.917393744 0.493485183 0.000000000
0.178241730 0.559898496 0.002024260
0.220113799 0.561416626 0.004554189
0.297533154 0.562555075 0.000000000
0.397849381 0.567741454 0.000759096
0.507147610 0.571157396 0.002024260
0.628336191 0.573561251 0.000000000
0.778621256 0.601518154 0.002277288
0.936495781 0.625426829 0.001265167
0.237191573 0.743959248 0.002277288
0.272106230 0.740164280 0.000379548
0.348387092 0.746362567 0.000759096
0.453510284 0.746742189 0.001138644
0.568500757 0.747121692 0.001644712
0.692726135 0.751423299 0.000000000
0.819101870 0.751802802 0.000000000
0.953067482 0.758507073 0.002656833
0.312713802 0.907779574 0.007843000
0.345983326 0.913093030 0.001644715
0.411385179 0.907779574 0.000000000
0.504364252 0.911701560 0.001138644
0.615179956 0.914231598 0.003542158
0.732827246 0.914231598 0.003289105
0.854269326 0.914231598 0.004933540
0.979506612 0.912839949 0.000000000
0.023529001 0.051359549 0.130171001
0.066540085 0.043136999 0.122707449
0.176723555 0.047817901 0.138393551
0.261985838 0.059203450 0.132953644
0.379506856 0.063503996 0.128146634
0.520177007 0.061353810 0.128652990
0.701075256 0.033902910 0.127007991
0.894370317 0.007084001 0.120430164
0.022264548 0.089310989 0.119165003
0.081846543 0.092852540 0.126249000
0.163314551 0.101075090 0.127387539
0.266793638 0.108918183 0.133333087
0.379506856 0.112839989 0.132953644
0.522960305 0.121821739 0.129284993
0.703099549 0.122201279 0.118532516
0.891460717 0.119038381 0.105250008
0.062998548 0.165717661 0.126628548
0.115622550 0.169639558 0.125110552
0.177482545 0.166856200 0.125869542
0.263883382 0.182163551 0.123845898
0.388867736 0.193042547 0.129411906
0.533206582 0.209487647 0.114863545
0.710056722 0.228336439 0.107906349
0.895129263 0.239595085 0.087286919
0.101834096 0.264389724 0.121568903
0.138266534 0.265907735 0.125110641
0.200885743 0.262744844 0.120050900
0.282352716 0.266287267 0.117267542
0.394560367 0.287033528 0.114104547
0.545730352 0.312080622 0.101454906
0.727514327 0.341429263 0.074383371
0.902593136 0.362555176 0.034661576
0.135230541 0.390765369 0.091966912
0.177482530 0.390512645 0.091081806
0.241619453 0.390385717 0.091587454
0.329664469 0.393169194 0.088425353
0.426692158 0.397090167 0.085642003
0.573181510 0.425174206 0.044023078
0.749525487 0.462365717 0.006578009
0.918026626 0.490196377 0.000379548
0.184440449 0.549525619 0.000379548
0.216192290 0.554459274 0.000000000
0.294876635 0.556609452 0.001897741
0.390259027 0.556989074 0.000379548
0.503858089 0.562934518 0.000379548
0.622390926 0.569639206 0.000000000
0.775078893 0.596710563 0.000000000
0.935863495 0.620999515 0.002276991
0.232132003 0.736116230 0.003542452
0.264895827 0.737887561 0.000000000
0.346995562 0.735230625 0.003162904
0.448070973 0.739658237 0.003289004
0.561416507 0.741302848 0.000000000
0.687286496 0.745603621 0.000379548
0.814927280 0.747627854 0.003794996
0.945350885 0.755850792 0.002530012
0.303604960 0.903605163 0.001265167
0.335610509 0.915622592 0.009361286
0.402783185 0.906768024 0.005186845
0.498924524 0.905502856 0.000379548
0.615686357 0.906261861 0.002909560
0.734598458 0.908032894 0.000000000
0.859835505 0.913345873 0.003289105
0.976343930 0.910689175 0.000000000
0.024161998 0.058064900 0.166983098
0.092346989 0.044275545 0.164199650
0.179380089 0.054901998 0.166983098
0.265907735 0.059962351 0.165844455
0.378368199 0.065148808 0.171663180
0.519165039 0.051739268 0.174319819
0.687286437 0.010500009 0.174699366
0.888804495 0.000000000 0.163947016
0.059456095 0.110183448 0.161163554
0.099810444 0.104237996 0.155976996
0.170019105 0.103858545 0.156356543
0.267932057 0.112080894 0.169765651
0.378747761 0.118026450 0.164579287
0.515749633 0.117267363 0.167741999
0.696141720 0.098166004 0.172169536
0.888425052 0.073371448 0.164326370
0.089310996 0.166097105 0.157495186
0.122960091 0.178368449 0.165464997
0.180898085 0.174699187 0.161543101
0.272232652 0.179000735 0.156736091
0.382163286 0.195066094 0.165338188
0.525490403 0.207210839 0.169006839
0.707020521 0.216192290 0.163061112
0.895635843 0.222517088 0.147881180
0.125489995 0.261226922 0.155724362
0.156736195 0.264769167 0.158381000
0.211132556 0.267552555 0.156356633
0.285894990 0.267931998 0.154838651
0.400632650 0.283491254 0.154459089
0.545224249 0.307780057 0.153826818
0.727514267 0.331182629 0.144338995
0.901074946 0.350031376 0.123592556
0.148893103 0.386211187 0.134092301
0.180898190 0.382922262 0.144718558
0.245920181 0.383681267 0.141935095
0.328146338 0.386084557 0.135736808
0.426059365 0.394687176 0.134092286
0.572295666 0.419228137 0.114990361
0.749272525 0.456546366 0.095888615
0.918279231 0.483997285 0.074130543
0.181783900 0.554332435 0.082226634
0.214927435 0.552814603 0.077040181
0.292472899 0.556356668 0.073497824
0.390006185 0.557874918 0.066034183
0.501454949 0.559139609 0.050980642
0.624415219 0.566097498 0.038709894
0.776597023 0.594054282 0.003289012
0.934471667 0.621884525 0.000759104
0.223276377 0.737760782 0.006198902
0.256040365 0.737001657 0.001518193
0.342441201 0.738519847 0.000000000
0.450474173 0.738519847 0.002403808
0.564705670 0.744085550 0.002403808
0.687286437 0.742947221 0.002783357
0.814547777 0.747248292 0.003035997
0.949145973 0.758254290 0.000000000
0.322580665 0.901201725 0.001517999
0.342694312 0.903984606 0.002530012
0.415306777 0.905882359 0.000000000
0.510942578 0.911954582 0.001897737
0.619102001 0.907526910 0.001138641
0.733333349 0.914610803 0.000000002
0.858697057 0.910942495 0.000379548
0.977229595 0.909677505 0.003795187
0.085262284 0.048197355 0.214674294
0.125237182 0.048576903 0.218216538
0.200506091 0.056420095 0.218595996
0.278052002 0.063883640 0.216318995
0.388488203 0.069829002 0.218595996
0.524478436 0.044655267 0.224288538
0.700316131 0.000000000 0.233775929
0.896014929 0.001138644 0.243263632
0.097786091 0.108918093 0.209614545
0.134345546 0.117646992 0.207590178
0.194940075 0.109677084 0.209234893
0.275268614 0.110815637 0.206072092
0.382163286 0.117140733 0.215812638
0.521442413 0.110563003 0.220619634
0.706135273 0.056293726 0.229854539
0.885388970 0.003668656 0.231625542
0.114990182 0.181024998 0.202024087
0.148386732 0.176596820 0.199367538
0.206704378 0.182922453 0.198229000
0.279190540 0.186464190 0.198608547
0.388741016 0.191144899 0.213156089
0.532068133 0.193042353 0.212270901
0.708538532 0.183807641 0.220113903
0.893991053 0.183681533 0.227071375
0.135104626 0.262871623 0.212903351
0.165211990 0.261226922 0.201770738
0.227071270 0.268691093 0.206199005
0.303858280 0.280834645 0.201770633
0.411132276 0.283491194 0.204553992
0.543959379 0.301201731 0.208981544
0.722201169 0.315622985 0.211891353
0.909930408 0.330044121 0.215812638
0.160278350 0.379759580 0.201518103
0.183681443 0.386463940 0.195193008
0.253763378 0.383301735 0.198608547
0.337760836 0.387602568 0.195445836
0.435294390 0.390638590 0.192030191
0.579127073 0.415432930 0.191650644
0.750537336 0.453130811 0.192916006
0.921821535 0.472612023 0.195445642
0.167108983 0.544085920 0.178368449
0.205819264 0.545730531 0.177229896
0.286780298 0.547880948 0.171663195
0.388361365 0.551170349 0.172169536
0.500695944 0.554712057 0.164326549
0.624035358 0.560910821 0.159139812
0.783428073 0.586970150 0.155724183
0.940037608 0.615053594 0.161290288
0.205312923 0.729917824 0.118912280
0.249589086 0.733839214 0.118911996
0.327261180 0.730550230 0.118153095
0.442884207 0.732194483 0.114358000
0.560657740 0.735736787 0.115117095
0.685135722 0.737001657 0.104111373
0.816824794 0.742820859 0.101581275
0.946109951 0.754332483 0.125490114
0.324351579 0.903984785 0.122327685
0.364706039 0.905882359 0.129284978
0.417330682 0.908538520 0.131309032
0.511068881 0.907526970 0.131182522
0.623529375 0.905123174 0.134471864
0.736495793 0.907526970 0.138899595
0.857811511 0.907526970 0.151169971
0.981783628 0.910689473 0.159645855
0.142441377 0.060341805 0.286021173
0.177355736 0.061859995 0.292726427
0.242757902 0.064263187 0.285895079
0.322960019 0.069829188 0.282352746
0.408222377 0.072991811 0.282100171
0.535483479 0.044782173 0.289563298
0.718785763 0.000000000 0.318658978
0.902846396 0.000000000 0.339025974
0.154712453 0.120303549 0.285262167
0.184440553 0.129032552 0.289057404
0.247185439 0.121442191 0.285641700
0.315623164 0.123466447 0.278557748
0.403668731 0.121948354 0.274509847
0.535989940 0.110562995 0.288931191
0.716381848 0.043390084 0.313345909
0.898797929 0.000000000 0.330803216
0.157368898 0.199747190 0.277419299
0.189247459 0.196584195 0.275774986
0.242758095 0.203795105 0.270968169
0.319164932 0.196331456 0.271853298
0.405692458 0.195066288 0.270335197
0.545351088 0.195192903 0.283870816
0.726502478 0.175585195 0.313219368
0.901075006 0.178494275 0.327008039
0.177609354 0.284756631 0.271094203
0.200126648 0.285515606 0.267425835
0.256546706 0.283491194 0.265907735
0.337508082 0.288298190 0.271853387
0.436306268 0.283491194 0.269450188
0.569512963 0.295256197 0.280329198
0.736369193 0.307400435 0.298545212
0.909297764 0.323465914 0.319417983
0.182542995 0.383807391 0.267046392
0.215939552 0.384946018 0.271853387
0.268690884 0.390006274 0.271853387
0.360278249 0.399746984 0.276534170
0.468943566 0.410373360 0.275775015
0.599873602 0.419228107 0.279949635
0.764326572 0.436938554 0.290575385
0.924730778 0.466666371 0.313598812
0.177862182 0.548134446 0.274889380
0.218595788 0.548893332 0.274889380
0.296774298 0.548513710 0.271727085
0.392789423 0.556862593 0.272486180
0.508665442 0.557495296 0.268184632
0.637444437 0.561290264 0.274383456
0.792536378 0.593168736 0.283238262
0.947627783 0.611891150 0.314610988
0.236179471 0.731435716 0.286527276
0.275395304 0.728273273 0.280328751
0.338267177 0.730676651 0.278811187
0.440860182 0.734218895 0.276027799
0.558380425 0.736242771 0.272359282
0.688804746 0.737887502 0.275774747
0.817836881 0.739405453 0.275521785
0.951929152 0.759392738 0.306008786
0.354964942 0.903352201 0.327261120
0.377482474 0.905882180 0.320682973
0.435167611 0.906261742 0.322074354
0.526502311 0.907147348 0.325489998
0.632005334 0.905123413 0.330929786
0.746868908 0.907400191 0.334977984
0.861986160 0.909044743 0.341935486
0.980771780 0.910562932 0.349525332
0.205692738 0.068690740 0.408855200
0.238456726 0.068564259 0.407336980
0.308159411 0.066793002 0.408855200
0.388361365 0.057685357 0.403795362
0.486148357 0.043137267 0.396078467
0.590891957 0.018216275 0.393421710
0.737381041 0.001897740 0.416065991
0.914990306 0.002024260 0.449841708
0.200758740 0.132068545 0.408475518
0.241113275 0.129664734 0.400253117
0.296015203 0.128146544 0.395698905
0.387223005 0.119038187 0.396837443
0.480961323 0.111448288 0.393674552
0.577356219 0.097912557 0.387855917
0.731182516 0.029601725 0.409867227
0.915496469 0.002403808 0.442631304
0.200506091 0.211764738 0.394180834
0.228842735 0.213409543 0.391524196
0.299178094 0.212776840 0.389500439
0.380138904 0.205692649 0.390512377
0.483112097 0.200632200 0.392283380
0.582036793 0.194054455 0.385831445
0.746616125 0.176344097 0.414168447
0.920303404 0.173687279 0.439848244
0.197849736 0.308791727 0.388488084
0.231752351 0.308791727 0.388235390
0.288298368 0.305376291 0.383428276
0.381656975 0.304996729 0.383301467
0.480708361 0.300316632 0.381404012
0.593421757 0.298292369 0.378747582
0.754838586 0.304490983 0.411638349
0.923086584 0.327767164 0.441619396
0.204807207 0.422011197 0.396964192
0.234408796 0.422770500 0.384693205
0.302087426 0.422770381 0.387855917
0.384313345 0.422011375 0.383048922
0.505376101 0.426438928 0.393674463
0.626059353 0.429474920 0.395951658
0.781657279 0.444655269 0.413662195
0.932953894 0.482099742 0.446679443
0.205819264 0.553826749 0.381404221
0.246426344 0.552688479 0.391271472
0.313725442 0.557748199 0.390765101
0.415053457 0.563693464 0.395192444
0.535989940 0.575078964 0.402656913
0.665654480 0.583301485 0.414674461
0.805818796 0.598228753 0.430360466
0.951422811 0.618975282 0.454775363
0.265781462 0.721948445 0.416065454
0.299430728 0.729412019 0.420493186
0.370777786 0.730676651 0.418975234
0.473244786 0.734471679 0.423655987
0.584187388 0.738519847 0.432764173
0.699051261 0.737760544 0.427577496
0.821758330 0.743579745 0.435673475
0.956356585 0.761922538 0.459076911
0.421252578 0.901201725 0.490828276
0.447438389 0.901327968 0.490069479
0.500948668 0.899177492 0.491713971
0.566224098 0.901201725 0.492220074
0.643137038 0.903099477 0.485641927
0.749146163 0.903984547 0.489057332
0.865654826 0.906641126 0.500948846
0.978241742 0.906388581 0.500316262
0.260088563 0.076786712 0.585452557
0.295003235 0.076407261 0.588994086
0.361037284 0.062744997 0.587096870
0.453004628 0.038583003 0.584439814
0.559898615 0.003289004 0.583934367
0.675901473 0.000379548 0.574067056
0.794939816 0.003922000 0.572042823
0.930044472 0.001265167 0.575458229
0.254269272 0.139532000 0.582036495
0.288804531 0.132448003 0.581151068
0.358887076 0.131688997 0.580898404
0.454648912 0.116002187 0.579253554
0.557495356 0.095003195 0.575331926
0.676660299 0.048577074 0.574572861
0.793548107 0.003921709 0.565464973
0.926122725 0.003036288 0.573813617
0.242252007 0.229474887 0.575331867
0.277293175 0.228716001 0.574952424
0.350411087 0.226312190 0.575331867
0.441745669 0.218089744 0.570145011
0.556736350 0.205945283 0.570398569
0.675521731 0.192283437 0.568500817
0.793168664 0.170651287 0.564958513
0.930550516 0.179759547 0.574952364
0.217963278 0.339784980 0.572548926
0.255913824 0.335104287 0.568121254
0.330043882 0.335863292 0.569259882
0.432258278 0.331941575 0.566982865
0.553067386 0.326375574 0.567109227
0.671347082 0.317520618 0.562681735
0.798355222 0.314104944 0.565844536
0.936369240 0.337254643 0.578241646
0.216318995 0.461859643 0.565211713
0.254143029 0.467172801 0.563567400
0.334471911 0.463504374 0.570524871
0.436179578 0.461986363 0.569765508
0.553573489 0.454902261 0.563440740
0.674256742 0.452625155 0.562302113
0.804427564 0.455534458 0.564073324
0.944338739 0.487286806 0.587982237
0.239974529 0.601265013 0.569386065
0.275268734 0.604933619 0.571663499
0.348892897 0.604933798 0.567615211
0.449841797 0.600252986 0.573434234
0.570777774 0.604048014 0.571916759
0.692599654 0.606578231 0.577356100
0.817204297 0.609993756 0.581404150
0.949272513 0.642504632 0.607084095
0.269829541 0.742314577 0.564832270
0.307147563 0.737254560 0.561290264
0.382163286 0.739278734 0.571410239
0.479443192 0.738899231 0.570904195
0.589753449 0.740923405 0.572295606
0.715370178 0.748893023 0.590638816
0.841366291 0.752814531 0.607969820
0.955344439 0.772422552 0.633902550
0.431119293 0.898292124 0.622770011
0.463630676 0.900316119 0.625300348
0.506008685 0.899303973 0.630993247
0.581404090 0.898924470 0.636432350
0.674762905 0.900948405 0.649841726
0.772042990 0.902087092 0.657052517
0.862871647 0.906388581 0.653383911
0.963693917 0.913472652 0.661733150
0.275774837 0.107400127 0.798102379
0.314990550 0.104743972 0.794939697
0.387729347 0.097406723 0.792915583
0.488425016 0.076786801 0.794307232
0.603289127 0.034914777 0.791650414
0.722200871 0.000000000 0.793927550
0.852245510 0.001265167 0.791018426
0.981024444 0.000000000 0.791650414
0.279316723 0.165970787 0.794307232
0.308791965 0.162302524 0.793927670
0.383554608 0.154079661 0.787729323
0.489184022 0.142314970 0.787476063
0.600379646 0.129791170 0.790132582
0.722580731 0.098165438 0.789753199
0.849968255 0.051739432 0.786464095
0.975711405 0.020493444 0.785705209
0.265781105 0.260594755 0.789500356
0.303605199 0.259962082 0.790765345
0.380012661 0.254775316 0.792283475
0.482606113 0.253510147 0.787349820
0.598482132 0.244528815 0.788488269
0.724984109 0.235420629 0.788235188
0.850347757 0.224667966 0.786590636
0.978241801 0.223149702 0.785831630
0.251992464 0.379886091 0.785831749
0.293232203 0.377862155 0.788994253
0.372801900 0.383428365 0.787223101
0.480455428 0.380139410 0.791650414
0.595319331 0.378241688 0.784819841
0.720430315 0.373181462 0.782416046
0.851106882 0.371916294 0.784440100
0.976976573 0.370524883 0.785325587
0.268437445 0.517520547 0.784693360
0.309171170 0.518279672 0.792156756
0.386590630 0.514990509 0.786970258
0.489437252 0.517394066 0.787855625
0.603415668 0.513852119 0.782795608
0.724098861 0.514611125 0.783175170
0.849209309 0.514990509 0.785072565
0.975584984 0.516381800 0.789753199
0.312081039 0.658823371 0.791018367
0.342188269 0.654648840 0.791270971
0.416192412 0.654648840 0.788488269
0.511195242 0.653763533 0.788867652
0.623402655 0.652751088 0.788867772
0.735230625 0.653763533 0.793042362
0.850347757 0.655661285 0.793168664
0.966729522 0.656926095 0.789626598
0.361543030 0.787223279 0.805439413
0.387729198 0.788235247 0.796204507
0.449588954 0.786717176 0.790638387
0.530929625 0.783175349 0.789247215
0.638330400 0.784819722 0.798102379
0.743326604 0.782795966 0.797090054
0.849715352 0.781404078 0.797849119
0.965971053 0.794433951 0.803668857
0.420113623 0.912839949 0.807337403
0.444023073 0.917520404 0.808475673
0.495129794 0.912839711 0.813029528
0.574446797 0.911701620 0.808475792
0.664895773 0.910562992 0.804933608
0.764958680 0.909550726 0.814674139
0.866666555 0.912586868 0.825300097
0.959771812 0.920809746 0.834788442
