Assets/Shaders/EldamarStudio/100 Sci-Fi LUTs Pack/LUTs/cube/Holdtor LUT.cube
DOMAIN_MIN 0 0 0
DOMAIN_MAX 1 1 1
LUT_3D_SIZE 32
0.011765000 0.047059000 0.105881996
0.017836999 0.044022612 0.105881996
0.028209999 0.043136999 0.103731774
0.045414321 0.041872162 0.101961002
0.070461996 0.039216001 0.102720000
0.100821987 0.039216001 0.108792000
0.126122639 0.039216001 0.112333678
0.148766696 0.037571292 0.112080708
0.170778006 0.034535099 0.109803997
0.195066020 0.031499486 0.109804004
0.225173742 0.031373002 0.115622997
0.253510237 0.029348744 0.113599002
0.281973273 0.028589644 0.108665355
0.311575025 0.031119969 0.105629027
0.332827389 0.028083583 0.102593422
0.361290604 0.027450999 0.099557199
0.394686997 0.032005191 0.101074994
0.431751698 0.039216001 0.105881996
0.471220940 0.039216001 0.105881996
0.502340019 0.039216001 0.105881996
0.542188168 0.039216001 0.102087006
0.584693253 0.039216001 0.097027130
0.621505439 0.039216001 0.093991488
0.667045891 0.039216001 0.090955094
0.710309505 0.034662005 0.087919287
0.755597293 0.029981328 0.084883325
0.804174304 0.027450999 0.082353003
0.852751791 0.027450999 0.082353003
0.898671746 0.027450999 0.077040017
0.942441344 0.027450999 0.072738782
0.978747606 0.029221991 0.067046016
1.000000000 0.035294000 0.054901998
0.011765000 0.040987000 0.102846384
0.011764999 0.047059000 0.105881996
0.032890774 0.044022612 0.110183001
0.054522388 0.046932161 0.109803773
0.078051709 0.050601002 0.107653454
0.097786382 0.045288000 0.105755612
0.125616699 0.047817677 0.104237936
0.150410980 0.051613033 0.111195378
0.173813805 0.051992580 0.115875997
0.198102415 0.046679098 0.115876004
0.225300267 0.046552613 0.112966135
0.255534500 0.046552613 0.112586871
0.281594038 0.045667000 0.108665355
0.306262016 0.046552613 0.105629027
0.335862994 0.046299584 0.102593422
0.364326179 0.048070803 0.101961002
0.396204799 0.050221577 0.101075388
0.429854125 0.054396387 0.102846384
0.462112576 0.054396387 0.102846384
0.501581013 0.054396387 0.102846384
0.538393199 0.058191381 0.102846384
0.580645263 0.058444388 0.099051394
0.621505439 0.054522868 0.094244480
0.667045891 0.057431996 0.097027093
0.712586820 0.057431996 0.089437291
0.758633673 0.055661000 0.086274996
0.806704581 0.053763382 0.083871320
0.852751791 0.048703387 0.076281004
0.893358767 0.051360220 0.073624171
0.939911366 0.049968556 0.069702849
0.978747606 0.049588993 0.066666782
1.000000000 0.053510770 0.060973998
0.005313226 0.054269772 0.104111224
0.009614226 0.053889997 0.104996607
0.035420772 0.055660997 0.108032770
0.056419998 0.056419771 0.109044768
0.077545546 0.063124545 0.106261998
0.101075090 0.058823772 0.108538836
0.118279539 0.062492222 0.103352323
0.150537625 0.062238842 0.106894284
0.176849961 0.066034317 0.114737324
0.201138765 0.064136580 0.113345996
0.226185873 0.063883550 0.110436127
0.253510237 0.063883550 0.111448251
0.283744484 0.063883550 0.110942349
0.308285981 0.064136513 0.110183001
0.334850967 0.066033773 0.109044649
0.365211576 0.066286802 0.101961002
0.394054174 0.067805000 0.100442812
0.428083122 0.070208803 0.101707794
0.464515984 0.071727008 0.106261991
0.498924375 0.073877767 0.099810228
0.538393199 0.073877767 0.099810228
0.577862144 0.078431644 0.098798357
0.619481206 0.076027997 0.094117999
0.667045891 0.077039868 0.095129870
0.712586820 0.077798769 0.091208294
0.759519279 0.077798769 0.086274996
0.807084143 0.077798769 0.084756933
0.850980520 0.075015776 0.075648561
0.893358767 0.074762829 0.071853168
0.939911544 0.079569981 0.068817236
0.980012774 0.077672392 0.064010397
1.000000000 0.078178771 0.058443997
0.003795161 0.075522155 0.105881996
0.013662321 0.069955774 0.105881996
0.027324386 0.074130155 0.104237609
0.066287160 0.070335321 0.109803997
0.078810707 0.076027773 0.104111455
0.102593087 0.074762933 0.107526839
0.123592317 0.078052163 0.104744002
0.147754386 0.082985610 0.105629444
0.178874090 0.079949230 0.112460159
0.201644823 0.081973478 0.109930478
0.225933164 0.082099997 0.105629288
0.253510237 0.080835164 0.106641091
0.279696286 0.081973508 0.108538836
0.310057014 0.082353026 0.111194998
0.337381154 0.085388906 0.111194998
0.365211576 0.087286159 0.109044813
0.395319343 0.087286159 0.104237974
0.423908710 0.087286159 0.100569174
0.464515984 0.089689977 0.106514961
0.502466559 0.093991190 0.100189798
0.538393199 0.095129833 0.096774161
0.580898285 0.095129833 0.097786032
0.621252120 0.098039016 0.095382839
0.667551994 0.100316316 0.095382839
0.711321652 0.101581156 0.087033682
0.754459262 0.102846317 0.082479835
0.803036094 0.101834320 0.081973769
0.847058892 0.100316316 0.074383400
0.893358469 0.101581156 0.070588328
0.936116397 0.107653141 0.065022074
0.980645418 0.109297782 0.062871836
1.000000000 0.105503157 0.054901998
0.012523999 0.097153999 0.105881996
0.028463388 0.087666161 0.105881996
0.035800323 0.092852548 0.102339998
0.052245319 0.097280160 0.102213614
0.092093542 0.088551991 0.109044999
0.107273929 0.091587603 0.106008612
0.130803093 0.095003314 0.103731774
0.156862393 0.098924994 0.104870446
0.184187099 0.103099450 0.109424450
0.199367493 0.100063063 0.109424442
0.223656192 0.100316092 0.104364447
0.251612991 0.099051259 0.103605285
0.279316723 0.097533442 0.104743548
0.304111511 0.100316092 0.105249546
0.337381363 0.103225961 0.105502546
0.366729766 0.106641278 0.106767803
0.395572364 0.108918093 0.108665451
0.426565528 0.109297544 0.108159460
0.459962040 0.109297551 0.102087446
0.501328230 0.114484102 0.097533442
0.540796936 0.116761096 0.094117999
0.580139279 0.117520094 0.095129870
0.628589451 0.117646605 0.098039001
0.671347260 0.123466358 0.098039001
0.711954236 0.126881793 0.087412819
0.751802385 0.129917666 0.077039681
0.793169081 0.131815538 0.074003935
0.841745853 0.125743553 0.070967555
0.891840279 0.127640694 0.067172848
0.937128007 0.134851053 0.060974251
0.972675562 0.142314628 0.054522451
1.000000000 0.133206993 0.054522451
0.018595999 0.121441990 0.105881996
0.039848384 0.109297991 0.105881996
0.051486772 0.110562935 0.105881996
0.063377865 0.115116931 0.107400000
0.086021543 0.112839997 0.112080611
0.107273929 0.106767990 0.102972999
0.135104641 0.112333931 0.104996607
0.157874852 0.114611000 0.105376065
0.178874090 0.115622997 0.106388062
0.199367493 0.115243450 0.106388062
0.226185873 0.118026800 0.106388062
0.253004313 0.120556600 0.103352331
0.278557628 0.120303638 0.100189932
0.301075131 0.118532866 0.096141934
0.331435889 0.118532866 0.102213934
0.364705771 0.123845927 0.097659938
0.395572364 0.129411861 0.097659804
0.426565528 0.133839279 0.099557064
0.459962040 0.136621937 0.099051073
0.498924375 0.139405295 0.104111068
0.540796518 0.141049862 0.098671809
0.581277430 0.143073872 0.095129870
0.622517467 0.148007378 0.098039001
0.668057919 0.151043773 0.098039001
0.710815609 0.152308941 0.091208294
0.752814293 0.154206187 0.081088208
0.796331286 0.156230062 0.074003935
0.847817838 0.153067946 0.070967555
0.891081572 0.154965088 0.062618859
0.936874986 0.158001155 0.056293570
0.975205243 0.162555262 0.051486067
1.000000000 0.163566992 0.051486067
0.024667999 0.138140321 0.100822002
0.040860385 0.138646632 0.105881996
0.057811771 0.137254864 0.105881996
0.072739154 0.137887314 0.105881996
0.092220314 0.134977773 0.108285546
0.111321934 0.131055996 0.103478938
0.137634322 0.130043998 0.104490675
0.163061380 0.132826999 0.105881996
0.184440091 0.132826999 0.107399993
0.209234491 0.132826999 0.110941991
0.226185873 0.138267189 0.100822002
0.251486510 0.139279321 0.102846257
0.279443324 0.141809002 0.101961002
0.305376023 0.141809002 0.098924972
0.333459496 0.141809002 0.098165676
0.363820255 0.146615997 0.106641479
0.397090167 0.151170194 0.101202004
0.429095387 0.156230316 0.099936746
0.462492347 0.161163673 0.098039001
0.498924375 0.161669672 0.098545007
0.544085920 0.164706051 0.100822002
0.587855875 0.166350499 0.096647680
0.628842771 0.170777828 0.097659528
0.669576228 0.173814222 0.090449326
0.715116560 0.176850021 0.088172041
0.762048960 0.179885983 0.080961689
0.807969451 0.183554322 0.072486006
0.853510261 0.182542458 0.063377880
0.899683893 0.187350124 0.057558216
0.938646138 0.190385729 0.048450608
0.974825561 0.193421930 0.043390326
0.997469664 0.196457967 0.043390326
0.035673700 0.156609699 0.104616992
0.049209379 0.156356677 0.102466717
0.059456062 0.161037624 0.104237713
0.079696447 0.161543235 0.106767714
0.100189827 0.156230152 0.106388159
0.114611000 0.153193757 0.100822225
0.138773039 0.155977115 0.107779674
0.162808418 0.151043415 0.105881996
0.183301717 0.152561411 0.103605099
0.207969502 0.154332399 0.105249718
0.230233863 0.158507437 0.103731714
0.253130794 0.163820699 0.100063257
0.279696554 0.163820699 0.101961002
0.309803724 0.166097403 0.102213971
0.337128103 0.166097403 0.101960577
0.363567293 0.169259697 0.100316100
0.395445883 0.175331697 0.101834297
0.430739820 0.178494558 0.098292284
0.467172951 0.183554694 0.098292023
0.501707733 0.184060693 0.093105711
0.544085920 0.189247429 0.094750002
0.589627087 0.191271693 0.093738131
0.631625772 0.193927884 0.093105711
0.674130678 0.199999884 0.088551901
0.719797671 0.203036100 0.080708712
0.765338004 0.206072077 0.074889340
0.814421237 0.211385056 0.067552298
0.855787575 0.212523401 0.055408310
0.899304032 0.217836648 0.046932340
0.942820847 0.220493466 0.039088842
0.975711167 0.224414691 0.030866595
0.997722745 0.228209987 0.029348589
0.049336094 0.177102998 0.111448102
0.062238999 0.177102789 0.104617387
0.070841096 0.175964549 0.098925002
0.082732253 0.181278020 0.104491003
0.108538635 0.178241640 0.109424450
0.118406028 0.175205246 0.101075061
0.139405638 0.177482545 0.105882101
0.161290601 0.178368390 0.110436000
0.182542995 0.171537101 0.105123095
0.200759009 0.177609086 0.096015483
0.227703869 0.180771962 0.099177904
0.253510237 0.184314087 0.101961002
0.281214178 0.188868001 0.101201907
0.311827987 0.189121038 0.101454936
0.340164483 0.189627096 0.104490675
0.366603494 0.192789391 0.100316100
0.394687206 0.195825189 0.095762096
0.429348528 0.202529773 0.090955094
0.471726865 0.205819160 0.096774086
0.505882442 0.207590193 0.090449244
0.546110213 0.211764738 0.088172257
0.589627087 0.218596101 0.087665938
0.629474998 0.218849093 0.084630325
0.675648630 0.227324292 0.083997898
0.721948445 0.232637376 0.076407716
0.769892573 0.237191767 0.067299336
0.815433204 0.240228027 0.058697000
0.855408311 0.243263632 0.047059011
0.898292005 0.247438088 0.037571181
0.940796375 0.250727206 0.025426805
0.975711167 0.253257275 0.020240011
1.000000000 0.259329289 0.014168001
0.058444485 0.195319012 0.102340482
0.073624097 0.204427406 0.102340482
0.084376782 0.197975978 0.093359001
0.095888652 0.195446178 0.094370998
0.111575030 0.202530444 0.109424442
0.126755416 0.199494049 0.106388062
0.146742806 0.196457669 0.103099324
0.166476980 0.197090253 0.103984766
0.185578614 0.198861510 0.105123095
0.206831008 0.198861495 0.102087483
0.233775869 0.202024370 0.098798133
0.257052243 0.203036502 0.100189775
0.280834645 0.204427868 0.100822352
0.308791608 0.207337052 0.098418549
0.342188746 0.210373431 0.101454929
0.372928470 0.215686485 0.097280480
0.403035909 0.218595982 0.094244473
0.435420543 0.220746547 0.093991481
0.474889010 0.229854956 0.093991473
0.508918583 0.235926986 0.091461122
0.548007905 0.239848241 0.090069517
0.589627087 0.243137151 0.087159865
0.629474998 0.246173501 0.078557551
0.678051829 0.252245516 0.075521924
0.721948087 0.258443981 0.065781519
0.767488837 0.265781164 0.055155326
0.815433204 0.273624450 0.046552990
0.860974312 0.276660055 0.040480994
0.906261742 0.277039528 0.031499166
0.949904799 0.279063731 0.015306831
0.984440088 0.283744603 0.002529992
1.000000000 0.292726457 0.008095998
0.061733127 0.216444865 0.104870126
0.071094483 0.222644135 0.099051133
0.092725866 0.223149970 0.096900903
0.106894314 0.218342870 0.093358837
0.119671315 0.221758544 0.101834126
0.129791051 0.223782793 0.106388062
0.144971445 0.220746413 0.103352323
0.168753833 0.220999449 0.103605285
0.190765202 0.224035636 0.105123095
0.209867373 0.226185873 0.102087483
0.231119752 0.220366865 0.099051133
0.256419867 0.223403260 0.096015260
0.281973273 0.226565868 0.097280353
0.310815871 0.231372699 0.097280033
0.336242497 0.234408408 0.089690417
0.367235839 0.235040992 0.090323001
0.402150542 0.241619200 0.091334999
0.437318414 0.247058854 0.093485422
0.472232908 0.253889948 0.091208130
0.508918643 0.260215014 0.091208130
0.548134446 0.266286999 0.086401008
0.591651082 0.270334989 0.083364874
0.635040998 0.273497880 0.077925019
0.678051829 0.279569864 0.066540033
0.724351823 0.285641879 0.054395851
0.766097486 0.293105513 0.041619278
0.811638176 0.301201791 0.030993067
0.866793334 0.304237425 0.022517266
0.904364586 0.309930533 0.011132285
0.949145973 0.310436606 0.008855348
0.984819591 0.312334150 0.002909871
1.000000000 0.317393988 0.004933871
0.072865248 0.241745755 0.101833999
0.083997376 0.247818023 0.099810004
0.093738250 0.245414719 0.101960503
0.111701414 0.246173501 0.096394897
0.124225549 0.246932492 0.096774258
0.139911577 0.245035186 0.102846265
0.156103566 0.245035172 0.105376057
0.172928244 0.245287776 0.100695744
0.196837187 0.247564971 0.101833999
0.215053976 0.249335766 0.100063227
0.238203600 0.247691229 0.097027391
0.259455979 0.247691512 0.093991004
0.283744276 0.249589249 0.090955392
0.312081009 0.253890246 0.092473261
0.338140249 0.258697093 0.092220426
0.375331849 0.261353254 0.090322994
0.404174447 0.264389634 0.090322994
0.440354258 0.272359490 0.093485422
0.473750770 0.278431475 0.090449020
0.513978481 0.284503490 0.086148009
0.550411224 0.288677752 0.076660275
0.592662990 0.296647519 0.069196627
0.637191534 0.302846491 0.063756771
0.681594074 0.308918506 0.051612753
0.726375580 0.317014217 0.041239474
0.771916687 0.321694911 0.024667781
0.813662350 0.328526318 0.013282755
0.865275025 0.331562310 0.008728567
0.908412337 0.337254912 0.005060025
0.944845080 0.345098019 0.000000000
0.981656969 0.345856994 0.001897744
0.997975767 0.347754240 0.001897744
0.086906999 0.269070625 0.096900649
0.096773997 0.272865623 0.098039001
0.105629124 0.273750991 0.098924644
0.118153155 0.269323617 0.100948520
0.128399998 0.274636626 0.093358904
0.148893282 0.270082623 0.098672003
0.167615637 0.269070625 0.101075321
0.184693277 0.270714909 0.101454653
0.204427287 0.273750722 0.097659551
0.223402977 0.274130285 0.098039001
0.245161265 0.272991627 0.095129870
0.269702524 0.272738874 0.094370745
0.292093277 0.275774986 0.091334648
0.316635013 0.276028007 0.088045999
0.343959391 0.281214625 0.090575993
0.378747582 0.287159830 0.092979357
0.414800823 0.291714013 0.089563712
0.444022745 0.298419029 0.088298723
0.477925301 0.304996997 0.084756382
0.517393768 0.311068982 0.081214353
0.558380485 0.316382170 0.064895630
0.596837282 0.321441799 0.053763490
0.639594972 0.333333492 0.044908151
0.686148107 0.340417624 0.033776000
0.729411900 0.347627968 0.023908719
0.776090920 0.356229961 0.015180031
0.820620060 0.359266192 0.000000000
0.864895403 0.362302423 0.000000000
0.908918202 0.366856635 0.000000000
0.947880983 0.374699682 0.001138644
0.977229655 0.382921904 0.000253036
0.994939625 0.383427918 0.000000000
0.099810034 0.296395034 0.093105935
0.104870036 0.296901017 0.096647613
0.111954033 0.298292279 0.095382772
0.122580357 0.299557179 0.093105868
0.139532000 0.296901017 0.089816518
0.157747999 0.296901017 0.092852905
0.175458640 0.297153980 0.094117999
0.194307730 0.298039287 0.093105935
0.210753039 0.300822079 0.093611866
0.235041052 0.303858489 0.096647486
0.253763735 0.301581204 0.094370842
0.277546257 0.298798293 0.095129743
0.303731978 0.297786415 0.095635615
0.328273028 0.300569028 0.093358971
0.355597407 0.303605437 0.087286972
0.384819597 0.310942233 0.087413155
0.415686399 0.318785369 0.085135810
0.447312117 0.325237423 0.077166013
0.483745009 0.334345043 0.071093999
0.520177007 0.341176093 0.068564005
0.560404480 0.347501487 0.052751243
0.602656305 0.354332894 0.033017099
0.645413995 0.363440514 0.029728467
0.693990827 0.372548908 0.020620065
0.735989809 0.379633039 0.012270716
0.779633224 0.386843681 0.005060010
0.827198148 0.394940019 0.000253032
0.866666496 0.397975653 0.000253032
0.910942435 0.401264906 0.000000000
0.950917304 0.407337189 0.001518185
0.980518997 0.415054023 0.003036392
0.992662966 0.421126008 0.000000000
0.121062398 0.323719412 0.080961175
0.114990398 0.329791397 0.090069555
0.128652409 0.325996399 0.089310773
0.141808718 0.326881826 0.090070002
0.154079869 0.330297381 0.092346869
0.157747999 0.330297381 0.083744526
0.170904636 0.332827061 0.091840908
0.200759396 0.330296934 0.087539591
0.229981408 0.327640384 0.080961175
0.244149432 0.328146458 0.081467122
0.265528262 0.331182837 0.084503472
0.286148250 0.330929816 0.084250592
0.309803963 0.330297381 0.082606018
0.334345043 0.330929816 0.078178599
0.361669391 0.330929816 0.084250592
0.386590570 0.333965600 0.075774789
0.418216377 0.341302574 0.073750600
0.453384101 0.349145979 0.071852997
0.489816993 0.355597436 0.071093976
0.526249051 0.367489129 0.048323985
0.566476464 0.376470476 0.036685545
0.607969403 0.383933961 0.022390721
0.648450434 0.390764892 0.014548091
0.697027206 0.399873286 0.005439691
0.741049945 0.408981681 0.003162596
0.785705268 0.416065812 0.001265006
0.833776176 0.422264487 0.000506064
0.878811240 0.425300777 0.003289416
0.918279588 0.430993199 0.000632584
0.955471158 0.434661567 0.000000000
0.984187186 0.438076973 0.000632584
0.998735011 0.439341962 0.000000000
0.125489995 0.358254611 0.071220815
0.126628786 0.359519601 0.073118404
0.137760788 0.363440812 0.082226239
0.150916800 0.360657781 0.083997712
0.161543295 0.362934768 0.087413460
0.174699664 0.358886778 0.074257076
0.190132618 0.359013259 0.077925526
0.203921676 0.362049282 0.082100205
0.234282285 0.359772384 0.075268716
0.251360029 0.359772384 0.073624007
0.274636656 0.365085453 0.071726874
0.295888513 0.364073336 0.072739005
0.319418132 0.362555414 0.071600363
0.344971597 0.361290604 0.066793203
0.370145202 0.361290604 0.064263210
0.395066381 0.363693774 0.065528214
0.422390789 0.365211576 0.059455819
0.457052320 0.372295767 0.055407807
0.493485212 0.381909788 0.046553008
0.532321632 0.393548518 0.036306188
0.574446321 0.403795034 0.021505471
0.617457032 0.412902921 0.012903138
0.658443987 0.420493096 0.006831492
0.702466846 0.429601490 0.002277095
0.744212270 0.438709885 0.000000000
0.786590517 0.447817892 0.000000000
0.831625402 0.454395860 0.000000000
0.873371482 0.457432240 0.001138644
0.918405890 0.463124782 0.001265167
0.956103504 0.472738743 0.000000000
0.983933985 0.475015581 0.000000000
0.997596204 0.471979588 0.000000000
0.137634367 0.393169194 0.059076812
0.136116579 0.397723377 0.057558618
0.143833190 0.393801600 0.060974233
0.163314357 0.396837205 0.066287011
0.170651391 0.397469729 0.070715077
0.184313864 0.394813359 0.060088687
0.204048187 0.390765369 0.061100818
0.225173697 0.392409682 0.065401621
0.241872087 0.394686997 0.064642720
0.263124496 0.394686997 0.061606526
0.285768569 0.397469997 0.057052687
0.309551120 0.398987919 0.053004820
0.331941396 0.398228824 0.053004820
0.358633876 0.396205187 0.050094943
0.382922173 0.396205187 0.044022631
0.408728570 0.397090554 0.042757623
0.434535176 0.398608357 0.036685631
0.464262724 0.399873346 0.033649407
0.498038977 0.410246402 0.022011776
0.537255108 0.422390729 0.015433453
0.577482700 0.434155822 0.010879266
0.623023331 0.443263441 0.004807003
0.666034162 0.452245206 0.002403808
0.708539009 0.459962279 0.000759096
0.753320694 0.467552483 0.001518192
0.792788982 0.475269169 0.002909509
0.834661424 0.484756380 0.002530062
0.874130487 0.490828633 0.001518192
0.917393744 0.493485183 0.000000000
0.957621336 0.500063121 0.001518192
0.986084580 0.510436177 0.000632584
0.997596204 0.506894171 0.000000000
0.156863004 0.428463101 0.039468892
0.153320998 0.435673922 0.037697654
0.155850977 0.433776319 0.039595231
0.167615578 0.429095536 0.041366458
0.187729508 0.432131141 0.040227912
0.194307566 0.435167462 0.036685534
0.213029876 0.431246102 0.038077213
0.234661549 0.429474980 0.040480766
0.257558256 0.431751698 0.042630989
0.278810650 0.431751698 0.039595373
0.300695449 0.431751698 0.034914881
0.324604481 0.431751698 0.030107880
0.349525571 0.433522761 0.026945451
0.374319643 0.436306119 0.027198417
0.399367362 0.436306119 0.022264184
0.423529357 0.435673535 0.019734027
0.451486349 0.435673535 0.016192013
0.478810668 0.436306119 0.006578009
0.506135225 0.442378134 0.003542388
0.543959498 0.452751160 0.001138643
0.583428264 0.463630468 0.000000001
0.623023331 0.475395411 0.000000001
0.668437958 0.484629542 0.000000000
0.710942805 0.491714329 0.000000000
0.758001506 0.499051511 0.001644712
0.802403569 0.504491091 0.004048326
0.842884183 0.510057032 0.006578010
0.882606268 0.521821558 0.003668879
0.924098492 0.524604559 0.001265167
0.962428331 0.528779089 0.001138640
0.990891576 0.532953501 0.003668969
1.000000000 0.539025545 0.000632578
0.156863019 0.470968008 0.003036067
0.162935033 0.470968008 0.006072447
0.167995036 0.471727043 0.010752991
0.179127023 0.470968008 0.014042024
0.196837157 0.471600413 0.012903474
0.208981931 0.474636018 0.003795095
0.228210300 0.472612351 0.002783030
0.247817978 0.470968008 0.003036063
0.266540170 0.471220970 0.003289029
0.284883440 0.471220970 0.003162548
0.309044957 0.471220970 0.003036063
0.335104257 0.471220970 0.002530061
0.362175673 0.473497957 0.003162704
0.389500082 0.478810996 0.005945994
0.419860840 0.478810996 0.008981602
0.437697798 0.476407170 0.004048003
0.461480379 0.475142002 0.001518000
0.490955502 0.475774586 0.000506000
0.518279970 0.478810996 0.000505999
0.553952932 0.484883010 0.000253032
0.592536271 0.491460979 0.000000002
0.630993247 0.500063062 0.000000003
0.668437958 0.511954010 0.000000003
0.710942805 0.524098814 0.000000000
0.758001506 0.535736978 0.000000002
0.802403569 0.543200731 0.000253034
0.842884183 0.546489894 0.000506001
0.888425291 0.549525559 0.000506003
0.928146780 0.555977046 0.000253033
0.964326084 0.563314199 0.000000000
0.990891576 0.568627357 0.001138642
1.000000000 0.566350043 0.003668975
0.167995006 0.516255379 0.002783357
0.179633021 0.516255379 0.000253031
0.185705006 0.516255379 0.003289417
0.194307342 0.516255379 0.004933835
0.209108263 0.515875936 0.003415639
0.223656237 0.514105141 0.001518064
0.240860373 0.514611065 0.000000000
0.261859715 0.515117049 0.000000000
0.282732368 0.516255379 0.000759096
0.304996610 0.516255379 0.002783355
0.326249003 0.521821380 0.000000000
0.354585499 0.521821380 0.000000000
0.381530643 0.521821380 0.000000000
0.406957716 0.523845434 0.001138643
0.432257831 0.521315753 0.001644574
0.465022415 0.523718953 0.004680800
0.487033725 0.524477959 0.001265165
0.514864147 0.525743127 0.000000000
0.544339418 0.526628733 0.000000000
0.574446380 0.526881754 0.000000000
0.610878825 0.532953739 0.001897740
0.649462402 0.541049778 0.002783357
0.687919319 0.552940786 0.002656845
0.730424166 0.559772491 0.000000001
0.770651639 0.565085411 0.002277288
0.814927280 0.574320018 0.001391685
0.855281472 0.580645442 0.000506064
0.893991292 0.585958302 0.002783357
0.934218764 0.588994563 0.000126525
0.971916318 0.596710861 0.000000000
0.996584356 0.604048014 0.002656599
1.000000000 0.604807079 0.009488005
0.178241730 0.559898496 0.002024260
0.190385729 0.561796188 0.000885613
0.202023730 0.561796188 0.000253034
0.208095729 0.561796188 0.005819420
0.220113799 0.561416626 0.004554189
0.238330171 0.558380604 0.000000000
0.250348002 0.561669707 0.000000000
0.273497701 0.560025454 0.000000000
0.297533154 0.562555075 0.000000000
0.324098468 0.563693464 0.001897743
0.345477343 0.565717459 0.001012129
0.370904237 0.567741454 0.001897740
0.397849381 0.567741454 0.000759096
0.422138035 0.567994475 0.000505999
0.451359719 0.568247855 0.003794996
0.475268662 0.568121374 0.000506064
0.507147610 0.571157396 0.002024260
0.534092247 0.574193597 0.000000000
0.565717995 0.575458467 0.000000000
0.597975791 0.573561192 0.000000000
0.628336191 0.573561251 0.000000000
0.663756847 0.578621089 0.002024260
0.701328278 0.587981939 0.002150772
0.740291059 0.595825493 0.002656836
0.778621256 0.601518154 0.002277288
