Assets/Shaders/EldamarStudio/100 Sci-Fi LUTs Pack/LUTs/cube/Holly LUT.cube
LUT_3D_SIZE 8
DOMAIN_MIN 0.000000 0.000000 0.000000
DOMAIN_MAX 0.903226 0.903226 0.903226
0.062744997 0.047059000 0.043136999
0.083491549 0.047817998 0.051739097
0.119924098 0.060341999 0.070588000
0.157494992 0.084629998 0.085768647
0.211511806 0.114358187 0.115875989
0.272106737 0.146868736 0.140923470
0.343073994 0.189499989 0.183301702
0.427830756 0.256419808 0.232890800
0.079949096 0.076027997 0.060341999
0.096015446 0.079949096 0.067805447
0.128146529 0.088931441 0.079949193
0.172042638 0.108159184 0.105502643
0.215053648 0.130044088 0.123845801
0.276534170 0.165211990 0.151549742
0.344718277 0.211511701 0.189247459
0.425553471 0.268437654 0.245034665
0.120682999 0.126122996 0.093991093
0.128146544 0.132827550 0.101834096
0.149651989 0.137887195 0.110436186
0.188868091 0.154333100 0.126502439
0.229475081 0.177735180 0.145604089
0.285515726 0.210626185 0.180898085
0.352561265 0.255408078 0.216951370
0.436938643 0.315116912 0.274762958
0.144085988 0.202403635 0.148007289
0.157115638 0.205945373 0.149145633
0.178620994 0.215686634 0.160151631
0.213535652 0.227071270 0.172675654
0.257305562 0.244275987 0.192663088
0.303478628 0.276786625 0.211385369
0.362681985 0.317393899 0.251233280
0.445920289 0.380771607 0.313092738
0.186717197 0.298418999 0.211511806
0.197975740 0.305882543 0.216571838
0.209234893 0.312460274 0.221632093
0.237824336 0.320682824 0.235799983
0.276660383 0.335231155 0.250727177
0.320809543 0.365338445 0.270082176
0.379127264 0.405566394 0.310815960
0.459456116 0.467045993 0.369513005
0.201897740 0.426944971 0.293611467
0.215686291 0.434661478 0.298418999
0.227703735 0.437318146 0.303858280
0.254016370 0.449082822 0.313219458
0.291460991 0.463251084 0.326502174
0.332953960 0.479696721 0.348387003
0.399494261 0.512207270 0.389120579
0.486527771 0.570777655 0.448829710
0.219228283 0.568500578 0.411005557
0.223529741 0.574319839 0.403541982
0.248197272 0.581024647 0.417963356
0.278052002 0.588108540 0.426185906
0.319418252 0.598987579 0.438456565
0.377735525 0.611638546 0.461859554
0.443643570 0.626312256 0.485135823
0.540796757 0.662871659 0.538899064
0.348513395 0.733965755 0.564073563
0.355976939 0.736875296 0.563946724
0.378241509 0.742947459 0.573813677
0.415812761 0.749398768 0.581151009
0.460467756 0.756103754 0.596963763
0.519165039 0.767109334 0.612776458
0.588741183 0.782795787 0.637065172
0.671473384 0.799240768 0.662112594
0.074889451 0.051359549 0.067046449
0.087413445 0.051359549 0.063503996
0.117140643 0.068944000 0.077166550
0.157874539 0.096774355 0.107400090
0.207210645 0.117520384 0.126502350
0.270714551 0.155471265 0.160278365
0.339152575 0.203162730 0.197723031
0.423529327 0.257178813 0.247058526
0.081087545 0.079569548 0.072106093
0.103478998 0.079949096 0.079949096
0.128526092 0.096015446 0.089690447
0.161796540 0.113219544 0.112460442
0.214294538 0.140290901 0.138393551
0.276154727 0.171916738 0.167615294
0.342947543 0.216065794 0.208222285
0.429727912 0.283364981 0.257558376
0.120303541 0.129664555 0.108538546
0.131309539 0.135989651 0.112839997
0.148893088 0.144971102 0.125743449
0.185325637 0.157874644 0.135484084
0.230360284 0.180518642 0.156230360
0.286780387 0.208601937 0.184819892
0.347881019 0.252878100 0.223150089
0.430234104 0.316129237 0.279443353
0.151170090 0.203542277 0.153067544
0.162175998 0.205945283 0.159013093
0.179380089 0.214168534 0.167615190
0.210752994 0.223149985 0.176596627
0.251865834 0.247817725 0.198481739
0.300062984 0.274763077 0.225553185
0.366983026 0.323339671 0.269070238
0.446046799 0.385958254 0.322959900
0.185073003 0.302087367 0.217330843
0.189373747 0.300316632 0.218975544
0.211638093 0.305755764 0.226691812
0.238203809 0.318785399 0.240480989
0.270335168 0.335231185 0.256166995
0.314105153 0.365718186 0.274889261
0.373181522 0.409487665 0.316255391
0.459456146 0.469829381 0.379633039
0.200632483 0.420619994 0.298798531
0.208981559 0.425174177 0.304237753
0.223782435 0.434914917 0.310436517
0.253130972 0.444402099 0.321948171
0.289943159 0.458823562 0.337128520
0.329031974 0.477672458 0.356230468
0.391524285 0.509045184 0.387602746
0.485262603 0.567868173 0.450853556
0.207590282 0.569133520 0.412018001
0.226818740 0.571157277 0.415812969
0.241998985 0.573561013 0.414547831
0.275901645 0.579380274 0.426692158
0.319038630 0.596331239 0.448576659
0.377609015 0.611132145 0.465528488
0.448070824 0.631878555 0.490322530
0.542820573 0.668690622 0.542314947
0.343959421 0.736495733 0.563820124
0.351802588 0.745603561 0.573054612
0.374193668 0.742441475 0.569639206
0.411005676 0.745856822 0.581150949
0.459203213 0.750031292 0.593295395
0.515369773 0.765844524 0.615306854
0.585578561 0.777608633 0.636812031
0.669829071 0.798987985 0.666413724
0.083871000 0.055661093 0.089310996
0.092852548 0.063124545 0.096015453
0.120682992 0.076028004 0.108159095
0.161416993 0.100695550 0.120303646
0.207589984 0.129285097 0.144971281
0.268943846 0.163314342 0.177735463
0.337508261 0.205186576 0.220746279
0.419987470 0.268943727 0.275648087
0.100822456 0.083871096 0.100315996
0.102213547 0.094497450 0.114484094
0.134850994 0.100695543 0.113598995
0.166476637 0.117520280 0.127640903
0.220619738 0.146489203 0.155471355
0.275016099 0.178114921 0.189500093
0.343453526 0.227830276 0.235673279
0.428336561 0.286147922 0.277166098
0.114357993 0.130044192 0.126122996
0.138013914 0.141050100 0.141809002
0.160658091 0.148007289 0.151170179
0.190006435 0.165717751 0.164958730
0.235800087 0.190385997 0.183301896
0.289184064 0.219355091 0.211891338
0.347627997 0.262239367 0.244908065
0.431878805 0.323718995 0.298165739
0.156356648 0.211891636 0.176976278
0.164199650 0.212650642 0.180139184
0.189626992 0.222770631 0.191903993
0.211891636 0.234155372 0.204427272
0.254649103 0.249335617 0.218848631
0.303225875 0.280708551 0.245920181
0.363441080 0.326502204 0.281973183
0.442504317 0.389120460 0.338772923
0.188867986 0.306261986 0.243643284
0.196837097 0.299810201 0.239721999
0.215559900 0.314104974 0.250601083
0.239847988 0.321821481 0.259329379
0.275142193 0.339152366 0.275016099
0.314610839 0.366856635 0.294876665
0.375205457 0.411005765 0.335863173
0.455660939 0.471979737 0.396331191
0.204301268 0.428462982 0.319418073
0.209487900 0.429095298 0.319797635
0.223023444 0.438456476 0.327261090
0.255281538 0.444402218 0.333586186
0.288298458 0.457684904 0.348387063
0.328779250 0.476913363 0.367615700
0.390765369 0.509297788 0.404427826
0.484630018 0.567235827 0.459456056
0.222517282 0.566856265 0.423402548
0.218216538 0.570398331 0.424920797
0.245161086 0.577103078 0.429728180
0.277545810 0.582542837 0.439974666
0.318532437 0.594180703 0.453130662
0.380392253 0.611132026 0.479443312
0.450727224 0.633523285 0.508791685
0.546995640 0.673371494 0.554712057
0.335610420 0.734471679 0.571157336
0.353320390 0.734978020 0.576090693
0.372928500 0.739278615 0.582289577
0.411764592 0.745477378 0.592409611
0.456926018 0.752940834 0.602276981
0.512586951 0.763820231 0.619228542
0.583554685 0.777102768 0.638203502
0.667552412 0.795951843 0.672232628
0.108158998 0.062744997 0.132827342
0.115243189 0.064263090 0.136369094
0.135230541 0.080708288 0.141809002
0.166982993 0.104237996 0.149652004
0.213914990 0.132827446 0.177482530
0.271473736 0.166476741 0.202529833
0.338013917 0.211891353 0.245540634
0.417077631 0.274509639 0.301960617
0.117140733 0.096394897 0.128779545
0.123466350 0.093611546 0.140164167
0.144212186 0.105376445 0.149652094
0.169260085 0.122201085 0.161416903
0.220114097 0.150411204 0.188108906
0.273371369 0.182416186 0.211891443
0.341808826 0.231372625 0.254016727
0.427324623 0.291587681 0.311701357
0.138013899 0.128526002 0.165338099
0.148134008 0.138646185 0.168374285
0.164579093 0.157115728 0.178241640
0.195193097 0.174319640 0.191903993
0.236179635 0.198988080 0.211511999
0.286780357 0.226691827 0.237318173
0.353826553 0.275774986 0.283870935
0.428715914 0.329664469 0.334598303
0.153574005 0.214168638 0.211891636
0.167362556 0.222391084 0.220114097
0.191650733 0.234155267 0.227956995
0.222517282 0.251739651 0.241619632
0.257431716 0.264263004 0.254142642
0.305123627 0.294370383 0.280328870
0.365464926 0.334218562 0.322959900
0.439215630 0.393042266 0.366476983
0.191270992 0.306641519 0.269449979
0.201011747 0.318405837 0.271727175
0.217203990 0.328652710 0.284756541
0.241872445 0.337254822 0.289436817
0.277798742 0.349652022 0.307021201
0.322074264 0.377482444 0.331815511
0.373687446 0.417583793 0.361669451
0.454902112 0.477419376 0.419481337
0.203922004 0.434282124 0.345224470
0.209361091 0.437824368 0.345351189
0.230613708 0.443643093 0.356736004
0.253131002 0.455407828 0.365718126
0.289943188 0.466413707 0.383428127
0.333079994 0.483617723 0.399873734
0.389879555 0.516888082 0.428589731
0.486021489 0.570777655 0.485009730
0.219607696 0.568627179 0.446932554
0.223150089 0.578368008 0.449841946
0.240860343 0.578621268 0.449335635
0.275268644 0.586464286 0.461479932
0.324984252 0.598228574 0.482353091
0.377609015 0.613915384 0.497027248
0.450853527 0.634661913 0.523719251
0.547122061 0.675774693 0.572675049
0.336495757 0.733965755 0.580771387
0.351802588 0.737381220 0.587855875
0.375078559 0.739152551 0.594054580
0.408095866 0.745603561 0.600379407
0.452498257 0.754838586 0.609740615
0.515243351 0.762555361 0.630360425
0.589120686 0.779253304 0.655661047
0.669323206 0.800252557 0.682479382
0.131561995 0.064263187 0.177735373
0.136368990 0.073624000 0.182542995
0.151929095 0.084630094 0.189626902
0.171916634 0.108538538 0.190638736
0.213914990 0.141809195 0.210626185
0.273750931 0.173940271 0.240860447
0.342315078 0.216950998 0.278811008
0.422643602 0.280202448 0.338519990
0.142947644 0.095888637 0.180391729
0.140797183 0.101075187 0.188361734
0.162934899 0.113598891 0.195445836
0.182163447 0.136748552 0.206831202
0.218469188 0.156735986 0.220493540
0.277672529 0.188741088 0.244276181
0.344592184 0.238836184 0.291334271
0.429474801 0.299430817 0.351549447
0.164453194 0.144971281 0.212144181
0.164579093 0.156356737 0.213789001
0.184187084 0.162935004 0.220873192
0.202150285 0.179759622 0.230613634
0.237318069 0.202909291 0.249842182
0.289942980 0.230233982 0.272232652
0.351802379 0.277166277 0.312460482
0.427830756 0.334218651 0.369765759
0.168121651 0.208096251 0.250980437
0.176723644 0.207842946 0.254522175
0.200252831 0.223908991 0.261100709
0.225932837 0.254522294 0.281088173
0.261733204 0.272106618 0.291587621
0.307906181 0.303858399 0.317900062
0.366224051 0.344971448 0.355471164
0.441619456 0.400885373 0.409361154
0.187349990 0.314105004 0.303225964
0.200379550 0.314863980 0.309803814
0.213283002 0.329664469 0.316382080
0.245413989 0.354079485 0.336875379
0.279064178 0.373561174 0.353953153
0.320050538 0.393042177 0.375964373
0.377482355 0.429981202 0.403289080
0.456799597 0.484250516 0.454016149
0.199620456 0.438583463 0.387602687
0.202656746 0.440480739 0.386463910
0.224288091 0.451612830 0.395572364
0.248829722 0.464389443 0.405566186
0.286907196 0.476533890 0.419861168
0.329538435 0.494876683 0.436685920
0.396584451 0.525490344 0.464010209
0.493105620 0.578747451 0.515243471
0.212270886 0.574067295 0.475268543
0.215432987 0.579506457 0.481594175
0.235167697 0.581783772 0.484756470
0.267805278 0.590385854 0.493611634
0.316888154 0.603795171 0.505882442
0.380392253 0.620240331 0.521062732
0.450727463 0.640480638 0.550411403
0.557747900 0.681340873 0.593548357
0.321568757 0.735230565 0.604933560
0.333586097 0.737128437 0.607716322
0.360151738 0.742820978 0.610626161
0.395825237 0.746236563 0.616065800
0.450980365 0.758001149 0.632510781
0.508665204 0.768627286 0.650347829
0.588235259 0.781530619 0.669323266
0.673877180 0.802150190 0.703226030
0.160404980 0.078431003 0.250474483
0.170778200 0.084630191 0.254901946
0.187729254 0.099556997 0.261985719
0.204047725 0.121821731 0.265528083
0.234281987 0.151549548 0.278052002
0.281973481 0.183933988 0.299557239
0.341176748 0.224667996 0.329664558
0.423149884 0.285262793 0.383174807
0.170904279 0.111701541 0.251359999
0.175078735 0.114104733 0.255281478
0.189120635 0.121694729 0.257052720
0.207590103 0.142947450 0.267678529
0.236685812 0.168247983 0.280708730
0.283870727 0.200885549 0.304237723
0.344212532 0.243896246 0.336622477
0.430107474 0.305755734 0.395825446
0.189879730 0.161417007 0.275521994
0.192030281 0.163187742 0.274383754
0.208349079 0.175078735 0.281340718
0.223276272 0.186338097 0.287665814
0.247565180 0.214168549 0.302593529
0.295255989 0.241240084 0.321315855
0.352181822 0.281088263 0.355597675
0.435420632 0.342441529 0.411638439
0.203668475 0.215306893 0.306388646
0.210373253 0.222770542 0.310816079
0.224035367 0.239215732 0.317900002
0.240227744 0.258064538 0.328146458
0.265275419 0.282352835 0.344971538
0.309424460 0.311701387 0.362555444
0.366224021 0.348766744 0.394687027
0.449968815 0.407843351 0.445540637
0.206957996 0.303858191 0.364452720
0.204933643 0.309298158 0.361669481
0.222264349 0.318026394 0.369513184
0.252877831 0.339025974 0.385325581
0.282605737 0.375838339 0.399114639
0.318912178 0.401771158 0.423023164
0.378368169 0.438962758 0.449588954
0.462112457 0.486274451 0.497532964
0.184313998 0.434787989 0.428842723
0.193295553 0.445540458 0.430613458
0.214421347 0.452245712 0.438583463
0.241365999 0.470335215 0.450727731
0.284503371 0.492599458 0.467552274
0.338772714 0.510942757 0.487412721
0.403668702 0.535736740 0.509804010
0.497406691 0.576723754 0.552308619
0.206831291 0.575964510 0.510309756
0.209107995 0.578115225 0.511195302
0.234281987 0.585325956 0.521568418
0.270461738 0.598355412 0.537254512
0.319923937 0.617584050 0.547880769
0.380265743 0.629221797 0.561037302
0.465401828 0.645667315 0.587855577
0.572169363 0.689563692 0.630233884
0.315116823 0.735610306 0.632890463
0.329918027 0.737760603 0.634282351
0.355597675 0.741429508 0.638836324
0.387602657 0.750157654 0.646679461
0.437065065 0.759013236 0.657052517
0.509424329 0.769259751 0.673371434
0.592915714 0.787476361 0.697027206
0.683364511 0.808475375 0.724731028
0.212396994 0.090195999 0.358380854
0.216698453 0.096774258 0.358127832
0.231119379 0.111195087 0.363946557
0.248323977 0.132321000 0.364579558
0.276407182 0.165971190 0.378874063
0.303857982 0.204554021 0.393421799
0.357115299 0.245034993 0.415559560
0.423529357 0.300948799 0.452751100
0.219607830 0.122959994 0.359645814
0.221632004 0.125363708 0.353953093
0.234535009 0.138266832 0.368627548
0.253004283 0.161416903 0.374067158
0.278304935 0.187096909 0.389626741
0.308918744 0.225426987 0.400252998
0.364073575 0.260214835 0.423023373
0.428842336 0.313472688 0.457052350
0.225047186 0.173687488 0.374952257
0.224541366 0.181277737 0.376344085
0.238076985 0.192663103 0.383301765
0.260215312 0.206325129 0.390512496
0.282732397 0.234155551 0.403162569
0.313472480 0.265780985 0.416445345
0.367109478 0.296647549 0.439089388
0.430234104 0.352308631 0.472359270
0.232131630 0.247817636 0.407716572
0.236938730 0.250980437 0.403036177
0.247944549 0.260088265 0.403541833
0.261226922 0.275268614 0.413915545
0.294244468 0.299430728 0.432384819
0.321694911 0.329664469 0.447817534
0.374446273 0.364452630 0.468184829
0.449082792 0.413915098 0.502719641
0.220367089 0.318659008 0.448576659
0.233396634 0.319038510 0.445035011
0.254016370 0.333586454 0.453257382
0.272864997 0.357874662 0.461859465
0.294623882 0.384566665 0.472232789
0.327893734 0.414547712 0.485768706
0.384313643 0.446299553 0.509677351
0.467552036 0.490575612 0.539025784
0.188362002 0.442378461 0.500316501
0.197722718 0.441239893 0.502087176
0.219101533 0.446046740 0.505629361
0.246552840 0.459329724 0.510436356
0.294876724 0.479190260 0.525743306
0.345477462 0.517267466 0.542315066
0.409867048 0.550917208 0.566223562
0.516761184 0.585199296 0.602023959
0.183934271 0.588108540 0.574067235
0.193421990 0.584567010 0.561163545
0.216951370 0.592789292 0.572422504
0.255155295 0.603289187 0.578115165
0.314611077 0.622643590 0.598355532
0.395445734 0.648450315 0.617077887
0.486400843 0.672738850 0.649841785
0.589120626 0.700063527 0.678431332
0.316255271 0.735610187 0.671726584
0.321947843 0.738266885 0.665654361
0.350537658 0.742314875 0.676786900
0.391777128 0.751675785 0.682226300
0.444781780 0.763567328 0.697027206
0.513725400 0.775078714 0.712839842
0.602023900 0.798228979 0.734345496
0.692852795 0.820493340 0.758380890
0.278684646 0.100695834 0.522200763
0.276407361 0.109297827 0.524478078
0.289310813 0.125743151 0.529538512
0.306134969 0.151296616 0.531435728
0.326122820 0.194433823 0.539025784
0.363314450 0.235926703 0.549019337
0.401138425 0.296141803 0.565591335
0.478937596 0.340290606 0.586211562
0.274762958 0.136622533 0.529159009
0.270841271 0.139278680 0.530044436
0.289310813 0.153447092 0.528020263
0.308032721 0.179127082 0.533839226
0.333333343 0.215180382 0.545856833
0.363946617 0.259455830 0.553067565
0.401771009 0.309804142 0.569259763
0.479949325 0.358380347 0.589880049
0.271600068 0.202023998 0.527261376
0.278304994 0.200885355 0.533080399
0.288425088 0.214041829 0.536242843
0.305628985 0.232131720 0.543326735
0.326249003 0.265401632 0.549525321
0.360278070 0.303731978 0.560910702
0.400379419 0.351296335 0.577735484
0.480202466 0.389753044 0.596331537
0.269449979 0.274003983 0.545603931
0.272359163 0.276280969 0.553573430
0.282732278 0.286147922 0.554332554
0.300695777 0.306008965 0.558760583
0.330550164 0.334218651 0.572169304
0.365211934 0.367109358 0.582542300
0.409740627 0.411005735 0.597975791
0.494497120 0.448323816 0.616065800
0.254142612 0.352055848 0.577608824
0.260721028 0.359645814 0.578620911
0.274256825 0.368627280 0.581783414
0.298292160 0.388235182 0.585199118
0.327007800 0.411385208 0.592030227
0.367868543 0.442251652 0.604047894
0.421378881 0.479949176 0.619607985
0.513851583 0.512840152 0.637950599
0.207843080 0.447438389 0.617836595
0.216445073 0.450094640 0.622517347
0.246047065 0.457938045 0.623908520
0.285135865 0.475901335 0.626818419
0.331309468 0.503478825 0.632890582
0.382795662 0.532827318 0.640860260
0.449715257 0.567362070 0.655534327
0.541682482 0.600252748 0.679063737
0.202656701 0.614041984 0.681467474
0.219861194 0.608854949 0.679443479
0.237824187 0.609740555 0.676533937
0.284123898 0.614547849 0.676913500
0.337760836 0.625932813 0.692346454
0.423782527 0.640986741 0.698924720
0.513725519 0.680961370 0.718785226
0.613662124 0.716255665 0.737760723
0.331562221 0.753700256 0.728652716
0.342441261 0.752814353 0.735357404
0.363946497 0.757495463 0.739911258
0.399240673 0.761416733 0.740417361
0.449968219 0.773307920 0.749778211
0.528905392 0.791271448 0.769133389
0.625047624 0.813915074 0.793042302
0.729158342 0.845161378 0.824288547
