Assets/Shaders/EldamarStudio/100 Sci-Fi LUTs Pack/LUTs/cube/Holly LUT.cube
DOMAIN_MIN 0 0 0
DOMAIN_MAX 1 1 1
LUT_3D_SIZE 32
0.062744997 0.047059000 0.043136999
0.065781385 0.044022612 0.043136999
0.068817228 0.045287773 0.045287773
0.074383162 0.047059000 0.048323840
0.083491549 0.047817998 0.051739097
0.092599936 0.053889997 0.057811871
0.101707675 0.057432320 0.063883997
0.110815704 0.058823999 0.068311289
0.119924098 0.060341999 0.070588000
0.129032493 0.066413999 0.070588008
0.141049996 0.069576129 0.076407000
0.149145991 0.076660253 0.080455258
0.157494992 0.084629998 0.085768647
0.169639051 0.090955034 0.094370969
0.181783825 0.100063413 0.097406581
0.196331799 0.106767997 0.105249800
0.211511806 0.114358187 0.115875989
0.226691559 0.123466410 0.126122564
0.241871983 0.132574052 0.129158959
0.254269719 0.138898998 0.132194638
0.272106737 0.146868736 0.140923470
0.291334867 0.156988993 0.152055874
0.306641012 0.169006497 0.161290020
0.324857831 0.178114906 0.173434809
0.343073994 0.189499989 0.183301702
0.362681627 0.204427332 0.193801329
0.383428127 0.222643986 0.205945998
0.401644886 0.240859985 0.218089983
0.427830756 0.256419808 0.232890800
0.453383923 0.278684139 0.249841943
0.479443192 0.302466571 0.270714551
0.509804010 0.317647010 0.298038989
0.071853384 0.044022612 0.037064999
0.068816997 0.037950613 0.046173386
0.076154388 0.043516774 0.052625161
0.080961548 0.047059000 0.053637065
0.086148381 0.048197545 0.052118547
0.092599936 0.056926385 0.060847484
0.099178001 0.060468063 0.059329934
0.112713382 0.063504316 0.068817280
0.124478087 0.066413999 0.075901099
0.129032478 0.072485998 0.073624395
0.138140127 0.075648129 0.079443388
0.150158122 0.080708511 0.083491646
0.160531387 0.087666385 0.088804737
0.172422424 0.093738385 0.097153611
0.181783825 0.100063413 0.097406581
0.196331799 0.106767997 0.105249800
0.209993988 0.112839997 0.111321799
0.224288359 0.121062599 0.117646769
0.241871998 0.132574052 0.123086974
0.259835720 0.141682357 0.134471998
0.276280999 0.149905130 0.142062128
0.293358594 0.159013256 0.152055874
0.306894004 0.169259489 0.161290020
0.330929816 0.184186906 0.173434809
0.346869260 0.195572570 0.181024998
0.365718037 0.209108070 0.193548352
0.386970460 0.225173682 0.208475679
0.407716900 0.240859985 0.218089983
0.428589791 0.261732817 0.235546961
0.451613158 0.281214148 0.254648775
0.477292955 0.304237574 0.275901198
0.509804010 0.323718995 0.301075399
0.074510001 0.051739547 0.046046771
0.075774617 0.052118771 0.050854161
0.072738774 0.048197549 0.055661000
0.083111994 0.056040771 0.062239386
0.089184225 0.057432223 0.059582546
0.095256232 0.059456158 0.063377708
0.101328224 0.067805454 0.064516321
0.109044932 0.067552067 0.064769290
0.124984086 0.071094327 0.076407097
0.133586481 0.078558005 0.078937486
0.142441675 0.081720680 0.082479775
0.153573543 0.086780548 0.088551775
0.164579645 0.091714352 0.090576001
0.175458729 0.097280227 0.096141741
0.184566632 0.107147224 0.098039001
0.200632796 0.111069001 0.105249800
0.211258993 0.117140993 0.112839997
0.224035546 0.123845570 0.117140763
0.243769795 0.134471789 0.123213172
0.259835720 0.143833131 0.134851232
0.274257004 0.152941033 0.143200696
0.291967005 0.162049353 0.153068006
0.306641012 0.171410263 0.163314283
0.326881826 0.186590672 0.173434809
0.346489489 0.197343573 0.185325995
0.364452839 0.212270975 0.194180980
0.385705292 0.228209838 0.209867001
0.406957656 0.243390203 0.220619664
0.432511032 0.263883591 0.237697735
0.451992631 0.288677931 0.259455711
0.475521952 0.308918357 0.281087577
0.507653236 0.327640772 0.304111242
0.075774841 0.063883997 0.056167159
0.078810774 0.063124776 0.056673225
0.080075935 0.068184771 0.062239386
0.080835156 0.065148838 0.064010158
0.093358606 0.070082389 0.067046449
0.102086999 0.067046225 0.067931838
0.106894158 0.074130483 0.070461839
0.113345705 0.077925615 0.070841290
0.122454099 0.077166319 0.074636191
0.136622488 0.085768647 0.083238646
0.147248715 0.089057706 0.087792866
0.158380836 0.094117828 0.094117828
0.169386491 0.099051476 0.096774481
0.178494871 0.102087133 0.097153999
0.187602744 0.111194983 0.101201743
0.201391429 0.118658803 0.109044962
0.217330992 0.123212993 0.115369998
0.224667981 0.129284978 0.122074574
0.244022831 0.137760818 0.128779173
0.260974377 0.148134351 0.137887180
0.275522172 0.158507422 0.147501469
0.287666172 0.166603163 0.154585853
0.305629134 0.175837994 0.166476861
0.326122671 0.192157075 0.176723897
0.343073994 0.202783123 0.185578987
0.361416787 0.213536143 0.195192993
0.382669210 0.231246099 0.209361136
0.403921574 0.246426284 0.224541306
0.429221779 0.265654802 0.240733474
0.453763396 0.290449142 0.261226922
0.475521952 0.314231575 0.284629583
0.505882025 0.329412013 0.305882007
0.079949096 0.076027997 0.060341999
0.082985386 0.069955997 0.057305612
0.086021766 0.075648546 0.062112771
0.090322994 0.082985386 0.067805447
0.096015446 0.079949096 0.067805447
0.111195058 0.076913483 0.070841059
0.116634868 0.083618313 0.076407097
0.121694990 0.087792993 0.079569548
0.128146529 0.088931441 0.079949193
0.137254938 0.095003448 0.086021975
0.148892999 0.098165676 0.092093997
0.161036998 0.102845989 0.099810280
0.172042638 0.108159184 0.105502643
0.181403995 0.111195512 0.103225999
0.190638870 0.114231125 0.109297991
0.201770991 0.122074343 0.117014796
0.215053648 0.130044088 0.123845801
0.230360538 0.135736540 0.127387568
0.242504582 0.141808569 0.136495978
0.259835720 0.153447166 0.143200561
0.276534170 0.165211990 0.151549742
0.290702432 0.175711542 0.159898862
0.302972943 0.182036534 0.168880016
0.326501995 0.199747279 0.180518806
0.344718277 0.211511701 0.189247459
0.361290336 0.222770318 0.196078539
0.380013078 0.235800475 0.204427585
0.401265413 0.250980079 0.228716329
0.425553471 0.268437654 0.245034665
0.449841827 0.290828586 0.263756722
0.475901484 0.315370023 0.284629583
0.506261587 0.330550462 0.305882007
0.092093870 0.088171996 0.072485998
0.095129482 0.082100004 0.069449611
0.098165773 0.082479768 0.070714772
0.102467000 0.089563772 0.074762836
0.108159445 0.095129482 0.076913066
0.111195058 0.092093870 0.076913059
0.118785642 0.096647933 0.082479641
0.125996217 0.099936999 0.086907156
0.133838996 0.100695901 0.087919034
0.140290543 0.104111061 0.086021975
0.149398938 0.107273929 0.092093997
0.161036998 0.110309675 0.098165996
0.172042638 0.114990279 0.104743928
0.181403995 0.120303907 0.109297998
0.193547994 0.123339511 0.115369998
0.202782869 0.131182730 0.119038805
0.213914990 0.140291125 0.126122802
0.227830186 0.147628292 0.132953584
0.245540962 0.150916949 0.136495978
0.260468304 0.162554935 0.145604357
0.278052002 0.172801793 0.156103939
0.293738067 0.182416126 0.164705873
0.306008577 0.191144913 0.168880016
0.321188986 0.203288943 0.174952805
0.342441261 0.216445059 0.188867703
0.361290336 0.230866328 0.201138392
0.380013078 0.248070985 0.213282928
0.401265413 0.266160458 0.231751934
0.427830756 0.281340748 0.248070866
0.452877849 0.298797935 0.266793102
0.478937268 0.319417655 0.287159920
0.509297967 0.339658082 0.305882007
0.099178001 0.100315996 0.079570003
0.099683933 0.099303991 0.079063937
0.102719545 0.099683769 0.080329090
0.107020676 0.101454996 0.083365157
0.112713225 0.106008768 0.086400867
0.115749381 0.107273616 0.088551641
0.123845637 0.109297998 0.091081321
0.129917994 0.112080999 0.092220381
0.138899311 0.113598995 0.094244316
0.148513317 0.118405834 0.096521482
0.154964879 0.118911862 0.094623677
0.162048995 0.123971991 0.100695670
0.173181280 0.128652319 0.107906319
0.183934316 0.134724736 0.115369998
0.196078315 0.140038222 0.121441990
0.213029310 0.145477638 0.125110805
0.224035382 0.152941316 0.131182805
0.236179635 0.161037579 0.139658153
0.250600964 0.167868689 0.144592300
0.266034365 0.174193650 0.153194040
0.281214714 0.184439898 0.164200157
0.298798323 0.194560260 0.174320310
0.314104825 0.205186799 0.179253623
0.329285234 0.214927003 0.190132812
0.346742302 0.229348272 0.198482290
0.367741644 0.241745651 0.213156298
0.387602746 0.257685333 0.226439312
0.408855110 0.275901318 0.240607306
0.435420454 0.293990821 0.258696795
0.460974067 0.312713146 0.277419150
0.487033516 0.333459496 0.300442547
0.517394304 0.356356651 0.323592305
0.108538993 0.112460412 0.085641995
0.105249994 0.115749404 0.090575702
0.109044932 0.116255470 0.091081768
0.113345705 0.118026696 0.091587834
0.118658699 0.118026696 0.094243996
0.120429926 0.119797468 0.098545216
0.126881599 0.122833312 0.098292388
0.135989994 0.124224991 0.101327993
0.142821088 0.125742987 0.099051282
0.154079720 0.131814986 0.103352286
0.162048995 0.132067993 0.103984833
0.171410412 0.136116415 0.108665407
0.177482411 0.139911413 0.113598764
0.188362032 0.145477414 0.121189021
0.199114710 0.154332832 0.125869706
0.212776706 0.158760279 0.131182805
0.230992705 0.169386476 0.138772994
0.244022846 0.175837979 0.148007274
0.257179022 0.183934256 0.155091956
0.268817365 0.188614994 0.162302360
0.283997715 0.198228955 0.173307762
0.300190002 0.207336828 0.183428273
0.318405986 0.218975484 0.189626783
0.335104197 0.231119514 0.200253010
0.350916982 0.239847973 0.210120291
0.370524645 0.255028367 0.223402977
0.391777068 0.268437982 0.238330409
0.413029432 0.286653996 0.250474691
0.437950522 0.303225696 0.267931700
0.465148389 0.321568161 0.281340867
0.488551587 0.344591796 0.304364294
0.516635299 0.369639724 0.331688702
0.120682999 0.126122996 0.093991093
0.113852099 0.130677000 0.100063287
0.115622997 0.132448003 0.104997002
0.121694997 0.132448003 0.102972940
0.128146544 0.132827550 0.101834096
0.129285082 0.133207098 0.108665094
0.132827088 0.134977877 0.107906319
0.139784694 0.137128100 0.106641479
0.149651989 0.137887195 0.110436186
0.158760384 0.143959194 0.110436186
0.167868212 0.145730197 0.112586960
0.176723510 0.149019420 0.118153147
0.188868091 0.154333100 0.126502439
0.195193052 0.154586062 0.129285082
0.204301313 0.165211990 0.131815404
0.215813085 0.171663389 0.138014078
0.229475081 0.177735180 0.145604089
0.248323649 0.191650569 0.157115653
0.263757080 0.197849110 0.166224077
0.273371458 0.202656448 0.173308000
0.285515726 0.210626185 0.180898085
0.300190002 0.220999211 0.191777185
0.318405986 0.230234072 0.197849184
0.336622000 0.244781896 0.206325009
0.352561265 0.255408078 0.216951370
0.370524645 0.265654743 0.228716061
0.392283142 0.280835032 0.246932089
0.413788527 0.298797965 0.259582788
0.436938643 0.315116912 0.274762958
0.464516163 0.332827121 0.291461110
0.490069598 0.352181792 0.302846462
0.511322021 0.379507005 0.330170900
0.132826999 0.144339010 0.109171487
0.123719394 0.144339010 0.106135100
0.123339705 0.144592017 0.112207301
0.127766997 0.144592017 0.114611007
0.134218544 0.144971564 0.110942483
0.143326923 0.148007959 0.123086475
0.144465491 0.148387492 0.124857478
0.148007482 0.150158271 0.123086713
0.155723989 0.153067589 0.122580975
0.167867988 0.156103984 0.128652960
0.176976383 0.162175998 0.128652960
0.182036743 0.165970713 0.130803227
0.190006644 0.170271814 0.136369154
0.204301447 0.175838456 0.144465491
0.213409051 0.178874075 0.144465491
0.224921107 0.187096819 0.151802808
0.237065479 0.192915782 0.159266502
0.251360029 0.197722584 0.166224062
0.272612453 0.206830993 0.175332457
0.282479852 0.215812862 0.184440136
0.293485492 0.224668235 0.189626738
0.305756003 0.232890978 0.195066616
0.318405986 0.239342481 0.203921959
0.336622000 0.251486510 0.209993973
0.352561265 0.266034275 0.223023772
0.370524645 0.280835122 0.236559466
0.392283142 0.296015412 0.249968484
0.416571885 0.311194986 0.268184453
0.438077301 0.329158634 0.278178364
0.466540128 0.349019647 0.296520919
0.496141583 0.370145559 0.317520082
0.517394006 0.391650975 0.333206505
0.136242867 0.162554994 0.121441990
0.135863379 0.162554994 0.121315479
0.133206993 0.162554994 0.120429866
0.135483712 0.163820162 0.124731153
0.139531553 0.165844411 0.124731317
0.143579930 0.168880805 0.129284993
0.147628322 0.166856542 0.131309003
0.154585868 0.168121710 0.131309003
0.163187876 0.171157643 0.131056219
0.171030864 0.174193487 0.134977996
0.174446747 0.177229881 0.138140127
0.185578868 0.183301866 0.140164390
0.194687009 0.188361734 0.144338876
0.207337126 0.193928003 0.151170045
0.213788569 0.194307446 0.153826877
0.227703795 0.202150673 0.158633873
0.243390501 0.209740862 0.168753982
0.258317858 0.214800730 0.176344007
0.272738993 0.221631855 0.178621098
0.288425356 0.230740234 0.190512136
0.301581234 0.239848107 0.195951730
0.313725263 0.248956248 0.201012135
0.324098498 0.257052481 0.209993988
0.339531869 0.266413867 0.216066003
0.357747883 0.280835122 0.228969276
0.376343638 0.294623822 0.242757976
0.397596061 0.309803963 0.255408078
0.419481009 0.332194418 0.271220863
0.435799927 0.347374678 0.281467706
0.461859494 0.363567144 0.297659606
0.493232191 0.384313583 0.321694791
0.520556867 0.409613997 0.344971746
0.137254998 0.180771500 0.133585989
0.139278740 0.182795241 0.131562248
0.143327251 0.178747252 0.135610253
0.144592091 0.181277245 0.134345084
0.147627801 0.185072541 0.135863274
0.150664195 0.188108936 0.138899311
0.155724317 0.192156926 0.143453255
0.160404995 0.189120963 0.143453255
0.171031088 0.191398144 0.144971251
0.178368241 0.194433764 0.149272487
0.185578600 0.197470114 0.148260638
0.192662984 0.200505987 0.153320521
0.203668639 0.205439627 0.157495245
0.214168221 0.210373208 0.163314283
0.218468994 0.212143987 0.166350663
0.233776048 0.217331052 0.171790242
0.245920435 0.227957249 0.176344052
0.261353970 0.234408662 0.185704976
0.273498029 0.239088982 0.188488007
0.286401093 0.247944340 0.193548277
0.299683720 0.255154967 0.203795001
0.315749258 0.264136404 0.210120246
0.328146756 0.273371249 0.220113993
0.343327165 0.284376860 0.226185992
0.358759999 0.298039258 0.239089265
0.379759312 0.311827958 0.252877980
0.401138246 0.324984133 0.266034126
0.420872420 0.346236497 0.282732666
0.442884058 0.364579052 0.296647549
0.465148389 0.383301407 0.309297889
0.494370550 0.400758833 0.330929428
0.523592710 0.425806254 0.357115984
0.144085988 0.202403635 0.148007289
0.145983264 0.204300895 0.146110028
0.150031552 0.204300925 0.148386985
0.153700486 0.201011911 0.151802465
0.157115638 0.205945373 0.149145633
0.160910934 0.207463577 0.151422933
0.165338650 0.211891294 0.155850634
0.172549009 0.216445357 0.158633634
0.178620994 0.215686634 0.160151631
0.187349826 0.219101802 0.166223630
0.195319414 0.220999509 0.165844515
0.204427242 0.224035367 0.166603625
0.213535652 0.227071270 0.172675654
0.222644031 0.229854628 0.178494602
0.227450863 0.232004866 0.181530759
0.240227595 0.237444595 0.188108981
0.257305562 0.244275987 0.192663088
0.266413927 0.255154997 0.196331277
0.278052032 0.258696675 0.202403292
0.292473018 0.267298996 0.206830993
0.303478628 0.276786625 0.211385369
0.314610779 0.283870786 0.220493510
0.332321495 0.292979151 0.232384503
0.347501904 0.304111272 0.239468649
0.362681985 0.317393899 0.251233280
0.378620654 0.332321256 0.266160607
0.402909487 0.344971329 0.278304636
0.422390640 0.362555534 0.295256227
0.445920289 0.380771607 0.313092738
0.473118156 0.401897430 0.329411447
0.500442564 0.423149854 0.349019229
0.527767003 0.444402277 0.373813987
0.161290005 0.229475066 0.166224003
0.161290005 0.228968993 0.165465042
0.163440779 0.231119767 0.167615265
0.165212005 0.233396992 0.169639051
0.165970996 0.232511446 0.169892028
0.172042996 0.229475051 0.169892028
0.176344275 0.232005313 0.172422349
0.181657314 0.236433029 0.173814029
0.190006033 0.241999030 0.174826026
0.196078032 0.248071030 0.180898026
0.202656701 0.248830035 0.184313864
0.210499734 0.250600785 0.185579032
0.219860673 0.253889680 0.188108996
0.228968993 0.256926060 0.193928018
0.238077372 0.256926060 0.196963638
0.249589026 0.261733055 0.204806864
0.264263004 0.267552018 0.210626230
0.280834556 0.273877054 0.214547992
0.289942980 0.279949069 0.220620006
0.306135029 0.288298368 0.225427046
0.319164783 0.299304068 0.230360731
0.328526139 0.310689181 0.235420927
0.338013977 0.319797546 0.244655043
0.353320867 0.328905940 0.253889918
0.368501246 0.340291023 0.265275031
0.383934379 0.354079634 0.279063672
0.400379151 0.369007111 0.293485016
0.424667895 0.384187460 0.305629015
0.448703647 0.402024001 0.325489849
0.476027906 0.423782408 0.345477402
0.506514549 0.447185606 0.366476983
0.533838987 0.468438029 0.396837026
0.167361990 0.253763795 0.184439987
0.167361990 0.247691035 0.175332367
0.169512764 0.249335766 0.176723629
0.171283990 0.253636986 0.179759577
0.172042996 0.256546408 0.182163283
0.178114995 0.247691035 0.185072407
0.189246997 0.254775286 0.187602729
0.191271275 0.259329677 0.188994408
0.193042412 0.262239397 0.188994408
0.199114427 0.263251394 0.190006405
0.211005419 0.269323379 0.196078405
0.217836559 0.270082384 0.199494258
0.226818278 0.272991836 0.204174757
0.238077372 0.278178424 0.212144017
0.247184977 0.281214803 0.215180397
0.258697182 0.286021799 0.223023623
0.270841390 0.290575594 0.227577820
0.284250408 0.295508951 0.230107814
0.296014965 0.304237813 0.238835976
0.299557358 0.307526439 0.230993330
0.313346148 0.317520440 0.238330409
0.326249421 0.329664826 0.247565120
0.338013977 0.341049880 0.256799817
0.356229991 0.350158274 0.268943846
0.371536821 0.361543387 0.280455410
0.388108909 0.376470357 0.295382380
0.406198889 0.393042117 0.311448038
0.427704275 0.405439824 0.320809394
0.449336231 0.423276365 0.338267058
0.472991914 0.445034772 0.360657722
0.502972543 0.468437970 0.382795542
0.539911032 0.489690393 0.405945390
0.180644795 0.275648773 0.197849602
0.178241596 0.271979809 0.191144571
0.180391818 0.272359371 0.190638959
0.184692979 0.276660591 0.194939792
0.186969981 0.281214565 0.198734984
0.188993990 0.274130464 0.199746862
0.192915812 0.275395095 0.202783123
0.200126529 0.282858759 0.204174802
0.201644704 0.286654085 0.205692798
0.209360987 0.288298786 0.208981782
0.218848810 0.289310783 0.212396979
0.224921063 0.293358505 0.216445252
0.231751949 0.296014965 0.218342990
0.242631257 0.301834017 0.223402798
0.253890187 0.304870397 0.228589401
0.262997806 0.307906777 0.234028995
0.273624390 0.313978761 0.241619185
0.284882993 0.317900002 0.243390173
0.297026992 0.323465943 0.247185022
0.305629343 0.334219038 0.249209329
0.316255748 0.341049641 0.253383994
0.331436127 0.350663990 0.263503999
0.344971776 0.360024989 0.271347195
0.358633816 0.371410668 0.283491790
0.374573082 0.382795781 0.291081786
0.392536461 0.396331429 0.305755764
0.411259055 0.413535595 0.322453856
0.428716421 0.429474890 0.331562221
0.457179010 0.444528759 0.351043642
0.480202585 0.462745160 0.369259924
0.508032978 0.486654371 0.392283171
0.545983613 0.510942817 0.415053785
0.186717197 0.298418999 0.211511806
0.189753190 0.298418999 0.211511791
0.186464220 0.298165977 0.207336769
0.192030162 0.301202029 0.211638317
0.197975740 0.305882543 0.216571838
0.199114382 0.300949186 0.215433195
0.200126514 0.303985059 0.219481319
0.206198514 0.307147175 0.222391188
0.209234893 0.312460274 0.221632093
0.216824695 0.315496683 0.225426987
0.222896680 0.314104974 0.227071315
0.232511252 0.317646921 0.231625259
0.237824336 0.320682824 0.235799983
0.246679053 0.326122403 0.236306027
0.256293833 0.329158813 0.238583192
0.267552376 0.332194805 0.244655192
0.276660383 0.335231155 0.250727177
0.285136193 0.341303170 0.255534172
0.295509189 0.345224440 0.255534172
0.306388348 0.353573710 0.259835333
0.320809543 0.365338445 0.270082176
0.333965957 0.374446332 0.280202180
0.348134309 0.381277382 0.286527157
0.361670017 0.393421799 0.298671603
0.379127264 0.405566394 0.310815960
0.392915964 0.417710364 0.316887975
0.415306956 0.432258189 0.334598124
0.435547411 0.448450178 0.346742630
0.459456116 0.467045993 0.369513005
0.484756380 0.482479393 0.385958135
0.513472557 0.505123556 0.408601999
0.550537825 0.533712983 0.434788376
0.186211407 0.322707146 0.226691559
0.195319191 0.327008367 0.233396754
0.192409590 0.327893972 0.231499001
0.191397592 0.329158962 0.230486870
0.200505987 0.332194567 0.235041454
0.204048365 0.329664886 0.231752038
0.205819413 0.332953990 0.235673562
0.208855286 0.336748838 0.239468709
0.217710078 0.339152068 0.242252037
0.220746472 0.342188478 0.239215642
0.224414691 0.340670258 0.238456562
0.232257932 0.342441142 0.241872147
0.242631346 0.348007172 0.247944146
0.251992047 0.351043552 0.254016161
0.258823812 0.354079962 0.252118975
0.269702971 0.356483340 0.254395992
0.279696584 0.360151738 0.260467976
0.289437383 0.364453107 0.267172545
0.295509398 0.370525122 0.267172545
0.306514978 0.377229542 0.272738546
0.320556581 0.385199130 0.282605708
0.335736573 0.396331280 0.295382559
0.345224440 0.405439615 0.301707536
0.360910922 0.417077571 0.313851565
0.380012691 0.429854542 0.327007830
0.399620533 0.443264097 0.339278549
0.413282633 0.455914080 0.347374707
0.443263888 0.468184531 0.365591466
0.466287196 0.486400932 0.389247358
0.489437133 0.506008744 0.410879105
0.513472557 0.522074580 0.426059246
0.552941024 0.555471003 0.459456444
0.195319042 0.346996009 0.241871998
0.204427436 0.356103629 0.250980377
0.198481977 0.358254045 0.251233250
0.193168834 0.359519213 0.251739323
0.197469607 0.362555444 0.256293893
0.206577986 0.365591079 0.250221133
0.212650046 0.365591079 0.251992345
0.214927047 0.366097063 0.253637016
0.217963099 0.366350025 0.254649132
0.226818502 0.366476566 0.257432461
0.232764021 0.369512945 0.254396111
0.238582984 0.370018989 0.255661249
0.245161042 0.372801989 0.260088950
0.251992047 0.378368020 0.266160995
0.264136821 0.381404430 0.272232980
0.275774986 0.382037014 0.270335197
0.284882993 0.385325998 0.272612035
0.292473018 0.391777575 0.279316604
0.304617018 0.400885940 0.288424999
0.313472390 0.409740627 0.293990999
0.322833747 0.414800733 0.300062984
0.332700849 0.420620114 0.307906181
0.342188060 0.429728448 0.316887975
0.360404879 0.438836098 0.329032004
0.378368020 0.452751279 0.338899285
0.399620354 0.469070375 0.349904954
0.422391027 0.486274898 0.362555146
0.443643391 0.501454532 0.380771905
0.468310952 0.513725698 0.396331817
0.495888412 0.533712924 0.419608146
0.524604559 0.553699970 0.443010926
0.552941024 0.567615032 0.462492079
0.198861361 0.393548757 0.268184364
0.202403754 0.397090346 0.271726787
0.211511582 0.399746746 0.276534170
0.208855003 0.399746746 0.276028067
0.209993362 0.400885403 0.278305382
0.211890936 0.401517838 0.277040184
0.218469009 0.402023762 0.278557748
0.221251994 0.402023762 0.279949367
0.224288195 0.403541774 0.279949367
0.235420838 0.407589734 0.280961514
0.241619363 0.407716274 0.283744842
0.245667085 0.410752654 0.284756452
0.250980288 0.412650377 0.287792653
0.257305682 0.416572094 0.291967332
0.266919464 0.417078167 0.295509040
0.276660442 0.424920946 0.299177825
0.286907196 0.429095387 0.301454723
0.294876784 0.433902383 0.306894332
0.304870039 0.436558992 0.311701685
0.317014724 0.442884743 0.318026751
0.329917610 0.448197335 0.325995982
0.342820793 0.453257531 0.334977627
0.355850369 0.462492377 0.345857203
0.374067187 0.474256843 0.355344385
0.390006632 0.483365029 0.367488950
0.407716691 0.496141732 0.379886389
0.429222137 0.511575043 0.393422067
0.452751786 0.529031932 0.407084256
0.479317129 0.541556060 0.425300330
0.503731608 0.559013546 0.444149166
0.533839226 0.582289696 0.465907604
0.566856384 0.602023721 0.482226372
0.201897740 0.426944971 0.293611467
0.206831396 0.429981083 0.292852402
0.208475977 0.434661478 0.295888782
0.213788748 0.434661478 0.297659993
0.215686291 0.434661478 0.298418999
0.223276466 0.434661478 0.301454991
0.215053752 0.434661478 0.298292398
0.227703735 0.436306179 0.304617435
0.227703735 0.437318146 0.303858280
0.233017236 0.442251474 0.301580995
0.241239995 0.444402218 0.304490864
0.250980467 0.448323727 0.311322182
0.254016370 0.449082822 0.313219458
0.259835988 0.450853974 0.315749735
0.270588309 0.454142958 0.320430040
0.277798802 0.455660909 0.323465794
0.291460991 0.463251084 0.326502174
0.301075250 0.468058199 0.331562310
0.308918059 0.468058199 0.334598720
0.322706968 0.473624438 0.342314959
0.332953960 0.479696721 0.348387003
0.347121716 0.482732356 0.356483012
0.361543000 0.490069509 0.366730213
0.379759818 0.500442743 0.375837833
0.399494261 0.512207270 0.389120579
