Assets/Shaders/EldamarStudio/100 Sci-Fi LUTs Pack/LUTs/cube/Holly LUT.cube
LUT_3D_SIZE 5
DOMAIN_MIN 0.000000 0.000000 0.000000
DOMAIN_MAX 0.903226 0.903226 0.903226
0.062744997 0.047059000 0.043136999
0.110815704 0.058823999 0.068311289
0.181783825 0.100063413 0.097406581
0.291334867 0.156988993 0.152055874
0.427830756 0.256419808 0.232890800
0.108538993 0.112460412 0.085641995
0.135989994 0.124224991 0.101327993
0.199114710 0.154332832 0.125869706
0.300190002 0.207336828 0.183428273
0.437950522 0.303225696 0.267931700
0.167361990 0.253763795 0.184439987
0.191271275 0.259329677 0.188994408
0.247184977 0.281214803 0.215180397
0.326249421 0.329664826 0.247565120
0.449336231 0.423276365 0.338267058
0.201897740 0.456293374 0.318912119
0.219607994 0.468690693 0.321821839
0.272991866 0.488298386 0.344085991
0.351169974 0.514105201 0.378747255
0.496141672 0.594560206 0.470082104
0.348513395 0.733965755 0.564073563
0.374952257 0.743959308 0.570524573
0.439341992 0.751549125 0.587476432
0.532574296 0.770145416 0.619607568
0.671473384 0.799240768 0.662112594
0.086907007 0.052624710 0.083997712
0.110815704 0.067678705 0.099051282
0.185072407 0.112459995 0.127514407
0.291967154 0.173940405 0.186084703
0.422517776 0.268184811 0.268563926
0.109803997 0.116381988 0.114737704
0.140923694 0.132067993 0.129158691
0.204680830 0.163820282 0.158253998
0.296521127 0.216824695 0.205312833
0.430107474 0.312333822 0.292346627
0.173561126 0.252751261 0.206325114
0.193169132 0.262239397 0.213156000
0.246173277 0.286148101 0.232511118
0.323339731 0.328652710 0.268184662
0.450347900 0.427830607 0.358507365
0.206831142 0.463124663 0.341429234
0.223276541 0.467045844 0.344718248
0.272991866 0.484376997 0.361416668
0.349272400 0.515369833 0.396710724
0.495256066 0.591018140 0.478937238
0.333080292 0.737507820 0.567868412
0.368627399 0.738772690 0.578241587
0.436053246 0.748893023 0.593042314
0.528272986 0.767868400 0.620746434
0.667805135 0.796963692 0.670208871
0.120303832 0.059456423 0.157621413
0.137001693 0.081087999 0.164831981
0.188994408 0.119671412 0.173940822
0.283870816 0.179886416 0.227324530
0.419228375 0.273370981 0.313346207
0.144465417 0.132447690 0.179506689
0.164453104 0.140923291 0.183428124
0.205945417 0.168374285 0.203668699
0.296900988 0.226312399 0.256293416
0.425427079 0.319544494 0.342441499
0.177861989 0.262239397 0.254396379
0.198102415 0.274003834 0.266793400
0.252371997 0.308664978 0.296268374
0.323339731 0.350537390 0.331941545
0.451359808 0.438329756 0.412776560
0.209234580 0.466666698 0.387223244
0.223529160 0.474509716 0.397975922
0.268058419 0.492852539 0.410752654
0.350537390 0.521315634 0.437571406
0.502213478 0.598861456 0.521062493
0.322200745 0.733839452 0.590006471
0.356862545 0.740037858 0.600759089
0.425553411 0.748893023 0.617583752
0.529917717 0.768247843 0.639468729
0.668943346 0.797975540 0.688171804
0.177609116 0.080455258 0.273751140
0.191018403 0.096774422 0.280961543
0.227324113 0.137001857 0.293105841
0.299177855 0.199114129 0.321821243
0.423908770 0.287539512 0.394813269
0.193168700 0.147754416 0.291713983
0.209867403 0.158886984 0.297280520
0.238330290 0.192283407 0.312080830
0.308665425 0.241998985 0.343073666
0.430107623 0.331056207 0.414421082
0.206957713 0.254016697 0.350917280
0.226818427 0.275395244 0.355850816
0.266793400 0.313978404 0.381024510
0.325616986 0.360025108 0.405566245
0.448070794 0.442504674 0.477545798
0.183301866 0.464136392 0.457179248
0.202529997 0.487918824 0.470208853
0.259835541 0.509804130 0.489183992
0.363061279 0.549399316 0.525869250
0.515623212 0.605060279 0.581150949
0.316634715 0.738140404 0.642757714
0.350284576 0.736875296 0.647944331
0.413156152 0.754459023 0.657052457
0.522833586 0.773813725 0.682985604
0.686906636 0.808222711 0.731815398
0.278684646 0.100695834 0.522200763
0.284250677 0.119418100 0.527767420
0.314611226 0.171410650 0.534598172
0.371916533 0.249589115 0.546489596
0.478937596 0.340290606 0.586211562
0.272106111 0.182795525 0.531056285
0.280581981 0.193295687 0.528146625
0.314231515 0.232257798 0.541176438
0.365338534 0.300695777 0.562428892
0.479696453 0.378873944 0.591777325
0.272106111 0.312713623 0.562681556
0.278557837 0.322833508 0.558760405
0.315243632 0.352561384 0.574446380
0.373181552 0.414168358 0.595951617
0.497279763 0.475648344 0.622770607
0.189626813 0.483617961 0.640101075
0.219228446 0.488045216 0.640101135
0.301580966 0.514484525 0.643390298
0.405060232 0.568753958 0.654775620
0.554079711 0.626312494 0.692219853
0.331562221 0.753700256 0.728652716
0.354332626 0.755218148 0.738899469
0.423781931 0.765338540 0.744465590
0.551675797 0.796078622 0.772928476
0.729158342 0.845161378 0.824288547
