Assets/Shaders/EldamarStudio/100 Sci-Fi LUTs Pack/LUTs/cube/Horizon LUT.cube
LUT_3D_SIZE 8
DOMAIN_MIN 0.000000 0.000000 0.000000
DOMAIN_MAX 0.903226 0.903226 0.903226
0.003922000 0.000000000 0.078431003
0.122580543 0.004301451 0.081973456
0.286780298 0.028968999 0.095635995
0.425427288 0.065654993 0.095256351
0.571157396 0.107147381 0.102593191
0.717014432 0.148766473 0.121695004
0.845667541 0.198988289 0.137887001
0.963820636 0.240733802 0.155597836
0.050094996 0.133966088 0.143073544
0.133966088 0.141809091 0.126249000
0.272232652 0.184187084 0.114104643
0.425427109 0.202150285 0.118026547
0.564579546 0.218975544 0.120430358
0.713978469 0.240986735 0.132574186
0.839215577 0.269955546 0.152941003
0.965464890 0.297533363 0.164832115
0.188741088 0.300822198 0.239722088
0.223150194 0.291713834 0.247944549
0.303099275 0.303225964 0.178621188
0.428463101 0.303984970 0.147754461
0.564832389 0.358127981 0.158380806
0.712966442 0.365085304 0.160531089
0.847185552 0.380898088 0.177862093
0.965717852 0.395825207 0.199873477
0.359392554 0.469702631 0.350410908
0.397343725 0.470461726 0.372422636
0.431878746 0.478304744 0.358380824
0.495003283 0.460721284 0.272359639
0.602909625 0.432257742 0.223782644
0.719671011 0.474889308 0.220619738
0.842378557 0.504364610 0.226438984
0.969259858 0.506767809 0.240860447
0.558507383 0.621505141 0.484630167
0.593801260 0.624161720 0.513346136
0.626438558 0.623782277 0.542947471
0.647311985 0.621884763 0.471726716
0.699683368 0.587729335 0.369006962
0.768754184 0.532447755 0.291081458
0.870588422 0.567362487 0.300063074
0.970651805 0.601265013 0.314231187
0.742314696 0.721188962 0.642378449
0.756862760 0.727766871 0.654648840
0.793295264 0.719038725 0.689310551
0.807969570 0.727007747 0.675774813
0.830866694 0.713978469 0.602403462
0.869829476 0.691713750 0.493358493
0.910942733 0.619987488 0.379126996
0.990891993 0.646299720 0.391903818
0.878684282 0.797976017 0.779632986
0.890069544 0.791397691 0.782036364
0.904364109 0.793295264 0.804807067
0.925742984 0.796204925 0.826059580
0.934977591 0.791777253 0.796964288
0.952561736 0.787602723 0.724857390
0.986843526 0.771157563 0.631878495
0.998734832 0.699936986 0.492473096
0.959645987 0.835420787 0.880075991
0.968501091 0.834408700 0.873371363
0.976849973 0.834155679 0.883238554
0.988361776 0.836685956 0.903478801
0.995193005 0.838203788 0.906894147
0.998734832 0.836685956 0.866034150
0.999620438 0.841239989 0.820999503
0.992030203 0.815812826 0.741555810
0.001138547 0.097533546 0.200252637
0.126502544 0.000000000 0.203795090
0.278431624 0.007843000 0.200252637
0.433270276 0.027703740 0.198355183
0.576343954 0.083744191 0.202276900
0.709550917 0.141809180 0.206957996
0.844022870 0.188361540 0.210879102
0.964326322 0.237697512 0.224414632
0.000379548 0.173560634 0.195952088
0.122580543 0.162176102 0.199114099
0.272991627 0.167235643 0.199493647
0.425427288 0.186464086 0.206957906
0.570398390 0.206831083 0.205313087
0.712713540 0.234661549 0.213282824
0.832890272 0.267046124 0.222896546
0.966097295 0.290322542 0.230993375
0.149904743 0.311448634 0.251612991
0.229854733 0.310689628 0.280202538
0.303985089 0.303985059 0.251992643
0.422264367 0.324351251 0.220873103
0.564073324 0.354585648 0.232511356
0.707147717 0.361543655 0.228716269
0.837191880 0.378494501 0.242125273
0.961923003 0.392536104 0.250221223
0.342567801 0.471979618 0.360025555
0.382163286 0.476407290 0.387097001
0.434661478 0.477545738 0.390512645
0.489183903 0.459582627 0.315369725
0.595825791 0.440101624 0.264516443
0.717267573 0.486021340 0.271600574
0.842631102 0.502087355 0.279063970
0.960404694 0.501960814 0.286400735
0.549019337 0.617836833 0.501707733
0.578874409 0.622264385 0.513219297
0.634535253 0.618975341 0.554205954
0.649842024 0.621505320 0.500189722
0.703225791 0.587729394 0.396458179
0.758759975 0.538393378 0.324730933
0.869955659 0.573561192 0.335483998
0.967362165 0.607969642 0.349398881
0.734471679 0.722959757 0.646426439
0.754332602 0.724478185 0.657684863
0.790259004 0.727387249 0.695888519
0.814294517 0.723086655 0.690196276
0.825047433 0.718785405 0.620366633
0.861986458 0.691587687 0.515117288
0.911321998 0.621125996 0.402656585
0.990891755 0.654775620 0.420493454
0.879317284 0.793421984 0.775964558
0.889310539 0.789879560 0.788867772
0.907273829 0.789753377 0.807084262
0.925743163 0.795192957 0.826818526
0.934092343 0.795825362 0.798482358
0.951802373 0.787855744 0.734218299
0.986211002 0.767994821 0.650601029
0.996963739 0.704617083 0.515116811
0.960151315 0.837950826 0.877166390
0.965844274 0.843896091 0.871853352
0.978494287 0.833523035 0.893485248
0.996204793 0.835420787 0.906767786
0.996204793 0.835420787 0.909044802
0.998734832 0.836559176 0.877925158
0.995192707 0.836685956 0.829348624
0.997469962 0.816192210 0.755597472
0.003922000 0.230360284 0.338520199
0.006325001 0.098292552 0.336243123
0.281214207 0.012523904 0.309551001
0.432511270 0.030866642 0.317014664
0.569639385 0.063377991 0.311954200
0.703984857 0.102593087 0.318785369
0.835926652 0.143074185 0.307147175
0.959898651 0.201644704 0.320430100
0.003162904 0.332195103 0.332321197
0.003542452 0.258949727 0.325996101
0.275648177 0.168880552 0.322580546
0.432131737 0.173940182 0.314990282
0.573561072 0.182542980 0.317899853
0.702846348 0.201391280 0.313092649
0.838330507 0.232384548 0.319417715
0.962682009 0.267299384 0.328273177
0.000000000 0.344845176 0.308033019
0.062492087 0.334598213 0.319038182
0.271853179 0.318912208 0.317394197
0.420366645 0.322453856 0.313092619
0.559392571 0.332321286 0.314990193
0.706388593 0.345983535 0.322453856
0.838456571 0.359645963 0.334598362
0.957874656 0.381277829 0.341682285
0.214168534 0.464262903 0.349019736
0.290069729 0.466287166 0.364705741
0.425806642 0.472485989 0.422011554
0.474762976 0.459582627 0.380139202
0.579379916 0.455660820 0.346995354
0.709803998 0.488677830 0.355344713
0.838076949 0.492093563 0.355218112
0.960278153 0.496521533 0.366982609
0.491714269 0.612144411 0.488045454
0.530550003 0.611258507 0.502593517
0.598482251 0.622264266 0.544465303
0.649841905 0.619861066 0.560151398
0.676154315 0.589374065 0.453637064
0.749019682 0.552814603 0.400379360
0.854775429 0.589374125 0.408222556
0.959139526 0.607463360 0.419101983
0.718026757 0.721441746 0.645161092
0.731562316 0.725489855 0.661606848
0.772802114 0.725869358 0.690322340
0.821884573 0.727007747 0.718785822
0.821505129 0.719923735 0.664389491
0.853257418 0.689689994 0.563314497
0.902087271 0.635167420 0.468184769
0.989626825 0.663124561 0.484123975
0.874636352 0.793295264 0.774320245
0.880076289 0.793042481 0.788741112
0.902087212 0.793295264 0.804807067
0.930043936 0.795319498 0.834535182
0.937508106 0.796458185 0.825300515
0.947754443 0.789753377 0.770145416
0.985325336 0.766730070 0.679190576
0.998481810 0.704364359 0.562049150
0.964958966 0.837444842 0.885009646
0.966856718 0.834282041 0.881973505
0.974066913 0.836685956 0.890575767
0.990638793 0.835800290 0.907906234
0.996457875 0.836685777 0.919291794
0.995192945 0.838077009 0.890828609
0.997090399 0.835420787 0.850727499
0.996078014 0.817710102 0.774572849
0.002783356 0.353699923 0.485388935
0.000000000 0.290195853 0.468057811
0.082226641 0.092726439 0.460721284
0.434408635 0.037570998 0.438203990
0.572548807 0.072485648 0.439721912
0.705123484 0.104110993 0.438456655
0.835040867 0.135104358 0.429221630
0.961290598 0.172675818 0.429601282
0.001517999 0.420620054 0.477545619
0.001518095 0.371410251 0.466919303
0.025806475 0.204301178 0.461226940
0.425806731 0.175458267 0.435293913
0.570777953 0.188108996 0.434661567
0.702466786 0.200126633 0.432131529
0.835167587 0.214674190 0.435040921
0.958127797 0.233270258 0.432510912
0.002783356 0.530550182 0.471220732
0.000000000 0.513725638 0.480455190
0.133459747 0.409867167 0.458444089
0.424668074 0.315749288 0.436938733
0.565338731 0.321315378 0.428209811
0.702846289 0.322833389 0.427450836
0.830992997 0.328779459 0.430107504
0.959519207 0.336243123 0.433016837
0.001138644 0.485388905 0.428083271
0.071979828 0.488172293 0.422391087
0.276913553 0.475268632 0.429475099
0.425427288 0.445034981 0.427071273
0.559012949 0.453763157 0.434914261
0.703984857 0.461226940 0.440354288
0.833396673 0.467425913 0.450094908
0.952940941 0.481214494 0.455660909
0.299051195 0.583428025 0.468184829
0.350158006 0.586211264 0.478431642
0.465148389 0.591651082 0.497786015
0.606198549 0.606324911 0.559392393
0.646426320 0.580645382 0.513725519
0.729791224 0.572043002 0.483365178
0.847438276 0.595319629 0.493105590
0.959266186 0.601770937 0.498292267
0.623529375 0.705755711 0.609234631
0.653763473 0.704996884 0.628336370
0.717520416 0.711701334 0.663630545
0.792662799 0.713978410 0.707400441
0.820493519 0.721441925 0.713345826
0.834029257 0.696014941 0.620113730
0.885009766 0.650474489 0.542441726
0.977229536 0.678431630 0.563187420
0.842883945 0.793421984 0.767236292
0.850474238 0.794433832 0.783807814
0.872865319 0.794940233 0.801012158
0.916761637 0.798481941 0.826692283
0.953067482 0.800379515 0.870082259
0.951928914 0.791777253 0.808222711
0.968374670 0.771663606 0.721948147
0.997596204 0.719164908 0.624161899
0.957874596 0.838203788 0.880202472
0.959012866 0.841366053 0.881467640
0.969765842 0.843010962 0.892978966
0.992156625 0.847058654 0.913725615
0.994054377 0.843390346 0.925869584
1.000000000 0.843263626 0.923592567
1.000000000 0.837824285 0.878178537
0.997596204 0.828462839 0.810246408
0.000000000 0.481214195 0.632384598
0.003035997 0.438329816 0.629474998
0.002403808 0.292093337 0.623909175
0.325489908 0.122074373 0.588615119
0.579000354 0.086021192 0.558507323
0.712081015 0.113598995 0.549905181
0.838456571 0.144086286 0.557369053
0.957621634 0.175458461 0.548387110
0.002783356 0.532954216 0.637444794
0.003162807 0.487792552 0.623402834
0.004301354 0.381150842 0.618975282
0.325363904 0.225300446 0.591651201
0.573561192 0.190765530 0.553953171
0.713852167 0.203288838 0.558001161
0.837571383 0.218595996 0.554712296
0.959013343 0.237065256 0.550664306
0.000000000 0.613662183 0.633270144
0.004680903 0.591018319 0.626945198
0.000759115 0.512460291 0.610499442
0.282479405 0.359646082 0.590133071
0.569639385 0.319797188 0.555724144
0.702719629 0.324351370 0.551296651
0.831372499 0.332321286 0.551676095
0.958633721 0.333080173 0.555471241
0.006198998 0.666160583 0.612017572
0.000759096 0.667046249 0.611385047
0.047817837 0.650601089 0.615053594
0.377861917 0.541049719 0.592283189
0.565718174 0.444276094 0.547374725
0.703605294 0.442758083 0.548133790
0.830487192 0.444022834 0.553573728
0.952308536 0.443263650 0.550158381
0.110942356 0.622137964 0.561163962
0.202782899 0.622264326 0.553067565
0.332574368 0.612903297 0.554585338
0.466160476 0.587349713 0.556356430
0.579253137 0.561163962 0.549398959
0.711068690 0.565464973 0.558001161
0.840101302 0.568121195 0.559392810
0.955218196 0.576723099 0.577482581
0.383807927 0.684629738 0.588488460
0.426944911 0.681088209 0.589500129
0.526122570 0.684250355 0.603542030
0.643516719 0.690449178 0.639215648
0.791650951 0.705755889 0.721189022
0.805060029 0.678684473 0.657179296
0.869702578 0.669702947 0.619354725
0.963946700 0.690196037 0.633143485
0.726628721 0.783174992 0.734977722
0.749145985 0.783554554 0.733206689
0.795192659 0.782289386 0.753700197
0.867931664 0.788108826 0.804174542
0.930929482 0.801138520 0.852751434
0.948133945 0.796078742 0.858443856
0.958507419 0.774446547 0.763187706
0.992156625 0.733712673 0.692093730
0.920050442 0.844022632 0.863377631
0.930296957 0.839721978 0.871600330
0.946995556 0.841239870 0.885262609
0.979379952 0.846299887 0.908665419
0.989753127 0.844528973 0.928652823
1.000000000 0.843263805 0.948766351
0.997975767 0.842125177 0.913978457
0.997596204 0.825553238 0.844402015
0.001897740 0.572296023 0.764199972
0.000379548 0.550537527 0.758633673
0.002024260 0.474130303 0.752308369
0.000000000 0.245920107 0.736242771
0.515496433 0.161416799 0.700062990
0.712966442 0.117393993 0.671853185
0.836558819 0.153447002 0.675268710
0.958000898 0.181656986 0.673118353
0.004048004 0.607842803 0.754206181
0.001518192 0.584313512 0.752308428
0.001138644 0.514864087 0.747248769
0.000000000 0.331688732 0.740417719
0.512839854 0.238077164 0.698671877
0.711068749 0.210752994 0.675648153
0.835800111 0.219734535 0.676280975
0.954838693 0.239089385 0.668058276
0.000759096 0.672486007 0.770651579
0.005945647 0.652498722 0.764579713
0.000000000 0.599999845 0.748513758
0.001518016 0.481593728 0.739152372
0.496015072 0.362808287 0.696774006
0.711068690 0.325110465 0.677166343
0.834788024 0.328400105 0.669955432
0.953573525 0.340164095 0.670714557
0.002024260 0.757621706 0.771916449
0.005566003 0.745856762 0.767109334
0.071979553 0.699051142 0.751043737
0.304490805 0.620366871 0.740923643
0.482606232 0.492093474 0.708286047
0.707779825 0.444022626 0.666919589
0.831245959 0.445161164 0.663504243
0.953952849 0.446426541 0.669955671
0.068311177 0.758633673 0.737128675
0.124604456 0.759898782 0.743074119
0.329538554 0.751296759 0.744465470
0.473877251 0.743959367 0.753953218
0.577608943 0.651739717 0.717647076
0.710563183 0.562049210 0.672106743
0.843643308 0.551296592 0.669955552
0.951296329 0.551296473 0.668058157
0.347880930 0.727007747 0.683617771
0.383680999 0.721062481 0.688298523
0.445793837 0.719544411 0.682858825
0.538772821 0.702719688 0.685894668
0.630866885 0.689816475 0.680202246
0.730676770 0.652371764 0.669702411
0.852118790 0.654269457 0.676660776
0.958633602 0.662997901 0.690954924
0.464263171 0.761796236 0.692978978
0.499936908 0.762175798 0.695762277
0.578874171 0.760278046 0.715116799
0.684630275 0.765338600 0.734092116
0.810120404 0.774066985 0.779759586
0.936242998 0.786590517 0.857811511
0.930297077 0.773181736 0.801138699
0.981909931 0.752055705 0.759139478
0.818975210 0.840606809 0.830613613
0.828336358 0.840101182 0.829727888
0.857179105 0.842504740 0.837697625
0.906894267 0.840860188 0.877545714
0.972802222 0.844022751 0.914610922
0.994939804 0.844022691 0.965085566
0.997469962 0.848070502 0.952182114
1.000000000 0.829601586 0.890195966
0.001644712 0.648956597 0.867552280
0.000000000 0.634155273 0.869576097
0.001644712 0.580771327 0.873877287
0.003289004 0.464642584 0.866919518
0.186211362 0.269449800 0.851866245
0.671600163 0.190259278 0.811385095
0.836812258 0.156483278 0.787476599
0.960278213 0.184060693 0.791018128
0.000000000 0.669070601 0.879317284
0.000000000 0.656926036 0.868564308
0.000759096 0.611638129 0.865654588
0.000758999 0.510816097 0.856672883
0.171031162 0.330170840 0.848450541
0.668311357 0.260594666 0.811258912
0.835041106 0.221758366 0.787476301
0.953700244 0.246047005 0.794433951
0.000000000 0.718026400 0.874762952
0.004680709 0.703099191 0.878937781
0.001518192 0.670209169 0.875268698
0.006325196 0.589626729 0.867678523
0.159392834 0.441113204 0.851107001
0.665022016 0.364705831 0.806577802
0.831878543 0.335357308 0.791397691
0.955597758 0.340543926 0.790385485
0.003289004 0.786211252 0.877166212
0.048070833 0.773561239 0.882605970
0.081214473 0.745097876 0.872991800
0.226565525 0.691461027 0.868690670
0.372422367 0.584566772 0.851106942
0.653131008 0.486147821 0.816445291
0.832384586 0.449968278 0.796964288
0.952561557 0.441999078 0.790385723
0.275901288 0.846046686 0.883364975
0.330297291 0.842631280 0.885388911
0.422643930 0.830866396 0.890322566
0.539152324 0.790638804 0.872232854
0.586590767 0.715622962 0.859076440
0.664389312 0.606577992 0.825806379
0.837571383 0.548513174 0.786590576
0.955850780 0.548892736 0.791018128
0.451865733 0.829854548 0.858444035
0.483870804 0.833270013 0.862239063
0.535736978 0.833270013 0.857305348
0.628462970 0.823149979 0.869955480
0.724098921 0.811891258 0.875268579
0.764452457 0.736875296 0.843896270
0.846299529 0.651739717 0.798608541
0.953573644 0.644149184 0.788741350
0.517520547 0.807463288 0.812017322
0.546110153 0.803921700 0.814547956
0.581783354 0.802656472 0.809487343
0.640227675 0.799114645 0.812144160
0.717520535 0.786970139 0.815686405
0.800000012 0.770904481 0.812776685
0.862618566 0.739152551 0.800253272
0.976470351 0.736495793 0.809740722
0.503099382 0.834661365 0.801391542
0.540037870 0.837824225 0.809993327
0.609866738 0.829095542 0.822264194
0.704870224 0.827704251 0.826059282
0.821758449 0.832005084 0.854269326
0.936369538 0.832257807 0.894876361
0.998734832 0.844528973 0.969006777
0.996078014 0.832890809 0.921947718
0.000000000 0.704743981 0.961036921
0.000758999 0.688678086 0.961796045
0.003415735 0.661226809 0.964199841
0.000000000 0.585072517 0.963693798
0.003415631 0.428842008 0.962934792
0.458317399 0.307147086 0.944718719
0.815812826 0.214421034 0.918279529
0.963820636 0.193547979 0.915496767
0.002530012 0.722453773 0.967362583
0.003036284 0.710562825 0.962428629
0.003794989 0.681593776 0.965211987
0.000000000 0.615306854 0.959392548
0.000000000 0.479316592 0.958253920
0.452624857 0.358507454 0.943073988
0.804427445 0.272232890 0.911827683
0.953320801 0.247817710 0.903731763
0.000000000 0.756609857 0.959898651
0.002656736 0.748513520 0.956989229
0.000000000 0.724351645 0.958506942
0.001518189 0.669955552 0.956862450
0.000000012 0.569512725 0.955471158
0.461227030 0.446553051 0.948260605
0.799746752 0.372675449 0.922327340
0.949904859 0.341050208 0.910942674
0.052371819 0.808601797 0.965464652
0.061100647 0.800379336 0.965464711
0.076660268 0.783681333 0.963946819
0.125616789 0.742314994 0.957874477
0.303858250 0.674130380 0.955977142
0.486527383 0.553320408 0.947501481
0.792030454 0.484882802 0.925110579
0.951169908 0.446679294 0.911954582
0.421505332 0.863630831 0.983301759
0.455660999 0.859329343 0.970145524
0.519038379 0.841619313 0.964326322
0.558254242 0.814547896 0.961795986
0.579380333 0.765465021 0.960784256
0.608222783 0.674004138 0.952561796
0.798355639 0.592536211 0.927514076
0.952055633 0.548513353 0.906641245
0.570651531 0.892346919 0.960404932
0.592915952 0.888425052 0.963187516
0.640986741 0.887919009 0.968121588
0.693864524 0.876534045 0.973054945
0.755344629 0.844022512 0.971789718
0.770524859 0.792156816 0.959139526
0.810246766 0.696521163 0.943706393
0.957368612 0.643263757 0.909044743
0.635167360 0.887792826 0.934851289
0.647944212 0.883617997 0.944085956
0.689563811 0.875395238 0.947627962
0.741935134 0.873750567 0.948260486
0.814674377 0.869323432 0.967236221
0.886527419 0.862239242 0.973687232
0.908538759 0.808981419 0.964200020
0.971916139 0.728652716 0.919923961
0.668437779 0.873371005 0.913978636
0.679443479 0.868184805 0.924098313
0.703225851 0.867425740 0.911448658
0.749905288 0.863124430 0.918279409
0.810373187 0.854269385 0.925742984
0.872232795 0.845919967 0.932447612
0.938393116 0.833270252 0.942567885
0.982036591 0.817204118 0.925742924
