Assets/Shaders/EldamarStudio/100 Sci-Fi LUTs Pack/LUTs/cube/Horizon LUT.cube
DOMAIN_MIN 0 0 0
DOMAIN_MAX 1 1 1
LUT_3D_SIZE 32
0.003922000 0.000000000 0.078431003
0.022138000 0.000000000 0.084503770
0.053257547 0.002150774 0.088425227
0.088425159 0.003922000 0.087665997
0.122580543 0.004301451 0.081973456
0.162048921 0.007337064 0.078937069
0.206577957 0.015433321 0.086021319
0.248829693 0.022896998 0.091840707
0.286780298 0.028968999 0.095635995
0.320177466 0.035041008 0.101708002
0.359392852 0.046932001 0.099051133
0.392789513 0.055028513 0.096015260
0.425427288 0.065654993 0.095256351
0.461860001 0.082859002 0.098545000
0.498291969 0.088930994 0.104616992
0.534724593 0.095002994 0.101075001
0.571157396 0.107147381 0.102593191
0.608222544 0.123466410 0.111068986
0.647691011 0.132574052 0.117141008
0.684376717 0.138898998 0.123213001
0.717014432 0.148766473 0.121695004
0.748387098 0.161923125 0.120683126
0.781910002 0.176976979 0.129538476
0.818342805 0.189121008 0.132574096
0.845667541 0.198988289 0.137887001
0.871347666 0.208096310 0.143959343
0.899684072 0.217204064 0.149525940
0.933080435 0.226312444 0.152561545
0.963820636 0.240733802 0.155597836
0.987096965 0.252372205 0.160404980
1.000000000 0.261480361 0.166476995
1.000000000 0.270588011 0.172548994
0.000885613 0.027324386 0.090575777
0.009994001 0.033396386 0.090575770
0.049715541 0.033396386 0.088045992
0.089690320 0.040607158 0.085895225
0.125616938 0.050980385 0.081973456
0.165085316 0.061985835 0.078937069
0.202024028 0.052371770 0.088551641
0.244402394 0.061227091 0.094876677
0.284503579 0.072232872 0.095635615
0.320177466 0.080582172 0.092599615
0.356483012 0.086654164 0.098671615
0.395825356 0.092472896 0.100063257
0.431499273 0.098671645 0.100189999
0.467679024 0.110436417 0.101328358
0.501328349 0.119291767 0.104616992
0.535357177 0.122959964 0.108285800
0.571157396 0.128399387 0.105629191
0.606957555 0.139278769 0.108665176
0.641619027 0.150790825 0.117141008
0.678304732 0.162681773 0.120430358
0.710942507 0.169259772 0.122454390
0.742315114 0.179126993 0.123719253
0.775838017 0.192156628 0.132700607
0.812270820 0.204301402 0.138646096
0.844149590 0.214168087 0.139404997
0.875521958 0.224667937 0.143959343
0.906767666 0.234408706 0.149020001
0.930043995 0.238456443 0.149525926
0.968754053 0.247564822 0.155218378
0.989626944 0.261986196 0.160404980
1.000000000 0.271853387 0.165591389
1.000000000 0.276659995 0.169512600
0.004300999 0.058949776 0.111321993
0.024162160 0.060720775 0.104870223
0.046173543 0.068943545 0.094117999
0.090955153 0.066413552 0.091840841
0.127514318 0.076154314 0.090955004
0.161669925 0.093611546 0.089689843
0.198608637 0.098418549 0.092852645
0.235041395 0.097786248 0.095130004
0.275775105 0.109677538 0.097406767
0.313599199 0.117394254 0.096900776
0.354332775 0.117140993 0.098165773
0.392789006 0.127261505 0.106261507
0.429981142 0.130676672 0.106135227
0.465402007 0.137507766 0.104617223
0.500695646 0.144718409 0.109550580
0.536242783 0.153320745 0.108285800
0.569639206 0.156356737 0.111321799
0.604806960 0.162428722 0.110815577
0.638203800 0.173054948 0.116887979
0.676533699 0.183048785 0.124731354
0.712966442 0.191397771 0.125870004
0.743833244 0.198481902 0.126881868
0.776091218 0.209361047 0.133459508
0.810499787 0.219481587 0.137507781
0.840227783 0.229348481 0.143326774
0.871979833 0.235673457 0.143326774
0.907653093 0.245540991 0.148387298
0.937128186 0.253510326 0.153320998
0.961416662 0.261859596 0.162934989
0.990259409 0.270967960 0.163693786
0.999114394 0.282732785 0.168627441
0.997849226 0.287033528 0.172928542
0.020493321 0.094876483 0.130549997
0.037191775 0.092346482 0.129031941
0.062365931 0.097533092 0.116887935
0.092220314 0.105376318 0.104237996
0.131688714 0.098924771 0.105755612
0.164705873 0.111321926 0.103098996
0.197596639 0.127514318 0.101834163
0.232764244 0.139025852 0.104996838
0.269955933 0.146616250 0.099683933
0.309424341 0.152182311 0.104238003
0.349272579 0.150790602 0.104491003
0.389753401 0.156609505 0.109297894
0.429221809 0.166477278 0.114990160
0.463124901 0.169386476 0.109424129
0.499557137 0.173434481 0.112459995
0.533459723 0.180645123 0.115116969
0.567109227 0.187982336 0.112586960
0.602403104 0.191651136 0.116255149
0.637697756 0.200126350 0.119923979
0.677925348 0.207969517 0.127261192
0.710436463 0.213915318 0.129411995
0.747881114 0.219987318 0.133459985
0.778874338 0.228969142 0.137381151
0.809993744 0.239215896 0.141555905
0.840101302 0.247058868 0.144338995
0.870208621 0.253383845 0.148893163
0.903605044 0.256926149 0.150411099
0.939278662 0.267552137 0.159519285
0.964958966 0.279569983 0.163693815
0.983681023 0.288678020 0.173308104
0.998734832 0.296015441 0.176470295
0.996078014 0.301707983 0.184060991
0.050094996 0.133966088 0.143073544
0.057305545 0.127893984 0.152561486
0.074762993 0.130424097 0.148134083
0.101328604 0.136496082 0.136116385
0.133966088 0.141809091 0.126249000
0.173434466 0.132700711 0.117140606
0.206831187 0.147628188 0.111321546
0.238456696 0.167488992 0.109930091
0.272232652 0.184187084 0.114104643
0.311701059 0.187223479 0.111069024
0.348260283 0.189247549 0.110942543
0.387096763 0.194560364 0.114610992
0.425427109 0.202150285 0.118026547
0.464895576 0.207970038 0.118026547
0.501454830 0.208096549 0.115116678
0.533839583 0.212903544 0.119291604
0.564579546 0.218975544 0.120430358
0.596710682 0.225047529 0.120050535
0.639215529 0.231119558 0.126122564
0.680961311 0.236812085 0.132574111
0.713978469 0.240986735 0.132574186
0.742568135 0.244655535 0.133459985
0.781910002 0.250727534 0.145224512
0.809993446 0.262365550 0.151043549
0.839215577 0.269955546 0.152941003
0.870208621 0.275774688 0.154332682
0.903225601 0.278937548 0.158001497
0.936621964 0.285009563 0.167109087
0.965464890 0.297533363 0.164832115
0.985325754 0.308791846 0.169006869
0.996457577 0.316887587 0.181404427
0.996457577 0.319923997 0.199620456
0.074382998 0.170398861 0.158253938
0.089563385 0.164326087 0.170398697
0.101074934 0.166856542 0.173434868
0.119038217 0.172928855 0.163820535
0.143073708 0.178241864 0.147501394
0.170398861 0.178241864 0.132321000
0.212397575 0.171663791 0.130802929
0.246299922 0.178874210 0.124857649
0.277166188 0.192536101 0.120556869
0.308665425 0.211511493 0.120177418
0.345224649 0.226185858 0.120050937
0.385705411 0.230740190 0.122074671
0.423150003 0.234788164 0.123339646
0.455787182 0.238330036 0.121062934
0.495256305 0.241366416 0.121062934
0.531815588 0.246299922 0.125363871
0.565718174 0.252371937 0.125364006
0.599241078 0.258443922 0.123592921
0.636179924 0.264515936 0.135230944
0.673118651 0.267805278 0.144086286
0.712460637 0.271347135 0.143200397
0.747375131 0.274383128 0.140670195
0.781910002 0.278051943 0.145224512
0.818342805 0.284123927 0.148260906
0.846426189 0.291207939 0.151802644
0.874256670 0.300062895 0.154332682
0.903099120 0.309171051 0.157875001
0.933586359 0.312333941 0.164073482
0.966982663 0.315749764 0.173181757
0.986970007 0.322580904 0.179759622
0.996963620 0.330044240 0.188488051
0.999493957 0.338140011 0.196584061
0.106261961 0.209361315 0.181024641
0.118912026 0.208349183 0.190639094
0.131941646 0.206577957 0.194181323
0.144085631 0.213156477 0.190386161
0.161922410 0.220114097 0.177103087
0.187096804 0.222264320 0.166223705
0.219481319 0.219734639 0.151043326
0.253763378 0.208728939 0.137887329
0.283997297 0.211511642 0.128905907
0.316129327 0.227450818 0.134218678
0.347248405 0.242884189 0.134218678
0.383681178 0.260088295 0.134218678
0.421758324 0.270208627 0.134471640
0.454269111 0.278557628 0.131941959
0.493738204 0.279316723 0.134218678
0.530803561 0.282353133 0.134218678
0.567235947 0.288298637 0.137001678
0.601644397 0.293738037 0.135483831
0.636179984 0.297912300 0.143833324
0.670082390 0.301201701 0.143074036
0.704617381 0.304238051 0.150284678
0.741808951 0.308285952 0.149778455
0.776596963 0.312713653 0.152688324
0.808222830 0.313978642 0.153320909
0.844655573 0.320050627 0.160910696
0.876913249 0.326122612 0.167235658
0.907653034 0.334471703 0.172042996
0.935989559 0.337508082 0.174066991
0.958886445 0.340543836 0.177735820
0.985198855 0.347122192 0.185072973
0.996963620 0.353953332 0.194307297
1.000000000 0.361416638 0.203668326
0.146236688 0.253763378 0.208602399
0.155091688 0.250474393 0.212777093
0.168880403 0.252119094 0.223655984
0.177229568 0.249588788 0.219861150
0.187096551 0.257558525 0.211132392
0.202529848 0.265654445 0.203289181
0.239342019 0.266919732 0.189120799
0.262871414 0.262239397 0.165717706
0.291713804 0.245541006 0.144465700
0.325110734 0.247944415 0.147374928
0.355597705 0.261353582 0.147754416
0.386717200 0.273624390 0.142820716
0.420872688 0.291840404 0.141682073
0.453763098 0.307526708 0.139152318
0.490449220 0.314484388 0.142188296
0.529158831 0.320177227 0.147754416
0.568627656 0.323213220 0.146236226
0.604680240 0.327893704 0.147374690
0.638077199 0.329917431 0.153447226
0.673118412 0.331309050 0.149525642
0.708159447 0.335989714 0.152181998
0.742567956 0.338013977 0.158253998
0.778874159 0.342947483 0.161922798
0.810752809 0.347501695 0.163440987
0.839089572 0.348766714 0.165338412
0.871347666 0.356230348 0.175837696
0.906514764 0.362049311 0.184692994
0.936116159 0.365085423 0.186969995
0.964705467 0.366476864 0.191271529
0.977735162 0.369765878 0.194433972
0.995445609 0.377103090 0.198734999
1.000000000 0.382415980 0.207843006
0.188741088 0.300822198 0.239722088
0.195572183 0.297027290 0.240480989
0.207336873 0.295888871 0.248197407
0.219734371 0.296647936 0.258570254
0.223150194 0.291713834 0.247944549
0.226565346 0.305376202 0.239974990
0.256419748 0.310436428 0.228589773
0.285641819 0.310057074 0.205186680
0.303099275 0.303225964 0.178621188
0.336495668 0.281973600 0.166477188
0.366223812 0.285895169 0.161417007
0.396584600 0.293738365 0.156862944
0.428463101 0.303984970 0.147754461
0.458570123 0.322201073 0.145224139
0.490955144 0.337887496 0.148260519
0.527640879 0.349778891 0.155344799
0.564832389 0.358127981 0.158380806
0.606704533 0.361796170 0.157242149
0.640354037 0.362049192 0.163314193
0.676533699 0.363567203 0.160531104
0.712966442 0.365085304 0.160531089
0.747881234 0.369133294 0.164326191
0.784440458 0.369259775 0.170524657
0.819101930 0.377103001 0.174825892
0.847185552 0.380898088 0.177862093
0.872865677 0.383554757 0.179632977
0.899684012 0.391145110 0.190259069
0.932321310 0.393927753 0.196078092
0.965717852 0.395825207 0.199873477
0.985451996 0.397596419 0.208728760
0.990891576 0.400632560 0.211638093
1.000000000 0.403668165 0.211638093
0.222137511 0.343326986 0.273118496
0.231245905 0.346363395 0.276154131
0.242377996 0.344718695 0.279063791
0.254648834 0.343200505 0.286400974
0.265654981 0.343327045 0.293484926
0.271726996 0.346363425 0.272232592
0.287792474 0.349905163 0.264263034
0.308665216 0.351296514 0.244655102
0.330423713 0.348766416 0.218089610
0.354712486 0.339658022 0.202909991
0.382289857 0.324225366 0.184946269
0.411764979 0.320304006 0.177609280
0.444402456 0.324098855 0.170904696
0.479822487 0.334345043 0.160404533
0.507146895 0.352561831 0.163440913
0.539531887 0.368248284 0.168880492
0.570145667 0.381657481 0.170524821
0.600632548 0.392156959 0.169386163
0.640101016 0.398229003 0.175458953
0.676533699 0.404047996 0.178747624
0.712966442 0.404174745 0.179506496
0.747375250 0.402530462 0.178747624
0.778368533 0.402656943 0.176597446
0.817836940 0.405692548 0.185705066
0.850221515 0.411258519 0.194560289
0.878937602 0.415686190 0.197722808
0.905755997 0.418469518 0.196331069
0.930043936 0.418469518 0.199367464
0.962682009 0.423909009 0.197216675
0.985452235 0.427957237 0.208728209
0.996710598 0.430993378 0.223908603
1.000000000 0.434028983 0.226818502
0.267172605 0.385831743 0.297785997
0.273371130 0.385958254 0.300822347
0.280328751 0.384693086 0.301707745
0.292219877 0.385452181 0.306515008
0.305629402 0.388741612 0.316255748
0.314231753 0.389247656 0.317773700
0.325363725 0.389753729 0.304110944
0.339531720 0.394054621 0.292346567
0.357748061 0.395825505 0.269829273
0.382036865 0.391018093 0.248197332
0.406324863 0.379000604 0.230107859
0.423529506 0.359772503 0.203795105
0.447438627 0.352435231 0.190512359
0.478810906 0.354711920 0.180897906
0.516761243 0.367615700 0.178621292
0.544085622 0.385831863 0.181657076
0.579506695 0.398482174 0.184186995
0.612397432 0.409234852 0.184439853
0.642757893 0.419860899 0.190512076
0.679443598 0.431498885 0.193801492
0.710183620 0.437823862 0.191144869
0.744592130 0.438836008 0.191144869
0.780518651 0.438709527 0.193801492
0.808855057 0.436179817 0.191777110
0.843769968 0.441492736 0.194054008
0.874762952 0.446173429 0.201264799
0.904111266 0.448197663 0.206324935
0.933206856 0.445793867 0.214168325
0.965464592 0.448450714 0.219860867
0.988235295 0.454269737 0.221125945
0.998987854 0.456673265 0.232890710
1.000000000 0.455660880 0.241998866
0.312713236 0.428336501 0.320050240
0.320809484 0.428336501 0.329158902
0.324857742 0.430234253 0.332068235
0.334724903 0.427197844 0.333333403
0.350284755 0.430613786 0.342441797
0.364326417 0.432258487 0.356736511
0.369892746 0.432258487 0.343579859
0.378747761 0.433902770 0.331435502
0.390891850 0.438077241 0.315117121
0.411385477 0.436306000 0.292093515
0.433649749 0.432637513 0.275648236
0.449841768 0.420493484 0.253384233
0.464263231 0.396964103 0.223023474
0.489437044 0.386337727 0.207463503
0.525363386 0.386084795 0.199114665
0.559266269 0.403035998 0.202909693
0.588108480 0.415180385 0.198355511
0.624794483 0.424415231 0.198228925
0.654902279 0.436559290 0.205692247
0.682479441 0.448703289 0.206957340
0.713219464 0.460847259 0.206198752
0.742568076 0.468184382 0.204301253
0.779759765 0.471347004 0.210120246
0.810879111 0.472106427 0.208981603
0.840733826 0.471853524 0.208222508
0.874130666 0.473750830 0.212397173
0.905123293 0.476027966 0.219987512
0.935483575 0.477545798 0.224541694
0.968501031 0.475775093 0.228968978
0.989500225 0.478811026 0.238582939
1.000000000 0.483744591 0.242378324
1.000000000 0.482985497 0.251107007
0.359392554 0.469702631 0.350410908
0.365085304 0.470841289 0.356862754
0.375585049 0.474130392 0.365971148
0.383681417 0.473498106 0.369006813
0.397343725 0.470461726 0.372422636
0.411764652 0.471979916 0.389879942
0.418469608 0.474762976 0.387349635
0.422011644 0.475268900 0.371283919
0.431878746 0.478304744 0.358380824
0.447818100 0.478684306 0.337887436
0.465401858 0.476407290 0.316761404
0.482859284 0.474003643 0.298924625
0.495003283 0.460721284 0.272359639
0.512713253 0.433396906 0.242757887
0.539911032 0.418975532 0.227957293
0.571030736 0.418975264 0.221125990
0.602909625 0.432257742 0.223782644
0.633902192 0.439595491 0.212903649
0.667299271 0.451739669 0.219481319
0.693484962 0.462745011 0.220240280
0.719671011 0.474889308 0.220619738
0.748007238 0.488045156 0.219608128
0.781151354 0.497406483 0.225427121
0.813535929 0.502466917 0.226438984
0.842378557 0.504364610 0.226438984
0.871853650 0.505249977 0.228336662
0.905250072 0.502213717 0.236432940
0.936242640 0.506388247 0.237065345
0.969259858 0.506767809 0.240860447
0.991397977 0.504997015 0.246932238
1.000000000 0.508032680 0.259961873
1.000000000 0.511069000 0.264010280
0.407970041 0.509424090 0.394434035
0.408729017 0.512207448 0.392409712
0.420367062 0.517141104 0.398861527
0.437318236 0.518659115 0.407969862
0.451233536 0.512713552 0.412144065
0.454269171 0.509677172 0.418216079
0.460088700 0.514737070 0.423782051
0.466034412 0.517014086 0.419354767
0.471347153 0.517773151 0.403668970
0.492599517 0.520809531 0.388488561
0.504870117 0.515117049 0.359772325
0.521568596 0.514610827 0.339278847
0.538267076 0.512080669 0.319671065
0.549652100 0.496901035 0.289058030
0.561796069 0.469576657 0.267805666
0.584186792 0.450854242 0.247691482
0.612017393 0.445793867 0.237824187
0.643010557 0.454775155 0.239722043
0.676406980 0.466919959 0.233650029
0.704490423 0.476533711 0.232890993
0.731815219 0.487033457 0.234788314
0.759898961 0.499936908 0.237318128
0.790006042 0.514989972 0.240480989
0.820113838 0.524224937 0.243643135
0.846679568 0.529285252 0.244655073
0.872612655 0.533080339 0.246552676
0.900190055 0.535357058 0.249335974
0.933586419 0.532321393 0.252371579
0.965970755 0.534092188 0.257558614
0.989247143 0.533839226 0.263377964
1.000000000 0.532827377 0.272106588
1.000000000 0.535863042 0.287286997
0.456546783 0.551928759 0.421758413
0.465654403 0.551928759 0.430866778
0.468564123 0.554712117 0.428842425
0.479822963 0.557115853 0.435293972
0.493864805 0.555091798 0.445919931
0.499810308 0.549146295 0.460720807
0.507906556 0.558760226 0.461732805
0.522960484 0.559772193 0.461353511
0.533586383 0.557242155 0.451233685
0.532067895 0.560277820 0.430993319
0.541682243 0.554585338 0.412903070
0.561543345 0.550537646 0.392156780
0.583428442 0.549905241 0.375711560
0.601265192 0.545477748 0.355850726
0.604300797 0.530297399 0.322454393
0.611637771 0.502972960 0.291588008
0.628209770 0.484250605 0.265907854
0.652118981 0.477925390 0.253004551
0.685515404 0.482100368 0.254902393
0.716129184 0.494244426 0.251613051
0.743959606 0.501960814 0.253004730
0.771284103 0.511321962 0.254016668
0.799114466 0.524098396 0.252624989
0.823403239 0.536242425 0.258696973
0.855787694 0.545477271 0.261859685
0.885894895 0.554711938 0.267046124
0.914610684 0.562934399 0.273370981
0.939658403 0.562681437 0.273623943
0.962428808 0.559645772 0.274003386
0.986211181 0.559645832 0.277039766
1.000000000 0.560784400 0.284250587
1.000000000 0.566223800 0.299430996
0.509930551 0.589626551 0.446679592
0.519038796 0.584819615 0.462998182
0.519544423 0.586970389 0.469955772
0.529664755 0.590006411 0.472738713
0.545224547 0.591144800 0.482226402
0.547248542 0.589120805 0.487286508
0.560657859 0.588614762 0.494623601
0.566476822 0.594180763 0.501201570
0.580898166 0.591903925 0.498165756
0.584693253 0.594939947 0.478558093
0.585958242 0.594054401 0.460214823
0.593042374 0.590006113 0.437950611
0.613915443 0.588108778 0.416698307
0.634661853 0.587602794 0.397722781
0.646299958 0.578874230 0.377229393
0.654142559 0.558886766 0.346236765
0.661732793 0.536116600 0.315876365
0.677292764 0.518153250 0.288804680
0.701833963 0.505249977 0.270588160
0.730044544 0.507021010 0.272865415
0.756609797 0.517267704 0.269829035
0.783428133 0.525869787 0.271853328
0.810626030 0.537760794 0.271979779
0.834914804 0.545350790 0.278051794
0.856926203 0.555218101 0.281847060
0.887033641 0.565717757 0.283491790
0.916381955 0.577355862 0.289563537
0.944465697 0.583048582 0.295255780
0.966097593 0.582795620 0.290448785
0.983807564 0.586844027 0.295761973
0.996710837 0.589626968 0.303605378
0.995193005 0.594180763 0.318785787
0.558507383 0.621505141 0.484630167
0.564579308 0.619987369 0.495256364
0.572675765 0.618848979 0.506388187
0.574699402 0.621885002 0.503605366
0.593801260 0.624161720 0.513346136
0.598355532 0.623023391 0.524731159
0.607969463 0.623023391 0.529791176
0.622643828 0.624541163 0.536116540
0.626438558 0.623782277 0.542947471
0.637065113 0.625300646 0.527008355
0.634535193 0.623908997 0.505755603
0.640101373 0.624921143 0.492599368
0.647311985 0.621884763 0.471726716
0.666287422 0.621252179 0.447564572
0.680202603 0.616445363 0.423529327
0.692093551 0.607463539 0.397849172
0.699683368 0.587729335 0.369006962
0.708159149 0.568880796 0.340417624
0.722833216 0.545477629 0.307020634
0.740290880 0.531309187 0.290322334
0.768754184 0.532447755 0.291081458
0.795066476 0.540543973 0.289057195
0.822770357 0.551676035 0.291587502
0.847058833 0.560531378 0.296268165
0.870588422 0.567362487 0.300063074
0.894623816 0.573687553 0.303099453
0.921442151 0.585452139 0.304744065
0.949778676 0.595572650 0.313851923
0.970651805 0.601265013 0.314231187
0.986843944 0.605060041 0.317014366
0.997596204 0.614168406 0.325237185
0.995193005 0.618469179 0.338519990
0.600379527 0.648829520 0.531815112
0.606577873 0.651865959 0.536116481
0.614168048 0.652118981 0.544085920
0.624414980 0.652751386 0.544971287
0.633902192 0.656546116 0.533966124
0.646046996 0.654522479 0.563314080
0.654395819 0.652118981 0.571536720
0.668057799 0.653130829 0.580771506
0.680961132 0.655281067 0.585578978
0.687033057 0.652245462 0.576470613
0.680834711 0.649841666 0.553446949
0.684250414 0.650853813 0.540670097
0.693358600 0.652245522 0.529917479
0.702466965 0.649462104 0.513725102
0.714231491 0.646805942 0.478431553
0.726375520 0.642504752 0.451106846
0.736748695 0.635041118 0.423149467
0.741555691 0.617457569 0.394560128
0.747627735 0.596205056 0.361163646
0.755850494 0.572169363 0.329917520
0.776344001 0.559266150 0.312207133
0.804807246 0.558127582 0.310309559
0.834788442 0.564073026 0.310436070
0.858570576 0.574699759 0.313472450
0.882858932 0.582922399 0.315875858
0.909171641 0.587602913 0.320176810
0.935484052 0.591650665 0.322707146
0.959645569 0.603668869 0.331436008
0.977988660 0.615053713 0.336495697
0.991397977 0.622390568 0.342441142
0.999367416 0.628083169 0.350031555
0.999367416 0.637191594 0.356103569
0.639847994 0.676154017 0.562175989
0.658064783 0.679190457 0.571284413
0.664263129 0.677925289 0.582036972
0.669323027 0.676407039 0.586337984
0.676407039 0.677798569 0.582543015
0.688551903 0.686906874 0.600758970
0.693105698 0.679822683 0.602277279
0.706514657 0.676406980 0.613156676
0.723465979 0.676659942 0.628589869
0.729537964 0.676533520 0.631119490
0.721062839 0.676407039 0.610373139
0.722327948 0.678178310 0.596963644
0.729791343 0.680076063 0.583554387
0.738899052 0.679823041 0.562301993
0.748007476 0.679822922 0.534977615
0.759772003 0.672359228 0.514105022
0.771916389 0.666793227 0.489057571
0.781024933 0.659962416 0.458317459
0.781024933 0.644782007 0.424921006
0.787096918 0.620746255 0.391524613
0.802909732 0.600253046 0.360278487
0.824921131 0.586590886 0.339531869
0.846932471 0.579253495 0.331688523
0.868184865 0.582289875 0.334724903
0.891966999 0.590638697 0.335483998
0.919038355 0.596710742 0.339911610
0.947628021 0.600759089 0.346995980
0.968880415 0.609867454 0.346995980
0.985072792 0.627197981 0.355724156
0.995193005 0.637570918 0.362554967
0.999114394 0.642757535 0.367994636
0.996331036 0.646300018 0.371284008
0.696015120 0.700695753 0.603668749
0.700316548 0.703731418 0.612777174
0.709930778 0.702466786 0.615433753
0.713598907 0.701960564 0.621252596
0.718532324 0.703098893 0.622011423
0.728273273 0.702593267 0.635420382
0.737887681 0.699051321 0.643517077
0.744718373 0.695129693 0.644529045
0.758380473 0.698165715 0.654396057
0.766476691 0.706261754 0.657432258
0.771916270 0.700695753 0.667805254
0.768880367 0.702719450 0.646552861
0.770018995 0.704617023 0.629854441
0.772043049 0.704364061 0.609361053
0.776090801 0.701834381 0.594687104
0.787602961 0.694623590 0.569765866
0.799747050 0.693105400 0.547754765
0.811891317 0.692599654 0.519291759
0.820493400 0.681720793 0.485894769
0.828842759 0.669322968 0.458064377
0.834914804 0.645034730 0.428463042
0.846679389 0.624035656 0.398987889
0.858950019 0.607843220 0.376849771
0.877546251 0.600252926 0.355977297
0.905629337 0.605566025 0.352182388
0.929538012 0.614167988 0.355344683
0.953700125 0.620493412 0.363440752
0.972675800 0.627324462 0.365718007
0.985958338 0.633776009 0.373687834
0.995698988 0.642631233 0.384566665
0.998229027 0.650347948 0.390891731
0.993295372 0.660974383 0.392030388
0.742314696 0.721188962 0.642378449
0.743453383 0.726122379 0.651486337
0.752435446 0.722959697 0.650348008
0.753447473 0.724984109 0.650348008
0.756862760 0.727766871 0.654648840
0.772043109 0.721694887 0.669829249
0.773561001 0.719923973 0.676913381
0.782669425 0.718785703 0.682985723
0.793295264 0.719038725 0.689310551
0.804680705 0.726628721 0.696900904
0.808981478 0.727007985 0.699177742
0.809108198 0.725110471 0.694750249
0.807969570 0.727007747 0.675774813
0.805692673 0.726501763 0.656293452
0.810373068 0.721821368 0.640860438
0.818722308 0.721568644 0.626691818
0.830866694 0.713978469 0.602403462
0.841113269 0.716634929 0.578747869
0.849462450 0.710056901 0.550410986
0.860721111 0.703858495 0.518785536
0.869829476 0.691713750 0.493358493
0.873877466 0.668437600 0.461986095
0.878431439 0.647185206 0.428589433
0.893105745 0.630992770 0.395445704
0.910942733 0.619987488 0.379126996
