Assets/Shaders/EldamarStudio/100 Sci-Fi LUTs Pack/LUTs/cube/Horizon LUT.cube
LUT_3D_SIZE 5
DOMAIN_MIN 0.000000 0.000000 0.000000
DOMAIN_MAX 0.903226 0.903226 0.903226
0.003922000 0.000000000 0.078431003
0.248829693 0.022896998 0.091840707
0.498291969 0.088930994 0.104616992
0.748387098 0.161923125 0.120683126
0.963820636 0.240733802 0.155597836
0.146236688 0.253763378 0.208602399
0.262871414 0.262239397 0.165717706
0.490449220 0.314484388 0.142188296
0.742567956 0.338013977 0.158253998
0.964705467 0.366476864 0.191271529
0.456546783 0.551928759 0.421758413
0.522960484 0.559772193 0.461353511
0.604300797 0.530297399 0.322454393
0.771284103 0.511321962 0.254016668
0.962428808 0.559645772 0.274003386
0.780771255 0.742441118 0.680835247
0.816065848 0.739025712 0.715370238
0.846173286 0.742694259 0.687666118
0.904237986 0.712966144 0.529791296
0.994939983 0.655408144 0.412903130
0.959645987 0.835420787 0.880075991
0.973814070 0.834408700 0.883997619
0.988994360 0.836053371 0.909297585
0.997976005 0.835420787 0.853383839
0.992030203 0.815812826 0.741555810
0.001644708 0.198481694 0.302087426
0.245540693 0.007210997 0.286021709
0.502846420 0.050727282 0.284756690
0.735610247 0.117014587 0.284376830
0.959139764 0.215812996 0.294623703
0.000000000 0.305376410 0.274636418
0.235420391 0.280202687 0.284756690
0.487792820 0.297153711 0.285009414
0.735990107 0.319418103 0.292346388
0.964705884 0.358001381 0.317647010
0.393674821 0.545351267 0.415559679
0.501328528 0.546363115 0.468184412
0.582669258 0.528020084 0.397217095
0.760784328 0.530550122 0.358001113
0.960531235 0.554079711 0.374446511
0.774193287 0.746236145 0.685641646
0.807210684 0.744339108 0.718406141
0.857558548 0.746615946 0.740670502
0.895762384 0.715243399 0.575205684
0.993674815 0.670462132 0.482352942
0.965971053 0.837444842 0.881720722
0.975585103 0.837697923 0.893864870
0.993801355 0.838330269 0.912839890
0.998735070 0.834028959 0.875395358
0.997343183 0.820998967 0.771030784
0.000000000 0.423782796 0.567615747
0.000000000 0.243643105 0.542061806
0.503478765 0.059582397 0.497659385
0.742820859 0.113472544 0.497912675
0.959139347 0.173308238 0.491713971
0.000632584 0.556483209 0.551170409
0.001644708 0.449209392 0.537507832
0.508412540 0.280834705 0.495888680
0.737634420 0.292599559 0.490069687
0.954965055 0.309297979 0.488424987
0.007210577 0.561036944 0.488551378
0.255408108 0.545983851 0.486401379
0.498291969 0.508032382 0.487792790
0.737887561 0.514610946 0.503858209
0.959266186 0.526375532 0.511954427
0.600506127 0.722706676 0.627703846
0.674256861 0.727008283 0.661100626
0.830107510 0.738772869 0.753953278
0.861100852 0.715243220 0.667678893
0.980392039 0.697912693 0.616571367
0.936748564 0.842631400 0.886021376
0.960404515 0.842631161 0.884250522
0.996837437 0.839974582 0.927134633
1.000000000 0.840354323 0.928905785
0.999367416 0.826312602 0.826438785
0.003922000 0.588488281 0.793548346
0.002277292 0.523718953 0.789500117
0.148007467 0.226944834 0.760531247
0.747375250 0.128526121 0.703226149
0.959519088 0.182163104 0.701707959
0.000000000 0.665907562 0.794687092
0.000000000 0.616192579 0.783934236
0.130170628 0.385199279 0.762302399
0.738899231 0.297786295 0.701454580
0.954332471 0.311574847 0.708159447
0.000000000 0.793042302 0.794181108
0.161796182 0.776723385 0.796457827
0.465148181 0.654522240 0.769007266
0.740923226 0.499177545 0.699051261
0.949398816 0.493611574 0.700316429
0.397470117 0.748260140 0.714990139
0.461479932 0.746615827 0.711701572
0.605313122 0.724478245 0.718532383
0.765085280 0.677672148 0.707147121
0.960151792 0.684503198 0.719291270
0.771916270 0.841112912 0.822517395
0.804553986 0.839974761 0.826312304
0.913092613 0.839721680 0.878810763
0.995698869 0.844275653 0.964073300
1.000000000 0.830866635 0.900822103
0.000000000 0.704743981 0.961036921
0.002656833 0.671347141 0.965971053
0.002656833 0.530297220 0.959771931
0.570398390 0.293990910 0.939658582
0.963820636 0.193547979 0.915496767
0.001265167 0.743959546 0.965211689
0.000000000 0.719797671 0.962049067
0.004933705 0.609993815 0.961796284
0.569513083 0.405060083 0.940164208
0.954711795 0.312207550 0.910183787
0.323339581 0.841998816 0.966223776
0.372169405 0.818468988 0.965591431
0.438456565 0.752435327 0.961669505
0.602656662 0.592030227 0.944086194
0.952055633 0.500821948 0.904237449
0.587349772 0.891334653 0.958127975
0.645034611 0.886400819 0.960784256
0.748387098 0.876913130 0.975078940
0.812776566 0.792409956 0.960151672
0.963187814 0.665275276 0.913852096
0.668437779 0.873371005 0.913978636
0.695129573 0.868437827 0.918026567
0.775458634 0.862365425 0.915369809
0.883618116 0.848197222 0.934724867
0.982036591 0.817204118 0.925742924
