Assets/Shaders/EldamarStudio/100 Sci-Fi LUTs Pack/LUTs/cube/Janet LUT.cube
LUT_3D_SIZE 8
DOMAIN_MIN 0.000000 0.000000 0.000000
DOMAIN_MAX 0.903226 0.903226 0.903226
0.000000000 0.000000000 0.000000000
0.077166550 0.013282998 0.011765000
0.177862093 0.043896098 0.024288097
0.294876635 0.059455995 0.041492999
0.464136571 0.058823999 0.074257180
0.679190159 0.004048004 0.109550990
0.899177551 0.000000000 0.145730570
0.996078014 0.001265167 0.204174638
0.032511450 0.094370544 0.074383095
0.073624097 0.106135547 0.053636551
0.167615205 0.129664540 0.061859902
0.296015292 0.150031552 0.069702893
0.470082104 0.146995455 0.096647732
0.685642004 0.116635360 0.130676985
0.906135559 0.016192358 0.170398548
1.000000000 0.001517999 0.209614441
0.092979193 0.238204092 0.195066094
0.144718274 0.244022727 0.209108084
0.220746294 0.244402200 0.170777991
0.334977567 0.237697646 0.144465551
0.518279433 0.272739023 0.167615294
0.733459890 0.257811189 0.184819996
0.934345305 0.232131720 0.218595907
1.000000000 0.227197915 0.259455800
0.311574847 0.401518285 0.337001920
0.377735287 0.407084286 0.369513184
0.455281377 0.412650257 0.381530881
0.508285820 0.397469908 0.292726278
0.618596017 0.345856816 0.243643180
0.792663097 0.382669121 0.261353374
0.961922586 0.387349635 0.282099634
0.996964037 0.393422097 0.323213279
0.667805314 0.573561192 0.520809591
0.718532681 0.576597154 0.552561700
0.794307470 0.582922399 0.602530181
0.815812945 0.577862024 0.550916910
0.849335551 0.543706357 0.437191546
0.898924887 0.451992393 0.343453646
0.991018176 0.491208196 0.375964552
0.997216642 0.540164351 0.424288183
0.936875522 0.703605235 0.730929732
0.945856929 0.708918750 0.737507999
0.969386697 0.715116739 0.760784328
0.991904020 0.720682740 0.788361549
0.993927717 0.711195767 0.731056452
0.998102248 0.679822743 0.620746195
0.996711016 0.580518484 0.497153461
0.998734832 0.618848562 0.544338703
0.993801296 0.795699239 0.844401956
0.998102307 0.796710849 0.857811570
0.997722745 0.801897585 0.865907550
1.000000000 0.803035915 0.890954912
0.999240875 0.805060267 0.879443586
0.999620438 0.800632775 0.846426547
0.996078014 0.780645251 0.775331855
0.997343183 0.709044993 0.674256504
0.998734832 0.851106822 0.941555798
0.999620438 0.859835565 0.949399233
0.998102307 0.860847592 0.949020028
1.000000000 0.862871826 0.958380818
0.996457875 0.861353636 0.961037338
0.998734832 0.862239242 0.956356704
0.994180799 0.863503814 0.926755250
1.000000000 0.848449945 0.901074946
0.000000000 0.077546000 0.144971088
0.063883543 0.011385452 0.134345546
0.174319640 0.028968999 0.142568082
0.295635641 0.055281546 0.158633545
0.461227357 0.021885268 0.178368255
0.674510002 0.001897740 0.195572540
0.885009527 0.001897740 0.217204243
1.000000000 0.000000000 0.256546825
0.000000000 0.149652094 0.144971088
0.015306547 0.134725094 0.150031552
0.169892296 0.124984540 0.161037445
0.295635641 0.130044192 0.162935093
0.468563944 0.128273338 0.187223077
0.669196725 0.087033562 0.202909291
0.879316807 0.000000000 0.229854524
1.000000000 0.000379548 0.256799638
0.000759101 0.242125094 0.184820086
0.098545089 0.241366178 0.212650552
0.200758740 0.246047094 0.220873103
0.322833836 0.254649073 0.217457548
0.502086997 0.262998462 0.224667996
0.721568823 0.240860626 0.243643090
0.926249325 0.209234908 0.263251305
0.998734832 0.202277020 0.297027200
0.234534994 0.389500022 0.321315736
0.307400197 0.392662913 0.343200803
0.424414814 0.401644349 0.398355454
0.476534188 0.388741016 0.328020245
0.592915952 0.352055609 0.281847179
0.773687363 0.380391926 0.305123419
0.940543830 0.377609164 0.320936084
0.996837080 0.372548997 0.352435082
0.597343326 0.561922967 0.492599368
0.655154586 0.561037362 0.522707164
0.748892963 0.568880379 0.580012739
0.802403092 0.571663678 0.578115284
0.839089394 0.533206820 0.462491989
0.881340504 0.454016626 0.371663511
0.987729192 0.491713911 0.406957716
0.998734832 0.538013697 0.452245384
0.906009018 0.699177802 0.699430585
0.929538488 0.696647286 0.719165266
0.955850840 0.706514895 0.748134375
0.987855971 0.714357793 0.787602603
0.985831738 0.703352571 0.738393009
1.000000000 0.672612250 0.641492605
0.997975767 0.579000354 0.520303726
0.996837080 0.626945019 0.558380961
0.998355269 0.785704851 0.837950587
0.999620438 0.796331286 0.839974582
1.000000000 0.794813454 0.862998068
0.999240935 0.798735023 0.882226646
0.997975707 0.807842851 0.888045549
0.996963978 0.793169260 0.842124939
0.996204972 0.777482271 0.781151116
1.000000000 0.705629349 0.676281035
0.997090399 0.850474298 0.928146362
0.996078014 0.861606658 0.935610235
0.997722745 0.860847652 0.943959653
0.996710896 0.859835565 0.953700066
0.998861313 0.864262819 0.962428570
0.998355269 0.862998366 0.956103623
0.992915928 0.858443975 0.928652763
1.000000000 0.848449945 0.892346799
0.000000000 0.180139184 0.297660083
0.000379549 0.110436194 0.301960737
0.162935004 0.021125998 0.281214207
0.293611377 0.038077451 0.284377098
0.470588267 0.017583912 0.308792114
0.676027834 0.000000000 0.324478120
0.894370556 0.000000000 0.339278907
0.998734832 0.001265167 0.338520199
0.000000000 0.259708703 0.309424192
0.001138547 0.215053648 0.293231815
0.122074187 0.119165003 0.301581293
0.302214205 0.121062547 0.295762539
0.468563944 0.114610903 0.301201761
0.669576287 0.032258272 0.322580665
0.883491278 0.000000000 0.327134669
0.998102248 0.000000000 0.348640174
0.000759096 0.310183167 0.304617286
0.000759096 0.309803724 0.316508293
0.086654186 0.279696196 0.318026185
0.322580278 0.238962993 0.318153203
0.504996657 0.232890815 0.319544405
0.712966263 0.191398099 0.334218860
0.913219273 0.145857096 0.347881019
0.999240935 0.140544176 0.380265832
0.001517998 0.368880391 0.331182361
0.022011366 0.369639367 0.336242825
0.262618572 0.378241360 0.364200085
0.429348558 0.373940736 0.386843413
0.570018947 0.369386524 0.362934917
0.761543214 0.366603374 0.383301735
0.938899398 0.357115567 0.395066530
0.998102486 0.359898567 0.421125650
0.388614655 0.538266957 0.460594445
0.465022087 0.543326914 0.468564004
0.625300705 0.542188346 0.529411495
0.782416403 0.554712296 0.610246480
0.794180512 0.524857521 0.509171247
0.859582305 0.468564183 0.441365927
0.984566450 0.504490972 0.476281077
0.996457875 0.535356998 0.511322081
0.846932352 0.685515642 0.674130201
0.878810883 0.682099938 0.695762336
0.916129172 0.687286377 0.722327471
0.970524967 0.696268022 0.768754065
0.985831738 0.699810266 0.769133687
0.991904020 0.675142646 0.670841217
0.999620497 0.593801260 0.569006860
0.998481989 0.637444675 0.614927351
0.987729192 0.789373934 0.814800680
0.994307280 0.784566283 0.834788263
0.999240935 0.788488090 0.846426427
0.996204734 0.798228979 0.872485876
0.996837080 0.804933548 0.904617310
0.997596204 0.798735261 0.861606717
0.996963978 0.772802234 0.795192659
0.998481810 0.707020938 0.700948477
0.993421853 0.858317554 0.922453880
0.999240994 0.858949780 0.937254488
0.994939864 0.856926024 0.940797091
0.997090399 0.860974312 0.956989169
0.999240935 0.862112820 0.965844035
0.997975767 0.864895880 0.962428808
0.996963859 0.858697057 0.940164804
0.997975767 0.847185135 0.896141887
0.001138644 0.314484626 0.503984928
0.000379548 0.266666651 0.501328409
0.000000001 0.099683724 0.477419645
0.293231934 0.011132005 0.441113293
0.491207927 0.004807003 0.441492647
0.690322816 0.005186648 0.457305640
0.897533536 0.001644712 0.462998271
0.997596204 0.001138644 0.483744413
0.001517999 0.369007081 0.496015012
0.005566002 0.331688732 0.501455069
0.000758999 0.207969636 0.487919152
0.277419686 0.116761193 0.438962728
0.489689916 0.080961809 0.441113293
0.690702319 0.000000000 0.453130931
0.890575469 0.002024260 0.468943805
0.997469962 0.000000000 0.475901634
0.005945550 0.506894290 0.538519859
0.000758999 0.472359270 0.532320976
0.000000000 0.377609074 0.509677529
0.271093816 0.236179635 0.488677621
0.521062732 0.214547649 0.461606473
0.726755381 0.178874195 0.471979707
0.922074676 0.102593370 0.481846899
0.997343183 0.029601548 0.493611664
0.000000000 0.510183632 0.502339900
0.003921904 0.503984928 0.514231622
0.018216383 0.499430746 0.522454381
0.345098197 0.426565617 0.492219925
0.563567400 0.345983475 0.474256814
0.762555361 0.322833389 0.480076164
0.932194829 0.302213967 0.491081566
1.000000000 0.312081277 0.509804308
0.006072189 0.508791685 0.481088161
0.052245375 0.511321783 0.497533262
0.264136285 0.506894350 0.499937057
0.509550571 0.503858328 0.523466170
0.726755261 0.504237831 0.560530901
0.829981029 0.493231952 0.541429341
0.969513237 0.500316560 0.560151398
0.998734832 0.520050347 0.584060788
0.619481146 0.664262712 0.611005545
0.669196725 0.665022016 0.625933230
0.762555480 0.666540027 0.657305479
0.889689803 0.661732852 0.709045053
0.980645120 0.692852259 0.781530917
0.983807445 0.666793346 0.720556617
1.000000000 0.614294767 0.636053205
0.997722924 0.659202874 0.687539637
0.943706274 0.768374622 0.784693182
0.958127677 0.775584877 0.803162515
0.979506671 0.776850045 0.829601526
0.997216642 0.782922029 0.863630593
0.998102367 0.800885260 0.897280216
0.997975767 0.802909493 0.889690280
0.998861372 0.778494656 0.827197909
0.996964037 0.718532443 0.747754931
0.995192945 0.855534792 0.921315193
0.994939804 0.854901910 0.931688845
0.998481989 0.856672823 0.941302896
0.997469962 0.861733198 0.953320444
1.000000000 0.863251269 0.963187695
1.000000000 0.866793156 0.975458622
0.997596204 0.863757193 0.956356525
1.000000000 0.854016662 0.918405950
0.001518192 0.441113204 0.703605354
0.000000000 0.413662285 0.699051201
0.000759096 0.310942262 0.684883177
0.000379548 0.116255641 0.659835398
0.511195540 0.000000000 0.612523377
0.725996375 0.000379548 0.609740376
0.912460327 0.000000000 0.606325269
0.998861372 0.001138640 0.621378958
0.000000000 0.486147732 0.699303925
0.002403808 0.458823740 0.695762396
0.001518095 0.373307824 0.688678265
0.007084098 0.183934271 0.663630366
0.496268362 0.043264080 0.615812540
0.717520654 0.000379548 0.601391733
0.901075006 0.001518192 0.609866977
1.000000000 0.000000000 0.612270832
0.001517998 0.588488281 0.711195588
0.004807003 0.562681973 0.722074747
0.002403807 0.492852479 0.717900038
0.000000000 0.339658558 0.678810716
0.504111290 0.208475992 0.634788156
0.746362805 0.133459717 0.616571426
0.925110579 0.038583200 0.620620012
0.998481989 0.019734377 0.627198040
0.000379548 0.710816026 0.729538381
0.005945647 0.707780004 0.736116052
0.002403833 0.655914068 0.720050454
0.213029832 0.529664576 0.708665848
0.508665323 0.363441199 0.658064425
0.772042692 0.300063074 0.622517645
0.941935480 0.282352835 0.619861007
0.998861372 0.281087905 0.619101703
0.000000000 0.678558171 0.685515583
0.059582360 0.681214154 0.688677728
0.293611914 0.668564141 0.703226030
0.514231324 0.652118981 0.692726195
0.679569721 0.561163962 0.691208184
0.823656082 0.456546634 0.643263876
0.961669862 0.457558453 0.637824357
0.997343183 0.471094221 0.655787408
0.369133562 0.656799436 0.662365377
0.409361124 0.653637052 0.659076393
0.499683797 0.646426380 0.660973907
0.617963374 0.634281933 0.658317447
0.787349999 0.618975282 0.682732522
0.938392997 0.635167718 0.731056273
0.990259111 0.631246030 0.710183203
1.000000000 0.656546474 0.730297267
0.785578668 0.752434969 0.745224595
0.808854997 0.754332721 0.750158012
0.871220827 0.755597472 0.773434460
0.937507987 0.759392679 0.800126314
0.992156982 0.772675514 0.844022632
0.996078014 0.802529991 0.908285975
1.000000000 0.776723266 0.849588990
0.997975767 0.738013804 0.795951664
0.989627004 0.850600719 0.893231928
0.995445788 0.851486444 0.897659600
1.000000000 0.847311974 0.917773366
0.997723043 0.851739347 0.935104311
0.995193005 0.864389658 0.961923242
0.994939804 0.869955719 0.979253650
0.999240935 0.864895880 0.968374431
0.998481810 0.857937992 0.937887490
0.000000000 0.534851730 0.836559176
0.000000000 0.514484704 0.842251897
0.001517998 0.453383595 0.836685717
0.000000000 0.315369844 0.822138011
0.116761558 0.135483891 0.795446098
0.706894159 0.002024260 0.746110201
0.903732002 0.003542452 0.743326724
1.000000000 0.001265167 0.758001208
0.001518192 0.566223919 0.836053252
0.000379548 0.545856953 0.838709474
0.001138644 0.489310533 0.830993056
0.001518192 0.361923188 0.820620120
0.077039830 0.188235521 0.797343552
0.703352273 0.000000000 0.748640001
0.904870272 0.000379548 0.738267064
1.000000000 0.002024260 0.750917077
0.003415642 0.642631173 0.846173763
0.000000000 0.623023272 0.842757821
0.002024259 0.576723337 0.831625760
0.000379548 0.475268632 0.828336596
0.069070190 0.303985089 0.809740663
0.713219762 0.149778709 0.762681782
0.922201037 0.016698282 0.752941191
0.995066404 0.008096172 0.762049198
0.002024260 0.744465232 0.853257418
0.003542355 0.730423331 0.854648948
0.077419378 0.684124053 0.836306214
0.111574925 0.602656484 0.836053371
0.313093096 0.462239265 0.822517633
0.720683098 0.327007949 0.770145476
0.932194531 0.254648715 0.760404706
1.000000000 0.248829901 0.760404766
0.159392655 0.808096051 0.838456631
0.262112111 0.807842910 0.853257596
0.463251203 0.800506055 0.855407834
0.607969642 0.749651790 0.844781637
0.691966832 0.645287931 0.832890630
0.769765913 0.493485183 0.784440458
0.963061273 0.429222286 0.767741919
0.998481810 0.445540458 0.760531306
0.560910702 0.782036722 0.824920774
0.590765357 0.779506564 0.826059520
0.664389670 0.779253423 0.835167766
0.743073761 0.764199972 0.835167706
0.836432874 0.756862521 0.836306155
0.910942733 0.683744729 0.830992997
0.986843526 0.593674719 0.776597023
0.996204793 0.602909684 0.779127181
0.644528866 0.753700018 0.778368235
0.663756788 0.754332542 0.784819722
0.708665371 0.748386979 0.787476420
0.763061523 0.743326962 0.786970139
0.837571263 0.729411542 0.791144967
0.951929271 0.728652358 0.805819094
1.000000000 0.755850852 0.858064532
1.000000000 0.749019504 0.843516648
0.892473042 0.835546970 0.850221634
0.909297824 0.833776116 0.860721111
0.934092104 0.837444603 0.870461702
0.975584805 0.838962674 0.893864691
1.000000000 0.845919967 0.921315312
1.000000000 0.859076619 0.963693798
1.000000000 0.869955719 0.991777301
0.996204972 0.860341787 0.954458833
0.005566292 0.601264954 0.935230970
0.002277288 0.588740945 0.944338799
0.000759096 0.544718504 0.935990095
0.004427649 0.460088581 0.937508285
0.003035997 0.283870995 0.929538190
0.438077092 0.130044386 0.902213693
0.879949272 0.000000000 0.869196534
1.000000000 0.000000000 0.862744987
0.001897740 0.622011542 0.928526461
0.000379548 0.607842803 0.934471965
0.005186744 0.569892287 0.932321131
0.000000000 0.491081446 0.927134335
0.001518192 0.336748809 0.919418216
0.436558902 0.190006524 0.899051309
0.873877525 0.003542452 0.859835684
0.998734832 0.001265167 0.862744987
0.001644712 0.679570079 0.937760949
0.001644712 0.669829369 0.936116338
0.001644712 0.633270144 0.937507927
0.004680902 0.566730082 0.935104191
0.000000000 0.437191576 0.932068050
0.455914140 0.293358743 0.909550846
0.885135651 0.055660911 0.875395298
0.998481989 0.006451742 0.869449973
0.052878179 0.762049258 0.941935658
0.057685010 0.750537753 0.934724927
0.080455475 0.725869536 0.935483754
0.110942647 0.663503885 0.931435645
0.247311771 0.569386542 0.928779244
0.517646909 0.415053397 0.912966549
0.886780560 0.285895288 0.874383211
0.998861372 0.238709718 0.873877048
0.462112665 0.849968314 0.950538039
0.513725221 0.841998935 0.951929271
0.599746943 0.816825092 0.946869075
0.681467116 0.775837719 0.942694664
0.705502689 0.698418975 0.934597969
0.724098802 0.581530631 0.913852096
0.911448538 0.462239385 0.882479548
1.000000000 0.419734448 0.880075991
0.712081015 0.864009976 0.937001705
0.729411781 0.867172956 0.939026058
0.780771613 0.857431889 0.939278841
0.825174093 0.855408072 0.941049814
0.877040029 0.830613613 0.945224404
0.909044981 0.751549244 0.935230970
0.959139585 0.622517467 0.910942435
1.000000000 0.579506695 0.894496799
0.783175290 0.848956585 0.908412576
0.802150249 0.846299767 0.904111087
0.829601645 0.847438335 0.920176983
0.867552280 0.839974642 0.920682847
0.913219571 0.836558998 0.931182623
0.955344737 0.830613732 0.922707260
0.995066285 0.782922029 0.922454238
0.996457577 0.714737415 0.885515571
0.834788263 0.842757821 0.890954971
0.851865828 0.842251480 0.901075423
0.861606777 0.839468658 0.899683535
0.886401057 0.836812019 0.902213693
0.915243626 0.833270192 0.901201546
0.958000779 0.823656261 0.904111505
0.999241054 0.838836133 0.949146032
0.998734832 0.858697057 0.965717971
0.000000000 0.644528985 0.998734832
0.000000000 0.636306405 0.993927538
0.000759096 0.610373139 0.995319128
0.002530012 0.551549554 1.000000000
0.001138640 0.454269588 0.997469962
0.000000000 0.286147952 0.995445728
0.670208633 0.138393104 0.988741100
0.989879668 0.005312988 0.969133615
0.000000000 0.666540265 0.998355269
0.007210821 0.657938302 0.996204793
0.002277285 0.627324522 0.994560480
0.000000000 0.576343894 0.996204793
0.002656546 0.479569912 0.994939983
0.001518192 0.314990550 0.994939983
0.669955850 0.183554858 0.988741279
0.990132689 0.004553989 0.964579225
0.000759096 0.710309923 0.989247024
0.003542452 0.699430704 0.994307041
0.000000000 0.678052127 0.996205032
0.001518189 0.628716111 0.996204913
0.000759096 0.547881007 0.997469962
0.001518209 0.398861438 0.998482049
0.690322638 0.293611556 0.990132868
0.989879608 0.057052061 0.964958966
0.034282073 0.766856372 0.988994300
0.049335729 0.767235696 0.996204793
0.075901188 0.743706644 0.994307041
0.106008805 0.703985035 0.996331334
0.202530295 0.636053145 0.990765214
0.397090554 0.520429969 0.993674815
0.734978080 0.409360796 0.991271436
0.990891874 0.287286401 0.979127109
0.622770488 0.834788144 0.992156625
0.645793736 0.837950587 0.994939983
0.665401876 0.818216383 0.996204793
0.677166402 0.788741171 0.996204793
0.699557364 0.737761021 0.989247143
0.723339498 0.654016554 0.992915750
0.815306842 0.539658606 0.994939983
0.998861253 0.456167191 0.977102876
0.792915642 0.897913039 0.988614917
0.803541780 0.899936557 0.992915809
0.820872784 0.888424993 0.998734832
0.855534613 0.869576097 0.996204793
0.891208053 0.837318182 0.994180977
0.906514883 0.780139029 0.993422031
0.924351275 0.687033653 0.993295252
0.998734891 0.608855426 0.974952579
0.861986220 0.891334534 0.981783509
0.875142694 0.893991232 0.980518758
0.884377122 0.895383000 0.984693170
0.915243685 0.893864691 0.985958338
0.948892951 0.886527836 0.991903961
0.977229536 0.879696548 0.998355329
0.990385771 0.830360293 0.995825231
0.997722745 0.745983243 0.989120662
0.902213991 0.891461194 0.968880653
0.912460387 0.893485129 0.974699676
0.925869644 0.888931155 0.975458801
0.942694843 0.889057636 0.983048797
0.974319816 0.883871198 0.979506552
0.988994241 0.881340921 0.992915690
0.999620497 0.878557861 0.990385950
0.997343183 0.869575799 0.986970186
