Assets/Shaders/EldamarStudio/100 Sci-Fi LUTs Pack/LUTs/cube/Janet LUT.cube
DOMAIN_MIN 0 0 0
DOMAIN_MAX 1 1 1
LUT_3D_SIZE 32
0.000000000 0.000000000 0.000000000
0.015180387 0.003036387 0.006072000
0.034661774 0.006072226 0.005692774
0.055914160 0.009108162 0.006452000
0.077166550 0.013282998 0.011765000
0.098418936 0.025426997 0.011765000
0.127260998 0.029981323 0.016825000
0.154332399 0.036306284 0.021252289
0.177862093 0.043896098 0.024288097
0.199114516 0.046932489 0.027324487
0.237823859 0.049968131 0.033269998
0.267172515 0.053004257 0.037318256
0.294876635 0.059455995 0.041492999
0.328779101 0.070335031 0.047311965
0.368248224 0.067299418 0.050347578
0.412523776 0.061860003 0.060594603
0.464136571 0.058823999 0.074257180
0.519924104 0.054396447 0.086907417
0.568500996 0.033144012 0.089943044
0.622643709 0.014674278 0.098545365
0.679190159 0.004048004 0.109550990
0.738899410 0.000000000 0.122707121
0.802024007 0.000000000 0.137381479
0.850600839 0.000000000 0.140417099
0.899177551 0.000000000 0.145730570
0.949145973 0.000000000 0.157368973
0.992662907 0.000506064 0.174572989
0.995698571 0.003542448 0.186716989
0.996078014 0.001265167 0.204174638
0.997849226 0.000000000 0.218848959
0.999114394 0.000000000 0.230992973
0.996078014 0.000000000 0.243137002
0.003036387 0.015180387 0.012143999
0.021252386 0.018215999 0.012143999
0.038582999 0.027704161 0.016065773
0.052624937 0.034661774 0.013536000
0.066919997 0.039848387 0.013662547
0.101454541 0.046679385 0.026945390
0.117646933 0.051233709 0.019355066
0.143832698 0.059203379 0.024541706
0.171030805 0.067425773 0.029601775
0.199114501 0.068184875 0.030360876
0.226185873 0.071220517 0.036306385
0.263124496 0.076280899 0.040354125
0.298292279 0.080329128 0.045667253
0.337887436 0.085515417 0.053636998
0.377355814 0.082479805 0.059455961
0.414421201 0.079443581 0.069702379
0.462618381 0.075521812 0.080328807
0.516255319 0.072106197 0.091208182
0.562429011 0.060468391 0.099051431
0.627703726 0.036432661 0.110436395
0.679569423 0.015812658 0.116002738
0.732827067 0.004048002 0.122707382
0.790638924 0.000000000 0.131941974
0.856672823 0.000000000 0.149525493
0.907526791 0.000000000 0.154838398
0.955470979 0.001391672 0.166476935
0.995192647 0.003036387 0.182163328
0.995698571 0.003542448 0.186716989
0.998734832 0.003922000 0.206830785
0.999114394 0.001265170 0.216571823
0.999114394 0.000000000 0.229348570
0.996078014 0.000000000 0.252245396
0.012523999 0.038962770 0.030739773
0.022138000 0.037697386 0.030739773
0.036052998 0.045034546 0.026438773
0.056799322 0.050854161 0.024414839
0.069323547 0.056167319 0.018595774
0.093358763 0.071094543 0.026692161
0.118532315 0.072486088 0.038836453
0.140290692 0.077166766 0.028083779
0.168374196 0.086021677 0.034409001
0.198734984 0.087413006 0.039975006
0.228336647 0.092472903 0.047944773
0.259709030 0.095509030 0.049968772
0.297153652 0.100316346 0.052877899
0.338393331 0.103352025 0.059456032
0.377862155 0.104111418 0.063630767
0.421378583 0.101075187 0.070208766
0.460847348 0.096520998 0.085388765
0.512966096 0.092219777 0.093864590
0.563061237 0.084629938 0.096900985
0.621631742 0.068058044 0.110942237
0.680834413 0.039974794 0.121188961
0.732953370 0.016951296 0.126755357
0.788867712 0.004048007 0.134345487
0.849588811 0.000000000 0.150537774
0.904996812 0.000000000 0.163946778
0.953826606 0.000000000 0.171410441
0.992789030 0.001771226 0.185831934
0.996078014 0.001771226 0.192156538
0.996584058 0.001771226 0.206830785
0.999620438 0.001771226 0.217457205
0.998229027 0.000000000 0.227577567
0.993927777 0.000000000 0.254902005
0.023403160 0.066287160 0.051992159
0.028209999 0.065781094 0.053257320
0.038582999 0.067552090 0.047691159
0.051992159 0.075395316 0.040353999
0.076660387 0.071600609 0.031625159
0.095382765 0.083997771 0.032004934
0.118153155 0.095129833 0.041366160
0.140290692 0.099683993 0.049336165
0.168374196 0.105755992 0.042505063
0.198734984 0.109297685 0.054143000
0.229095742 0.115243152 0.057052705
0.261480242 0.119291410 0.061353996
0.296015292 0.123466156 0.062492352
0.335863173 0.126122355 0.065780997
0.377356052 0.127134740 0.069829255
0.420366764 0.125363514 0.076533988
0.468184501 0.122074157 0.084883153
0.512586832 0.117267154 0.101201572
0.566603303 0.112460136 0.100695826
0.625300229 0.098039113 0.110562980
0.678557575 0.079696342 0.123212896
0.733206391 0.051360071 0.134345278
0.790764987 0.026438851 0.143833145
0.849588871 0.007843159 0.155597910
0.903984785 0.000000000 0.165970996
0.947754622 0.000000000 0.175458491
0.988235056 0.000000000 0.186084956
0.996584177 0.000000000 0.197469860
0.997343183 0.000000000 0.208095968
0.997849226 0.000000000 0.222517207
0.999114394 0.000000000 0.229095593
0.993421853 0.000000000 0.254902005
0.032511450 0.094370544 0.074383095
0.035547160 0.096647933 0.077039935
0.044275548 0.098292544 0.071853317
0.057684708 0.100442998 0.063883483
0.073624097 0.106135547 0.053636551
0.100948475 0.097027153 0.047564544
0.126881644 0.107653089 0.050853547
0.147501543 0.120556243 0.055028416
0.167615205 0.129664540 0.061859902
0.197975993 0.135736540 0.070967510
0.229475200 0.142188087 0.067046091
0.261859775 0.146995351 0.067425802
0.296015292 0.150031552 0.069702893
0.333713055 0.155597553 0.073244579
0.379506379 0.152688414 0.079443090
0.422643572 0.150411278 0.086780347
0.470082104 0.146995455 0.096647732
0.521695137 0.143832549 0.105376504
0.573308408 0.143832535 0.114484131
0.632131696 0.131435886 0.121189162
0.685642004 0.116635360 0.130676985
0.735863268 0.099936843 0.142694578
0.790512025 0.075901113 0.157621965
0.850727618 0.038203724 0.163947016
0.906135559 0.016192358 0.170398548
0.953320622 0.004554092 0.177229524
0.982542455 0.002656546 0.183428124
0.997722864 0.002656546 0.201644883
1.000000000 0.001517999 0.209614441
1.000000000 0.005313091 0.223149955
0.999493957 0.009108185 0.240101144
0.996457577 0.009108185 0.255281538
0.041619062 0.127766937 0.104743868
0.044655450 0.124731317 0.104743868
0.049841933 0.129158929 0.100948930
0.060721092 0.132953763 0.096900865
0.076660484 0.136495546 0.093105704
0.097912863 0.139531925 0.074888937
0.130297244 0.132953867 0.073876932
0.152308702 0.137507871 0.069955647
0.169513047 0.145603925 0.067931905
0.191903993 0.156988934 0.077039525
0.230992869 0.165970802 0.083238736
0.264895827 0.174573123 0.087286860
0.298292577 0.178115219 0.089437291
0.333713055 0.176849931 0.088424966
0.385325372 0.176849931 0.097533345
0.428715587 0.178747803 0.098924868
0.477292746 0.176217869 0.108033128
0.530803442 0.170651644 0.120303921
0.582416058 0.165084928 0.126628906
0.634029150 0.162302285 0.135736525
0.687160194 0.151549935 0.144338802
0.738267064 0.138899609 0.152940989
0.790512025 0.124477886 0.160657570
0.845161617 0.106261857 0.169765964
0.896268487 0.082226530 0.178368285
0.947248578 0.059203167 0.188361913
0.988234997 0.038456805 0.197975993
0.994686484 0.023908932 0.201644883
0.999240875 0.015939113 0.211891145
1.000000000 0.031372357 0.227577224
1.000000000 0.056673042 0.245667204
0.999493957 0.081973732 0.258317918
0.053257644 0.166223958 0.130043998
0.056293383 0.163187698 0.130043998
0.070082545 0.164453089 0.140796766
0.080202639 0.167615637 0.141176477
0.094497316 0.169386417 0.140923649
0.113598928 0.172422260 0.127008408
0.134851322 0.172928318 0.101201318
0.163314402 0.166856319 0.094623327
0.184187412 0.169386312 0.088424996
0.208981812 0.177988321 0.095761836
0.237571195 0.184692875 0.096900418
0.279063821 0.197849244 0.107021183
0.315117270 0.206830993 0.112966672
0.350664377 0.208222315 0.113472313
0.395446032 0.208222315 0.120303407
0.447058409 0.208222315 0.124604799
0.492978692 0.209613994 0.126249120
0.547501326 0.206198573 0.137381241
0.606704354 0.202023998 0.149146020
0.655787766 0.196204990 0.155470967
0.709298074 0.187476173 0.160784051
0.762555599 0.176344126 0.167615309
0.815559626 0.165844455 0.173687309
0.865401626 0.154838622 0.180391908
0.917773843 0.141176641 0.191777572
0.958254218 0.126249298 0.202530295
0.993801057 0.109803885 0.213662311
0.997849345 0.102719516 0.218722448
0.998734832 0.102972776 0.229601473
0.998228788 0.108032778 0.242251500
0.998355269 0.132827237 0.261100531
1.000000000 0.159898639 0.276534319
0.068690993 0.204048395 0.160910398
0.075016022 0.199367300 0.160910398
0.090449244 0.200632468 0.165085182
0.104870528 0.204933688 0.176470399
0.115875989 0.205313236 0.179506704
0.129031986 0.205819175 0.172422707
0.154712021 0.207969397 0.152561858
0.175964400 0.207969397 0.135104120
0.199494094 0.198102310 0.120683014
0.225047499 0.196204692 0.118785404
0.255660862 0.203921407 0.122327402
0.284882784 0.211131945 0.120556496
0.322833568 0.226312339 0.129285350
0.359772354 0.234914407 0.133080050
0.407843083 0.243263409 0.141935408
0.457558483 0.241619110 0.145603806
0.509171247 0.238583103 0.148640186
0.559139490 0.239595100 0.154205963
0.619860709 0.239595339 0.169386387
0.674636424 0.230486974 0.169639423
0.722074687 0.223908931 0.175458431
0.777735651 0.214800537 0.180518568
0.832637489 0.207084402 0.187476009
0.879696548 0.199494198 0.196584418
0.930550158 0.188108683 0.202276856
0.972422600 0.180139378 0.215812936
0.997722745 0.172549039 0.227197990
0.999620438 0.169512659 0.233269989
1.000000000 0.175078928 0.246299669
0.999873519 0.181910276 0.261859566
0.997722745 0.197976083 0.276154369
1.000000000 0.220746115 0.292852998
0.092979193 0.238204092 0.195066094
0.101328485 0.235926419 0.195066094
0.117520869 0.234028861 0.200252861
0.135231122 0.239848271 0.203036085
0.144718274 0.244022727 0.209108084
0.151549295 0.240228027 0.209867090
0.173307732 0.242251769 0.196205094
0.197975889 0.244402200 0.182163477
0.220746294 0.244402200 0.170777991
0.241998687 0.223149806 0.149525598
0.271853060 0.224162057 0.148387104
0.301960349 0.228969097 0.146363109
0.334977567 0.237697646 0.144465551
0.365844280 0.252119005 0.147754192
0.417456865 0.268310964 0.158886835
0.468184471 0.272738814 0.165338397
0.518279433 0.272739023 0.167615294
0.571790159 0.267299592 0.172549084
0.626692116 0.272992074 0.187602952
0.682605982 0.264642447 0.185579076
0.733459890 0.257811189 0.184819996
0.781530380 0.250474244 0.191144958
0.838962495 0.247312099 0.200126082
0.885768771 0.241240084 0.211005718
0.934345305 0.232131720 0.218595907
0.974699318 0.224161774 0.224920735
0.999493957 0.222644091 0.239595085
0.999240935 0.220366746 0.246173084
1.000000000 0.227197915 0.259455800
1.000000000 0.235547394 0.277166307
1.000000000 0.245794162 0.292093873
1.000000000 0.264010191 0.304237902
0.135483995 0.265528530 0.222390503
0.141555995 0.274636120 0.222390503
0.154206291 0.272359014 0.233143270
0.169639677 0.274256825 0.241492510
0.184187472 0.283491939 0.242504507
0.196331486 0.274383545 0.248576507
0.208222479 0.275648177 0.239215523
0.224414915 0.278684229 0.226818517
0.245035097 0.280835003 0.213282794
0.272359490 0.280835003 0.195066020
0.293611884 0.262492478 0.176723510
0.321441978 0.255534738 0.167615518
0.358507067 0.258570492 0.166097507
0.405313432 0.270335019 0.172042981
0.441745430 0.276407003 0.178114980
0.486147881 0.285388798 0.186843812
0.531941652 0.295508981 0.191144988
0.580897748 0.303731591 0.193801478
0.641619444 0.300695986 0.205945507
0.693737864 0.298039168 0.209867373
0.743706405 0.296520978 0.208728760
0.793169081 0.292219996 0.209108010
0.845034480 0.280708551 0.215306491
0.896647692 0.274636507 0.221378505
0.943453252 0.268564522 0.232258096
0.979506254 0.263630807 0.241239965
0.999493957 0.262112498 0.248703495
0.996457577 0.268184513 0.260847479
0.998861372 0.273876995 0.272738457
1.000000000 0.280075967 0.290322155
1.000000000 0.288045973 0.307020515
1.000000000 0.300442994 0.313345522
0.175078869 0.304490864 0.261353612
0.181150869 0.313599259 0.261353612
0.195825413 0.316255629 0.261353612
0.214294896 0.314231634 0.272738904
0.232764274 0.318279862 0.283238590
0.247438610 0.316761822 0.299430609
0.262112916 0.315243751 0.287792265
0.277925462 0.321188897 0.278557718
0.296141744 0.325995862 0.265907735
0.317014366 0.325995862 0.243390501
0.341429621 0.311448753 0.225173742
0.360657752 0.295256495 0.206957757
0.388614655 0.286401093 0.197343737
0.427577913 0.285388887 0.195825741
0.466666698 0.288804740 0.196584731
0.507906318 0.302086920 0.200252950
0.560531199 0.312207162 0.208349183
0.612396836 0.322959840 0.214421436
0.659455955 0.331308961 0.224288747
0.709044755 0.333839357 0.225300744
0.760531068 0.329158723 0.228210136
0.809108377 0.326122582 0.228209868
0.856546700 0.320050389 0.230739847
0.899809837 0.316761762 0.242377862
0.942314923 0.312966466 0.253004462
0.978241503 0.307526886 0.262365848
0.999493957 0.303984821 0.268437862
0.996457577 0.307653606 0.275774866
0.998734832 0.311068773 0.287918836
0.998228788 0.316887707 0.303605258
0.997090161 0.324731201 0.318406135
0.997090161 0.336875737 0.322453856
0.230739743 0.348007768 0.296774238
0.240860239 0.353067636 0.296774238
0.253510028 0.351676255 0.304870218
0.272991627 0.355471402 0.309930533
0.293864548 0.357368946 0.323972493
0.310689658 0.355724245 0.338899523
0.333966047 0.359772235 0.343453407
0.347501725 0.361416936 0.329917729
0.362681836 0.367488742 0.319291651
0.377103001 0.367488742 0.296268493
0.395066470 0.363061339 0.277798742
0.415306747 0.351929218 0.255534500
0.433523029 0.332194835 0.235041216
0.461986542 0.317267478 0.223655984
0.494370908 0.309677392 0.220113993
0.536243081 0.316255420 0.220493451
0.580265641 0.328399420 0.223529443
0.634661376 0.337507814 0.230360672
0.677166224 0.348260522 0.236685693
0.723213255 0.356103361 0.237444729
0.767995000 0.361037463 0.243137464
0.818216503 0.357495517 0.246426389
0.864769459 0.355471253 0.247564986
0.909171283 0.352435142 0.254016250
0.951422811 0.349398971 0.266160280
0.979759634 0.346362919 0.276913375
1.000000000 0.342947513 0.284124076
0.998481810 0.347501665 0.291714251
0.994686842 0.350537926 0.299051225
0.999493957 0.353573531 0.314737171
0.998102248 0.359392494 0.332068294
0.998102248 0.369259983 0.339658260
0.311574847 0.401518285 0.337001920
0.322580695 0.402277172 0.339278907
0.340291053 0.402276933 0.347880930
0.356862366 0.399114430 0.357747942
0.377735287 0.407084286 0.369513184
0.395952046 0.404806972 0.380898297
0.421758503 0.408222556 0.392536283
0.443137169 0.410372972 0.392156899
0.455281377 0.412650257 0.381530881
0.464769304 0.412650257 0.362176061
0.474004030 0.412650257 0.339278817
0.492346823 0.407716662 0.318152934
0.508285820 0.397469908 0.292726278
0.524984539 0.369892478 0.267678529
0.544339299 0.350284517 0.253636926
0.575711846 0.341682285 0.245540634
0.618596017 0.345856816 0.243643180
0.662239015 0.354965210 0.246046990
0.703731894 0.364073604 0.248576686
0.747881353 0.373181283 0.254522294
0.792663097 0.382669121 0.261353374
0.832131743 0.389753520 0.266413748
0.879570007 0.390386015 0.269323617
0.922074556 0.390386015 0.273371369
0.961922586 0.387349635 0.282099634
0.987349629 0.384313315 0.293990940
1.000000000 0.383301705 0.303099215
1.000000000 0.390006274 0.312207431
0.996964037 0.393422097 0.323213279
0.995698988 0.396458060 0.332953840
0.999114394 0.402150482 0.350284278
0.998861372 0.408728570 0.365464628
0.418343067 0.465275079 0.387603045
0.427197784 0.462998450 0.393675029
0.447058648 0.463757277 0.404048085
0.468058109 0.466287076 0.413915068
0.488298208 0.465528041 0.420366615
0.506514966 0.465528041 0.429475009
0.531309426 0.468564361 0.446173072
0.554459155 0.468564361 0.454142809
0.570398271 0.466287076 0.450095057
0.582543015 0.466287076 0.444023013
0.583302081 0.466034025 0.415686369
0.595952332 0.461986035 0.390638828
0.614295065 0.454649031 0.367615461
0.626692116 0.442505002 0.340038031
0.626692116 0.412144274 0.306641668
0.641492903 0.387982309 0.283491492
0.670841336 0.375332028 0.269829035
0.712334156 0.375964582 0.265275061
0.748767018 0.385072976 0.265275091
0.790259778 0.393927664 0.277925402
0.833902776 0.404427439 0.290954977
0.876154125 0.415559918 0.298798144
0.908918023 0.424794018 0.296268493
0.944591820 0.431119770 0.302466989
0.978241324 0.431372732 0.311321765
0.997469664 0.430107474 0.321821332
0.999746978 0.428083122 0.332953990
0.999746978 0.437191486 0.342061609
1.000000000 0.440986872 0.359139651
0.999494016 0.444528818 0.372043192
0.999367416 0.449462235 0.382922441
0.996331036 0.461607039 0.398102045
0.497279733 0.495635808 0.427071393
0.503352523 0.501707792 0.433143377
0.522960067 0.499430627 0.443516940
0.540923357 0.502719581 0.454396069
0.556103706 0.507653296 0.462871343
0.597596407 0.498924404 0.471979737
0.613282859 0.506514728 0.488677830
0.637571275 0.509424388 0.503605247
0.656925917 0.508791804 0.507274091
0.661479712 0.508791804 0.498671770
0.664895654 0.505881906 0.480961770
0.667299390 0.501454413 0.452119112
0.679823160 0.497659385 0.427071571
0.696521223 0.494117379 0.403795123
0.711701632 0.481973350 0.373434365
0.709297776 0.449209392 0.335230976
0.718911767 0.422896802 0.307779849
0.743073702 0.407463402 0.292978972
0.782163382 0.403288931 0.295635819
0.818596125 0.409613967 0.295635819
0.856293857 0.416318417 0.304490656
0.896647751 0.424667716 0.313219249
0.936242402 0.433902383 0.317520857
0.954459190 0.446046412 0.326628476
0.983301699 0.454648852 0.339658260
0.999367416 0.465401739 0.352181792
0.999493957 0.475648552 0.362808049
0.996710598 0.473624229 0.366350353
0.999367416 0.477419615 0.383427769
0.996457994 0.483997554 0.396331161
0.995192945 0.490069389 0.407210559
0.999367416 0.495003372 0.422390819
0.585831761 0.535610557 0.473750591
0.591903925 0.534471750 0.477419376
0.597976208 0.540543735 0.487792403
0.623276532 0.538266778 0.498671949
0.641492963 0.541303039 0.508159399
0.667805254 0.536242664 0.519291520
0.689942837 0.539911091 0.523972392
0.710056961 0.545730531 0.547122061
0.731309414 0.547248483 0.560025573
0.735989690 0.548892796 0.555850863
0.739026070 0.545983553 0.535610557
0.744086206 0.542947114 0.513346076
0.749778688 0.537254632 0.488298565
0.763693690 0.534218609 0.467552304
0.776723742 0.526375592 0.437191546
0.787096560 0.511827767 0.406830758
0.785578370 0.479949564 0.373434365
0.792915523 0.452625066 0.346995413
0.812903523 0.432384610 0.330550551
0.842378497 0.425426781 0.318785787
0.880708516 0.435293794 0.320683032
0.915623248 0.441365898 0.327766776
0.951549590 0.447944283 0.334218681
0.969765782 0.462365627 0.347880870
0.983428001 0.474509597 0.359266341
0.998987854 0.483744442 0.371536911
0.999493957 0.498419046 0.382162869
0.996457577 0.506768167 0.388994217
0.998734832 0.513851821 0.400505781
1.000000000 0.516888201 0.425806165
0.995193005 0.525616586 0.437571198
0.995193005 0.533206761 0.446679592
0.667805314 0.573561192 0.520809591
0.678431511 0.572043002 0.525363743
0.684503555 0.572422385 0.531815350
0.690575540 0.578494370 0.543959379
0.718532681 0.576597154 0.552561700
0.740164340 0.574699402 0.561290383
0.756862521 0.573181391 0.571916699
0.772295952 0.580645084 0.579000652
0.794307470 0.582922399 0.602530181
0.802656293 0.585199118 0.605566382
0.807337403 0.583934247 0.597343504
0.810879350 0.580898106 0.578621089
0.815812945 0.577862024 0.550916910
0.824161708 0.572169542 0.530297339
0.835041046 0.566097140 0.502466917
0.846299946 0.555850804 0.475142151
0.849335551 0.543706357 0.437191546
0.850600541 0.512713790 0.410499632
0.856673121 0.481467575 0.381910354
0.873118520 0.458444208 0.356357008
0.898924887 0.451992393 0.343453646
0.934345305 0.462112397 0.345477372
0.963693976 0.465907693 0.350790381
0.981909990 0.478305101 0.364579082
0.991018176 0.491208196 0.375964552
0.996204555 0.501960814 0.388108969
0.998481810 0.512587190 0.398861319
0.996457577 0.528779447 0.411005825
0.997216642 0.540164351 0.424288183
1.000000000 0.551802397 0.439468354
1.000000000 0.558380783 0.469829172
0.995193005 0.571157396 0.478558183
0.738772631 0.605692565 0.563820541
0.752688050 0.606957555 0.572422504
0.763314247 0.606325150 0.577862084
0.770651221 0.608222544 0.585199118
0.776723206 0.614294529 0.596584141
0.802276611 0.614800513 0.599873483
0.818216026 0.609740555 0.611132264
0.833016872 0.609993696 0.623656034
0.845287979 0.617457569 0.634787738
0.860467613 0.617457569 0.646932483
0.866919816 0.616824985 0.650980234
0.870967805 0.616698265 0.644402027
0.873371124 0.613662183 0.625553012
0.875901520 0.610373557 0.593168616
0.883491278 0.604300857 0.569260061
0.895003140 0.597090304 0.543706656
0.901454926 0.587982297 0.512586892
0.900316119 0.578241527 0.468944103
0.906388104 0.544845045 0.444655269
0.915243447 0.513978660 0.412650287
0.927514315 0.488804817 0.385578960
0.949525714 0.479696572 0.372928560
0.975964606 0.486021549 0.373181552
0.992156625 0.495635897 0.384313524
0.997722685 0.507020950 0.392283261
0.999240935 0.518406212 0.403415501
0.996204555 0.527514517 0.415053606
0.996078014 0.545350969 0.432890862
0.996710598 0.558254123 0.449082673
0.997216642 0.573434293 0.466160297
1.000000000 0.587982178 0.481340766
1.000000000 0.603162587 0.511701584
0.802530050 0.633017063 0.597217083
0.811638415 0.639089048 0.615433037
0.825553715 0.638203740 0.621884823
0.838709950 0.637950838 0.626438975
0.849588990 0.641619027 0.633017004
0.855660915 0.647691011 0.639088988
0.866034269 0.643136978 0.644908011
0.880581975 0.640354037 0.655028462
0.896774054 0.641872168 0.668437898
0.909044564 0.644782066 0.686400950
0.915496767 0.641872168 0.692726016
0.919544756 0.645161033 0.692473292
0.921442032 0.647058666 0.682732642
0.921442091 0.643770039 0.662997961
0.918406427 0.637697995 0.641745567
0.928399920 0.634029150 0.613030076
0.937507987 0.627450824 0.584693432
0.942820966 0.617710054 0.553953111
0.948893011 0.605566025 0.517521024
0.957748353 0.583301604 0.487666249
0.961163998 0.547754586 0.451360315
0.970019162 0.516129076 0.423023760
0.991144955 0.501201987 0.412650049
0.997216940 0.513346076 0.418722034
0.997469723 0.525237083 0.420746028
0.997722685 0.537381411 0.428462714
0.999240935 0.548766971 0.442378074
0.996204555 0.557874560 0.451486439
0.998734832 0.570398688 0.469323009
0.997975767 0.587856114 0.490828395
0.997216642 0.605945945 0.509930611
1.000000000 0.618342996 0.520810008
0.891334534 0.677040100 0.683491528
0.892093539 0.677546144 0.679443479
0.896900892 0.681467354 0.686906695
0.904490948 0.679696560 0.691208065
0.911321759 0.679317117 0.696900904
0.917393804 0.680582106 0.700569093
0.925996065 0.684123814 0.704111397
0.931815505 0.682099760 0.709930480
0.941303074 0.683617771 0.719797730
0.949399114 0.688677847 0.733965755
0.964073539 0.685895205 0.754459083
0.966097772 0.686906815 0.750410795
0.964959085 0.688804388 0.740164399
0.961923063 0.686021745 0.722707093
0.963946760 0.685009718 0.711574674
0.968121350 0.678937733 0.692726135
0.977988601 0.675521910 0.665401995
0.984060764 0.669576108 0.637444735
0.985831738 0.661733150 0.605313122
0.986337721 0.646805704 0.574446380
0.989753366 0.623656094 0.542188406
0.989753366 0.589500487 0.505502939
0.997469962 0.562302291 0.478557646
0.992915988 0.545224369 0.455407768
0.998988032 0.552814424 0.456925750
0.998861372 0.562555015 0.463883400
0.999493957 0.573307991 0.479063809
0.996457577 0.584692895 0.492726177
0.998734832 0.599114180 0.515116692
0.998228788 0.614927411 0.533586144
0.996963620 0.633396983 0.552308798
1.000000000 0.647438765 0.563314378
0.936875522 0.703605235 0.730929732
0.931182742 0.707400739 0.726755023
0.940923512 0.709550977 0.729032457
0.942694724 0.710056901 0.732068062
0.945856929 0.708918750 0.737507999
0.953446686 0.714990735 0.742061794
0.958254039 0.713725448 0.745098054
0.964073479 0.715116739 0.754712462
0.969386697 0.715116739 0.760784328
0.977735698 0.718911707 0.769512773
0.986843884 0.716255665 0.782795608
0.991904020 0.721062481 0.795192957
0.991904020 0.720682740 0.788361549
0.987855971 0.716634989 0.774699450
0.989247322 0.713345945 0.765591025
0.990891695 0.714231730 0.749272466
0.993927717 0.711195767 0.731056452
0.999367416 0.707906485 0.706135631
0.998102248 0.701834440 0.679569900
1.000000000 0.693105340 0.653004169
0.998102248 0.679822743 0.620746195
0.999114335 0.656546593 0.587349832
1.000000000 0.626944721 0.552055717
0.997470021 0.602150321 0.522960007
0.996711016 0.580518484 0.497153461
