Assets/Shaders/EldamarStudio/100 Sci-Fi LUTs Pack/LUTs/cube/Janet LUT.cube
LUT_3D_SIZE 5
DOMAIN_MIN 0.000000 0.000000 0.000000
DOMAIN_MAX 0.903226 0.903226 0.903226
0.000000000 0.000000000 0.000000000
0.154332399 0.036306284 0.021252289
0.368248224 0.067299418 0.050347578
0.738899410 0.000000000 0.122707121
0.996078014 0.001265167 0.204174638
0.068690993 0.204048395 0.160910398
0.175964400 0.207969397 0.135104120
0.407843083 0.243263409 0.141935408
0.777735651 0.214800537 0.180518568
1.000000000 0.175078928 0.246299669
0.497279733 0.495635808 0.427071393
0.637571275 0.509424388 0.503605247
0.711701632 0.481973350 0.373434365
0.896647751 0.424667716 0.313219249
0.999367416 0.477419615 0.383427769
0.957116008 0.721821249 0.757242262
0.980265737 0.738393128 0.782036841
0.998987854 0.737887084 0.806071818
0.997090161 0.706135213 0.660215139
0.996204793 0.638582945 0.572675347
0.998734832 0.851106822 0.941555798
0.996078014 0.857052684 0.937887490
0.997343183 0.862871826 0.966223836
0.998987854 0.856673121 0.946995616
1.000000000 0.848449945 0.901074946
0.000000000 0.152055696 0.263504416
0.136369690 0.017330708 0.247817978
0.380392075 0.042125296 0.267805099
0.739784658 0.000000000 0.294623703
1.000000000 0.000000000 0.311195403
0.000000000 0.275268972 0.267425418
0.051739406 0.243263394 0.280834705
0.400000095 0.213155985 0.276913285
0.757748365 0.150916979 0.305629283
0.998987913 0.077292889 0.350917101
0.242884189 0.466540128 0.385198981
0.471726596 0.470841408 0.447944373
0.656167030 0.462618679 0.446299672
0.866540253 0.442378104 0.407083958
1.000000000 0.466034085 0.458570361
0.913725555 0.718911648 0.728779078
0.953574002 0.723212838 0.756230116
0.992789030 0.737507820 0.820240557
1.000000000 0.701202154 0.696141481
0.997469962 0.650853872 0.625553668
0.994433701 0.857052684 0.928778946
0.996711016 0.858191013 0.942568004
1.000000000 0.860974252 0.964199960
0.998987913 0.858317554 0.953067660
0.997976005 0.848449945 0.894117713
0.000632584 0.381277382 0.609487772
0.004933705 0.263883680 0.590891898
0.401770771 0.000000000 0.523845375
0.748007774 0.000632584 0.523845792
1.000000000 0.002656833 0.550663948
0.000632584 0.514357686 0.624541163
0.000000000 0.426059544 0.615433216
0.393801212 0.194180995 0.554458976
0.776976228 0.085135870 0.542441547
1.000000000 0.001644708 0.553447306
0.000000000 0.611385226 0.606830776
0.001644708 0.599241138 0.610752404
0.513599157 0.505502343 0.594434202
0.834408641 0.394687116 0.573434830
0.997343242 0.396457791 0.579379976
0.553193986 0.677419305 0.639341950
0.679443419 0.678051949 0.656546235
0.904364109 0.679696500 0.736369669
0.990892053 0.691081583 0.758760095
0.998987854 0.683997333 0.724224925
0.998735011 0.851106882 0.914737403
0.998355269 0.852751553 0.926375687
0.994686902 0.862239242 0.955091417
0.999367416 0.866413713 0.981277645
0.993421853 0.851739466 0.924477756
0.001012128 0.557115972 0.865908146
0.004554003 0.495888561 0.864263415
0.006831284 0.240733907 0.843390226
0.753447235 0.000000000 0.787603140
1.000000000 0.000000000 0.800000131
0.004174870 0.628969252 0.872232854
0.000000000 0.583807826 0.868564546
0.001265164 0.394939870 0.847944260
0.760784566 0.058190800 0.797343135
0.996837258 0.001264999 0.800758958
0.002277288 0.808981538 0.890955389
0.280328721 0.773687541 0.885389268
0.519164979 0.646679282 0.865907729
0.795572519 0.404174805 0.812397540
0.998735011 0.355597645 0.797975957
0.638836384 0.799241066 0.850221157
0.704364300 0.798228979 0.854143143
0.822264493 0.778620839 0.856420040
0.944339156 0.712080956 0.850221217
0.997976005 0.632511079 0.810752869
0.819607496 0.833269954 0.845920324
0.870840788 0.835926652 0.866413713
0.964958787 0.839468658 0.891208172
0.998987854 0.856799603 0.958886504
0.995698929 0.859329641 0.960278034
0.000000000 0.644528985 0.998734832
0.000000000 0.618722081 0.996078014
0.000000000 0.509930134 0.998734951
0.082732558 0.261606365 0.993674815
0.989879668 0.005312988 0.969133615
0.001265167 0.696900785 0.993295252
0.001012124 0.672991693 0.995445848
0.000000000 0.574699402 0.999367416
0.151802808 0.346236646 0.992915988
0.996457875 0.023655981 0.969512999
0.401897550 0.808602393 0.996837437
0.434155285 0.786084652 0.994813204
0.521821797 0.719038844 0.996837378
0.610752344 0.553447068 0.990638912
0.994180560 0.378747344 0.978115022
0.814168215 0.901961029 0.992915809
0.842884183 0.895509243 0.988614738
0.889437318 0.870714843 0.995825291
0.937128127 0.792283237 0.996204793
1.000000000 0.643769979 0.982036769
0.902213991 0.891461194 0.968880653
0.920556784 0.887665987 0.980265558
0.955724001 0.885135949 0.981151462
0.997090161 0.881087840 0.994180799
0.997343183 0.869575799 0.986970186
