Assets/Shaders/EldamarStudio/100 Sci-Fi LUTs Pack/LUTs/cube/Jennifer LUT.cube
DOMAIN_MIN 0 0 0
DOMAIN_MAX 1 1 1
LUT_3D_SIZE 32
0.070588000 0.070588000 0.070588000
0.070588000 0.070588000 0.070588000
0.074889004 0.070588000 0.072738774
0.080961324 0.070588000 0.071980000
0.088172443 0.070588000 0.067425996
0.103352055 0.070588000 0.073497996
0.116002642 0.073118322 0.079570003
0.133080706 0.074510001 0.082353003
0.151296914 0.074510001 0.082353003
0.160404533 0.074510008 0.082353011
0.178241745 0.080329001 0.091081873
0.198482245 0.088425256 0.098165996
0.219734639 0.097533353 0.104237996
0.240227997 0.106387995 0.110056967
0.252371997 0.112459995 0.113092579
0.276533782 0.120935798 0.123339601
0.300822198 0.130044192 0.132447988
0.322707146 0.139784977 0.139152572
0.346995980 0.151929006 0.148260966
0.368501395 0.155724362 0.151802644
0.393548727 0.166350737 0.162428737
0.419860989 0.180518985 0.177609116
0.444401979 0.192662984 0.192409992
0.474762797 0.204807013 0.198482007
0.505123556 0.219228283 0.209107995
0.539658606 0.231625661 0.219860658
0.580139160 0.240227997 0.229474992
0.625680268 0.246299997 0.241618991
0.673877597 0.262997985 0.256419808
0.720683098 0.279443175 0.275142163
0.764452815 0.296394587 0.294623584
0.803921998 0.317647010 0.309803993
0.070588000 0.070588000 0.064516000
0.070588000 0.070588000 0.070588000
0.070588000 0.070588000 0.070588000
0.079949327 0.070588000 0.074003614
0.093864992 0.070967548 0.076533712
0.106388442 0.073624387 0.082606375
0.116508707 0.073624387 0.081088066
0.136369705 0.076154292 0.082353003
0.156609997 0.079063803 0.083871000
0.163440928 0.083618388 0.088425010
0.181277394 0.086527519 0.097153872
0.201517865 0.094497249 0.104237989
0.221631899 0.103605352 0.110310003
0.240733996 0.112460062 0.116129026
0.258443981 0.118532769 0.119165353
0.277798772 0.127007961 0.127007961
0.302340388 0.136116192 0.132447615
0.325743347 0.145224571 0.137381166
0.350031585 0.154965401 0.151296586
0.371536970 0.164326027 0.157621607
0.394687086 0.173561081 0.166603476
0.420873135 0.185578868 0.178621262
0.447438389 0.195698634 0.189626619
0.477799177 0.207843408 0.201518402
0.512713373 0.219987392 0.207590401
0.548766553 0.231625661 0.219608039
0.588741481 0.241239995 0.232005328
0.631752253 0.252371997 0.241618991
0.674636543 0.263756990 0.256419808
0.720683098 0.279443175 0.271600187
0.764452815 0.298165560 0.292979181
0.803921998 0.323718995 0.318912387
0.070588000 0.074889004 0.064895771
0.074889004 0.074889004 0.068816997
0.077039778 0.077039778 0.077039778
0.082099773 0.077039778 0.078304939
0.098165773 0.077419326 0.081594005
0.112080999 0.080455706 0.078811094
0.119544543 0.080961771 0.081593908
0.135230929 0.082606062 0.086780638
0.158507317 0.087159872 0.090322778
0.168754011 0.094623975 0.096394785
0.186463997 0.102087125 0.103225872
0.202656239 0.103098996 0.106261998
0.222517282 0.112966515 0.112080999
0.240987033 0.122580513 0.118152998
0.261100739 0.126755059 0.123086639
0.281720549 0.135230958 0.128779188
0.301454782 0.144338965 0.139405385
0.323845774 0.153447181 0.141935542
0.346616030 0.162555203 0.149525762
0.372422367 0.171663418 0.162808016
0.395572454 0.176976502 0.168880478
0.419860989 0.189374119 0.180518985
0.446299732 0.200632542 0.190765277
0.478684813 0.208728820 0.200885817
0.513598979 0.220872998 0.208476007
0.548639953 0.233016983 0.218722656
0.587097108 0.243896291 0.234408990
0.629601836 0.257684976 0.248450309
0.667805016 0.269828975 0.256419808
0.719164968 0.289057374 0.276913375
0.762681603 0.304490745 0.295003355
0.799620450 0.325489998 0.321568996
0.074383162 0.088551320 0.071727000
0.079190321 0.083491325 0.073497772
0.081846938 0.088171773 0.077039778
0.091208160 0.089942999 0.084883004
0.102972709 0.090322547 0.087539837
0.116382092 0.093358926 0.081088059
0.129032150 0.096394993 0.082100004
0.138266861 0.098039612 0.087539412
0.158760175 0.101834312 0.097406901
0.174446493 0.110436648 0.102972843
0.190006003 0.114484288 0.107779995
0.207463413 0.121315323 0.112333998
0.226059154 0.122453675 0.114610992
0.244275868 0.133712888 0.120936036
0.263504237 0.137760907 0.128020152
0.283491790 0.144338965 0.132826984
0.305756003 0.154712200 0.138140216
0.324604571 0.162555590 0.149652407
0.345856994 0.170398369 0.151550010
0.371410519 0.180771515 0.164199814
0.395572454 0.188614890 0.173687309
0.421885014 0.192663148 0.182795957
0.446931988 0.206957981 0.194813505
0.479190558 0.215307012 0.201644912
0.512334108 0.225933000 0.211006001
0.547374785 0.236812145 0.221252650
0.581783891 0.248956159 0.233902991
0.623529494 0.263377428 0.247564986
0.663250923 0.277166128 0.262744993
0.710815609 0.292599380 0.279443383
0.764073312 0.315116972 0.302846581
0.798608363 0.328020006 0.324099004
0.082732551 0.111321993 0.083112001
0.085768834 0.101075545 0.083491549
0.087792993 0.102087319 0.083491549
0.093485445 0.107779540 0.086021550
0.112080991 0.108538538 0.091334544
0.121189386 0.111574925 0.091334544
0.137508005 0.117140993 0.093864769
0.150790706 0.120809704 0.097786449
0.161417007 0.124225445 0.102719903
0.179633006 0.130297437 0.105755515
0.192789093 0.128399670 0.109550864
0.208981514 0.133080244 0.114610992
0.229095533 0.139911458 0.120303541
0.252877563 0.143200099 0.126628503
0.268184423 0.149272829 0.135736868
0.285389036 0.156103998 0.140417293
0.305882543 0.164452985 0.143453196
0.330297083 0.175079033 0.148513570
0.351549536 0.178115427 0.157621980
0.375205725 0.189121008 0.169133559
0.397976190 0.199367732 0.177482545
0.421885014 0.207463995 0.185452119
0.452244997 0.213535994 0.200379506
0.482605815 0.225174010 0.203921914
0.512966514 0.238077089 0.214168549
0.545098186 0.248450220 0.226565644
0.579506636 0.258444101 0.240354449
0.618974984 0.270588100 0.240354449
0.661100149 0.285009354 0.260847479
0.708791673 0.300569177 0.283617854
0.759899080 0.316255510 0.307400584
0.802403927 0.334471524 0.328653008
0.085768931 0.123465993 0.089184001
0.088804543 0.126502380 0.092220388
0.096141838 0.120556928 0.092599936
0.101201840 0.120809712 0.095129937
0.109044611 0.123718925 0.100442939
0.130297005 0.129790932 0.100442939
0.144465387 0.135356992 0.102972612
0.156862706 0.136495709 0.104364060
0.166730002 0.135989904 0.105376065
0.179633006 0.139405057 0.105755523
0.197849751 0.142567933 0.114610873
0.215053856 0.146615937 0.120682999
0.234408632 0.152055651 0.125616640
0.255913943 0.155344874 0.129664898
0.274129897 0.161416873 0.138772517
0.289436787 0.172295988 0.145477667
0.306641459 0.180391982 0.149525672
0.327767462 0.187475979 0.155091569
0.354585916 0.193295047 0.169765979
0.375838310 0.201897427 0.178874359
0.399493992 0.211511731 0.186590925
0.424288213 0.219607994 0.192662925
0.452244997 0.225679994 0.200379506
0.482605815 0.231752008 0.209487915
0.512966514 0.247944564 0.222138286
0.546110272 0.259582877 0.232637912
0.582543015 0.267679006 0.240733936
0.622011364 0.282732844 0.249462053
0.664136529 0.294876873 0.265401721
0.704870045 0.311068863 0.281087875
0.747754276 0.327893585 0.298798263
0.790259123 0.343579918 0.322580993
0.096395001 0.145730644 0.100315996
0.099430606 0.143706396 0.100822061
0.104617000 0.144592002 0.103858449
0.114611000 0.144338995 0.104237996
0.121821634 0.148260325 0.107400447
0.132321253 0.150031328 0.109550677
0.148513645 0.153573647 0.114611320
0.165338308 0.156356648 0.116002642
0.178621098 0.156483322 0.118279539
0.192536339 0.161290154 0.123592317
0.205439419 0.164326504 0.122201182
0.221631929 0.167362377 0.129285321
0.239342287 0.172928318 0.134218678
0.259203345 0.177862033 0.138013735
0.279696614 0.186211318 0.149399221
0.300315827 0.189880133 0.153699845
0.318785191 0.198608637 0.162682056
0.338646233 0.205313057 0.170019045
0.362175703 0.213282332 0.181403980
0.388994694 0.222137675 0.191018358
0.414042026 0.229348317 0.194434002
0.439974755 0.236811996 0.201264992
0.467299134 0.243137002 0.210372984
0.495256156 0.254016638 0.217077583
0.527893603 0.262365341 0.228463247
0.562681973 0.278431326 0.240607306
0.601265430 0.288930982 0.248829797
0.642758071 0.302087098 0.259962171
0.682352901 0.317140967 0.274509966
0.721315682 0.329285413 0.290955037
0.763567150 0.345983624 0.309171170
0.811005354 0.362808317 0.336748987
0.108538993 0.168374702 0.112460412
0.111575022 0.163694009 0.110815704
0.116761409 0.166097403 0.114610761
0.122833408 0.164832234 0.116381988
0.134598538 0.170145258 0.116381988
0.144465700 0.173940405 0.118152760
0.154838607 0.174826026 0.125363633
0.170018986 0.179506704 0.126502290
0.187476099 0.179506704 0.128020287
0.202656493 0.183807686 0.136242509
0.216571704 0.186970562 0.138646573
0.230739951 0.191651151 0.140037984
0.245920345 0.193548411 0.146109998
0.263884038 0.198861375 0.149904698
0.285136372 0.207969397 0.159266114
0.304743886 0.213915512 0.167488903
0.327514082 0.218469694 0.173560902
0.348260403 0.224541694 0.183681414
0.368500710 0.232637450 0.190765038
0.395319372 0.238456339 0.198229074
0.424288720 0.248956412 0.206577986
0.450600982 0.255028397 0.208601981
0.477419287 0.261226892 0.219228014
0.506261885 0.271853507 0.225300416
0.539785028 0.281720400 0.235926569
0.575964332 0.293611348 0.248070970
0.614421487 0.308791757 0.258443773
0.653510869 0.322074383 0.271726906
0.695003033 0.335230500 0.286527812
0.735989630 0.348639697 0.298418701
0.775079072 0.363440871 0.316255182
0.825173736 0.382415980 0.345097989
0.121442094 0.189627096 0.124605000
0.123719387 0.183555096 0.120809712
0.128146917 0.186085090 0.126502186
0.134219080 0.191397920 0.129285097
0.140670538 0.187223092 0.130044088
0.155091837 0.193674937 0.130803093
0.166729763 0.198229000 0.136875406
0.177608788 0.199241087 0.140164480
0.192789197 0.205313101 0.138646081
0.207969606 0.205313101 0.144718081
0.223908871 0.209740967 0.150790632
0.239848346 0.213283092 0.153320834
0.255028546 0.217837006 0.158254191
0.270461977 0.218343005 0.164326191
0.291208386 0.226944655 0.170398191
0.311574966 0.233649686 0.178114891
0.330550313 0.238962978 0.184946194
0.356104046 0.245034978 0.193421990
0.374826103 0.251107007 0.196584150
0.401391447 0.255913824 0.204680711
0.427577376 0.262365550 0.211132243
0.456673175 0.274004102 0.220746174
0.481214136 0.279949576 0.226565182
0.511574864 0.287792802 0.231372803
0.546489596 0.298418790 0.242758080
0.583554685 0.309550643 0.254143000
0.622517169 0.324225128 0.267805070
0.656167328 0.339152515 0.283491433
0.699809968 0.350916982 0.294876724
0.739278376 0.364579141 0.309550852
0.781909764 0.380138695 0.321568280
0.827450991 0.401391089 0.345857084
0.136622488 0.210879505 0.136749014
0.136622503 0.204807505 0.130677015
0.138899237 0.207337499 0.139785275
0.143326849 0.214674339 0.146995813
0.149778947 0.220619500 0.145224482
0.158886567 0.208475500 0.151296496
0.173307851 0.217457011 0.154585809
0.184946194 0.220872730 0.156230494
0.195825592 0.220493495 0.156862885
0.211006001 0.226565495 0.159898490
0.229095489 0.235294372 0.165970489
0.247185498 0.238077492 0.165970787
0.264136821 0.239468858 0.167742148
0.279569596 0.242631018 0.176470980
0.297786355 0.248702988 0.182542980
0.320935994 0.254902095 0.188614979
0.340417206 0.259456277 0.191777483
0.359139651 0.263250977 0.193422005
0.389500469 0.269323021 0.199494019
0.416571856 0.278178394 0.213788852
0.438203484 0.283238709 0.220999256
0.459961891 0.289690465 0.227324262
0.487286925 0.301201969 0.238709971
0.517646968 0.304237574 0.238709971
0.552561522 0.316634774 0.250348270
0.588994265 0.330170453 0.262618780
0.625553548 0.342441112 0.273877084
0.661986291 0.354585886 0.295129418
0.711574674 0.364199638 0.297532976
0.750410795 0.378747404 0.310562670
0.784819603 0.398481905 0.330423683
0.827450991 0.422643483 0.348893493
0.140164122 0.232131869 0.151802868
0.151802868 0.234788001 0.148640007
0.153953090 0.228716001 0.144718781
0.156989038 0.233017161 0.156609997
0.162935004 0.240986735 0.163946867
0.179632932 0.238962740 0.154838875
0.183681190 0.239468411 0.163440540
0.197343573 0.247185275 0.170524821
0.210499957 0.249462634 0.174319997
0.225680366 0.253383845 0.175205380
0.237950876 0.250727743 0.172422737
0.256166875 0.257811874 0.180518463
0.275521755 0.260721236 0.184440002
0.294496924 0.264009863 0.191271171
0.312713683 0.270081848 0.194686994
0.330929846 0.276154488 0.198355809
0.352688044 0.280708671 0.205439672
0.371916413 0.283744454 0.210246578
0.395445973 0.287539721 0.214041874
0.420240730 0.293611735 0.220113873
0.443643630 0.302593112 0.231119722
0.467931867 0.309677273 0.238203600
0.498924971 0.319670975 0.247944117
0.523719013 0.325489938 0.247944117
0.556356847 0.335357428 0.254775405
0.592156768 0.348513722 0.267299086
0.629095316 0.360657752 0.278937072
0.667931855 0.372801870 0.295382410
0.707020760 0.390259624 0.313978642
0.748766303 0.400126368 0.320809484
0.783175170 0.415812582 0.336622179
0.821631968 0.438076854 0.354838997
0.157368496 0.255407989 0.171031252
0.163441017 0.260467857 0.167994857
0.167109728 0.261100233 0.166982770
0.171410501 0.257558227 0.163947135
0.175585255 0.263250977 0.175711706
0.187223256 0.263250977 0.175078988
0.200885579 0.269829184 0.176597178
0.208855242 0.271220505 0.179126784
0.222896993 0.275015980 0.185957998
0.236812234 0.276786774 0.188487992
0.253131241 0.280075848 0.191651121
0.267299503 0.281088263 0.190639243
0.284376889 0.286021620 0.196331516
0.303605080 0.289310277 0.200885475
0.321821839 0.295382261 0.207463413
0.344085991 0.297406346 0.214547798
0.362302363 0.303479105 0.217584178
0.383681208 0.307653487 0.225047499
0.406324983 0.312081218 0.229475230
0.426312715 0.317900240 0.235294268
0.450600982 0.323972255 0.237571254
0.475015968 0.331941485 0.245287985
0.507147491 0.340037763 0.253257245
0.533333302 0.348007530 0.257052243
0.562428832 0.360657811 0.265907288
0.598608613 0.370019257 0.276407301
0.635167360 0.380392313 0.288045466
0.671599984 0.391018480 0.300189435
0.711069047 0.406451374 0.320050359
0.748766601 0.421126127 0.334725142
0.785199225 0.433143497 0.346742481
0.821631730 0.453257263 0.364959002
0.178241640 0.285388917 0.188868001
0.180139393 0.289183915 0.186970249
0.185578987 0.293231934 0.188361645
0.186970621 0.294370264 0.189373791
0.193042636 0.294370264 0.187097073
0.199114636 0.294370264 0.194686696
0.210499957 0.297406614 0.196457967
0.225173980 0.301581293 0.199620560
0.237318188 0.303858191 0.198102176
0.249462306 0.304996639 0.203794628
0.267425746 0.308538646 0.209867373
0.283618242 0.312586874 0.211891636
0.299936980 0.316761643 0.213029996
0.315369695 0.320050299 0.213283032
0.333586454 0.326122284 0.220619857
0.355471283 0.326248914 0.227450803
0.376723379 0.329285026 0.233523190
0.395572543 0.334725052 0.236559421
0.419354677 0.340290993 0.242125362
0.442631364 0.347501636 0.251612991
0.463504255 0.353573650 0.251612991
0.489816278 0.359645635 0.256673127
0.520177007 0.365844131 0.263251156
0.548513532 0.374952525 0.270335287
0.578115165 0.386337906 0.279822648
0.610373259 0.397343636 0.290828317
0.648829699 0.405439615 0.303984970
0.682226062 0.416445404 0.314990163
0.722074389 0.430866420 0.333586067
0.758633971 0.445414037 0.350664049
0.794181228 0.460215211 0.366350591
0.830360293 0.478684306 0.385072649
0.193168998 0.323087007 0.201771036
0.192916036 0.324099004 0.201771036
0.201518044 0.327388018 0.204806998
0.209867135 0.332953900 0.210879207
0.213789031 0.335104018 0.213409483
0.219861031 0.335104018 0.216445088
0.227957278 0.333080351 0.214421362
0.240860313 0.332195044 0.216066003
0.255281210 0.333459944 0.221378952
0.267425984 0.342567563 0.224414572
0.285389006 0.343453109 0.230107695
0.301075280 0.345224321 0.232384995
0.317647040 0.349652022 0.233776391
0.335610032 0.355471075 0.236812070
0.353826791 0.361543059 0.239848450
0.374699771 0.361163825 0.243137270
0.394433975 0.362176001 0.245920226
0.413282543 0.368121505 0.249209478
0.434534997 0.371157140 0.252245128
0.463377714 0.379253387 0.265907437
0.488551706 0.386464000 0.269070029
0.512839973 0.392536104 0.269576162
0.543326497 0.398734570 0.284250528
0.573813796 0.407842904 0.293105870
0.604174554 0.416951299 0.302213728
0.635926604 0.425174028 0.311321676
0.669323146 0.433017075 0.321695060
0.702719510 0.451233059 0.339911044
0.743326604 0.466539860 0.357621670
0.781024516 0.481214195 0.375585169
0.813409567 0.498418629 0.392662972
0.846805990 0.519671082 0.416951030
0.205312997 0.341302961 0.223023400
0.202277377 0.353446960 0.223023400
0.210626408 0.350157976 0.216571629
0.218975246 0.354205966 0.222011313
0.223149672 0.362175405 0.234408855
0.235041410 0.356356382 0.231625468
0.238583088 0.358886719 0.229601726
0.252751261 0.362302393 0.229854688
0.270461619 0.364832282 0.233523086
0.282606363 0.363819927 0.236559346
0.300569385 0.370019138 0.239594951
0.312713653 0.370778233 0.243263841
0.327641040 0.374826163 0.246805996
0.347754776 0.382795423 0.251992434
0.362934411 0.385831803 0.255028814
0.385958165 0.391903788 0.260468394
0.406577975 0.393042386 0.262871832
0.425426543 0.396204978 0.264769405
0.446678996 0.404554278 0.270461857
0.467931360 0.407589883 0.279064178
0.494876295 0.413788408 0.289437056
0.521947801 0.419860661 0.295382529
0.552434921 0.426059693 0.305502862
0.585831344 0.435167313 0.308538467
0.616318583 0.444275677 0.317393839
0.648070574 0.454775363 0.326502055
0.681467175 0.466160446 0.336622477
0.714864254 0.481593788 0.352055788
0.748260617 0.494496793 0.364958823
0.787096500 0.505502582 0.390765131
0.819987118 0.520303607 0.415053576
0.843769610 0.543959796 0.432131410
0.219860792 0.371536791 0.244275793
0.216824561 0.381277591 0.239468798
0.220240727 0.382668823 0.235167801
0.231878802 0.383174926 0.231372431
0.239089146 0.391903579 0.242378205
0.249209657 0.385831594 0.245414048
0.253763467 0.387349904 0.247185305
0.263377488 0.390385866 0.245793983
0.281593889 0.394939870 0.247311801
0.295382947 0.395192921 0.248703480
0.308538973 0.398481727 0.254142910
0.324731231 0.402530253 0.257179052
0.336875618 0.402909786 0.261353791
0.355598032 0.407716542 0.267172754
0.375079155 0.410752386 0.270208597
0.397469580 0.416192561 0.275648773
0.417204171 0.420746386 0.281720787
0.435799927 0.423529357 0.284124196
0.458823591 0.432637751 0.288424969
0.484882981 0.436179429 0.299683541
0.508032560 0.443010539 0.306894660
0.534850895 0.448576719 0.312460601
0.563820004 0.453257769 0.317267776
0.594939709 0.460088700 0.322580695
0.626059353 0.473750859 0.330170304
0.659203112 0.483111918 0.340670317
0.693611681 0.493737876 0.351296782
0.727008283 0.505123258 0.364579409
0.753193974 0.517646790 0.384313762
0.793674767 0.533333182 0.405312926
0.828209758 0.546995580 0.431245774
0.847944021 0.568247974 0.444907993
0.236558989 0.404933572 0.264009982
0.233522981 0.412523776 0.254902005
0.235420346 0.416065603 0.250348181
0.242757961 0.415559530 0.254396200
0.254648983 0.423023373 0.257937819
0.264895737 0.419228375 0.260594189
0.270462066 0.419228494 0.261100501
0.280075669 0.422264457 0.265528202
0.292978972 0.425300270 0.265528202
0.305882275 0.428336680 0.265528202
0.318153173 0.428336322 0.266792983
0.333839238 0.432890654 0.273877233
0.351296604 0.435926735 0.276913613
0.367235988 0.436559200 0.282100171
0.385958374 0.439595133 0.283870935
0.406577975 0.445034802 0.290828407
0.429348171 0.449588984 0.293864787
0.446426123 0.453257322 0.299936771
0.470714957 0.461480349 0.303858042
0.494750351 0.466540217 0.310689211
0.521695197 0.471853137 0.319038272
0.546995342 0.478937268 0.327134788
0.574572682 0.482099980 0.329664826
0.606324792 0.488171965 0.338520169
0.635167778 0.499557436 0.343832880
0.666919827 0.510563195 0.352940828
0.701708019 0.520050406 0.364958972
0.733080387 0.530170619 0.377102971
0.761543334 0.540417373 0.397216797
0.792156518 0.557621539 0.420493335
0.834155560 0.574067175 0.449588746
0.855534196 0.591018200 0.466160387
0.252877563 0.440228105 0.278430998
0.251739353 0.444402516 0.270714551
0.253004372 0.448323935 0.265654713
0.257305115 0.450094700 0.268311560
0.267172515 0.453890085 0.285009593
0.279569566 0.454649121 0.282732219
0.286021620 0.454016536 0.279063880
0.296394855 0.455028415 0.280328989
0.311827540 0.458696634 0.285515577
0.317899555 0.461733013 0.285515577
0.329791307 0.460214823 0.283238292
0.346616149 0.461353511 0.287665814
0.364705771 0.466919899 0.295129597
0.385452092 0.469955564 0.298418939
0.400632381 0.472991943 0.299177945
0.418848544 0.477798939 0.305123329
0.437317759 0.482352942 0.309677154
0.458570123 0.485388666 0.310309559
0.482858956 0.491461456 0.316381574
0.505629361 0.497533530 0.320303321
0.530044317 0.504237950 0.325869560
0.557368696 0.509297967 0.332700551
0.584819555 0.512460172 0.344591558
0.617710054 0.518532097 0.355724216
0.646552861 0.527893484 0.363567263
0.674763024 0.538520098 0.369386196
0.707147419 0.545098066 0.379506618
0.734471798 0.557115555 0.391777128
0.764453053 0.567235947 0.411258340
0.795952141 0.582795739 0.433649361
0.828083575 0.600126505 0.458064556
0.861479998 0.612270534 0.491460979
0.261986017 0.482732981 0.278431058
0.268058002 0.479696602 0.287539423
0.271220803 0.481720805 0.288424999
0.274256796 0.482226789 0.289437205
0.279316574 0.481214553 0.294117987
0.294496953 0.490322948 0.300190002
0.299304336 0.488551676 0.295382947
0.307527035 0.487413019 0.294497281
0.321442008 0.489183992 0.297786117
0.339152008 0.495129526 0.300696015
0.351043731 0.498165905 0.300696015
0.369260252 0.496647686 0.304490954
0.387982607 0.497786075 0.310816020
0.403668910 0.503352046 0.316635013
0.418848515 0.506388426 0.322706997
0.438835800 0.509424210 0.325869858
0.456799179 0.512713253 0.327893972
0.473750561 0.515749574 0.328526378
0.495003015 0.518785954 0.331562042
0.522074401 0.524857998 0.337634027
0.546995521 0.532827258 0.345350772
0.572549164 0.539658248 0.353193998
0.600000024 0.542821050 0.359772027
0.630360782 0.548893034 0.365844011
0.658697188 0.554965019 0.379253358
0.684629917 0.564326406 0.390638679
0.710183084 0.575458944 0.400759101
0.737507463 0.584566593 0.415939450
0.767488658 0.596584737 0.433522969
0.797849357 0.612017989 0.453763187
0.827577531 0.626945019 0.475268632
0.855408013 0.633523047 0.497533053
0.296141744 0.536369741 0.317393720
0.296647727 0.536116719 0.318152755
0.302719742 0.535231113 0.316508383
0.306388557 0.535104573 0.315243363
0.309804082 0.532827318 0.316761583
0.317773670 0.537128687 0.320430398
0.330423713 0.536116421 0.323972046
0.339152366 0.534724772 0.321947992
0.350537479 0.535483837 0.324604362
0.362681717 0.539532125 0.329664499
0.383428127 0.542694211 0.329791009
0.395572364 0.545730650 0.329791009
0.413409323 0.546489477 0.335483670
0.430234373 0.550663769 0.342694372
0.445414633 0.553700149 0.343706369
0.467805058 0.551928937 0.349778384
0.486400932 0.555724144 0.353194207
0.502213717 0.560658097 0.356356949
0.521315396 0.565844715 0.363694131
0.545351148 0.571663797 0.372295737
0.570777774 0.575837970 0.376470476
0.596078396 0.581150889 0.384819716
0.623276711 0.584313750 0.394433737
0.648323834 0.590385735 0.400505751
0.676407278 0.596457779 0.411132336
0.703731656 0.603921413 0.425806373
0.729411483 0.614674389 0.438709468
0.754459143 0.626059294 0.453889817
0.784440339 0.637824416 0.471727043
0.814800620 0.648197532 0.489943057
0.845161200 0.662491977 0.513725340
0.874383390 0.674256742 0.542567730
0.313598990 0.577735722 0.340923458
0.324983984 0.573940754 0.344718456
0.329285473 0.572043002 0.344212472
0.331562310 0.574572980 0.340670466
0.334092528 0.574193299 0.340290934
0.341682732 0.577229679 0.340290934
0.352814734 0.580898106 0.347122133
0.360025436 0.577862203 0.348513454
0.372169375 0.579127252 0.346995443
0.383554488 0.583301961 0.348513484
0.398608625 0.582542598 0.350663722
0.419481486 0.585578740 0.356356472
0.432764143 0.586337864 0.355217844
0.450474769 0.588361442 0.361543059
0.468944132 0.594686866 0.368121475
0.485641986 0.592915654 0.371030748
0.512966335 0.592915654 0.378620923
0.530044317 0.597976089 0.383048713
0.546995521 0.602783024 0.390891939
0.568880498 0.610752702 0.394307375
0.591271460 0.614927411 0.403415471
0.613535464 0.616951227 0.407463729
0.638330221 0.619101942 0.417583734
0.666160762 0.623402715 0.423655719
0.692726016 0.631372452 0.439974576
