Assets/Shaders/EldamarStudio/100 Sci-Fi LUTs Pack/LUTs/cube/Jennifer LUT.cube
LUT_3D_SIZE 8
DOMAIN_MIN 0.000000 0.000000 0.000000
DOMAIN_MAX 0.903226 0.903226 0.903226
0.070588000 0.070588000 0.070588000
0.088172443 0.070588000 0.067425996
0.151296914 0.074510001 0.082353003
0.219734639 0.097533353 0.104237996
0.300822198 0.130044192 0.132447988
0.393548727 0.166350737 0.162428737
0.505123556 0.219228283 0.209107995
0.673877597 0.262997985 0.256419808
0.082732551 0.111321993 0.083112001
0.112080991 0.108538538 0.091334544
0.161417007 0.124225445 0.102719903
0.229095533 0.139911458 0.120303541
0.305882543 0.164452985 0.143453196
0.397976190 0.199367732 0.177482545
0.512966514 0.238077089 0.214168549
0.661100149 0.285009354 0.260847479
0.121442094 0.189627096 0.124605000
0.140670538 0.187223092 0.130044088
0.192789197 0.205313101 0.138646081
0.255028546 0.217837006 0.158254191
0.330550313 0.238962978 0.184946194
0.427577376 0.262365550 0.211132243
0.546489596 0.298418790 0.242758080
0.699809968 0.350916982 0.294876724
0.178241640 0.285388917 0.188868001
0.193042636 0.294370264 0.187097073
0.237318188 0.303858191 0.198102176
0.299936980 0.316761643 0.213029996
0.376723379 0.329285026 0.233523190
0.463504255 0.353573650 0.251612991
0.578115165 0.386337906 0.279822648
0.722074389 0.430866420 0.333586067
0.236558989 0.404933572 0.264009982
0.254648983 0.423023373 0.257937819
0.292978972 0.425300270 0.265528202
0.351296604 0.435926735 0.276913613
0.429348171 0.449588984 0.293864787
0.521695197 0.471853137 0.319038272
0.635167778 0.499557436 0.343832880
0.761543334 0.540417373 0.397216797
0.313598990 0.577735722 0.340923458
0.334092528 0.574193299 0.340290934
0.372169375 0.579127252 0.346995443
0.432764143 0.586337864 0.355217844
0.512966335 0.592915654 0.378620923
0.591271460 0.614927411 0.403415471
0.692726016 0.631372452 0.439974576
0.798861623 0.668943644 0.496014893
0.435167551 0.711322308 0.458317816
0.456799716 0.714105010 0.458443999
0.482226372 0.723845363 0.466413856
0.532574296 0.728652537 0.483871281
0.589500487 0.732447684 0.493232071
0.662365735 0.740417540 0.517014503
0.738772869 0.748260558 0.547248244
0.826438606 0.774826229 0.596457958
0.620240450 0.848829746 0.635926425
0.630107641 0.857937932 0.637191594
0.648576856 0.856672764 0.648197532
0.679696381 0.860594749 0.653004348
0.721694946 0.865907431 0.663377404
0.772675455 0.867045820 0.683364868
0.822517514 0.878051817 0.704364300
0.890701890 0.883997619 0.737887383
0.072992004 0.074130453 0.083112001
0.090954997 0.070588000 0.087413445
0.149652004 0.081087649 0.105755992
0.216571733 0.112460546 0.129285097
0.294876546 0.144971386 0.155851007
0.392536461 0.184060991 0.193295553
0.507021010 0.220999092 0.227577731
0.664642572 0.266540110 0.272865206
0.093738452 0.103858545 0.093991093
0.115243092 0.108538546 0.112839989
0.161417097 0.128526092 0.121442087
0.224794194 0.148513645 0.141809091
0.306641549 0.175964639 0.169639558
0.392789513 0.203288734 0.201391488
0.510056973 0.237824544 0.232637376
0.648703158 0.284629822 0.273371369
0.122200996 0.186084643 0.142947540
0.148893088 0.189627096 0.152814984
0.190765545 0.202529743 0.158254206
0.251865745 0.218216553 0.175078839
0.331309378 0.236559078 0.201770827
0.422138184 0.265148759 0.223150194
0.537887394 0.299937099 0.260088295
0.690069377 0.344971538 0.306008756
0.169133186 0.285768360 0.196458086
0.194307283 0.287413090 0.202783093
0.234534830 0.296394736 0.216192186
0.296394736 0.308918625 0.223529637
0.367109358 0.328525811 0.242758095
0.456040710 0.349652022 0.264010102
0.569892526 0.380897939 0.294749916
0.709550917 0.424667805 0.339658469
0.227071166 0.406957716 0.247944549
0.252118975 0.409740359 0.269070536
0.291081637 0.417077750 0.275395542
0.349019647 0.430486947 0.287918836
0.420999616 0.444528759 0.305882603
0.516888142 0.462871373 0.329411745
0.628969193 0.495762467 0.352814645
0.756736338 0.537381172 0.401770890
0.307400525 0.562808216 0.341429293
0.326755315 0.572549105 0.352055728
0.369639367 0.573308170 0.357874572
0.425174177 0.579127133 0.369259924
0.504237533 0.592536211 0.382542700
0.585325718 0.607084453 0.407463908
0.683744371 0.626185834 0.439595193
0.795825362 0.666413724 0.500442982
0.425806284 0.706261992 0.453510374
0.442631304 0.712081313 0.458697259
0.475521773 0.716002345 0.470082283
0.523339927 0.722706914 0.480328918
0.587476075 0.726628721 0.497280210
0.658697307 0.735104322 0.518912077
0.735863268 0.746995747 0.549652100
0.820240259 0.765211880 0.595066547
0.616824627 0.850221395 0.639848173
0.629601240 0.855407596 0.633649349
0.642504930 0.854396045 0.642884135
0.675268948 0.857937932 0.651739359
0.720683157 0.859456122 0.663251102
0.767868161 0.866666377 0.684376657
0.825679600 0.873245060 0.703858495
0.885262311 0.884629905 0.735357583
0.050094996 0.071347095 0.128526002
0.085388996 0.074889451 0.132447988
0.152814895 0.084630102 0.155976996
0.222137645 0.113978542 0.172801733
0.301581293 0.153573811 0.201391280
0.393674731 0.191144899 0.233143628
0.509677529 0.226439282 0.266287118
0.668690383 0.269449979 0.315496653
0.087033898 0.107779637 0.135863543
0.118405998 0.109677084 0.146489203
0.158633649 0.129285082 0.162175998
0.233523086 0.156356648 0.182922423
0.303605467 0.184187084 0.206071988
0.399114519 0.213156104 0.234661534
0.510309815 0.243643284 0.269070357
0.657811344 0.287792802 0.312839985
0.123845905 0.189627096 0.180898085
0.155218109 0.191145092 0.196331546
0.193548098 0.199747190 0.205313087
0.255787551 0.222137734 0.214674175
0.332827210 0.242884189 0.231878459
0.428462982 0.271094173 0.266414076
0.538646579 0.303225994 0.292979181
0.693484724 0.347754568 0.342567891
0.178241640 0.288931191 0.233396277
0.198608652 0.291713804 0.236559182
0.234534726 0.299177974 0.251486182
0.298798651 0.314484626 0.258444101
0.366856724 0.326502264 0.274509609
0.458064467 0.351170093 0.297533393
0.574320018 0.381783634 0.328526109
0.710815787 0.427071631 0.371536911
0.230993077 0.404933572 0.289057374
0.252624840 0.411638021 0.299683720
0.286653966 0.419101983 0.307147175
0.349019617 0.424920708 0.316508174
0.422264278 0.440986454 0.329032272
0.511448264 0.464516193 0.350158185
0.628083289 0.495888650 0.385325551
0.756989002 0.538393080 0.432637632
0.312207639 0.565085173 0.375837743
0.332068384 0.563187659 0.377988636
0.369006991 0.568500578 0.382668942
0.426818550 0.576849937 0.399114549
0.502087235 0.588614821 0.410878927
0.588235378 0.600000083 0.429095566
0.681720197 0.624667943 0.464136630
0.792409778 0.665275216 0.523086667
0.425679833 0.702593446 0.468817443
0.442631304 0.708159387 0.485009700
0.474509835 0.715243280 0.493991345
0.525363564 0.716761470 0.504490852
0.588994324 0.724604487 0.523845553
0.657938123 0.735610366 0.540923595
0.733206511 0.741935551 0.565211713
0.822264194 0.771283805 0.612650156
0.613662601 0.846299648 0.640986681
0.623529375 0.852751315 0.649715483
0.638836086 0.851612568 0.659455955
0.672991931 0.854775488 0.664516091
0.716508448 0.860467970 0.675395489
0.767488599 0.865527809 0.693231702
0.819987476 0.871979892 0.716255546
0.878304660 0.882732809 0.746868610
0.059962351 0.074510001 0.189500287
0.095256448 0.075648353 0.196711004
0.153194353 0.093611546 0.208096445
0.218595996 0.122200996 0.225300640
0.304364622 0.159898996 0.250347823
0.393548727 0.191144899 0.274383724
0.510689259 0.225300640 0.312207639
0.675268948 0.265527993 0.361416608
0.095256448 0.116002090 0.207210630
0.121948257 0.118279278 0.202150300
0.164199650 0.137128085 0.213409543
0.228336647 0.157115549 0.235041082
0.307400644 0.186464190 0.259329170
0.399873734 0.216318995 0.281973302
0.517647207 0.248829544 0.323086649
0.671853483 0.280328989 0.356103927
0.122959994 0.192789197 0.241366178
0.155218095 0.198988095 0.246426642
0.197470099 0.209614456 0.247944444
0.264896005 0.227198094 0.269196749
0.337254852 0.250727177 0.287539393
0.432004720 0.269070446 0.312207550
0.547627926 0.304743797 0.341176331
0.694876790 0.345477462 0.385578901
0.175458282 0.292599648 0.283618003
0.200252652 0.292472839 0.292979181
0.237444997 0.305502981 0.301201731
0.298798621 0.318405926 0.302719623
0.366729826 0.336875290 0.323845714
0.467045993 0.357621640 0.343453646
0.583681166 0.385199279 0.375205606
0.719544411 0.427071631 0.417330921
0.233143553 0.408475727 0.345983535
0.250980526 0.415939301 0.341935545
0.291081548 0.419102073 0.352561474
0.349399179 0.426059365 0.359898627
0.428463161 0.444528729 0.375964433
0.518532336 0.465654731 0.399114549
0.631372392 0.497406662 0.428083539
0.752814651 0.543073833 0.473624319
0.313345999 0.560531139 0.421884716
0.333712995 0.564452887 0.423023373
0.370904535 0.574193418 0.433523118
0.424794614 0.579759479 0.443390280
0.498798251 0.588740945 0.454269260
0.585452259 0.602023840 0.473877370
0.685768664 0.623909056 0.503099024
0.793042123 0.664642572 0.556356788
0.427830637 0.707906604 0.523086548
0.447058856 0.711574912 0.516129076
0.473244816 0.714104950 0.524984002
0.522074521 0.716888011 0.532068253
0.585325718 0.727513909 0.548513949
0.659582496 0.733206570 0.569639087
0.738266885 0.743832886 0.594307542
0.826945007 0.772422433 0.640480697
0.612270594 0.847438455 0.660973966
0.618722439 0.851612806 0.663756788
0.637318134 0.854648709 0.676407576
0.669576406 0.856420159 0.680075943
0.712713659 0.861859620 0.689943135
0.766476810 0.864515781 0.708791614
0.822137773 0.876786649 0.731435895
0.888424933 0.883997619 0.755597591
0.072106190 0.082353003 0.260088384
0.098671995 0.084630191 0.263124377
0.158254281 0.104996808 0.278937280
0.228842184 0.129285187 0.291081548
0.302340388 0.162934989 0.314104974
0.400379717 0.197470188 0.341808945
0.520683110 0.227957085 0.382163256
0.675268948 0.270714819 0.431878537
0.094623990 0.128526181 0.275648385
0.122960083 0.133206889 0.273624659
0.171537012 0.144591734 0.286654085
0.236179650 0.164199650 0.297659993
0.312966645 0.186843544 0.312207520
0.407716542 0.221378729 0.344971627
0.524478376 0.247564793 0.382163197
0.671980023 0.286274523 0.430866718
0.140290990 0.202276900 0.304111183
0.160784200 0.207590297 0.313092738
0.196584076 0.211511999 0.315623194
0.262871563 0.231498912 0.325869381
0.334472090 0.252371907 0.346995384
0.433143377 0.274256915 0.376091182
0.547880828 0.306388289 0.407210469
0.702340424 0.344592094 0.453637004
0.177862093 0.288931251 0.348133802
0.200632304 0.300442755 0.352055728
0.239215732 0.303858280 0.355217904
0.301201850 0.319923848 0.370777816
0.377482444 0.336749077 0.382163167
0.470082104 0.356735945 0.410752714
0.582795799 0.381277561 0.432890534
0.720303655 0.423149914 0.475142449
0.232637376 0.415180385 0.398608387
0.257052183 0.416065991 0.404807359
0.292346984 0.419861078 0.413535446
0.353699803 0.432005048 0.423782200
0.434155196 0.448071182 0.439595401
0.523213387 0.466034383 0.455028355
0.633649588 0.493485272 0.487286389
0.756356776 0.537887335 0.525996208
0.314737260 0.561416924 0.476407409
0.328652740 0.562428653 0.482606143
0.370145559 0.571790159 0.486780643
0.426818579 0.577988446 0.499810308
0.498924434 0.591018021 0.510689378
0.586337686 0.603541970 0.530044138
0.691966951 0.627071559 0.556736171
0.796584427 0.667425871 0.600252867
0.428969264 0.704996586 0.564452827
0.443643272 0.709804118 0.567362130
0.475268573 0.714484394 0.578874111
0.519165039 0.721568465 0.580771863
0.585831642 0.725363553 0.592915535
0.657179058 0.732827127 0.612143993
0.734598219 0.745857000 0.625679612
0.825553358 0.771790147 0.668564498
0.600632429 0.847058654 0.693105400
0.607589900 0.848829985 0.691713989
0.624541461 0.854143023 0.696900487
0.664769173 0.855154932 0.706514478
0.709424615 0.858950138 0.718658984
0.763567388 0.867552042 0.727640629
0.820240259 0.874004006 0.752182186
0.881846726 0.886527658 0.774825752
0.082479522 0.096015260 0.348513454
0.106135346 0.100695737 0.350790262
0.167235747 0.119164996 0.365085363
0.237318367 0.136748642 0.376343727
0.312713623 0.163314447 0.392156661
0.407210469 0.201644734 0.414927453
0.522960305 0.233902737 0.452119023
0.682226360 0.265401661 0.514737606
0.098925002 0.137001798 0.354965210
0.127514452 0.141049802 0.353573531
0.175964460 0.151929185 0.365338504
0.241619632 0.167615294 0.377356172
0.319418192 0.193548203 0.395066738
0.415812463 0.222137734 0.419734478
0.525363624 0.245540544 0.456926018
0.669323564 0.281594008 0.508538485
0.132068455 0.208476007 0.392536223
0.153447181 0.219355077 0.397849441
0.208475992 0.220113993 0.393421799
0.269070536 0.234661818 0.411385119
0.347754270 0.255408108 0.422011375
0.438077241 0.276154339 0.449082822
0.551170349 0.305123419 0.478810757
0.705755711 0.342947453 0.530423820
0.178494737 0.302593648 0.424288362
0.190891653 0.305882543 0.429474920
0.235041186 0.308918536 0.433143705
0.299936980 0.320303380 0.444781363
0.378494591 0.336369544 0.462618470
0.469702542 0.358253986 0.477672368
0.582921922 0.382416040 0.506514668
0.722960114 0.417963237 0.553067625
0.224794373 0.416951120 0.479317188
0.245288000 0.420620084 0.487160057
0.285262167 0.428716123 0.489816844
0.344212651 0.434281915 0.494876444
0.427071631 0.446046919 0.508538723
0.521062672 0.465148360 0.531056404
0.635294259 0.491840661 0.553194225
0.761290193 0.530170858 0.595066369
0.303731740 0.563946486 0.554332733
0.321947962 0.564705491 0.549019456
0.365844488 0.570524871 0.556736350
0.417836726 0.575711489 0.567741454
0.499683619 0.589373708 0.576850116
0.585325718 0.599240959 0.589247167
0.690322757 0.623529494 0.613662243
0.795445681 0.656293511 0.650347710
0.415686071 0.703352273 0.619481504
0.440860301 0.709171057 0.628589451
0.466034293 0.711954355 0.628083289
0.513092875 0.719165146 0.636559367
0.576217473 0.724984050 0.642631292
0.657938182 0.734724879 0.659076750
0.736622036 0.744592011 0.679063797
0.830866694 0.771916330 0.715369761
0.591397762 0.845034778 0.726501882
0.604806781 0.849841774 0.730423927
0.621378779 0.852624953 0.732574344
0.652118802 0.853889585 0.736622393
0.696141481 0.860215068 0.741808474
0.757621586 0.865654647 0.757748365
0.817457199 0.876407146 0.776344240
0.882985592 0.883617699 0.804680347
0.076154292 0.108791701 0.476660281
0.109424256 0.112460256 0.481214285
0.180265903 0.123845898 0.490069389
0.258443981 0.142947644 0.497406900
0.350031376 0.167741999 0.512840033
0.445793718 0.193927735 0.532701015
0.552434802 0.228083581 0.559645832
0.682605863 0.266793132 0.592283368
0.086148001 0.146615997 0.474763006
0.121189259 0.146995559 0.481340855
0.183428302 0.157495290 0.488804728
0.262112558 0.175964728 0.503352284
0.350284725 0.190765247 0.517394066
0.451739460 0.220240086 0.537887275
0.555724263 0.246805787 0.560910940
0.675015986 0.287918806 0.590765059
0.101454720 0.216951191 0.498671651
0.138140097 0.221758187 0.512333810
0.202277094 0.225679994 0.515116990
0.281087905 0.236559182 0.526502192
0.371157408 0.255407900 0.539405465
0.471979648 0.275016010 0.559013426
0.581657469 0.303225994 0.585578680
0.701834023 0.341429263 0.616192162
0.118026711 0.309424281 0.541049778
0.148766652 0.306135297 0.538014114
0.216318995 0.313345999 0.550157845
0.300442636 0.324604630 0.555091500
0.393295288 0.337634265 0.574320257
0.492346644 0.356862664 0.587982297
0.599999905 0.384566575 0.607336819
0.723719060 0.416571468 0.632005215
0.185325727 0.430740297 0.583934546
0.208981559 0.430360824 0.589500308
0.257052571 0.434661478 0.595825434
0.328399807 0.434029281 0.601518273
0.425426990 0.442504466 0.610120237
0.531435966 0.465654820 0.622517586
0.640607357 0.488804162 0.642125547
0.753067553 0.524731398 0.670209050
0.290828705 0.575837970 0.646046519
0.308159649 0.577356160 0.647311807
0.352814853 0.580392361 0.653130531
0.410752803 0.582795501 0.654775560
0.486654013 0.591271400 0.661733508
0.581530690 0.597723126 0.674130261
0.688551545 0.619987011 0.689184010
0.795446098 0.651106715 0.716255426
0.413915277 0.705755532 0.696900845
0.432258129 0.705882549 0.697153568
0.460088432 0.711954296 0.692473114
0.508538902 0.714737654 0.701328218
0.574699640 0.720809579 0.713599026
0.648576498 0.732574522 0.724351525
0.739405215 0.747248232 0.735483825
0.828083336 0.767994821 0.765338480
0.590512156 0.844528913 0.776344180
0.592409551 0.848450363 0.769133627
0.614421248 0.844402492 0.775331795
0.651612937 0.851107001 0.782416403
0.694876969 0.856420040 0.793928087
0.751549721 0.862491965 0.797976077
0.817836642 0.874636233 0.818849087
0.886401057 0.890575767 0.835673630
0.024541205 0.116381831 0.663504243
0.096647732 0.117014430 0.666034281
0.191650838 0.127514258 0.670588315
0.290449172 0.142188445 0.669702888
0.398102343 0.168880343 0.688171625
0.499810398 0.197090641 0.699936628
0.617330968 0.235167906 0.717140853
0.736622572 0.282605976 0.733965755
0.021252194 0.150537997 0.654649019
0.094371021 0.155850992 0.664516091
0.184946388 0.164579287 0.669323564
0.288424909 0.176723823 0.677039683
0.393295288 0.197216853 0.685768425
0.503478527 0.222896829 0.702719927
0.616951406 0.250221431 0.712586880
0.734219015 0.299050987 0.731941521
0.008855205 0.219101846 0.680581748
0.080202490 0.222643808 0.681467175
0.192916006 0.228842080 0.688298404
0.293358743 0.244908556 0.691207826
0.403415382 0.257305533 0.699556828
0.512333810 0.282985181 0.714357853
0.631498873 0.312966347 0.725236952
0.747627914 0.357748151 0.745097876
0.005060354 0.308159471 0.695761859
0.032637518 0.310689449 0.697027087
0.177609071 0.319291532 0.703731477
0.299683630 0.329032272 0.712080956
0.408349186 0.345856935 0.714104831
0.529285252 0.361416817 0.727514446
0.638836324 0.390765280 0.737254918
0.756989002 0.431246221 0.751676083
0.049083147 0.433902383 0.727387607
0.091081731 0.439215750 0.726628482
0.183428317 0.430107564 0.727893710
0.296267986 0.435673684 0.733839571
0.423023373 0.450474381 0.740543962
0.546362996 0.466034383 0.752814591
0.662998319 0.495762378 0.757621586
0.775837958 0.536495626 0.770777643
0.258570582 0.592156529 0.768374503
0.286021501 0.594560385 0.767235696
0.328526318 0.593295217 0.765211642
0.388235390 0.589753449 0.767488837
0.469323099 0.589120746 0.769259870
0.582669377 0.597216725 0.781277657
0.694750249 0.622643888 0.785199285
0.804047763 0.653763771 0.802150488
0.431372374 0.733965576 0.795698822
0.449715406 0.734851301 0.804174662
0.471600205 0.733839273 0.798102438
0.517520547 0.734851301 0.803415596
0.573814034 0.738266945 0.806830943
0.649968147 0.739025772 0.813029587
0.738266706 0.746616244 0.818216085
0.833775759 0.775837779 0.832384765
0.592789412 0.854142785 0.842251658
0.612017810 0.859456182 0.853889585
0.626944602 0.859835684 0.851486564
0.653257251 0.862112522 0.850347936
0.694117785 0.864515781 0.851233244
0.751802623 0.870335519 0.854142725
0.815559924 0.878558040 0.872106194
0.891966820 0.891966701 0.891966760
