Assets/Shaders/EldamarStudio/100 Sci-Fi LUTs Pack/LUTs/cube/Jennifer LUT.cube
LUT_3D_SIZE 5
DOMAIN_MIN 0.000000 0.000000 0.000000
DOMAIN_MAX 0.903226 0.903226 0.903226
0.070588000 0.070588000 0.070588000
0.133080706 0.074510001 0.082353003
0.252371997 0.112459995 0.113092579
0.419860989 0.180518985 0.177609116
0.673877597 0.262997985 0.256419808
0.108538993 0.168374702 0.112460412
0.170018986 0.179506704 0.126502290
0.285136372 0.207969397 0.159266114
0.450600982 0.255028397 0.208601981
0.695003033 0.335230500 0.286527812
0.205312997 0.341302961 0.223023400
0.252751261 0.362302393 0.229854688
0.362934411 0.385831803 0.255028814
0.521947801 0.419860661 0.295382529
0.748260617 0.494496793 0.364958823
0.329791248 0.611132145 0.358128130
0.384313703 0.618342698 0.373814136
0.487919390 0.627830684 0.390891969
0.631752253 0.651360273 0.431752235
0.811258912 0.695508897 0.517014265
0.620240450 0.848829746 0.635926425
0.641492724 0.854395747 0.646679282
0.692599356 0.861859620 0.653384030
0.786084592 0.869323134 0.688677788
0.890701890 0.883997619 0.737887383
0.056167006 0.072865292 0.116381988
0.135357410 0.075521708 0.134724990
0.259582400 0.137001708 0.177861989
0.426059127 0.202023998 0.231119707
0.672485590 0.271726698 0.306135565
0.117014416 0.170651421 0.165717706
0.172295704 0.178494424 0.179506704
0.288424969 0.214168116 0.209234834
0.448956519 0.261226684 0.255028397
0.690448880 0.330297381 0.320556521
0.205312997 0.346236676 0.258950382
0.254016280 0.357368678 0.265781105
0.360657692 0.381910384 0.290322393
0.519544542 0.418216109 0.326628715
0.743326902 0.487286627 0.403921515
0.335231125 0.596457839 0.387223423
0.376849800 0.609234393 0.398102522
0.482352674 0.622644126 0.420619816
0.629475117 0.638962686 0.455913812
0.796458066 0.694876671 0.537760675
0.619481444 0.848070800 0.638456762
0.640354216 0.850094616 0.654142737
0.692599356 0.858570397 0.667172790
0.785452008 0.867299080 0.698545218
0.880834758 0.883744717 0.744085908
0.072612412 0.071220584 0.224920988
0.138646409 0.093484998 0.233143702
0.255028814 0.143200412 0.262239397
0.421885014 0.205313414 0.315622687
0.672485590 0.263504416 0.391777396
0.124857992 0.176217273 0.258317381
0.179506272 0.189626977 0.269449830
0.288678110 0.222011268 0.298165798
0.448703229 0.261606395 0.336495936
0.689436734 0.323719233 0.415054083
0.208602399 0.347248405 0.332194835
0.251106977 0.357368678 0.343959391
0.359013408 0.381909966 0.366223782
0.518659294 0.414294541 0.404174358
0.746995568 0.486021221 0.476787210
0.333333552 0.590639234 0.458823353
0.382036448 0.601012230 0.477545828
0.479443431 0.615433395 0.493485093
0.623909295 0.635673285 0.523213267
0.802403331 0.693232238 0.593548536
0.600505769 0.844149232 0.677040040
0.622517288 0.849715531 0.675648570
0.686148167 0.855914235 0.695888817
0.774319768 0.867425561 0.715876043
0.886780679 0.885388970 0.769259632
0.078431003 0.100062996 0.376850247
0.149778560 0.114105128 0.383301824
0.277292818 0.152688131 0.408475548
0.440607131 0.212776870 0.449335992
0.683997273 0.268184811 0.534471750
0.120177157 0.191271275 0.410752386
0.180391982 0.202656552 0.410119832
0.304743826 0.229474828 0.442125380
0.467678815 0.269070536 0.473877519
0.701960862 0.329285234 0.548893154
0.189626992 0.360278398 0.473624229
0.241619110 0.366223812 0.494497240
0.365211695 0.385831803 0.508538544
0.527893722 0.420493245 0.532068133
0.746615887 0.473877341 0.596204937
0.321948230 0.599367380 0.585705101
0.373434424 0.603921473 0.586337507
0.468943805 0.617710114 0.603921533
0.626818359 0.637697279 0.630740166
0.805312872 0.687665939 0.681214273
0.592409909 0.843010783 0.738646090
0.618342757 0.850094616 0.745477557
0.674003780 0.854648769 0.752435088
0.771030784 0.868437767 0.771410465
0.879949450 0.886401057 0.812017918
0.024541205 0.116381831 0.663504243
0.165844694 0.125237271 0.667299449
0.336875200 0.154965416 0.673750758
0.527640820 0.205692694 0.703225732
0.736622572 0.282605976 0.733965755
0.014927354 0.199114531 0.678051829
0.168374702 0.208601817 0.685009539
0.350537807 0.229474992 0.693105459
0.540923238 0.272359133 0.713598847
0.746615708 0.344085962 0.742314756
0.000000000 0.364832163 0.708918631
0.141808927 0.368500918 0.721188903
0.358380795 0.386464357 0.728652537
0.567741871 0.424414814 0.747501612
0.772422194 0.488678187 0.771157146
0.304870307 0.626565456 0.775711477
0.351802856 0.632511079 0.773055017
0.459455937 0.629854679 0.779253542
0.620367110 0.636938453 0.789373636
0.813915074 0.683112085 0.807716787
0.592789412 0.854142785 0.842251658
0.622137785 0.858317494 0.849209309
0.675774992 0.861859620 0.852119029
0.767488778 0.874636471 0.858696759
0.891966820 0.891966701 0.891966760
