Assets/Shaders/EldamarStudio/100 Sci-Fi LUTs Pack/LUTs/cube/Kacie LUT.cube
LUT_3D_SIZE 5
DOMAIN_MIN 0.000000 0.000000 0.000000
DOMAIN_MAX 0.903226 0.903226 0.903226
0.003922000 0.000000000 0.000000000
0.359645367 0.000000000 0.024541706
0.647311807 0.000000000 0.068057984
0.864895999 0.005060124 0.152055874
0.998734832 0.167615786 0.247185141
0.322707087 0.289690405 0.232131407
0.443011105 0.286401004 0.183807388
0.650221109 0.303731680 0.183428109
0.860341847 0.304743409 0.239342406
0.998734832 0.335483640 0.297279924
0.628336430 0.598229229 0.521821797
0.688425362 0.614041746 0.590133131
0.749905229 0.569513202 0.428336382
0.865275562 0.531561971 0.374699831
0.996204972 0.580012381 0.418468982
0.799241126 0.825679958 0.759139955
0.831498981 0.834535122 0.793169260
0.864895999 0.839468956 0.808855295
0.916888118 0.787476122 0.658064127
0.997090161 0.728020132 0.563314140
0.906008780 0.954333007 0.934851110
0.918405831 0.958633900 0.947248816
0.944592237 0.957621574 0.976596773
0.952941000 0.956989169 0.940670550
1.000000000 0.936115980 0.843389988
0.000000000 0.146489412 0.415560097
0.375964403 0.004554003 0.376976699
0.644022822 0.000632584 0.368753970
0.852498233 0.010752829 0.392663121
0.998734832 0.146489650 0.400252968
0.001644708 0.382163107 0.418469369
0.374952704 0.298165411 0.407969415
0.644654989 0.265528411 0.389373690
0.840733886 0.270335287 0.396837413
0.996710896 0.323719412 0.427197874
0.471726686 0.562934816 0.477292806
0.593548417 0.570525050 0.530297399
0.710942268 0.557115376 0.519797802
0.831878722 0.556103528 0.494876832
0.984566391 0.572549045 0.508412480
0.763693988 0.811385274 0.745477676
0.808349252 0.820872664 0.783681095
0.869070292 0.831625640 0.846679449
0.892726243 0.783301890 0.700569034
0.992030144 0.739152133 0.622770190
0.915243804 0.957621813 0.936495960
0.919038653 0.959013164 0.950284660
0.945857286 0.958886564 0.979253590
0.953700423 0.960278392 0.954332352
0.994180977 0.935104132 0.865654826
0.000000000 0.294876397 0.745983422
0.001644708 0.119417682 0.726628661
0.614547789 0.003289416 0.661606848
0.837191939 0.000000000 0.637444854
0.986464381 0.141429648 0.611891031
0.004554003 0.487159818 0.750917077
0.121315688 0.396584511 0.732574105
0.612270713 0.250474393 0.673750639
0.827956676 0.250094712 0.638456643
0.987476110 0.300189644 0.626692116
0.230993226 0.676027834 0.738140404
0.409108073 0.662998259 0.739405394
0.628968835 0.562301934 0.703478813
0.810626388 0.508032382 0.649209559
0.974826217 0.529664755 0.655914187
0.506514788 0.738140583 0.679696560
0.584946215 0.744718432 0.686147869
0.742947757 0.765718281 0.745603681
0.853130877 0.761796236 0.765591204
0.955724001 0.776091218 0.743706524
0.866413355 0.953193963 0.914737403
0.883618176 0.959392488 0.942567945
0.936875343 0.960278392 0.974066794
0.958886564 0.975964367 0.998102427
0.986970186 0.952561378 0.918659210
0.000000000 0.397217125 0.950284362
0.002277292 0.323339731 0.952814758
0.347628027 0.183428138 0.919291258
0.772675276 0.041492991 0.866919994
0.978114784 0.090955079 0.856925964
0.004554003 0.528905869 0.946868718
0.000632580 0.481846839 0.945603728
0.386843860 0.354458839 0.929032266
0.768880248 0.266793400 0.861353517
0.975205600 0.265275240 0.860594630
0.379380405 0.757747948 0.959392726
0.477419406 0.737760663 0.958127975
0.572422624 0.646679282 0.934471667
0.765212119 0.519797802 0.871853590
0.966729939 0.489690393 0.856166959
0.508033037 0.872739017 0.939405203
0.555091441 0.871473968 0.937128484
0.676913261 0.856420040 0.945603669
0.800252974 0.774826229 0.901202142
0.955724001 0.717267454 0.845287859
0.527260959 0.925995946 0.861606956
0.579380274 0.932447612 0.873497844
0.738645971 0.937381327 0.896141469
0.925490081 0.960783899 0.979253590
0.971789956 0.956103504 0.982036829
0.000000000 0.465527982 1.000000000
0.000000000 0.427577227 1.000000000
0.001897590 0.300063431 0.998734951
0.582795739 0.269196510 0.996711075
0.891713798 0.191017970 1.000000000
0.001644708 0.559266508 1.000000000
0.000000000 0.531182706 1.000000000
0.027957102 0.436053395 0.998735011
0.599494219 0.381530493 0.998355269
0.890702069 0.306388676 0.997090101
0.429728031 0.753067851 1.000000000
0.455028325 0.732447684 1.000000000
0.510816216 0.676660240 0.996078134
0.654775739 0.584187090 0.996078432
0.898291945 0.500189424 0.997343183
0.641619086 0.924857616 0.996711075
0.674889445 0.919418156 0.997470021
0.736495674 0.904743850 0.997343183
0.782922268 0.821125805 0.998987854
0.907906294 0.720177114 1.000000000
0.691713810 0.981909811 0.994687021
0.717267632 0.981530726 0.996711016
0.788614810 0.983807564 1.000000000
0.885515690 0.979506731 0.997976005
0.955850840 0.953067780 0.998734832
