Assets/Shaders/EldamarStudio/100 Sci-Fi LUTs Pack/LUTs/cube/Kacie LUT.cube
DOMAIN_MIN 0 0 0
DOMAIN_MAX 1 1 1
LUT_3D_SIZE 32
0.003922000 0.000000000 0.000000000
0.058570772 0.003036387 0.003036387
0.108918548 0.001771226 0.003922000
0.157495320 0.001265161 0.007716838
0.206831098 0.003542452 0.015306548
0.261479884 0.000506065 0.012270937
0.311068624 0.000000000 0.016825000
0.359645367 0.000000000 0.024541706
0.407463282 0.000759096 0.031373002
0.453004479 0.003795482 0.031373002
0.498544842 0.001012129 0.031373002
0.535989761 0.000000000 0.039468993
0.571663618 0.000000000 0.049335998
0.610879064 0.000000000 0.055913996
0.647311807 0.000000000 0.068057984
0.683744550 0.000000000 0.080202602
0.718659163 0.000000000 0.090828799
0.750790536 0.000000000 0.100568987
0.778115034 0.000000000 0.112713024
0.808222711 0.000000000 0.127640367
0.838583469 0.000000000 0.140923470
0.864895999 0.005060124 0.152055874
0.883491516 0.020746481 0.161796004
0.910815895 0.048070908 0.186084807
0.933586240 0.077672556 0.201264992
0.954838634 0.103858642 0.214800656
0.975585043 0.125111058 0.228969067
0.993800998 0.146363437 0.238077447
0.998734832 0.167615786 0.247185141
1.000000000 0.190638930 0.259835184
1.000000000 0.212270588 0.276786596
1.000000000 0.227450997 0.298038989
0.043390386 0.030360773 0.021252386
0.067679152 0.039468385 0.024288775
0.113725379 0.046805769 0.023023613
0.163061261 0.051106773 0.020872839
0.216698483 0.055154935 0.022517096
0.276660264 0.052119225 0.027451325
0.316129029 0.049082838 0.026945390
0.362681776 0.043643069 0.030360676
0.410499692 0.035673488 0.035926614
0.456040889 0.025047865 0.040480614
0.492852420 0.013535647 0.043390483
0.540037453 0.004048008 0.045540743
0.578494549 0.000000000 0.053510256
0.613915503 0.000000000 0.062745027
0.650348246 0.000000000 0.083238371
0.681973398 0.000000000 0.092979185
0.715622783 0.000000000 0.101454996
0.749651730 0.001264994 0.110309944
0.784187019 0.006072014 0.124857791
0.811511338 0.019987360 0.137001783
0.837824106 0.032637376 0.153826371
0.863883853 0.045540642 0.166223869
0.886401355 0.062998265 0.173308238
0.910815895 0.084503680 0.183048412
0.935863554 0.107274041 0.202783182
0.959266365 0.129791349 0.216445372
0.980139077 0.148893133 0.228969067
0.990765333 0.167615816 0.238077447
0.998355389 0.180898353 0.249841973
0.996457994 0.199240938 0.262871563
0.995698988 0.220113575 0.278937370
1.000000000 0.239594996 0.298038989
0.085009545 0.071473777 0.055407770
0.098545544 0.071979940 0.051992387
0.135737315 0.076786548 0.048576996
0.175711304 0.082099773 0.039215773
0.223908871 0.087918863 0.032511000
0.275774866 0.097280487 0.036812097
0.324857622 0.092093453 0.037824225
0.362934679 0.089057475 0.037824225
0.409234524 0.083238319 0.043390092
0.454775721 0.075016022 0.053636774
0.495888799 0.067046359 0.056799643
0.532321274 0.056925841 0.061859768
0.578115046 0.048323963 0.066160545
0.614548028 0.047059059 0.073750801
0.649083078 0.045161322 0.083618164
0.682859004 0.047312092 0.097406797
0.713219345 0.047312092 0.111068994
0.745983303 0.047944508 0.119670995
0.780897975 0.052498337 0.130297199
0.808981359 0.062618680 0.144845009
0.836305737 0.074003570 0.156988978
0.860847533 0.089436799 0.173687115
0.885009706 0.105123527 0.183554724
0.907274008 0.120303683 0.196710885
0.933712780 0.132954046 0.206198573
0.958001554 0.151423424 0.217457324
0.981277764 0.168374479 0.227830291
0.995319426 0.184946105 0.240227669
0.993168950 0.199999958 0.256293744
0.999240935 0.215686396 0.268437743
0.996457994 0.233017132 0.284123987
1.000000000 0.251739532 0.302340001
0.131309479 0.114484482 0.091081321
0.140417546 0.108918548 0.083744161
0.164326534 0.112713709 0.083997317
0.201771304 0.117014483 0.067805000
0.238582864 0.115116939 0.050347999
0.282352805 0.123592861 0.048956223
0.327893615 0.132953838 0.050727319
0.369007021 0.134851024 0.053257320
0.409234524 0.131815419 0.054016225
0.454269648 0.131309465 0.067172483
0.494370580 0.124225318 0.071980029
0.534092486 0.118659072 0.075774990
0.572802305 0.111827970 0.081846997
0.615054071 0.108539321 0.088172026
0.650474370 0.104491070 0.093232408
0.681340754 0.106261969 0.106008984
0.713219345 0.107780159 0.114864156
0.744212508 0.109045148 0.131182730
0.777608991 0.112713367 0.137887329
0.805439353 0.120050520 0.149778366
0.831498921 0.126628727 0.161796153
0.857811153 0.133712605 0.174952284
0.882226348 0.144971788 0.190132663
0.905755758 0.155977160 0.205313087
0.930297256 0.164579287 0.217204273
0.953699946 0.173940659 0.226059645
0.977482736 0.188614994 0.230107248
0.996457815 0.203035697 0.243769422
0.997217000 0.218215972 0.259076655
0.995698988 0.232637554 0.273750961
0.997343421 0.251739740 0.285894990
0.996204853 0.267679155 0.303351998
0.181784093 0.153194547 0.121062547
0.192030251 0.146363243 0.114610702
0.208601862 0.148260757 0.117267318
0.232131407 0.156483546 0.112586871
0.262492090 0.161796555 0.081467099
0.301960498 0.146616161 0.069323093
0.342820734 0.157242328 0.068690866
0.380392104 0.172422543 0.072232991
0.415307194 0.183428094 0.078304999
0.457812011 0.180392474 0.081340626
0.494876564 0.173055217 0.087286741
0.532194793 0.168374389 0.091334835
0.572422743 0.165717736 0.095509097
0.614421546 0.162682056 0.101581097
0.653763354 0.156736553 0.110562958
0.685135782 0.157115847 0.126122534
0.713219345 0.159013093 0.136748731
0.743453503 0.159519076 0.141050026
0.776849985 0.165591106 0.150158435
0.805439353 0.171663105 0.160025209
0.830866456 0.175458282 0.169133291
0.854775548 0.178494677 0.179506660
0.879190087 0.181657538 0.194307536
0.906514466 0.190512195 0.208728909
0.931562006 0.197343096 0.221632004
0.953067482 0.204047754 0.233143657
0.971789598 0.213662088 0.242252037
0.993041992 0.225806072 0.251359612
0.998734832 0.239847898 0.262745112
0.999620438 0.253257394 0.274889499
0.998102427 0.266920030 0.286653996
0.988994002 0.288172454 0.298797995
0.224288866 0.186590940 0.148386940
0.242504880 0.195699334 0.160530925
0.254901826 0.191018254 0.160530865
0.271094173 0.193801165 0.158254087
0.292852849 0.201264933 0.142188638
0.323212862 0.201264933 0.105755866
0.357621908 0.186084539 0.098671868
0.392536551 0.186843708 0.095762223
0.426692188 0.195192918 0.097280100
0.463883996 0.210752472 0.105629392
0.503478885 0.213535860 0.111574866
0.536369443 0.212523863 0.115623251
0.571663618 0.212017804 0.119797863
0.611385107 0.211258829 0.125869870
0.647817850 0.208222449 0.131941855
0.687159777 0.204680741 0.143326923
0.717014372 0.205692604 0.151929125
0.742947519 0.207589865 0.156230345
0.770778000 0.208095878 0.165338039
0.804174423 0.214167863 0.180012435
0.830866456 0.216444865 0.190385669
0.854143143 0.217963055 0.199494064
0.876154423 0.221125916 0.209487930
0.903478801 0.227197930 0.215559930
0.928525925 0.233775869 0.227703989
0.950031340 0.238456547 0.241239652
0.968753994 0.244022861 0.254396081
0.990006328 0.256166846 0.263504416
0.997975945 0.265654683 0.272612005
0.998228788 0.277545810 0.283997476
0.996584058 0.289689958 0.295256287
0.995065987 0.303352058 0.304870009
0.274383307 0.240227968 0.193421632
0.287539303 0.241746038 0.192915961
0.310056865 0.244402647 0.211511731
0.322454095 0.239089280 0.211638287
0.336496174 0.241872400 0.201518312
0.356103957 0.248323649 0.171536773
0.383934289 0.245793968 0.142694324
0.414042026 0.222390875 0.126755327
0.446426511 0.217963323 0.119797640
0.482859284 0.232637316 0.127134815
0.507021248 0.248956516 0.140923634
0.546489596 0.256040365 0.146995634
0.579506636 0.258696944 0.150537670
0.615939081 0.259835601 0.154965028
0.652371824 0.256799221 0.158760309
0.688804567 0.256166637 0.169639304
0.725110531 0.254775316 0.178747311
0.753067553 0.256799221 0.184060574
0.780392051 0.258696973 0.193168685
0.805692732 0.259202957 0.197723016
0.837191820 0.259582222 0.212903380
0.859709144 0.259961754 0.220240638
0.877925158 0.262998164 0.224668309
0.900442541 0.266666949 0.230740324
0.925490201 0.272738934 0.236812323
0.951169968 0.278810948 0.248450294
0.972802043 0.283997566 0.261985987
0.992030084 0.294117302 0.273118109
0.997469962 0.301075459 0.284756780
1.000000000 0.310183376 0.293864369
0.998608351 0.322453886 0.307020873
0.998608351 0.336242646 0.321062654
0.322707087 0.289690405 0.232131407
0.331562102 0.288045704 0.230740085
0.349019259 0.286400974 0.246553168
0.372042865 0.287666142 0.264010400
0.381910205 0.284250677 0.259456396
0.392030627 0.292093456 0.238456711
0.410753012 0.294370711 0.207842782
0.443011105 0.286401004 0.183807388
0.466540396 0.256799281 0.157242283
0.495888948 0.257431716 0.151802689
0.524351895 0.270461738 0.161669850
0.556103945 0.282606125 0.170777977
0.588741302 0.293991029 0.174572989
0.619354725 0.299810410 0.177608728
0.650221109 0.303731680 0.183428109
0.686653852 0.306388110 0.192030400
0.724604845 0.303352118 0.201138407
0.756989241 0.303099096 0.207842976
0.784313738 0.305123389 0.216951370
0.808854997 0.302087426 0.220493346
0.832005084 0.306767642 0.226186022
0.860341847 0.304743409 0.239342406
0.877672195 0.307147205 0.241619498
0.898924649 0.310183585 0.249209702
0.924098551 0.312207699 0.256926000
0.949778676 0.315496683 0.264389664
0.975585043 0.321062684 0.276280701
0.993800998 0.329031944 0.288424700
0.998734832 0.335483640 0.297279924
1.000000000 0.346616149 0.307653427
1.000000000 0.354838401 0.316761315
1.000000000 0.367741704 0.332700998
0.369766086 0.330677003 0.267046183
0.375838280 0.330676794 0.267046183
0.388994306 0.326122433 0.279696554
0.405439466 0.326375455 0.301961184
0.425173759 0.329411745 0.311828196
0.428969026 0.335104197 0.300443172
0.442125410 0.337887436 0.274383307
0.465022415 0.335736871 0.246805683
0.497660071 0.322833180 0.224035278
0.509804130 0.295508802 0.190638885
0.539278984 0.295508951 0.185958192
0.570904493 0.301581353 0.188235089
0.603162646 0.311448544 0.193548098
0.625174046 0.326881975 0.194813132
0.650474191 0.340038091 0.204933509
0.681340575 0.349652171 0.212523907
0.716255367 0.351929098 0.219355002
0.753194511 0.347754687 0.226059571
0.780519009 0.347881198 0.235167965
0.805819154 0.343833178 0.238709837
0.830486774 0.344971538 0.242884085
0.851233244 0.349525303 0.248450235
0.875395477 0.349651784 0.257558584
0.896647930 0.352687985 0.266666800
0.923213184 0.354206175 0.278051883
0.949019551 0.354206175 0.287159652
0.974826038 0.355218172 0.295256078
0.993042111 0.361290187 0.306641102
0.998734832 0.366603285 0.313472092
0.998481989 0.376470268 0.321315289
1.000000000 0.389753193 0.331941694
1.000000000 0.395825207 0.341050088
0.421378523 0.367109030 0.315623015
0.427451313 0.376217395 0.315623015
0.437824488 0.371916234 0.319923997
0.448956639 0.369386345 0.334345371
0.458570927 0.374952942 0.354332983
0.467678547 0.377988547 0.348260999
0.481593817 0.378620982 0.331815362
0.500063241 0.378747493 0.309677482
0.521948099 0.374446392 0.284756869
0.543200493 0.359265983 0.257432461
0.564073324 0.337760597 0.226945236
0.585831761 0.329917789 0.212270752
0.609993637 0.331941873 0.209487498
0.637318075 0.342061609 0.216065526
0.667678833 0.360278338 0.231245905
0.692978978 0.375838280 0.236559302
0.719291151 0.384566784 0.239848301
0.747121751 0.387223095 0.244275585
0.774447024 0.390259475 0.253383994
0.801771402 0.390385985 0.256926388
0.830866456 0.390132993 0.259962231
0.856799245 0.388488472 0.263124615
0.875395477 0.383048952 0.266667008
0.896647930 0.386084557 0.275774598
0.924731016 0.389120817 0.291714102
0.950790167 0.390638977 0.305376261
0.971789658 0.391650975 0.313472062
0.990006387 0.397722989 0.316508442
0.997596502 0.401138812 0.322580487
0.996457994 0.407843202 0.330423713
0.994180977 0.417204142 0.341303110
1.000000000 0.426186025 0.356230468
0.449715614 0.415180475 0.346742749
0.461606681 0.421378970 0.358380735
0.474130630 0.419734597 0.362681717
0.487033725 0.415180475 0.371283710
0.498924851 0.418343186 0.388235092
0.515622795 0.426438808 0.402403742
0.524731040 0.419355065 0.388741434
0.534218729 0.421505600 0.370904624
0.549145997 0.424035609 0.349146426
0.570398390 0.419607997 0.323972195
0.585831761 0.401517749 0.293738008
0.601011872 0.378241628 0.263377756
0.621884644 0.366730094 0.245793968
0.649209082 0.365464747 0.239468738
0.676913679 0.378367811 0.246679276
0.700062990 0.394180775 0.252245665
0.726881385 0.409361184 0.258317679
0.754332423 0.418595731 0.266034007
0.777103066 0.423908830 0.277419716
0.798861504 0.426945210 0.280961394
0.825932920 0.425173998 0.282099992
0.853257239 0.423150003 0.285135865
0.875268996 0.419228733 0.290196002
0.893738031 0.419481695 0.296520978
0.914990425 0.422517329 0.301075161
0.940670311 0.424161851 0.309171319
0.963440895 0.425173879 0.317267060
0.984060884 0.431245863 0.334724426
0.994307160 0.429348707 0.337760806
0.998861372 0.437191814 0.354206234
0.997976005 0.445667356 0.364579529
1.000000000 0.450727761 0.365591139
0.489184260 0.465781242 0.389247477
0.497280240 0.465781480 0.389247507
0.509550750 0.467299491 0.403162748
0.525996327 0.463757485 0.411764741
0.539279103 0.464136928 0.423908770
0.552561700 0.469955564 0.438836098
0.567235529 0.469955564 0.447438151
0.577988684 0.467425942 0.432258189
0.583301783 0.471600473 0.410626441
0.595699012 0.471600473 0.382542491
0.613156140 0.464262992 0.354458988
0.626312256 0.444022506 0.324098259
0.638456523 0.417457491 0.292599589
0.661353528 0.401897699 0.272106200
0.688678205 0.399873257 0.265780985
0.711195648 0.414421052 0.269449800
0.732447684 0.425047249 0.277039975
0.760025203 0.439342141 0.287918806
0.782668948 0.450980484 0.301454931
0.799873352 0.456293613 0.305250138
0.823023498 0.459329486 0.308285743
0.846173406 0.456546396 0.307400376
0.867679000 0.453890234 0.310436487
0.893485010 0.457685232 0.316508502
0.916002512 0.457938224 0.324351281
0.935863197 0.459582508 0.327387661
0.957874894 0.460594505 0.330423564
0.977609456 0.466666490 0.342567950
0.992283165 0.466793060 0.353953093
0.997849226 0.467299432 0.362302214
1.000000000 0.476027906 0.382036716
1.000000000 0.479063988 0.382795244
0.539278924 0.518532276 0.437824279
0.544212282 0.515496671 0.434029281
0.552308559 0.516888261 0.441872418
0.564705551 0.516888261 0.456926256
0.582163274 0.515749753 0.469070256
0.592030525 0.515749335 0.481214285
0.607337177 0.517393947 0.493358552
0.618595660 0.519038320 0.494117320
0.627704263 0.522833824 0.477419525
0.627704263 0.523592889 0.445540458
0.641745627 0.519544363 0.416824669
0.657052279 0.510056674 0.389753044
0.669196248 0.488804281 0.355976909
0.681087971 0.458191246 0.322327495
0.703099370 0.439848065 0.300948501
0.727893829 0.437950432 0.295635462
0.748007834 0.446299642 0.296394646
0.768627584 0.453636795 0.306641221
0.791903675 0.470841587 0.319797635
0.806704342 0.481341004 0.324984372
0.827577531 0.485515535 0.331435889
0.847818017 0.492599368 0.335483640
0.862998366 0.490702271 0.333080500
0.889310658 0.496774286 0.338140637
0.913978517 0.497153640 0.345350981
0.938899577 0.497153640 0.353952974
0.958633661 0.497659713 0.357495278
0.978747845 0.503099263 0.361164063
0.990891755 0.506135285 0.369892627
0.996710598 0.507906497 0.378621250
0.999746978 0.511828303 0.389879644
1.000000000 0.515116930 0.401770651
0.594940066 0.570904076 0.485389054
0.597722650 0.568627477 0.486654103
0.602909505 0.571790040 0.493991047
0.611765087 0.575332046 0.506641209
0.623150051 0.575205505 0.521695077
0.635294080 0.566097140 0.533839047
0.652245700 0.566856384 0.546236694
0.664390028 0.570145369 0.549778700
0.668944001 0.573181212 0.540163994
0.668944001 0.579253972 0.518911600
0.676913202 0.573940337 0.489690065
0.689816296 0.567615092 0.462871552
0.704617023 0.557368517 0.433902413
0.716508031 0.536116064 0.394940019
0.725616455 0.502719760 0.358507276
0.747627735 0.482226253 0.341429263
0.770398319 0.472612053 0.332321048
0.787855983 0.474636167 0.327893615
0.806072056 0.486780971 0.330930024
0.819734037 0.501454711 0.337255031
0.838962495 0.509297788 0.346363068
0.859962106 0.515623093 0.356483072
0.872232556 0.530676961 0.362555057
0.890322745 0.537002027 0.365717947
0.910057247 0.537507772 0.371031046
0.934092641 0.536622107 0.378494680
0.960911036 0.537128091 0.387349993
0.988235414 0.540164471 0.393421978
0.997469962 0.545351028 0.398988008
0.998228788 0.549399197 0.403795213
0.996963620 0.553827047 0.409108430
1.000000000 0.559899092 0.418216079
0.628336430 0.598229229 0.521821797
0.628336430 0.604301214 0.537002206
0.633269787 0.606325090 0.536116421
0.643137157 0.608728409 0.540037811
0.656166971 0.609107971 0.549145937
0.659582794 0.611638248 0.564199805
0.674257100 0.610120177 0.578874111
0.688425362 0.614041746 0.590133131
0.696268380 0.617204130 0.589247406
0.696268380 0.615685940 0.570524752
0.696268380 0.613029838 0.549272358
0.706261814 0.605312943 0.520050287
0.722454011 0.599114478 0.492093146
0.740796804 0.590765595 0.461732715
0.749905229 0.569513202 0.428336382
0.759012997 0.536116242 0.391903579
0.776470363 0.511068821 0.367235780
0.792789578 0.498165786 0.351802796
0.803036451 0.504996955 0.352182388
0.826818407 0.517140985 0.363567382
0.844781935 0.526122451 0.368754148
0.865275562 0.531561971 0.374699831
0.884377301 0.539784610 0.380771816
0.899556935 0.551929355 0.386843830
0.913093090 0.562808394 0.392283380
0.934092641 0.570398450 0.399747044
0.960405052 0.576597154 0.408855319
0.982163429 0.579632819 0.417709976
0.996204972 0.580012381 0.418468982
0.998228788 0.581277430 0.425047159
0.996963620 0.585452199 0.434661567
1.000000000 0.596331835 0.448576808
0.654522598 0.637571573 0.558254540
0.656925797 0.638836563 0.566224158
0.663377583 0.638456821 0.570651770
0.672232628 0.642251551 0.575458765
0.685135782 0.643769562 0.585705400
0.690195918 0.640733719 0.598861516
0.703352273 0.643643618 0.609234869
0.710309982 0.646932602 0.622770607
0.718659043 0.652245462 0.629601657
0.723592758 0.652498126 0.619607568
0.723592758 0.649462461 0.605692506
0.729665041 0.644402564 0.582415879
0.739152610 0.637950778 0.555091321
0.753573835 0.634661794 0.528779149
0.766983211 0.624162197 0.497532964
0.776090980 0.600505948 0.461732745
0.786717176 0.568627357 0.425300360
0.801897764 0.541303217 0.395572692
0.812776983 0.526122808 0.376091003
0.828589857 0.532953799 0.380012810
0.850980520 0.543200493 0.390259534
0.869702995 0.550790429 0.395319790
0.889057696 0.558506846 0.401265264
0.899683893 0.570651591 0.405059993
0.914864063 0.580518484 0.411131978
0.931309640 0.591144621 0.417204350
0.955092013 0.602277040 0.426312745
0.974446654 0.616698146 0.439215332
0.994939983 0.612270594 0.437950611
1.000000000 0.615812600 0.446805775
0.998481810 0.617963195 0.457178950
1.000000000 0.625553787 0.469322979
0.678810954 0.677039981 0.594686985
0.684882998 0.674004018 0.603795350
0.689183772 0.674889624 0.604048193
0.700822175 0.670588374 0.607843339
0.711321712 0.676027834 0.620999634
0.713978350 0.675648212 0.629727960
0.724604309 0.674130499 0.639342248
0.740670383 0.677293003 0.653131366
0.742188394 0.681088090 0.662239373
0.750537634 0.682605922 0.659962118
0.752435386 0.681341052 0.651233137
0.753953457 0.680834949 0.635547280
0.759646177 0.675901592 0.613535464
0.765465140 0.672359347 0.589753389
0.779380381 0.665022194 0.560657740
0.792789578 0.652118742 0.531561971
0.798861206 0.632384598 0.493611366
0.810373366 0.601391852 0.457811832
0.821632028 0.570145369 0.424414814
0.836559355 0.553447187 0.406198740
0.854016542 0.558380902 0.403921723
0.872233033 0.568501174 0.412017971
0.889310658 0.578114867 0.417963505
0.901201725 0.588867962 0.420999467
0.917900085 0.598734856 0.429348379
0.933080435 0.607842803 0.435420364
0.953067839 0.618469179 0.441999048
0.970272005 0.638709426 0.455154926
0.988108754 0.643643200 0.460467815
0.998481810 0.646173358 0.460467964
0.999367416 0.652245343 0.477419376
1.000000000 0.655914187 0.489057183
0.703731537 0.709677160 0.629221737
0.713472486 0.706135154 0.641998708
0.717646956 0.705882311 0.642757773
0.724477708 0.706388533 0.644781709
0.738519549 0.701454997 0.655408084
0.736242890 0.710056603 0.659961760
0.739531875 0.709677279 0.664262831
0.752941012 0.710563004 0.676407397
0.769386590 0.712713242 0.693864942
0.775458515 0.709677577 0.693864942
0.779253840 0.708918512 0.689310372
0.780265987 0.710942447 0.677798808
0.780898571 0.711068571 0.660847843
0.781404555 0.708032966 0.643390119
0.792789519 0.699683666 0.618342698
0.806072176 0.691207886 0.590259075
0.817710340 0.680961311 0.563440502
0.820113540 0.664516568 0.523339570
0.829221964 0.631119311 0.489943117
0.844528913 0.599620223 0.456546724
0.859076560 0.581404269 0.432637811
0.877166212 0.583681524 0.426692128
0.889184415 0.595572531 0.432637632
0.903352082 0.604174912 0.435673892
0.920556247 0.613282859 0.444908559
0.942188203 0.623023212 0.453636944
0.957368612 0.632131636 0.459709078
0.972549021 0.649968147 0.468690991
0.987096786 0.660847366 0.478431284
0.994560361 0.670588195 0.485388696
0.996331036 0.680075943 0.488424718
0.999367416 0.686147988 0.509677172
0.731056035 0.727894008 0.656547010
0.743200779 0.733965993 0.671726584
0.746490002 0.734724998 0.671600103
0.750537753 0.734978020 0.672106206
0.759771943 0.734851480 0.682732582
0.765843928 0.737887144 0.703984976
0.758507371 0.738899052 0.698418677
0.764073670 0.741935492 0.700695753
0.778748035 0.746236920 0.712840021
0.790638924 0.746110439 0.730297029
0.796711028 0.743074119 0.730297029
0.798482060 0.744339228 0.721695006
0.799620688 0.743959665 0.705882370
0.802657008 0.738393128 0.685894966
0.808728993 0.735357463 0.676786542
0.817710161 0.729411960 0.642125249
0.830360234 0.723086953 0.616065800
0.841365993 0.713093460 0.593168855
0.841365993 0.691841006 0.550664067
0.858823657 0.666793168 0.517267704
0.869196951 0.636053264 0.481973588
0.881341100 0.614800990 0.458950192
0.901328444 0.610753000 0.456926495
0.910436094 0.616824985 0.459962100
0.920050323 0.625427306 0.467552334
0.939911306 0.635926962 0.474130332
0.966477036 0.647312105 0.477925122
0.981657445 0.656420410 0.483997911
0.994180977 0.668943942 0.495635986
0.999494016 0.680834949 0.509298205
0.998861372 0.692726016 0.520556927
0.996331036 0.704364061 0.527893960
0.766729712 0.765591383 0.711701393
0.767741799 0.774446785 0.707400322
0.775585055 0.776217759 0.718279481
0.776850045 0.774952590 0.719164968
0.780644894 0.774193406 0.724098384
0.784313679 0.779632866 0.728525996
0.795445740 0.777609110 0.737128615
0.797976077 0.777356088 0.742441356
0.807084382 0.781151414 0.754585564
0.811132371 0.785199404 0.768754065
0.823023379 0.782289565 0.775079072
0.827071607 0.781277418 0.769006789
0.826692104 0.782416046 0.755344748
0.826439023 0.779885828 0.736749113
0.829981387 0.776850164 0.727640688
0.836053371 0.771410763 0.711322129
0.844781935 0.766856551 0.680582345
0.856167138 0.760784388 0.657811761
0.862618387 0.745983779 0.626059175
0.870967686 0.730297327 0.605819106
0.881594002 0.704111338 0.564832330
0.890702128 0.674510002 0.528779030
0.908412516 0.655534744 0.511068881
0.928146839 0.640354037 0.498165458
0.939531684 0.648703337 0.496647686
0.951929033 0.659203053 0.503732026
0.973308027 0.670335174 0.509550989
0.990765095 0.677166820 0.513345897
0.992662668 0.688931346 0.527387857
0.995445848 0.706388533 0.541429579
0.994433999 0.719797730 0.553953409
0.993295372 0.728146732 0.560025394
0.786084712 0.799367428 0.740923464
0.795572460 0.800885320 0.744338751
0.792283475 0.805439711 0.745224535
0.795825481 0.804174542 0.753067732
0.797343493 0.801897287 0.756356478
0.804933667 0.806451440 0.756356478
0.807969749 0.810626090 0.759519398
0.823402762 0.809234738 0.768880725
0.830234110 0.808475673 0.783807576
0.829095721 0.811131954 0.797090709
0.838836014 0.814168334 0.803415716
0.848703206 0.813156188 0.805060148
0.849462628 0.813156188 0.795951784
0.846679509 0.813156188 0.780518711
0.848071158 0.811764836 0.769766033
0.851612985 0.808222711 0.753446996
0.859203219 0.800632477 0.733712792
0.867046416 0.797469735 0.710309982
0.873624086 0.790385664 0.689310193
0.886527359 0.777356148 0.660847485
0.895635724 0.762175679 0.638836026
0.901707709 0.734851301 0.597343087
0.913978517 0.707653403 0.567868173
0.928146899 0.685894668 0.540290534
0.946362972 0.674889028 0.526628256
