Assets/Shaders/EldamarStudio/100 Sci-Fi LUTs Pack/LUTs/cube/Kacie LUT.cube
LUT_3D_SIZE 8
DOMAIN_MIN 0.000000 0.000000 0.000000
DOMAIN_MAX 0.903226 0.903226 0.903226
0.003922000 0.000000000 0.000000000
0.206831098 0.003542452 0.015306548
0.407463282 0.000759096 0.031373002
0.571663618 0.000000000 0.049335998
0.718659163 0.000000000 0.090828799
0.838583469 0.000000000 0.140923470
0.933586240 0.077672556 0.201264992
0.998734832 0.167615786 0.247185141
0.181784093 0.153194547 0.121062547
0.262492090 0.161796555 0.081467099
0.415307194 0.183428094 0.078304999
0.572422743 0.165717736 0.095509097
0.713219345 0.159013093 0.136748731
0.830866456 0.175458282 0.169133291
0.931562006 0.197343096 0.221632004
0.998734832 0.239847898 0.262745112
0.369766086 0.330677003 0.267046183
0.425173759 0.329411745 0.311828196
0.497660071 0.322833180 0.224035278
0.603162646 0.311448544 0.193548098
0.716255367 0.351929098 0.219355002
0.830486774 0.344971538 0.242884085
0.923213184 0.354206175 0.278051883
0.998734832 0.366603285 0.313472092
0.539278924 0.518532276 0.437824279
0.582163274 0.515749753 0.469070256
0.627704263 0.522833824 0.477419525
0.669196248 0.488804281 0.355976909
0.748007834 0.446299642 0.296394646
0.827577531 0.485515535 0.331435889
0.913978517 0.497153640 0.345350981
0.990891755 0.506135285 0.369892627
0.678810954 0.677039981 0.594686985
0.711321712 0.676027834 0.620999634
0.742188394 0.681088090 0.662239373
0.759646177 0.675901592 0.613535464
0.798861206 0.632384598 0.493611366
0.854016542 0.558380902 0.403921723
0.917900085 0.598734856 0.429348379
0.988108754 0.643643200 0.460467815
0.786084712 0.799367428 0.740923464
0.797343493 0.801897287 0.756356478
0.830234110 0.808475673 0.783807576
0.849462628 0.813156188 0.795951784
0.859203219 0.800632477 0.733712792
0.895635724 0.762175679 0.638836026
0.946362972 0.674889028 0.526628256
0.996078014 0.708285928 0.546362817
0.863377988 0.891081274 0.854775548
0.856419861 0.897533238 0.857811570
0.877925575 0.897533000 0.878558040
0.903225720 0.902213991 0.908412278
0.910942435 0.899177670 0.880076230
0.917773426 0.890575230 0.824415088
0.963314533 0.863630295 0.738772810
0.999241054 0.780012488 0.633776009
0.906008780 0.954333007 0.934851110
0.914864242 0.960151792 0.941809118
0.918658912 0.959645987 0.950031757
0.938013792 0.960910797 0.973814130
0.943959355 0.955471337 0.972675800
0.950158179 0.958253980 0.946995616
0.968627691 0.954838395 0.909297645
1.000000000 0.936115980 0.843389988
0.000379548 0.081087545 0.259835541
0.232764095 0.000000000 0.237065539
0.418089718 0.003162904 0.230739728
0.571663618 0.000379548 0.244908452
0.708032787 0.000000000 0.257052273
0.826945007 0.002024260 0.270208985
0.927008033 0.059202816 0.291461110
0.996204793 0.161036953 0.317646921
0.000000000 0.237445086 0.239722088
0.236306548 0.181784093 0.241745651
0.416066170 0.153573990 0.249588639
0.573687375 0.133586526 0.248450100
0.709677637 0.134725094 0.265275329
0.821505308 0.151549727 0.278304905
0.914231718 0.186717242 0.300189793
0.994939983 0.228083804 0.326375544
0.264010191 0.331436098 0.261606187
0.369892180 0.333839089 0.306388199
0.469450086 0.319671094 0.306767732
0.576343894 0.334977746 0.301328421
0.714484572 0.331436098 0.305249721
0.824161887 0.334598184 0.318026394
0.913598835 0.344718456 0.337760895
0.994307041 0.364199787 0.359392643
0.484124184 0.491840392 0.417077929
0.534345269 0.498924553 0.448450744
0.616318822 0.510689378 0.500062883
0.652371943 0.478937745 0.401771158
0.727513850 0.453637153 0.360405177
0.813282669 0.486527383 0.382668942
0.902087212 0.490828723 0.392409891
0.992915750 0.493485212 0.412650168
0.644781828 0.654395998 0.581909955
0.679063737 0.663503945 0.600253165
0.728273153 0.664895773 0.649209678
0.757242203 0.670841277 0.638329864
0.792283654 0.629222274 0.526628375
0.843010724 0.561543643 0.440101534
0.910309911 0.601517737 0.470208913
0.982668996 0.638203800 0.495382965
0.770777881 0.793295324 0.728779435
0.782542765 0.795445979 0.734851241
0.813282788 0.803415477 0.776343882
0.847817719 0.811132431 0.804048061
0.850094914 0.797849238 0.744971633
0.889563560 0.758254170 0.639595032
0.935357094 0.676534057 0.542568028
0.994560421 0.711954713 0.573181689
0.852498531 0.881088018 0.851233244
0.855281293 0.893105567 0.856420279
0.877293050 0.892852604 0.868816912
0.900442600 0.897533059 0.903731883
0.907273829 0.898039281 0.886780739
0.918532610 0.890069544 0.827956855
0.955218017 0.857811570 0.751169860
0.991018116 0.773687541 0.644149125
0.912840068 0.951802671 0.939152360
0.924983919 0.954459012 0.954712212
0.924351752 0.956609666 0.960025430
0.935357213 0.954712451 0.964199901
0.946489692 0.959012985 0.980518520
0.948766351 0.961416721 0.955977321
0.969892561 0.956482947 0.910183072
0.997090399 0.937507987 0.856672764
0.000000000 0.170778006 0.475522190
0.000000000 0.026944648 0.456040263
0.416951180 0.000759096 0.427830189
0.572422743 0.000759096 0.417710185
0.706894398 0.000759096 0.408222377
0.827197969 0.001138644 0.418469191
0.915623009 0.088298470 0.432763934
0.996204793 0.151549533 0.431878299
0.000000000 0.295383006 0.474509746
0.025806723 0.234282091 0.459582657
0.403162658 0.133586526 0.441619545
0.576470733 0.117899738 0.417710185
0.700189710 0.132448003 0.411005735
0.805692315 0.154332817 0.420873195
0.904237688 0.175837815 0.420114011
0.993674815 0.209361210 0.437697828
0.003162906 0.421632111 0.467046171
0.217837006 0.407463282 0.478052080
0.410626203 0.336116165 0.447438210
0.581150949 0.299683750 0.432637215
0.697533250 0.303225964 0.427830398
0.812650323 0.306008846 0.430234194
0.902973056 0.320303500 0.444276094
0.993674815 0.350790769 0.457052201
0.288804352 0.468437374 0.427577376
0.354838282 0.473245084 0.434788197
0.493611276 0.473244965 0.457558393
0.614421189 0.464136720 0.474383652
0.701075494 0.472865462 0.464642376
0.800632596 0.471600264 0.473877460
0.895508826 0.477166384 0.482732385
0.984819531 0.490322471 0.494623899
0.532827377 0.630993068 0.531182468
0.567741752 0.628463268 0.552055657
0.659203172 0.634029269 0.595572174
0.740417659 0.657937944 0.670461833
0.760405123 0.615939319 0.569766045
0.822770655 0.583427906 0.526755214
0.888171971 0.619102240 0.548007488
0.973561049 0.637191594 0.559139550
0.719923913 0.771663666 0.701454878
0.745224595 0.772675276 0.721188962
0.779000401 0.784946084 0.747501373
0.827830374 0.800632656 0.798482060
0.848324060 0.794687092 0.787096858
0.868184745 0.747880876 0.680076063
0.920682788 0.687539518 0.602530181
0.980645061 0.731561840 0.624541521
0.826945186 0.876281142 0.831245959
0.842378259 0.886527359 0.841872096
0.864642560 0.888804555 0.861353576
0.890954912 0.893358529 0.898418605
0.910183370 0.904617071 0.917141020
0.920430303 0.890449166 0.865654767
0.947122276 0.858191073 0.777229369
0.994939983 0.782542706 0.681214511
0.910183549 0.956609905 0.932195008
0.910942256 0.955976903 0.936369300
0.919291794 0.959013104 0.955091715
0.935483813 0.960151792 0.969639540
0.949020028 0.963566959 0.983554780
0.955218077 0.961290061 0.971789837
0.965591311 0.957621574 0.930170596
0.993674994 0.936115980 0.869702816
0.000000000 0.261732996 0.676407278
0.007084001 0.180518627 0.665275216
0.232384831 0.012270991 0.643516958
0.557621598 0.000000000 0.596331298
0.709803700 0.002403808 0.579127312
0.817204356 0.000000000 0.561796427
0.901201606 0.062492207 0.555471301
0.994939983 0.154838637 0.559266627
0.012650003 0.349778652 0.672486067
0.001517999 0.302087426 0.666666627
0.220240384 0.184440434 0.641366005
0.559392691 0.104870088 0.601517856
0.705503166 0.077798732 0.577988744
0.809360862 0.125110477 0.567489088
0.903099239 0.173307732 0.556609988
0.991650939 0.216192365 0.552055597
0.000379548 0.513346076 0.682985663
0.136495739 0.483111739 0.673624635
0.321568757 0.395825207 0.651233375
0.552181900 0.296142101 0.612523675
0.708159506 0.280455291 0.586843550
0.803542197 0.296015203 0.571284175
0.893105567 0.320430189 0.561543584
0.988108575 0.343579650 0.568627357
0.129790917 0.598608255 0.662998259
0.248323813 0.599873722 0.670841277
0.418343157 0.579506636 0.665021837
0.559898615 0.493231893 0.623276651
0.698418975 0.435926735 0.593674839
0.793674767 0.443769634 0.579127133
0.883238494 0.453510284 0.579000592
0.971536756 0.469829440 0.584946096
0.368627608 0.612144232 0.603288651
0.405565739 0.609360933 0.590892017
0.487033635 0.602783144 0.597217083
0.593169093 0.584566355 0.596331358
0.710562706 0.590512514 0.621884823
0.785452127 0.593674958 0.614168406
0.872991920 0.604301155 0.620873034
0.968880355 0.622137964 0.636559308
0.572043121 0.737128615 0.660973847
0.598735094 0.736749053 0.662112534
0.655914187 0.745856881 0.686147809
0.744971633 0.747501493 0.730676711
0.838077068 0.779000401 0.804048240
0.846299767 0.743326843 0.729158759
0.896015167 0.709930301 0.674130321
0.965464711 0.751169801 0.697912812
0.757748306 0.865780890 0.797596574
0.775584877 0.868311346 0.813156247
0.812650323 0.873371005 0.831119537
0.865275264 0.884250224 0.875395536
0.909551024 0.901328146 0.920429945
0.916887820 0.898671746 0.900189579
0.937507927 0.860214889 0.821631849
0.981530666 0.799873590 0.735357046
0.891713798 0.958380818 0.929790795
0.893737972 0.958886802 0.937761009
0.914357841 0.961036921 0.953067541
0.929917991 0.964705646 0.972549021
0.944086015 0.965211689 0.988361776
0.958760262 0.968248129 0.996204793
0.964199662 0.962175667 0.964579642
0.997469962 0.941808820 0.907526731
0.003922000 0.323718995 0.819734156
0.000000000 0.282859087 0.813662171
0.000000014 0.144718274 0.798482239
0.429601401 0.062744923 0.781024814
0.669450223 0.000000000 0.732827365
0.797090471 0.001518192 0.713092983
0.903099120 0.012270895 0.692852437
0.988614798 0.133206800 0.685895205
0.004807003 0.397722930 0.815180361
0.001138644 0.366350651 0.809614360
0.005186568 0.264389753 0.809867203
0.426818550 0.195825279 0.771537006
0.665528297 0.111827895 0.721821368
0.789626718 0.096521541 0.710436523
0.896774173 0.139911458 0.693991065
0.991017997 0.197722733 0.684882998
0.002277105 0.534598172 0.823150098
0.033776108 0.512587130 0.814421177
0.208981290 0.445920169 0.802530110
0.435293794 0.347501546 0.782922387
0.658444107 0.292093366 0.737634361
0.793295324 0.273371100 0.717520654
0.894497216 0.297659934 0.700569391
0.990385652 0.327767015 0.699178100
0.116508618 0.692852497 0.835673392
0.265528440 0.674003959 0.832131624
0.426438719 0.629601717 0.816698313
0.520303309 0.539026260 0.789499879
0.657937765 0.455914080 0.745730639
0.787349761 0.425806522 0.713219285
0.886148036 0.434408724 0.705376267
0.972548962 0.446047097 0.689310551
0.338899374 0.736748934 0.817330360
0.392410189 0.732447863 0.810499370
0.481088072 0.724984169 0.805060327
0.589753449 0.713219345 0.795951784
0.679696381 0.623023331 0.764199972
0.779253244 0.564705908 0.717393935
0.872485816 0.568248093 0.700063109
0.966223836 0.574067056 0.704237819
0.461732984 0.746995151 0.749145627
0.490069866 0.743326902 0.749399066
0.538899481 0.736495912 0.745730758
0.613156259 0.721062303 0.734851539
0.698798239 0.703099072 0.727640748
0.793928087 0.707780004 0.744212687
0.869702637 0.716255248 0.744592190
0.957621515 0.738013685 0.755091667
0.588614821 0.827451289 0.759519279
0.610879123 0.833270013 0.761796236
0.662998319 0.838583291 0.781277418
0.742188275 0.849462450 0.799620748
0.841745615 0.866666675 0.859329343
0.911321819 0.895888388 0.927893341
0.917773545 0.858823478 0.855028391
0.967994928 0.822897077 0.799746871
0.809614241 0.957115650 0.895509064
0.829095423 0.955597460 0.897280395
0.853130877 0.953953087 0.915370047
0.893737912 0.962681830 0.948387027
0.935610533 0.962302148 0.981657207
0.965465009 0.974193573 0.997090399
0.967489004 0.970145822 0.993547976
0.980645359 0.953446984 0.934471786
0.000000000 0.386084735 0.924983978
0.000000000 0.358128011 0.928905487
0.000000000 0.272232711 0.919417977
0.119671017 0.184693083 0.893737853
0.557115555 0.128905281 0.878178716
0.750410676 0.017204730 0.838583469
0.869702578 0.013029701 0.822264433
0.986211061 0.084882870 0.826565683
0.000000000 0.437697530 0.919038534
0.004048004 0.418469280 0.920935988
0.001138644 0.354332894 0.914737284
0.147881091 0.256799281 0.905755699
0.546110153 0.216825083 0.872738779
0.744718492 0.143453732 0.831119537
0.862492144 0.135610342 0.815433025
0.976597011 0.165085271 0.819228232
0.000000018 0.555976927 0.930423498
0.000759020 0.537254632 0.926628292
0.042884294 0.490954846 0.914990723
0.272486061 0.390892118 0.904870570
0.561543465 0.355217934 0.876660526
0.743833065 0.300442845 0.834282100
0.864642441 0.284377009 0.819227993
0.979759514 0.300442845 0.827197850
0.298671991 0.690702140 0.920430124
0.353193998 0.678937674 0.926122844
0.418089747 0.646805704 0.918659091
0.477545917 0.579886317 0.910183370
0.590512574 0.491460830 0.892346621
0.741682589 0.446932524 0.841998816
0.860594392 0.409993738 0.816571534
0.975584924 0.422517419 0.822390854
0.396963984 0.810373187 0.948893011
0.434029222 0.811764836 0.939531982
0.509171188 0.794433892 0.939152420
0.595192790 0.751169860 0.914611042
0.655408144 0.671600401 0.902466714
0.743074179 0.585705161 0.856925964
0.868437469 0.543959200 0.823276460
0.970777988 0.557242453 0.813029826
0.483744711 0.848450720 0.917141020
0.506135464 0.845414400 0.923086762
0.557874620 0.842631459 0.920177162
0.622011483 0.834661484 0.914231598
0.706135333 0.832384288 0.913219452
0.777988732 0.744465470 0.877925515
0.867172778 0.677546024 0.822137892
0.953446805 0.688424826 0.818469584
0.502846241 0.861353457 0.870208919
0.525363922 0.858191013 0.870082438
0.567615390 0.852245688 0.872486115
0.620493472 0.841240048 0.858696938
0.687539458 0.824541509 0.839595199
0.769260108 0.807084262 0.823782086
0.882732511 0.826818407 0.866540551
0.943200529 0.835926592 0.856672823
0.604933381 0.933079898 0.860088527
0.628083587 0.935357153 0.858823478
0.680581808 0.934471905 0.876786709
0.761289954 0.942062080 0.898291767
0.849083066 0.952687979 0.927893698
0.931055963 0.963061213 0.979253769
0.973307908 0.979759753 1.000000000
0.973054945 0.957115650 0.973181725
0.000000000 0.430360287 0.995445967
0.000000000 0.411637992 0.998102307
0.001644712 0.362808466 0.997596204
0.003415642 0.256799281 0.995572388
0.381909966 0.228589281 0.991904020
0.651992619 0.189753234 0.959898829
0.827704310 0.108412564 0.941049576
0.935863018 0.120809339 0.924857557
0.001644712 0.473877549 0.987729311
0.001897740 0.458697289 0.993168592
0.000758999 0.415559888 0.996711016
0.005566099 0.319544196 0.995066285
0.399241090 0.281973571 0.981404066
0.653131068 0.254522473 0.966729999
0.819861293 0.186337799 0.931941569
0.933712959 0.176470816 0.919291198
0.003922000 0.564326108 0.992030263
0.000000009 0.558887124 0.999240994
0.000759121 0.527514100 0.995951951
0.080581851 0.458317727 0.992536306
0.435041189 0.399620503 0.987729132
0.657937825 0.361290008 0.968121409
0.821632087 0.312586993 0.938266993
0.934218585 0.299936891 0.924857318
0.297912568 0.698292255 0.998861372
0.320303798 0.688551605 0.990132987
0.360784471 0.663503826 0.995572329
0.430486917 0.609234929 0.993927658
0.497659922 0.530423403 0.988488257
0.675142527 0.492852479 0.970904648
0.820366919 0.434408605 0.940417528
0.935356975 0.414421082 0.928020239
0.462745428 0.817710280 1.000000000
0.492472917 0.807842970 0.997343302
0.542821229 0.799493968 0.995193005
0.591524422 0.766982853 0.991524279
0.621885121 0.702087343 0.988614798
0.693231940 0.622138083 0.978873968
0.826186061 0.566730142 0.943706334
0.940923572 0.532953918 0.930423737
0.544086039 0.897153735 0.994686782
0.570018828 0.893864810 1.000000000
0.608475804 0.901834369 0.999620438
0.671094179 0.897786081 1.000000000
0.724477947 0.858191252 0.991524220
0.759772003 0.786843777 0.983934283
0.831625283 0.706894219 0.955091536
0.950411081 0.661227167 0.936749041
0.566603541 0.926754951 0.995066285
0.583428144 0.927514017 0.995066285
0.619607866 0.925110281 0.992030144
0.670335174 0.922959924 0.990132987
0.734218478 0.923592508 0.998355269
0.812017500 0.919165015 0.993168533
0.860720992 0.860341311 0.968248308
0.945224345 0.795951545 0.921821237
0.567741752 0.960910678 0.971030831
0.581151009 0.960404694 0.968248188
0.614674151 0.954458833 0.967994869
0.661353588 0.952561557 0.962428868
0.711701334 0.941809118 0.956736088
0.770777822 0.931815028 0.938520074
0.883744597 0.933965623 0.961290598
0.957874656 0.952941179 0.988235176
0.000000000 0.465527982 1.000000000
0.000000000 0.451612979 1.000000000
0.001265168 0.418216169 0.999240935
0.003415642 0.354838520 0.995951772
0.083112113 0.296521127 1.000000000
0.523086607 0.277292997 0.993674934
0.732448041 0.251992643 0.996078014
0.891713798 0.191017970 1.000000000
0.003795180 0.498671710 0.999240994
0.000000000 0.486274511 0.996457577
0.002277284 0.457938284 0.997343183
0.001644715 0.398228884 0.999620438
0.109044999 0.337887377 0.997722983
0.533080518 0.318026662 0.998481810
0.734851658 0.285515785 1.000000000
0.892726243 0.228083372 1.000000000
0.003162905 0.580012619 1.000000000
0.000000001 0.574699163 0.994307041
0.000000020 0.548386812 1.000000000
0.033776104 0.500442564 0.997469962
0.264389455 0.429727942 0.994560122
0.558254302 0.412144095 0.998102248
0.736369610 0.386338085 1.000000000
0.889943063 0.333459944 0.998102248
0.258949816 0.689184129 0.997596204
0.287033647 0.681214392 0.999620438
0.323592842 0.669955790 0.996584296
0.386211216 0.629854620 0.998861372
0.446552813 0.569892287 0.998861372
0.595825434 0.522960067 0.996584237
0.744718432 0.492346525 0.999241054
0.896900594 0.435673475 1.000000000
0.531309187 0.812270939 1.000000000
0.549019575 0.810752988 0.998734832
0.551423132 0.795952141 0.997722924
0.569386542 0.761670053 1.000000000
0.594813168 0.714990377 0.995825291
0.635926723 0.645414293 0.996837318
0.767489016 0.608222544 1.000000000
0.899177969 0.554965377 0.995698869
0.622137964 0.903605282 0.992915869
0.635041237 0.902087271 0.998481870
0.664516211 0.896141827 0.991144657
0.709550917 0.883491457 1.000000000
0.740923345 0.859329700 0.991650701
0.748260438 0.800885618 0.997216880
0.792663038 0.741176605 0.998355269
0.904364049 0.683491588 1.000000000
0.669197023 0.947754860 0.998355269
0.681214511 0.953194439 1.000000000
0.708411992 0.948640227 0.999240935
0.750917077 0.954205990 0.994180799
0.810879171 0.954332769 0.999620438
0.857684851 0.934851229 0.995825410
0.861606419 0.890069723 0.996457577
0.924351335 0.814800680 1.000000000
0.691713810 0.981909811 0.994687021
0.706641316 0.984440148 1.000000000
0.727134705 0.978494525 0.993674994
0.763314247 0.976470590 0.992156565
0.815307021 0.980391979 0.991524220
0.869323254 0.979759753 0.996710896
0.930929601 0.973687589 0.997343242
0.955850840 0.953067780 0.998734832
