Assets/Shaders/EldamarStudio/100 Sci-Fi LUTs Pack/LUTs/cube/Karla LUT.cube
LUT_3D_SIZE 5
DOMAIN_MIN 0.000000 0.000000 0.000000
DOMAIN_MAX 0.903226 0.903226 0.903226
0.000000000 0.000000000 0.078431003
0.252751708 0.000000000 0.089563996
0.502846420 0.000632584 0.109171413
0.752308369 0.000000000 0.132447869
0.976849794 0.022517797 0.176596820
0.184440404 0.202403694 0.214420989
0.287413090 0.200126410 0.169006705
0.517900229 0.238330111 0.166097403
0.764706135 0.242631391 0.185325697
0.979886055 0.255787551 0.214547813
0.502339780 0.493105799 0.428336382
0.554585814 0.499683380 0.473118097
0.634408653 0.466919810 0.324984401
0.793168962 0.446299702 0.265148699
0.978114784 0.513978839 0.290322810
0.766982973 0.766982973 0.672865272
0.802909374 0.772549152 0.710815966
0.829095304 0.771283925 0.688930929
0.900189996 0.724857330 0.526755154
0.996204793 0.649715126 0.410752833
0.916508675 0.929664671 0.872106135
0.919544697 0.935230672 0.876028001
0.949778378 0.939405382 0.893611550
0.950664341 0.938772798 0.845540822
0.997469962 0.906134963 0.721947789
0.000000000 0.159898698 0.309930414
0.250094682 0.001644708 0.292219996
0.507147074 0.002277292 0.289942712
0.750917137 0.000000000 0.293864697
0.974952757 0.001012124 0.309930414
0.013156408 0.241619125 0.283111989
0.268437684 0.220366985 0.284756690
0.512586951 0.214168102 0.299430996
0.752308369 0.218722284 0.308285683
0.980392039 0.243010685 0.324224830
0.444655389 0.479064077 0.428589672
0.539152145 0.490828514 0.474383503
0.612397075 0.462365389 0.407337397
0.781024814 0.467299104 0.364579529
0.973307908 0.506767392 0.385199219
0.761669636 0.762428820 0.677419305
0.793801248 0.771283984 0.707653642
0.836559117 0.778494537 0.731688380
0.887539148 0.726248920 0.580771804
0.993042231 0.671220899 0.480075955
0.914610982 0.936495841 0.869702637
0.916002750 0.941050112 0.878684640
0.945477724 0.942947507 0.909677327
0.958254278 0.939405382 0.865148544
0.996457875 0.912713766 0.757495344
0.001265006 0.359013408 0.558380842
0.000000000 0.196837410 0.552182138
0.514611244 0.000000000 0.492346406
0.747121930 0.003922000 0.497659802
0.971663654 0.000632584 0.497659564
0.001644708 0.493738204 0.557495058
0.036179803 0.380265683 0.549904823
0.522454381 0.201391399 0.496900797
0.752308547 0.180139273 0.497912705
0.967362523 0.168121397 0.497280240
0.177861974 0.502213836 0.508791804
0.325616419 0.487160236 0.490955412
0.537507832 0.433523357 0.491714001
0.759519517 0.449841976 0.510309696
0.970271945 0.468943357 0.522454381
0.607210517 0.724224925 0.632637560
0.674510121 0.732447863 0.659835458
0.822896719 0.756230116 0.743959546
0.851865888 0.724225104 0.668690503
0.977103055 0.709171474 0.608475685
0.889690399 0.938140392 0.862871826
0.908032954 0.945351243 0.877166331
0.939910948 0.949145794 0.905376375
0.964199543 0.952182114 0.912586987
0.997469962 0.925742984 0.809360981
0.003922000 0.535610259 0.795572340
0.001012128 0.459962130 0.785579145
0.163946748 0.157115862 0.762934804
0.763947129 0.000000000 0.710056961
0.971030772 0.000000000 0.703226149
0.000632580 0.632890403 0.793421686
0.004301290 0.562682152 0.782795608
0.197090238 0.313219279 0.764073551
0.760531425 0.176850274 0.705882549
0.971283913 0.174067393 0.708792031
0.002023998 0.824920893 0.789247274
0.081593730 0.796078503 0.799999952
0.495509028 0.626186132 0.768247962
0.766097426 0.428336382 0.705249667
0.962428808 0.430360615 0.706135273
0.391398102 0.758254111 0.707274139
0.459202826 0.748007715 0.721568584
0.604427516 0.725869834 0.714737296
0.769007266 0.666034102 0.701328099
0.963440776 0.689563394 0.718026280
0.706767797 0.918532789 0.807843268
0.753700018 0.924477935 0.814421296
0.857811272 0.931688607 0.871347308
0.964579225 0.958380818 0.941176116
0.988361776 0.936242819 0.882099986
0.000000000 0.679949820 0.972801924
0.002656833 0.633902490 0.967868567
0.001265006 0.469575942 0.961796224
0.597343385 0.180012345 0.938393652
0.967741609 0.006578155 0.919417739
0.000000000 0.742694378 0.967235863
0.000000000 0.703858256 0.965338290
0.000000000 0.563061237 0.960025072
0.599620879 0.319165200 0.946362972
0.972042859 0.169766113 0.911954343
0.153826550 0.897659361 0.961796224
0.271093756 0.868943810 0.962428808
0.416192591 0.769513190 0.957748353
0.624035418 0.546995223 0.947628140
0.971031010 0.432258219 0.916761816
0.453763485 0.993674815 0.937381148
0.521695137 0.991650760 0.954079509
0.661986053 0.980265558 0.955724418
0.775079131 0.855281651 0.951549470
0.958253920 0.669702828 0.911827922
0.559771836 0.971536756 0.910183787
0.603921652 0.965338528 0.902087092
0.700948775 0.963820636 0.914104939
0.825426936 0.945224285 0.919038475
0.945350945 0.894496799 0.903604984
