Assets/Shaders/EldamarStudio/100 Sci-Fi LUTs Pack/LUTs/cube/Karla LUT.cube
DOMAIN_MIN 0 0 0
DOMAIN_MAX 1 1 1
LUT_3D_SIZE 32
0.000000000 0.000000000 0.078431003
0.021252386 0.000000000 0.084503770
0.053257547 0.000000000 0.086274996
0.090955153 0.000000000 0.087539837
0.130044088 0.000000000 0.089057453
0.166476861 0.000000000 0.079949066
0.210499957 0.000000000 0.083491646
0.252751708 0.000000000 0.089563996
0.288424999 0.000759096 0.093358904
0.312713027 0.003795482 0.090322517
0.357368588 0.001012129 0.093105868
0.394813240 0.000000000 0.092093743
0.430486917 0.001138644 0.094749995
0.469450027 0.003668968 0.106135026
0.502846420 0.000632584 0.109171413
0.543453574 0.000000000 0.114610992
0.581404209 0.000000000 0.119165190
0.614800513 0.000632576 0.122833990
0.648196995 0.003668965 0.128905997
0.684376717 0.001138643 0.132194638
0.718911707 0.000000000 0.131435737
0.752308369 0.000000000 0.132447869
0.785705447 0.000126512 0.141429022
0.819101930 0.003162904 0.147501811
0.854775548 0.003922000 0.158127993
0.891208291 0.002530328 0.166097313
0.925616980 0.000506064 0.168626994
0.949904978 0.003542448 0.168626994
0.976849794 0.022517797 0.176596820
0.991777003 0.041998945 0.185705200
0.996078014 0.061100580 0.193042383
0.996078014 0.082353003 0.196078002
0.000000000 0.021252386 0.093611389
0.018216001 0.024288775 0.087539382
0.056672931 0.024288775 0.093611613
0.095762320 0.028083613 0.094117776
0.133080482 0.033775933 0.092852838
0.169513255 0.036432773 0.089057446
0.205945387 0.033902451 0.090069711
0.249968335 0.031752098 0.093991287
0.290702105 0.029601676 0.097912706
0.321821421 0.028083481 0.099430904
0.351929128 0.025300873 0.102213509
0.396837234 0.020240262 0.103225611
0.436558932 0.017077645 0.101201646
0.475522041 0.015812967 0.103605360
0.508918405 0.012776583 0.112207025
0.539911568 0.007337004 0.117647216
0.581404209 0.003036003 0.122201189
0.620240092 0.000000000 0.124604613
0.651233375 0.000632580 0.125869617
0.687413096 0.000885612 0.137507617
0.721948087 0.000000000 0.139404997
0.756356657 0.000000000 0.140543878
0.791777432 0.000126512 0.147375256
0.825173914 0.003162904 0.150537431
0.858570278 0.010752702 0.154332906
0.890069306 0.018595947 0.161416993
0.920050442 0.026818708 0.166603386
0.946869373 0.039974447 0.171663389
0.976470292 0.050980650 0.179633215
0.993548214 0.069323331 0.186970368
0.999114394 0.085768364 0.194813594
0.999114394 0.100568995 0.202150777
0.015053772 0.046805769 0.110942550
0.028968770 0.049842156 0.109171547
0.051486321 0.050727770 0.100948773
0.100822315 0.050727770 0.101960771
0.141050100 0.057178997 0.097660005
0.170398861 0.063756935 0.092852838
0.202529997 0.068185002 0.103478543
0.245540395 0.066793323 0.099936940
0.287792444 0.065022543 0.100189775
0.319797546 0.063377827 0.101834491
0.361037523 0.060341645 0.107020900
0.397470027 0.055281777 0.110056512
0.437065035 0.051486321 0.110183001
0.473498046 0.049209546 0.108665258
0.510689437 0.044275902 0.113978341
0.550284564 0.043137327 0.127134606
0.577609360 0.037065323 0.128652811
0.618722260 0.032890733 0.129790992
0.656673014 0.034408540 0.129791006
0.686147928 0.032258321 0.132321015
0.724478424 0.032258321 0.140670002
0.756356895 0.034282319 0.144212127
0.789500475 0.036559317 0.151423216
0.826944947 0.037571449 0.156483099
0.858191073 0.043011025 0.163820282
0.890195727 0.050727312 0.165464997
0.918785155 0.060847837 0.170019001
0.947754562 0.072738856 0.176090986
0.977735698 0.083111651 0.180518821
0.993927777 0.097027175 0.189626753
1.000000000 0.112207368 0.196963817
1.000000000 0.123086542 0.206072226
0.040101320 0.075395316 0.126628995
0.050980162 0.074636541 0.127893835
0.070461541 0.076786995 0.125237226
0.098545477 0.076786995 0.117393993
0.150537714 0.076407544 0.109804004
0.177482858 0.081973389 0.100189991
0.209361315 0.093611643 0.105502836
0.241998389 0.097660154 0.112586550
0.286780298 0.099178150 0.105755836
0.317647159 0.100190155 0.105755843
0.356230319 0.097280294 0.111575156
0.401518077 0.094750166 0.115622900
0.440986782 0.092093796 0.116381809
0.471980035 0.091967285 0.116508290
0.509424388 0.086907156 0.119544417
0.548766613 0.084377319 0.132194787
0.588488221 0.083871320 0.137001976
0.614674568 0.079064317 0.136495724
0.657685220 0.081467509 0.138393313
0.689057529 0.078937508 0.135862991
0.721442044 0.077799156 0.139658317
0.758886933 0.078811288 0.147754326
0.786970377 0.084503800 0.156862646
0.824162066 0.085642152 0.161796004
0.856799364 0.087666154 0.165085286
0.889690101 0.093738154 0.173814163
0.919038296 0.099810153 0.175332099
0.947881043 0.108159438 0.182162985
0.979506612 0.117267460 0.183048829
0.994433820 0.128652334 0.189626753
0.997849464 0.142061740 0.199620217
0.997470021 0.151170149 0.209108174
0.071600541 0.104997002 0.140290990
0.081467256 0.100063547 0.144465253
0.096520871 0.100063324 0.144591644
0.122454025 0.101834096 0.142061546
0.154333100 0.102213547 0.134091988
0.187729493 0.099177934 0.115875997
0.222517639 0.110436544 0.110562995
0.256799519 0.121189155 0.112966381
0.287159741 0.125743538 0.115243092
0.320556909 0.131815538 0.115243100
0.352561533 0.130676672 0.119544744
0.393168479 0.130044088 0.124351732
0.437570930 0.131182730 0.126249090
0.476787001 0.133713052 0.123719476
0.510309875 0.130676672 0.126755118
0.546489596 0.127640799 0.136748791
0.583681166 0.126502544 0.142821014
0.621884584 0.126122996 0.139152557
0.655281842 0.126122981 0.148260951
0.689437389 0.124098733 0.145350829
0.723213255 0.122580543 0.146109924
0.757368684 0.123972222 0.153068006
0.790512085 0.126882091 0.164958999
0.823403120 0.129664734 0.168247640
0.854901969 0.130423635 0.168627292
0.886527300 0.133586079 0.170019120
0.922074556 0.139278635 0.178368479
0.946363330 0.145350635 0.187476084
0.978241742 0.153699920 0.187096834
0.994307339 0.163820043 0.190765306
0.995572090 0.174319685 0.199620217
0.992536426 0.183428094 0.211765006
0.111068934 0.129284993 0.164578989
0.126249313 0.132321388 0.176723763
0.129664794 0.131688923 0.174446806
0.145857185 0.132194862 0.169386476
0.175585479 0.132574320 0.161416382
0.196837872 0.135609925 0.140163988
0.225174248 0.127514318 0.121947996
0.260594696 0.132827222 0.121568695
0.295509040 0.141682252 0.127387866
0.323592544 0.153067932 0.127387866
0.365717798 0.162049055 0.121568874
0.400126159 0.165085196 0.127640739
0.436052918 0.167615503 0.134598002
0.470714986 0.170145825 0.138899088
0.507146955 0.167109445 0.141935483
0.545477450 0.164073050 0.137760937
0.581404209 0.164073184 0.141302988
0.615812540 0.165338352 0.144718587
0.649209082 0.162554979 0.148260981
0.688172221 0.165338337 0.157368660
0.724731445 0.163567126 0.158253938
0.761670053 0.164073184 0.160278201
0.799620450 0.169386864 0.164958999
0.826944828 0.169386864 0.171030998
0.859835386 0.169892788 0.181150928
0.888551295 0.174067110 0.185198992
0.916382074 0.181656927 0.187223122
0.949398935 0.184819788 0.190512478
0.979000688 0.190891802 0.196963936
0.995698988 0.197469845 0.201517969
0.998608351 0.203668475 0.207210541
0.995572090 0.207716867 0.211765006
0.148007646 0.166223958 0.193927646
0.155597702 0.166730031 0.198482096
0.168627322 0.167615637 0.199873552
0.175205648 0.168880478 0.191651002
0.196837872 0.170145318 0.182669088
0.218090251 0.171030700 0.170018703
0.241872311 0.166476637 0.153826326
0.270841390 0.155724317 0.137254611
0.306135416 0.158633739 0.138519868
0.337001830 0.169007301 0.142062321
0.366223723 0.180771768 0.138772994
0.404680490 0.191903636 0.138773248
0.440859973 0.199873313 0.144592002
0.477039754 0.206578031 0.149019361
0.511195600 0.203542218 0.152055740
0.552435219 0.200505823 0.157495320
0.588994503 0.200505823 0.154965326
0.622390807 0.202277064 0.159013316
0.655787289 0.199240670 0.163946971
0.694749773 0.199240670 0.170018971
0.730423927 0.202277049 0.173434317
0.764199972 0.201517954 0.173434317
0.798608184 0.204554304 0.174825996
0.825933218 0.209361315 0.176091000
0.855534315 0.209361315 0.184440285
0.887286305 0.210752994 0.194939986
0.914864123 0.216065958 0.197849587
0.946236730 0.217078090 0.196837455
0.979506612 0.225300312 0.205060318
0.995698988 0.229601532 0.207590327
1.000000000 0.235800236 0.213915303
0.998608351 0.242125630 0.221884996
0.184440404 0.202403694 0.214420989
0.197090387 0.202403694 0.222391099
0.202530116 0.204048395 0.227703914
0.210878953 0.201518074 0.224667847
0.223023534 0.204174250 0.214421391
0.244275928 0.207969397 0.206578180
0.264769405 0.206198394 0.190765083
0.287413090 0.200126410 0.169006705
0.317773700 0.186464414 0.154585406
0.350284487 0.187603191 0.155344963
0.377861857 0.196331695 0.157621831
0.412903190 0.208475694 0.158633962
0.445920348 0.220619708 0.158254415
0.483111739 0.233016729 0.160278022
0.517900229 0.238330111 0.166097403
0.550284922 0.238583297 0.166603699
0.589753687 0.237065107 0.168121517
0.623909116 0.240607396 0.168627590
0.658317745 0.240607142 0.173687726
0.695635378 0.238709390 0.183048710
0.731309175 0.240607128 0.185325697
0.764706135 0.242631391 0.185325697
0.795698702 0.242631391 0.185452178
0.824541688 0.245667398 0.186969995
0.854142964 0.248829693 0.192156985
0.885894656 0.250221372 0.199873686
0.916508436 0.252751708 0.207716942
0.946869135 0.252751708 0.206957534
0.979886055 0.255787551 0.214547813
0.995698988 0.264642596 0.215054005
1.000000000 0.267678767 0.219481587
1.000000000 0.275268972 0.232384697
0.224668100 0.237318084 0.232637197
0.239089191 0.238077193 0.244022861
0.249588966 0.238709763 0.252498507
0.253384113 0.238709956 0.257305354
0.256799281 0.234534830 0.253890097
0.276154131 0.243643209 0.247817993
0.294876635 0.244402200 0.234661549
0.312460810 0.243390292 0.210752577
0.335231185 0.237318084 0.188741088
0.365591228 0.219102085 0.176597089
0.391524047 0.216572091 0.176597193
0.423149675 0.222138107 0.177609265
0.459582746 0.235800087 0.178747907
0.487160116 0.248197123 0.172675192
0.522580683 0.263377488 0.179253504
0.553320885 0.271220803 0.180265695
0.585199296 0.275774986 0.178747907
0.619734645 0.276407570 0.177609086
0.655788004 0.282353073 0.180771977
0.692979097 0.281593919 0.190639019
0.727514088 0.280834824 0.195192993
0.760152102 0.282859087 0.194434091
0.793548465 0.282985598 0.194687083
0.824541688 0.283618182 0.198355287
0.855660975 0.285894901 0.203668565
0.886653721 0.288171768 0.208222985
0.919544220 0.291714102 0.213283002
0.949904919 0.292220116 0.216065630
0.982921839 0.292220116 0.224414915
0.997849226 0.296774209 0.226945028
0.999240935 0.304111570 0.226312488
0.999240935 0.307147175 0.241492897
0.276280522 0.276786506 0.269069999
0.279316902 0.279822916 0.278178394
0.291587770 0.278431237 0.283112288
0.302466989 0.275648177 0.285136491
0.308412492 0.274004042 0.284250915
0.314484477 0.283112407 0.278178126
0.331308991 0.282100171 0.272106051
0.346236438 0.282479703 0.252372026
0.362555593 0.282859266 0.228210270
0.389880002 0.276786506 0.222137481
0.411511868 0.252751529 0.207084373
0.435040951 0.241872519 0.196837738
0.463377446 0.245667502 0.191651016
0.496268511 0.263377517 0.190891981
0.526628494 0.278557897 0.184819981
0.559645891 0.291334450 0.186590701
0.594307482 0.303098977 0.189373717
0.628842235 0.312839568 0.192789495
0.656167507 0.315876007 0.198861510
0.695003390 0.319038868 0.204807013
0.730550170 0.318026751 0.207337022
0.762934804 0.316255510 0.206325144
0.793548465 0.316382051 0.203795493
0.826944947 0.319418430 0.209867492
0.860214829 0.322327703 0.215812966
0.892093301 0.323971987 0.219101995
0.922580600 0.325110495 0.219354987
0.952941298 0.331182480 0.219355017
0.985958219 0.331688493 0.227451324
0.999873459 0.335230470 0.233017266
0.999114394 0.340543628 0.238329992
0.996204555 0.343579978 0.250600517
0.319164723 0.316255629 0.308412611
0.330929995 0.316382140 0.305882275
0.338266820 0.317267746 0.310689658
0.344339013 0.318785638 0.313725710
0.346236736 0.320303738 0.317267537
0.357368737 0.316761792 0.328905702
0.363440722 0.323339880 0.317773610
0.380139142 0.323086739 0.304364204
0.396331728 0.324098855 0.280581862
0.417204380 0.322327614 0.261606634
0.435799867 0.310436606 0.240986735
0.455028504 0.286148101 0.225806609
0.477545768 0.274762869 0.214927226
0.505882204 0.278304875 0.209361032
0.541555882 0.290828407 0.205945879
0.571916461 0.301201791 0.204680875
0.601771176 0.318911850 0.205692738
0.632763982 0.335989445 0.207337290
0.662365973 0.343579859 0.211132020
0.698038995 0.349398881 0.217204005
0.733586371 0.354458988 0.215685993
0.766982973 0.355470866 0.215685993
0.799241006 0.355470866 0.218469128
0.829854786 0.355723917 0.218975127
0.860973835 0.358760297 0.218216419
0.892346323 0.361796409 0.223782659
0.923213065 0.362808555 0.229854807
0.955976963 0.361669719 0.237065002
0.975711763 0.367741704 0.239721835
0.995445907 0.368247718 0.246552974
0.998229027 0.372042745 0.248070881
0.993168890 0.377102852 0.248070866
0.365717471 0.355724245 0.333712995
0.365717739 0.359772235 0.334725112
0.377735972 0.357748508 0.340037763
0.386843592 0.359013349 0.340544134
0.389500350 0.362808228 0.345098048
0.404933751 0.356736243 0.366856426
0.414041489 0.362808496 0.361290246
0.415180206 0.365591496 0.345857263
0.429981321 0.365591496 0.328399658
0.446932524 0.365591496 0.307906479
0.469196498 0.362049490 0.286527634
0.483364463 0.347881228 0.263250977
0.500442624 0.322454095 0.242378235
0.522580326 0.309677511 0.226312429
0.555471063 0.307653487 0.214421153
0.583048880 0.325490296 0.225933254
0.614927471 0.331562310 0.222897261
0.644528806 0.349145830 0.221885249
0.676280975 0.358254254 0.223529562
0.706135273 0.374699503 0.229348511
0.733080029 0.382669240 0.231625512
0.764959037 0.390891761 0.227830499
0.797343493 0.394813240 0.231499001
0.829601586 0.392915517 0.229601249
0.864010215 0.393168539 0.235420540
0.895761907 0.396204919 0.239342213
0.926249027 0.399241179 0.247059047
0.956609428 0.399240792 0.250095040
0.978747368 0.402150482 0.253889829
0.991650939 0.406451702 0.258696973
1.000000000 0.408475757 0.263883591
0.996204972 0.414547741 0.261227250
0.409740269 0.399746895 0.358760267
0.407083929 0.401264906 0.359519392
0.413915157 0.404301047 0.367995143
0.427071750 0.402656764 0.377735436
0.435420454 0.404933363 0.375838280
0.449842125 0.399620265 0.397849560
0.461606592 0.403921604 0.400505960
0.467552006 0.406957626 0.386464298
0.467552394 0.409234732 0.369007170
0.481973767 0.410373271 0.353826791
0.504743934 0.406957626 0.331688762
0.520935893 0.401391655 0.311827779
0.529664278 0.388488293 0.285262287
0.544591725 0.361163855 0.255155236
0.569639444 0.344592273 0.234282091
0.597469985 0.344086140 0.235800222
0.625174165 0.357369095 0.241872355
0.657938123 0.362934709 0.237697929
0.690828621 0.373054981 0.238204002
0.718658984 0.389880002 0.241493016
0.745604038 0.405819386 0.242631346
0.769892275 0.415939629 0.241619483
0.799873471 0.428083628 0.241745993
0.829221964 0.430107385 0.241745740
0.862618566 0.430486917 0.246679276
0.896521270 0.430739969 0.253763646
0.929411650 0.434282273 0.264895648
0.957368433 0.437950492 0.263757437
0.980518401 0.439848125 0.267172813
0.991271198 0.441745877 0.269702613
0.998608351 0.444782019 0.275774658
0.998861372 0.450600982 0.279064000
0.447691053 0.450601071 0.394940019
0.450221449 0.445288032 0.392156661
0.459962100 0.446806043 0.399620563
0.471853197 0.451360047 0.411258996
0.486780584 0.450474530 0.422138035
0.489816964 0.447438151 0.428210050
0.500443041 0.449968338 0.435547054
0.508792043 0.449462354 0.429728031
0.515370131 0.448450148 0.411511958
0.524478555 0.457558542 0.396331549
0.544718921 0.449968219 0.373434365
0.559899032 0.445161313 0.354205817
0.570145428 0.440607429 0.333839059
0.573687136 0.430487067 0.303732038
0.585831881 0.403162688 0.276407659
0.610373020 0.382036507 0.263884008
0.639721394 0.373940408 0.257305682
0.670335174 0.380898446 0.252877593
0.700696051 0.396078080 0.255914003
0.728020370 0.408728749 0.255661041
0.756736457 0.422011703 0.254016310
0.787096977 0.436432987 0.251486123
0.817203999 0.448703498 0.248576999
0.838582933 0.460974038 0.254395992
0.866160572 0.467046291 0.260215014
0.896521270 0.469702989 0.265401691
0.926123023 0.470715046 0.268691003
0.956483006 0.476787060 0.274762988
0.981783569 0.477546066 0.280582041
0.992409945 0.477799028 0.282859027
0.992536366 0.478684485 0.285895050
0.995572031 0.481720090 0.291967034
0.502339780 0.493105799 0.428336382
0.499304175 0.496141434 0.428336382
0.510436535 0.490828365 0.434155583
0.517394006 0.494876385 0.442631394
0.520809472 0.501833916 0.449209392
0.538393736 0.492979288 0.449462384
0.549019814 0.500062883 0.468184710
0.554585814 0.499683380 0.473118097
0.557368815 0.495002896 0.461606383
0.563946843 0.493991286 0.438836306
0.578874230 0.494370788 0.426565796
0.593295395 0.492473215 0.401770860
0.608855069 0.491840780 0.378114820
0.625300229 0.488172174 0.352308780
0.634408653 0.466919810 0.324984401
0.641745806 0.437191606 0.295256197
0.658949792 0.415433228 0.279064000
0.682858706 0.406704843 0.270714819
0.715876400 0.411258489 0.271094382
0.740670443 0.426438779 0.265781403
0.765591443 0.435293972 0.264769405
0.793168962 0.446299702 0.265148699
0.823276043 0.460847497 0.266792983
0.847564876 0.476027906 0.266792983
0.871221006 0.488298416 0.270335287
0.899557352 0.498544961 0.276787043
0.928399682 0.507147074 0.283618331
0.950410962 0.513219833 0.286906987
0.978114784 0.513978839 0.290322810
0.992409587 0.515749574 0.290449202
0.993674636 0.518152952 0.295129597
0.989499986 0.521189213 0.313219398
0.547374547 0.540417612 0.466540396
0.551549733 0.533839226 0.468943566
0.552814603 0.536875367 0.471094340
0.563187718 0.536622345 0.478431612
0.565085173 0.544591844 0.484883040
0.577229619 0.539531708 0.490954757
0.597596586 0.538393259 0.496647924
0.604807317 0.544212282 0.512966573
0.605566382 0.542694271 0.510689259
0.608349323 0.542947233 0.491334587
0.615939438 0.542820752 0.471473753
0.625047565 0.540797055 0.451233804
0.638709605 0.538140595 0.424288273
0.658443868 0.534851551 0.399240762
0.674004018 0.522201180 0.378368169
0.685515583 0.503352582 0.355850786
0.685515523 0.477545977 0.323972195
0.697912514 0.455281705 0.303732038
0.725996137 0.437064856 0.291334778
0.755850852 0.439215362 0.290575773
0.782036543 0.452498466 0.286401033
0.805819154 0.460594475 0.284883112
0.831878304 0.473118007 0.285136074
0.858443856 0.490575701 0.287412792
0.878178596 0.505756080 0.289690077
0.902213931 0.518026590 0.292726099
0.929538131 0.530676603 0.299304187
0.952688217 0.542441666 0.304237545
0.972042799 0.548007786 0.309677601
0.992283165 0.553320944 0.312713534
0.995825231 0.556736350 0.310942382
0.988234997 0.558254540 0.320050806
0.588361561 0.581404209 0.504490972
0.597469926 0.579886019 0.509044766
0.593801558 0.574825943 0.507526755
0.603162348 0.581657171 0.513093114
0.611005425 0.586337745 0.519797742
0.621252537 0.581024587 0.528905630
0.631372511 0.582036376 0.537001610
0.650348127 0.583681047 0.544845164
0.653384268 0.587476373 0.551676095
0.654143155 0.591271102 0.538013697
0.652372003 0.588361561 0.515496492
0.661480367 0.590891659 0.499810189
0.668690741 0.585578740 0.475522190
0.685515225 0.579127192 0.448576748
0.702466786 0.571283937 0.426565588
0.718912363 0.559519172 0.404427588
0.726502180 0.539784968 0.381656975
0.723592758 0.517267644 0.349525630
0.743453443 0.485641629 0.326502174
0.761163712 0.467678577 0.306514800
0.792662680 0.470714480 0.306135237
0.818975270 0.479823112 0.304110974
0.840986729 0.488171875 0.301960826
0.868311107 0.504997015 0.306388468
0.888804376 0.519418299 0.309424251
0.909804106 0.531815648 0.311068982
0.933080256 0.545351267 0.314990252
0.955344677 0.562555611 0.322074383
0.974320114 0.574319959 0.326628447
0.989247143 0.583681405 0.330929935
1.000000000 0.591018558 0.334851176
0.992789209 0.591650963 0.333712995
0.626565516 0.617963076 0.540290713
0.637444556 0.620872676 0.546362698
0.636812091 0.620240092 0.545097709
0.635420680 0.619860709 0.544718266
0.652118683 0.630486727 0.553447127
0.663757443 0.622138083 0.562302470
0.668311238 0.623149812 0.570145428
0.678937376 0.625553250 0.581150830
0.694624007 0.628083527 0.588235199
0.697659612 0.634155512 0.579126775
0.690322220 0.629854500 0.557368696
0.692852437 0.631246090 0.541935384
0.704491079 0.632890463 0.529032052
0.713345706 0.624288142 0.504744053
0.727387547 0.618595660 0.477799118
0.744971514 0.610119879 0.451613098
0.757495344 0.597469449 0.427956879
0.761163712 0.577482104 0.401770711
0.770272136 0.550157607 0.374446243
0.777862132 0.519418061 0.341935068
0.795951843 0.502972782 0.320682704
0.825047255 0.504111111 0.318785131
0.849336028 0.507400453 0.318405628
0.876154482 0.521568894 0.321948230
0.897912562 0.534471929 0.325743288
0.919544280 0.545857191 0.329285145
0.942821145 0.555471539 0.329791069
0.961037159 0.576344371 0.338646412
0.978621066 0.591650665 0.341808736
0.991397977 0.605692387 0.346742183
1.000000000 0.616445541 0.350664139
1.000000000 0.619481146 0.356736153
0.659961998 0.666540027 0.573687911
0.666033983 0.657432437 0.579759896
0.674762845 0.658191204 0.581530929
0.682100177 0.660468161 0.583554924
0.691587985 0.663883924 0.589879990
0.697659969 0.663883924 0.595951974
0.701707721 0.665654659 0.599747360
0.711321712 0.667046010 0.611512005
0.725237131 0.667299032 0.625174046
0.734092474 0.667551994 0.627704442
0.731309116 0.667805016 0.612777114
0.729790986 0.669323266 0.596837699
0.735357344 0.670335352 0.582163334
0.746742904 0.666793048 0.565464914
0.752814949 0.663757384 0.541176200
0.769259930 0.655661166 0.511828065
0.784439981 0.646552742 0.486527801
0.794560194 0.635167360 0.462492436
0.800633013 0.619986951 0.429095954
0.812524021 0.587096572 0.407337546
0.822264671 0.555850506 0.375332475
0.836432934 0.536369026 0.351043850
0.855408072 0.531688571 0.342694491
0.879696846 0.540796995 0.333586067
0.904237986 0.552688003 0.334851325
0.929411650 0.564832330 0.340670645
0.954965115 0.576723933 0.348007888
0.973181844 0.588867962 0.351043522
0.988741040 0.601770937 0.351929039
0.997090280 0.615939140 0.359265953
1.000000000 0.629095554 0.368880242
1.000000000 0.637697935 0.374952972
0.707273722 0.695635378 0.612650394
0.713345706 0.700442433 0.618722379
0.712966502 0.695635796 0.618343174
0.718279719 0.696141720 0.618975580
0.725490391 0.697280407 0.623529434
0.731562436 0.697280407 0.629601359
0.740164697 0.697280407 0.643263698
0.746995389 0.700062990 0.648956358
0.757621586 0.702719569 0.659582436
0.764706254 0.706768095 0.664642453
0.764959276 0.706768095 0.664136529
0.767995119 0.704743862 0.646932423
0.770651460 0.705123425 0.629854739
0.777103066 0.703731716 0.613282979
0.780645370 0.700695395 0.599114299
0.789121151 0.695255995 0.574826121
0.804680526 0.692599595 0.548260748
0.818089545 0.688551545 0.523213267
0.828463316 0.677672148 0.489816725
0.840101421 0.656925678 0.456420362
0.850348115 0.623529434 0.437065274
0.858444333 0.593295336 0.405945510
0.869449914 0.574573100 0.380391896
0.885768831 0.565085649 0.360657483
0.914610982 0.569639444 0.360657662
0.937128305 0.581656992 0.363694042
0.958254397 0.594687104 0.367995322
0.974193871 0.604554355 0.366476923
0.989753127 0.616698325 0.374826193
0.996078014 0.630613506 0.376976490
0.998102248 0.644022942 0.386969954
1.000000000 0.653131366 0.398735017
0.740670443 0.730550230 0.644528747
0.744844675 0.734724462 0.644908488
0.748260498 0.734345198 0.650221527
0.752814889 0.732574463 0.653510749
0.760404885 0.732194901 0.658444047
0.764958680 0.730676711 0.662998199
0.767868280 0.736369491 0.674762726
0.778621376 0.733080506 0.678431451
0.787982106 0.735357046 0.686527491
0.795192957 0.740290940 0.697153449
0.795445979 0.744338989 0.699304223
0.797596753 0.746110201 0.692852497
0.797976077 0.739658475 0.675774813
0.798734784 0.736875415 0.658570647
0.806704402 0.737128019 0.644781649
0.816445529 0.733586192 0.628715754
0.825553536 0.730550230 0.605945528
0.836811721 0.731941879 0.582036495
0.843896210 0.725363493 0.552435219
0.863630712 0.712713063 0.517141044
0.873877525 0.691460729 0.491334736
0.879949749 0.658064306 0.465021938
0.884377182 0.628842473 0.427197725
0.896015167 0.606072485 0.402403295
0.918785751 0.593928158 0.384187043
