Assets/Shaders/EldamarStudio/100 Sci-Fi LUTs Pack/LUTs/cube/Karla LUT.cube
LUT_3D_SIZE 8
DOMAIN_MIN 0.000000 0.000000 0.000000
DOMAIN_MAX 0.903226 0.903226 0.903226
0.000000000 0.000000000 0.078431003
0.130044088 0.000000000 0.089057453
0.288424999 0.000759096 0.093358904
0.430486917 0.001138644 0.094749995
0.581404209 0.000000000 0.119165190
0.718911707 0.000000000 0.131435737
0.854775548 0.003922000 0.158127993
0.976849794 0.022517797 0.176596820
0.071600541 0.104997002 0.140290990
0.154333100 0.102213547 0.134091988
0.287159741 0.125743538 0.115243092
0.437570930 0.131182730 0.126249090
0.583681166 0.126502544 0.142821014
0.723213255 0.122580543 0.146109924
0.854901969 0.130423635 0.168627292
0.978241742 0.153699920 0.187096834
0.224668100 0.237318084 0.232637197
0.256799281 0.234534830 0.253890097
0.335231185 0.237318084 0.188741088
0.459582746 0.235800087 0.178747907
0.585199296 0.275774986 0.178747907
0.727514088 0.280834824 0.195192993
0.855660975 0.285894901 0.203668565
0.982921839 0.292220116 0.224414915
0.409740269 0.399746895 0.358760267
0.435420454 0.404933363 0.375838280
0.467552394 0.409234732 0.369007170
0.529664278 0.388488293 0.285262287
0.625174165 0.357369095 0.241872355
0.745604038 0.405819386 0.242631346
0.862618566 0.430486917 0.246679276
0.980518401 0.439848125 0.267172813
0.588361561 0.581404209 0.504490972
0.611005425 0.586337745 0.519797742
0.653384268 0.587476373 0.551676095
0.668690741 0.585578740 0.475522190
0.726502180 0.539784968 0.381656975
0.792662680 0.470714480 0.306135237
0.888804376 0.519418299 0.309424251
0.974320114 0.574319959 0.326628447
0.740670443 0.730550230 0.644528747
0.760404885 0.732194901 0.658444047
0.787982106 0.735357046 0.686527491
0.797976077 0.739658475 0.675774813
0.825553536 0.730550230 0.605945528
0.873877525 0.691460729 0.491334736
0.918785751 0.593928158 0.384187043
0.991650879 0.629980981 0.390006542
0.851233244 0.854142964 0.769513249
0.848450720 0.855155230 0.773940682
0.870967805 0.856546342 0.797596455
0.895508945 0.860847592 0.817077637
0.899936795 0.858064532 0.774446547
0.920682967 0.850221515 0.719544709
0.964959264 0.812650263 0.620493293
1.000000000 0.717900097 0.494876266
0.916508675 0.929664671 0.872106135
0.912333548 0.934471667 0.865527987
0.924351692 0.938772798 0.879317105
0.940923274 0.933585942 0.890828788
0.944971502 0.939152360 0.890322804
0.947880983 0.939278901 0.859962046
0.973307788 0.937760711 0.801518202
0.997469962 0.906134963 0.721947789
0.000000000 0.078304999 0.203795090
0.122201093 0.000000000 0.208096549
0.283997655 0.000000000 0.201011732
0.432890743 0.003542452 0.200632185
0.577482581 0.000000000 0.212017745
0.721189141 0.000379548 0.215560004
0.850474119 0.002024260 0.232005283
0.975205481 0.006831273 0.240227833
0.003542452 0.134345546 0.193548083
0.146489084 0.125364006 0.210499555
0.288677722 0.119417734 0.197470084
0.436811924 0.120303452 0.214800999
0.581783772 0.111954279 0.218595892
0.722454131 0.115243092 0.227830544
0.852498293 0.127640799 0.238709554
0.977608562 0.148386925 0.252371699
0.208728641 0.251106739 0.256672651
0.271347612 0.244402185 0.282100111
0.331815660 0.242884204 0.253510535
0.450094819 0.254649162 0.242631540
0.584060729 0.271853179 0.244528994
0.723972201 0.276154429 0.244528994
0.859582424 0.280961335 0.259962231
0.978747547 0.294370472 0.271473557
0.393548638 0.401391625 0.377609283
0.434029192 0.402530283 0.396584302
0.479443371 0.408475697 0.398735166
0.528779328 0.384945929 0.331436008
0.623276591 0.360784531 0.285262197
0.739658356 0.411385298 0.287666112
0.865148544 0.430486917 0.295382887
0.982415795 0.435294032 0.301834196
0.573813915 0.581656933 0.497786015
0.604048193 0.581656933 0.521062255
0.651486695 0.587096810 0.558127820
0.666793346 0.584819734 0.506135404
0.718152821 0.543706357 0.405313015
0.778747499 0.479063869 0.338013738
0.888678074 0.525363684 0.345983446
0.973814070 0.577229559 0.357115567
0.734471679 0.729032040 0.646679044
0.749146104 0.733712673 0.654269278
0.778874218 0.739785194 0.687792480
0.804427683 0.739911199 0.690955162
0.815686285 0.731056273 0.618089676
0.863630652 0.691460669 0.515749693
0.919670999 0.596963942 0.407337248
0.994939983 0.639974892 0.429222167
0.842504561 0.851866245 0.772801995
0.851866245 0.857684970 0.781404257
0.868437469 0.858191073 0.799367428
0.897533178 0.862871528 0.826439023
0.893485248 0.863250852 0.788488150
0.918405950 0.852245688 0.725869834
0.956483245 0.824035704 0.631752133
0.998355269 0.722200990 0.514484286
0.908918262 0.939152360 0.867931545
0.914104521 0.932954013 0.877292991
0.917899668 0.934851170 0.876154244
0.935736775 0.940037966 0.895762146
0.948387027 0.937254608 0.894117594
0.959392548 0.941429675 0.862365365
0.975964546 0.937634051 0.816191912
0.999620438 0.910183728 0.735736609
0.000000000 0.187223092 0.344845206
0.003542452 0.080328651 0.319671065
0.281973273 0.003162904 0.313472182
0.434408635 0.000000000 0.320935726
0.576723456 0.000759096 0.317393988
0.714990735 0.000000000 0.320935935
0.849462450 0.000000000 0.319670916
0.975711644 0.000000000 0.330930114
0.000379548 0.271094173 0.337002009
0.010752990 0.209235013 0.334977746
0.281088203 0.113599084 0.322074175
0.439088911 0.100695647 0.318912089
0.587349653 0.070461996 0.323339641
0.719418228 0.039974902 0.315876007
0.848323762 0.053131185 0.322580457
0.973814070 0.102719709 0.338519812
0.038204093 0.275775015 0.314231277
0.180265993 0.271094084 0.323339552
0.308665156 0.251486301 0.318912208
0.445035070 0.247565091 0.328020543
0.583681285 0.252371907 0.329158992
0.722454190 0.253890097 0.336622357
0.850853562 0.258317381 0.340797126
0.980644763 0.276407093 0.346489102
0.292599738 0.394813240 0.370398641
0.346615791 0.396837562 0.368248075
0.459455937 0.406198651 0.432131648
0.505250156 0.383427918 0.387856007
0.611132383 0.380265713 0.364073545
0.727008283 0.416065991 0.361923099
0.861732900 0.422770470 0.367235750
0.975331783 0.427324653 0.380392015
0.529664457 0.564832389 0.503732085
0.558886826 0.565970957 0.509930313
0.622011244 0.578115404 0.550790429
0.666286945 0.581277490 0.560151637
0.700569391 0.540544093 0.464642376
0.769386530 0.495888352 0.408981293
0.876913309 0.544339001 0.418469161
0.971663594 0.580518544 0.424161822
0.713851988 0.723972380 0.641239762
0.727134466 0.731815219 0.658570647
0.763946474 0.734092474 0.683871150
0.814294577 0.749146044 0.721315622
0.818216264 0.737760842 0.669196606
0.854648769 0.687539697 0.562808216
0.910309792 0.611511767 0.476281196
0.986211061 0.660594344 0.484629929
0.839594960 0.850853562 0.770904541
0.848450541 0.853131056 0.788614988
0.868437469 0.857432008 0.797596455
0.894370556 0.864009917 0.826818466
0.903858185 0.865907609 0.818089843
0.918785572 0.857811630 0.762681842
0.955470979 0.820493460 0.665148616
0.997216642 0.729411542 0.558254242
0.909297884 0.938267052 0.874762952
0.909044623 0.942315280 0.867678702
0.923845708 0.939531922 0.878178656
0.939405501 0.941429675 0.898924410
0.954964995 0.943579853 0.912713408
0.952435076 0.943959653 0.877545774
0.971916735 0.939785242 0.831498981
0.996457756 0.915496647 0.763820589
0.005060354 0.301581293 0.478178620
0.006325001 0.239215732 0.467678398
0.092093393 0.050474539 0.463883370
0.439468265 0.000000000 0.443263650
0.585072815 0.001138644 0.437318116
0.708159328 0.003922000 0.436938554
0.848576844 0.000000000 0.433270007
0.972801983 0.001138644 0.435041100
0.001517999 0.360405207 0.479822725
0.005566002 0.306261986 0.484250277
0.065148480 0.155344635 0.452371836
0.436306179 0.092852451 0.436052918
0.585452139 0.070841439 0.440101534
0.715369999 0.032890804 0.438077182
0.853763580 0.008349185 0.439342350
0.974826217 0.006451639 0.440733731
0.002783356 0.471220732 0.481467515
0.000379549 0.440986484 0.479443282
0.237445012 0.336875170 0.469450086
0.451612711 0.240480989 0.432637274
0.585705042 0.233775824 0.432511270
0.719670832 0.225173831 0.438456625
0.852118969 0.219734639 0.441492945
0.968880475 0.218089923 0.437571287
0.142441273 0.426565647 0.437697649
0.211005732 0.423023283 0.435293913
0.339658558 0.407842845 0.432257831
0.464642286 0.373307914 0.433775932
0.598734975 0.374825805 0.443769842
0.725616574 0.384313554 0.455407888
0.851866007 0.389626920 0.455660939
0.973181427 0.405060053 0.466287285
0.356483281 0.533586264 0.477040201
0.401517957 0.539026141 0.479570091
0.500948668 0.541049778 0.508159637
0.639342189 0.558507383 0.573181689
0.667552173 0.532700360 0.523466170
0.755344510 0.520177245 0.494623899
0.859329641 0.559772015 0.499557495
0.968627453 0.569006920 0.504237950
0.623149812 0.699177682 0.616951227
0.651486516 0.699177802 0.626059473
0.713599205 0.711827815 0.658064544
0.787729442 0.724351704 0.704491079
0.813915193 0.737254560 0.713472605
0.833143532 0.689310431 0.620620072
0.893231988 0.635673881 0.545224369
0.974572957 0.681214690 0.560784221
0.813662291 0.845793903 0.763946831
0.823782444 0.850980461 0.769639194
0.847691655 0.850221515 0.787602961
0.883111894 0.864768922 0.824288607
0.910942435 0.876154482 0.850980580
0.916002691 0.862745106 0.801897645
0.944212615 0.829474926 0.716888011
0.991018295 0.748260379 0.621631622
0.899050951 0.940417528 0.869955599
0.904111147 0.939405560 0.875395596
0.918026686 0.941555977 0.888171971
0.944718361 0.944718361 0.904997051
0.952182114 0.952182114 0.916002512
0.956862688 0.949019611 0.904996753
0.974446714 0.942315280 0.867678583
1.000000000 0.923086822 0.797343850
0.002403808 0.411258370 0.636559010
0.000758999 0.375711650 0.631246030
0.005566099 0.236432269 0.629348397
0.345351100 0.029348643 0.589374185
0.579000354 0.003922000 0.558507383
0.720050454 0.004048004 0.558380604
0.848703325 0.001518192 0.557242393
0.970145464 0.001518192 0.559519351
0.003542452 0.462239206 0.634535372
0.002276998 0.427830279 0.629981160
0.000379548 0.320050627 0.628083766
0.337634265 0.158760354 0.592410088
0.587981999 0.067046255 0.563061535
0.725237072 0.026185837 0.559519351
0.843769610 0.009867378 0.554459095
0.965717971 0.009993901 0.556483209
0.000000000 0.564073324 0.637824178
0.000000000 0.535990119 0.629095554
0.025933284 0.447312117 0.618216395
0.338520020 0.281973183 0.599620342
0.586843550 0.233523011 0.554712236
0.720809519 0.223276183 0.553826571
0.853384078 0.218596101 0.558760166
0.969386578 0.212903202 0.555850744
0.003542452 0.627956867 0.619354963
0.000758999 0.631878614 0.624161720
0.170651644 0.611511707 0.622643709
0.426186144 0.470335007 0.606072009
0.598228812 0.369766265 0.549651921
0.726375639 0.365844399 0.562428772
0.851992190 0.364326268 0.555977046
0.972042978 0.356736004 0.555471361
0.235673368 0.580518544 0.559646189
0.291713923 0.572675586 0.562934756
0.381277472 0.565844297 0.560151458
0.502719820 0.536242843 0.559392571
0.611258328 0.504490972 0.550031543
0.734218657 0.505755901 0.562682211
0.851107180 0.518659174 0.571410358
0.970271945 0.532827377 0.583175004
0.416192114 0.658064306 0.598102510
0.452625096 0.665275156 0.593801260
0.536875188 0.667172670 0.607463717
0.649082899 0.680455565 0.635800004
0.785199225 0.711322188 0.713345885
0.807463884 0.675015926 0.656166732
0.876027524 0.658823550 0.627577364
0.963314235 0.697659850 0.632384479
0.697280169 0.824415088 0.724604428
0.720303714 0.827071667 0.734598160
0.760910511 0.833017170 0.744971573
0.832258105 0.846552908 0.791397750
0.896647573 0.868943572 0.843769789
0.916002572 0.869576037 0.842378497
0.929032266 0.829728246 0.763187647
0.982162952 0.771916389 0.683112144
0.861100793 0.937381446 0.855787635
0.873118162 0.943326771 0.858950198
0.891207993 0.942947686 0.871979773
0.923719168 0.947754443 0.895888388
0.945983589 0.952814758 0.919164836
0.966223955 0.959645987 0.938899457
0.972169638 0.952435076 0.901707590
0.995066166 0.925742984 0.831499159
0.001897740 0.515369713 0.764199972
0.002783259 0.484123975 0.761290014
0.002783356 0.404553890 0.759519339
0.004048004 0.187223107 0.741176367
0.529411614 0.010246828 0.700189769
0.730550230 0.000000000 0.683744729
0.848197281 0.000000000 0.675648212
0.969006777 0.000759092 0.673877478
0.004301451 0.557495058 0.765591264
0.000000000 0.524604738 0.765464723
0.000379548 0.450221419 0.755091608
0.002024260 0.262998074 0.736875176
0.533586264 0.139784828 0.702339947
0.725490451 0.015180449 0.673371017
0.849842012 0.007969637 0.671726704
0.966603458 0.010753090 0.675395429
0.002656642 0.640986502 0.768627346
0.000379548 0.615053475 0.764200211
0.002024270 0.550031483 0.756989300
0.048197284 0.409740359 0.736622334
0.522580385 0.282479525 0.713978350
0.727640748 0.221632093 0.679063797
0.848703504 0.215433389 0.672232747
0.968500793 0.212523922 0.676154613
0.000759096 0.767236173 0.775584698
0.004048004 0.747121990 0.767236114
0.150790915 0.689183772 0.751423299
0.350790471 0.582922399 0.744971752
0.520682812 0.420620084 0.707020819
0.733459592 0.361543626 0.674889386
0.851233244 0.360025436 0.671094060
0.973054826 0.361163795 0.678557873
0.028336367 0.772928476 0.743326664
0.083744183 0.771031141 0.741429269
0.306767911 0.767615557 0.742821157
0.469449729 0.749146044 0.748260260
0.595825613 0.617709994 0.728399932
0.733333230 0.503731906 0.677925467
0.857052505 0.497026920 0.676407218
0.973055124 0.499051183 0.679696560
0.362049192 0.720809460 0.677925527
0.387223214 0.716508567 0.683997333
0.449589044 0.712081134 0.677292705
0.541935444 0.694497108 0.684882939
0.641619384 0.669955671 0.683997273
0.738646686 0.634661496 0.669955432
0.859202862 0.642251968 0.687539697
0.961163819 0.656166732 0.688930929
0.452118874 0.780898094 0.696520984
0.483111739 0.781151116 0.701201558
0.555723846 0.783048630 0.710436523
0.660847545 0.796837211 0.733333349
0.784946024 0.815306902 0.769639313
0.899303794 0.856546342 0.848703265
0.916508496 0.814674258 0.793674469
0.965211928 0.797596335 0.749904990
0.756609738 0.924098551 0.818216324
0.768500805 0.931815088 0.819481373
0.804807246 0.931056082 0.832384646
0.847564757 0.938140512 0.857432008
0.921695113 0.945603907 0.907653153
0.957748234 0.957621694 0.937381148
0.977861822 0.961543143 0.940923512
0.991144955 0.936242819 0.872485757
0.000000000 0.609740555 0.883238256
0.001644712 0.587602794 0.868311286
0.003289004 0.525743306 0.876281142
0.000000000 0.400758922 0.867045939
0.218089804 0.197343186 0.851992548
0.686906636 0.008349184 0.809993804
0.854142964 0.000000000 0.796964288
0.974573076 0.000000000 0.797596276
0.003289004 0.638962567 0.874509752
0.001644712 0.619607806 0.875268817
0.003162904 0.561669767 0.877545834
0.000000000 0.447438180 0.865654647
0.223149747 0.250474274 0.856167018
0.692346871 0.126375630 0.819101989
0.852118790 0.007590090 0.796458006
0.974446535 0.007590090 0.801771164
0.000000001 0.707780004 0.877925575
0.003415545 0.687665880 0.880708516
0.002277094 0.642504632 0.871473849
0.000000009 0.542441666 0.869323134
0.240481004 0.365717977 0.854016244
0.680202246 0.274130166 0.814927280
0.852371752 0.213789091 0.799241006
0.967741668 0.211005732 0.793422043
0.003922000 0.810373306 0.884250522
0.008602096 0.794180691 0.871093988
0.067931555 0.752688229 0.868690729
0.266540259 0.675395250 0.865907550
0.415306926 0.537128568 0.856293678
0.677925169 0.416192025 0.820493460
0.853004575 0.363187641 0.802023888
0.971663654 0.358633459 0.796457887
0.059203103 0.916381896 0.864263296
0.111701548 0.909297943 0.876281083
0.323339581 0.886274457 0.884250343
0.501581013 0.827577472 0.869070470
0.582795620 0.717647254 0.862745106
0.685515404 0.568753839 0.836432934
0.857179165 0.498165548 0.795951724
0.970778048 0.496394724 0.795319319
0.355344713 0.892219841 0.839721501
0.395066351 0.895382702 0.853510499
0.460594594 0.890069544 0.853257537
0.565844059 0.886274576 0.858191252
0.668817103 0.877799094 0.861479878
0.750158191 0.759139538 0.846299529
0.853890002 0.630360425 0.794434011
0.967109621 0.632258177 0.791144967
0.469196588 0.857052267 0.802529991
0.491460800 0.852245688 0.802023888
0.531688690 0.850727439 0.793674886
0.601391613 0.845793843 0.805439234
0.688804567 0.829728246 0.818975449
0.768753946 0.807969570 0.812650263
0.855155230 0.762934804 0.793674827
0.961163819 0.778367817 0.802150428
0.424288571 0.896014869 0.798481762
0.460214853 0.897153437 0.796710789
0.539152265 0.899810135 0.805186510
0.644149065 0.905249953 0.818342924
0.764958858 0.919164896 0.846805692
0.886021376 0.930929482 0.882858872
0.969766319 0.959771752 0.962049246
0.982416034 0.936116159 0.909045279
0.000000000 0.679949820 0.972801924
0.000000000 0.668057740 0.962175965
0.003162904 0.621505558 0.966350615
0.000000000 0.533586144 0.964452565
0.003542158 0.356989175 0.968248010
0.489057362 0.210878879 0.942441702
0.826059520 0.010373265 0.920429945
0.967741609 0.006578155 0.919417739
0.001265167 0.707652986 0.967868209
0.000379548 0.685894966 0.975458443
0.000000001 0.646806002 0.957874656
0.000759096 0.565844238 0.961922824
0.000000000 0.414041579 0.957621515
0.492599607 0.266287446 0.947248518
0.822137892 0.116128951 0.922200859
0.969386339 0.007590090 0.914104760
0.000000000 0.758380890 0.964705646
0.001897737 0.751676083 0.954459250
0.002024264 0.710689187 0.960277975
0.000759096 0.635673285 0.960404992
0.014041935 0.512207568 0.959519267
0.498924971 0.369766057 0.950664163
0.818722486 0.269575983 0.922580540
0.967741609 0.213029996 0.916002572
0.002530012 0.849335849 0.955597460
0.000759096 0.836306334 0.957115531
0.040227741 0.807716727 0.965718031
0.112081163 0.749904931 0.952814817
0.343959749 0.650221348 0.964959025
0.526628733 0.497912616 0.946236610
0.815812588 0.410878897 0.923845351
0.971410632 0.361416817 0.913851738
0.252624929 0.944465160 0.956103384
0.312207490 0.935610533 0.960657716
0.424414992 0.911068916 0.962682009
0.498924613 0.873118341 0.957494795
0.550284743 0.795825541 0.956483126
0.616191983 0.664895654 0.950790465
0.810753047 0.556230307 0.931688368
0.968121171 0.497533381 0.911701560
0.425932765 0.996204793 0.943453074
0.461227298 0.994939983 0.948260605
0.519165158 0.993674815 0.958633661
0.598861456 0.983301699 0.960404873
0.689816654 0.934598267 0.963946640
0.737634480 0.844402313 0.960151613
0.818975449 0.703605175 0.941555858
0.961036921 0.633270323 0.909044921
0.524731040 0.987222791 0.932447851
0.534092188 0.986590743 0.923339665
0.587222993 0.979886055 0.935230672
0.652119100 0.980645180 0.933712661
0.732321203 0.975838244 0.948134005
0.820746124 0.976850271 0.961543441
0.858950078 0.890448809 0.941935539
0.954585612 0.765338540 0.912460506
0.559771836 0.971536756 0.910183787
0.582036793 0.967362165 0.900822222
0.612017751 0.965844333 0.901834190
0.672612309 0.962428629 0.908033013
0.732321024 0.955470979 0.917141199
0.804174542 0.953826547 0.924857557
0.870968103 0.929285049 0.927007973
0.945350945 0.894496799 0.903604984
