Assets/Shaders/EldamarStudio/100 Sci-Fi LUTs Pack/LUTs/cube/Katherine LUT.cube
LUT_3D_SIZE 5
DOMAIN_MIN 0.000000 0.000000 0.000000
DOMAIN_MAX 0.903226 0.903226 0.903226
0.000000000 0.000000000 0.070588000
0.112207688 0.021252289 0.097406998
0.318532377 0.076533571 0.152308583
0.508159280 0.180518985 0.235421002
0.741682589 0.299683630 0.340164781
0.036306284 0.161543399 0.133712694
0.153700396 0.174952701 0.159266114
0.333206683 0.210246697 0.201770693
0.522833347 0.275648266 0.272359133
0.750157952 0.366603523 0.373813927
0.196837410 0.386464387 0.276533574
0.261606395 0.390385807 0.292979389
0.385831773 0.405439824 0.317141384
0.548007250 0.440100968 0.362934828
0.760025620 0.511448622 0.434914380
0.357115984 0.608222246 0.417836994
0.399241120 0.620873153 0.427071244
0.493105382 0.622897148 0.448324114
0.618849158 0.629728258 0.474763006
0.783807933 0.680708408 0.549651980
0.603162408 0.830360770 0.648829758
0.622390747 0.843263745 0.651739478
0.676280618 0.838962376 0.663883328
0.754964888 0.848450303 0.681214333
0.847438455 0.860594749 0.722327530
0.000000000 0.033017289 0.182415992
0.111195408 0.032384705 0.187982693
0.295888692 0.119038828 0.235041112
0.493738413 0.223023400 0.309677541
0.720809579 0.317899972 0.395951688
0.052371986 0.162175983 0.209234402
0.162555113 0.181151405 0.233143672
0.319797784 0.226944983 0.274003774
0.502213836 0.290701687 0.333459973
0.725616515 0.376723826 0.417963356
0.210246697 0.375331968 0.325237125
0.269070119 0.386464387 0.338013977
0.381277800 0.402782977 0.356356412
0.536875308 0.436812371 0.393927932
0.748892784 0.506514668 0.471600384
0.363567442 0.600379288 0.458317846
0.403162718 0.615053535 0.466540128
0.488551825 0.613409400 0.477672100
0.607843161 0.624161720 0.496648133
0.775584817 0.673498034 0.564326346
0.599493861 0.828842640 0.651992798
0.619860888 0.834029078 0.656419694
0.673624456 0.835673809 0.670335233
0.749399185 0.840606928 0.686021388
0.844781756 0.849715531 0.714484513
0.000000000 0.030740418 0.359645814
0.130170405 0.062492117 0.360657692
0.307399958 0.136748388 0.366223812
0.482605994 0.230233997 0.404427707
0.712966621 0.327007800 0.487918973
0.092599690 0.204047978 0.361922711
0.183428109 0.211258397 0.363567382
0.319797814 0.244908109 0.386084676
0.488171875 0.303732127 0.426312566
0.709930301 0.386843681 0.500948787
0.225680232 0.382542402 0.421758413
0.284503371 0.390385389 0.430613518
0.413282782 0.428968787 0.470840931
0.539531887 0.451233357 0.486527354
0.734472036 0.514737189 0.550031185
0.376343727 0.592789114 0.524098516
0.414927542 0.604174614 0.538519919
0.496015280 0.612776816 0.548260629
0.610120296 0.624161720 0.564326167
0.771916509 0.679443240 0.622896910
0.598482192 0.825300634 0.680075765
0.618469477 0.828462958 0.692220092
0.671727061 0.831751823 0.699051201
0.749778450 0.836432338 0.715117097
0.846299708 0.850727201 0.746236324
0.005060124 0.109930255 0.559139967
0.174699396 0.137381405 0.556230128
0.346995682 0.193295538 0.553573549
0.514105260 0.256040126 0.558128119
0.706135273 0.334851146 0.604933679
0.144844696 0.252751708 0.552687824
0.226944983 0.263251126 0.549272239
0.369133264 0.285768420 0.557495177
0.519291639 0.325616390 0.569259703
0.715875924 0.392409831 0.617330670
0.262871981 0.421758413 0.571157098
0.313598871 0.431246072 0.580012441
0.422770530 0.440100968 0.585578561
0.549651980 0.463630795 0.597343564
0.733080208 0.514990687 0.646046996
0.381530851 0.601265132 0.627703965
0.422770560 0.605818927 0.628716111
0.502466798 0.616951108 0.641113162
0.634661436 0.652245104 0.674762964
0.775205553 0.685262442 0.698039114
0.587602794 0.817583561 0.735989928
0.608349085 0.824541628 0.751549482
0.658570409 0.830487192 0.754712224
0.744591951 0.840606928 0.763820052
0.846173644 0.856419742 0.790258944
0.159771785 0.217204124 0.796457767
0.260468364 0.229348674 0.796837389
0.419228226 0.269575953 0.792662740
0.598481953 0.322200954 0.788994312
0.760025442 0.385957956 0.787349641
0.229601562 0.316887677 0.793927610
0.294370651 0.327387512 0.794180930
0.437824100 0.349272639 0.790259302
0.601011992 0.382542819 0.786464274
0.763567328 0.434028924 0.791018307
0.306008816 0.483365059 0.787982225
0.359772205 0.485515505 0.790385723
0.472232789 0.497659564 0.791271448
0.617963433 0.514990628 0.792789459
0.772422194 0.546110034 0.799240708
0.441998810 0.659203053 0.796963930
0.472865224 0.663124621 0.805565953
0.541808903 0.662112951 0.805692375
0.653637111 0.667046070 0.804680467
0.792283475 0.690575778 0.814800620
0.604680538 0.829095662 0.831625640
0.617836893 0.828209937 0.842631519
0.660594642 0.833776176 0.845541000
0.745224655 0.842884123 0.853383601
0.865907729 0.873624623 0.888045788
