Assets/Shaders/EldamarStudio/100 Sci-Fi LUTs Pack/LUTs/cube/Katherine LUT.cube
DOMAIN_MIN 0 0 0
DOMAIN_MAX 1 1 1
LUT_3D_SIZE 32
0.000000000 0.000000000 0.070588000
0.003036387 0.000000000 0.064516000
0.003922000 0.000000000 0.062744997
0.007716838 0.002529999 0.062744997
0.019101545 0.008601999 0.064642541
0.046425935 0.014673999 0.079822935
0.078810960 0.018216323 0.089943320
0.112207688 0.021252289 0.097406998
0.142568097 0.024288097 0.104237907
0.163820505 0.027324487 0.113345526
0.196710870 0.033269998 0.122453868
0.226059243 0.043389991 0.131562248
0.254522294 0.055534288 0.140670642
0.285136044 0.067425966 0.149272963
0.318532377 0.076533571 0.152308583
0.344718575 0.088045605 0.160151809
0.372042984 0.103225991 0.170777991
0.402403116 0.120176986 0.182921976
0.432763964 0.132321015 0.195066020
0.457558721 0.144465715 0.204427361
0.481846988 0.162302732 0.219228476
0.508159280 0.180518985 0.235421002
0.538646460 0.193042487 0.247817978
0.572042942 0.214294910 0.266034007
0.603162527 0.228715986 0.279696584
0.636306286 0.242251649 0.294623971
0.672233045 0.257937998 0.311322063
0.705629408 0.276153982 0.320430428
0.741682589 0.299683630 0.340164781
0.779886127 0.322201163 0.364959151
0.815812588 0.343453586 0.389626980
0.843137026 0.364706010 0.407842994
0.003036387 0.000000000 0.058444001
0.000000000 0.000000000 0.073624387
0.000885613 0.002150774 0.065401614
0.008475611 0.004301225 0.066540159
0.025553092 0.008981547 0.072612382
0.055534318 0.017710386 0.079822935
0.082858711 0.023782386 0.087412998
0.115243301 0.028968997 0.099304311
0.145603716 0.033396482 0.108791903
0.166856110 0.036432877 0.113345526
0.196837351 0.048197385 0.125363737
0.226059243 0.058570378 0.132574394
0.254522294 0.069576032 0.140670642
0.284630030 0.079570033 0.149272963
0.312460393 0.088678345 0.152308583
0.338646591 0.097785965 0.155344814
0.367489189 0.110815801 0.166224197
0.398734927 0.126881555 0.179886356
0.426691979 0.141429409 0.192030400
0.454269379 0.156356767 0.206957757
0.482606083 0.168753982 0.222264379
0.511195362 0.185578868 0.239468738
0.541555643 0.202024370 0.253510505
0.572042942 0.220366910 0.262998402
0.605439305 0.234787986 0.278937668
0.637950599 0.249715328 0.294623971
0.672233045 0.267046392 0.312334061
0.705629408 0.285262376 0.326502442
0.741682589 0.298165381 0.346236795
0.779886127 0.320935994 0.362175941
0.816698194 0.344338953 0.384060800
0.846173406 0.367741615 0.410879403
0.006072226 0.008601999 0.061353773
0.000885613 0.010752774 0.070082389
0.006451774 0.015053772 0.074510001
0.010246612 0.018090161 0.071726777
0.027703641 0.021885000 0.080329001
0.059835639 0.030992933 0.089942999
0.087666094 0.039721772 0.098165773
0.116634756 0.044149481 0.104237773
0.147248194 0.049715549 0.115622997
0.169892266 0.054143265 0.120050296
0.197722733 0.065907776 0.127513960
0.228083506 0.071980029 0.135610208
0.255534410 0.083744541 0.142820865
0.284377009 0.093611777 0.151423261
0.309803635 0.100822411 0.154459357
0.343326807 0.112080961 0.163946807
0.366097420 0.122706771 0.170019194
0.395066351 0.135989577 0.182669401
0.420872986 0.148133978 0.193295240
0.450348139 0.163314372 0.208222598
0.477672487 0.178494737 0.221505702
0.507779956 0.192915753 0.238203645
0.538519502 0.210879236 0.253383726
0.574952602 0.225047782 0.266540140
0.601138294 0.240859985 0.280202508
0.633143306 0.255787313 0.295382887
0.666287303 0.273498058 0.312334061
0.701328397 0.290069759 0.327514440
0.739531815 0.307273775 0.341556013
0.772422552 0.324730933 0.364579588
0.811638176 0.348640174 0.383554727
0.847059011 0.372928560 0.413915247
0.007843000 0.029601481 0.071727000
0.001771000 0.032637544 0.077798992
0.007716612 0.036559317 0.082099997
0.020620160 0.042631321 0.080835164
0.032763869 0.044908613 0.087286614
0.066160798 0.050474223 0.098545000
0.094497316 0.058317319 0.105629317
0.118405983 0.066666707 0.113092996
0.148007289 0.071221091 0.119164996
0.172802150 0.077799164 0.125236988
0.198734865 0.087160155 0.131309003
0.228083506 0.094497256 0.138646156
0.257305652 0.098671988 0.145856813
0.284883082 0.110310033 0.154965132
0.311195314 0.117394149 0.160025254
0.341302752 0.127008304 0.169006988
0.370145351 0.137887150 0.178368032
0.393927693 0.150663719 0.189373970
0.420113981 0.161037147 0.200379372
0.447438747 0.174446359 0.212523356
0.475901723 0.187096730 0.224541306
0.505250096 0.201264992 0.238710091
0.535736680 0.218974993 0.254142791
0.570651591 0.233396813 0.269322932
0.602530003 0.246552855 0.284503281
0.628336132 0.260594159 0.297153652
0.660720944 0.278304905 0.312839985
0.698671699 0.293485254 0.328779280
0.732700586 0.311322123 0.342567980
0.771916211 0.330044150 0.358001202
0.804048061 0.351296574 0.383175403
0.845793843 0.375205845 0.413156003
0.007084001 0.063377991 0.083871000
0.002909548 0.066034153 0.090701990
0.010499545 0.068690769 0.096014999
0.024794320 0.072612546 0.098671608
0.044529092 0.077925548 0.096015446
0.077925481 0.074889161 0.105123058
0.105502866 0.079822645 0.109550864
0.127893537 0.086400799 0.114231542
0.148766294 0.094750091 0.120303541
0.176091462 0.103858486 0.126375541
0.200885549 0.110815994 0.132827103
0.228462949 0.116888091 0.140923247
0.257685184 0.122201093 0.149272650
0.284756541 0.128273085 0.158634007
0.314864278 0.137254953 0.167868122
0.343200773 0.147122353 0.176217347
0.367868632 0.156609908 0.184946090
0.390512526 0.165844113 0.192030132
0.423909009 0.181024522 0.210246950
0.449715734 0.193421558 0.221252203
0.475522161 0.204047829 0.230360284
0.504111528 0.213788539 0.241366252
0.537507892 0.225932553 0.259582967
0.565338314 0.243643358 0.275015652
0.597216845 0.257685006 0.290575266
0.628209651 0.269829065 0.302593082
0.657305121 0.282099605 0.312460542
0.699809849 0.297279954 0.330676526
0.729790807 0.314737648 0.346236378
0.764831901 0.333333462 0.362175733
0.805186212 0.351676136 0.380139112
0.841619015 0.372928560 0.407463551
0.001012001 0.099809989 0.096014999
0.010120386 0.099809989 0.108158998
0.023149934 0.100315928 0.110688999
0.039089091 0.102087155 0.111700997
0.056673091 0.105249926 0.111195058
0.087033868 0.105249926 0.111195058
0.110310256 0.112334192 0.117773637
0.130929932 0.116002798 0.123339929
0.152182132 0.118279770 0.129411921
0.182163462 0.122074485 0.135483921
0.209487870 0.134092003 0.144465804
0.234281912 0.141176507 0.153067604
0.260720968 0.144971862 0.159898639
0.287792921 0.146489874 0.164706007
0.312080920 0.152561873 0.176849991
0.342188656 0.166350722 0.181277737
0.369006991 0.179000929 0.191398129
0.392789215 0.189373851 0.203162864
0.417836994 0.196204916 0.210246965
0.448450744 0.208601937 0.228463009
0.474003971 0.220746398 0.239468664
0.499810159 0.231372744 0.248577058
0.528399527 0.241112947 0.259582967
0.561796010 0.253257751 0.277799010
0.594180882 0.268690646 0.295508921
0.626185894 0.281973332 0.307652980
0.657052100 0.294117868 0.315243214
0.693737864 0.306388348 0.327640921
0.728272796 0.321568757 0.343200743
0.760657549 0.340797156 0.361923099
0.795572519 0.359772503 0.382163525
0.829474986 0.375964940 0.404427916
0.020240642 0.131182641 0.115749314
0.029348383 0.133712962 0.120303638
0.044908546 0.138013959 0.125995874
0.061859801 0.136242956 0.127640486
0.077799089 0.135863632 0.129285097
0.101707540 0.140164644 0.131435320
0.121948317 0.140164644 0.131435320
0.144844979 0.147628322 0.137508094
0.167109281 0.150917321 0.145098314
0.195699304 0.155724153 0.154712319
0.220619872 0.159898952 0.151043877
0.245920509 0.167994961 0.162175998
0.271347284 0.174067318 0.170651317
0.298672020 0.177103281 0.175837994
0.325237304 0.180897996 0.187981993
0.347122103 0.189373806 0.197722808
0.375585198 0.201265186 0.207084194
0.402150452 0.212397292 0.221631974
0.430234283 0.222264335 0.231499016
0.455028415 0.233902320 0.246173337
0.487286389 0.244149044 0.253004313
0.514484406 0.254649103 0.262239128
0.541935623 0.263883621 0.274509996
0.572928250 0.276027799 0.287918985
0.604047835 0.288172007 0.301580995
0.639974594 0.303098977 0.317899644
0.674256504 0.316888064 0.328905374
0.708665490 0.331056297 0.343073905
0.744971097 0.345857143 0.360405147
0.778367937 0.361037493 0.379127473
0.812650502 0.382542878 0.396837682
0.847691655 0.404301316 0.411511689
0.036306284 0.161543399 0.133712694
0.055281311 0.162935093 0.136749089
0.062618546 0.166476980 0.143073916
0.078304991 0.170018986 0.141049862
0.093864828 0.166223988 0.141429603
0.115116760 0.172295988 0.140670061
0.138772637 0.170018986 0.149398699
0.153700396 0.174952701 0.159266114
0.178747505 0.179506704 0.161543608
0.206072465 0.183807686 0.167488992
0.227198005 0.188614860 0.167109698
0.251486510 0.190385982 0.171536982
0.275774986 0.196457997 0.181403995
0.303099334 0.203036040 0.188235030
0.333206683 0.210246697 0.201770693
0.357368767 0.218089506 0.209866792
0.380139381 0.224161893 0.220493376
0.407337248 0.233649671 0.234282106
0.436685950 0.245793700 0.245414004
0.463124722 0.256293416 0.257052362
0.491460711 0.266540140 0.269322991
0.522833347 0.275648266 0.272359133
0.550284982 0.284882963 0.286147982
0.580645025 0.297026992 0.298292011
0.614294529 0.309171408 0.310436428
0.644655287 0.321315378 0.322580397
0.682352781 0.336242765 0.338013679
0.715749562 0.351423115 0.354332417
0.750157952 0.366603523 0.373813927
0.784819603 0.385072887 0.392157167
0.818216622 0.402024299 0.412523985
0.853890300 0.427830696 0.423908710
0.050727189 0.191903993 0.152688190
0.072738491 0.191903993 0.151929289
0.084376872 0.194054410 0.158507422
0.092726089 0.195825189 0.162302271
0.104870096 0.195825189 0.154712558
0.124983929 0.201138198 0.149778321
0.150537416 0.197849095 0.158380523
0.169639319 0.198481798 0.170651406
0.185578987 0.206831098 0.185832009
0.212903410 0.206831098 0.176723614
0.232257992 0.211891204 0.180771962
0.254522502 0.215433195 0.187096924
0.278052092 0.217710182 0.195066199
0.302340090 0.223782182 0.201138198
0.334218383 0.234914824 0.214800492
0.361163676 0.243896291 0.222770080
0.383934289 0.251486301 0.231878281
0.410120428 0.256420076 0.244023040
0.437697917 0.268564075 0.253257215
0.464263380 0.277166337 0.262365341
0.491966993 0.285515636 0.271853179
0.521315157 0.294623971 0.282985151
0.549019814 0.303605080 0.292346478
0.580645025 0.314484090 0.305123121
0.614041567 0.326628655 0.317267478
0.649209321 0.339531988 0.330170959
0.680582106 0.352182060 0.343327135
0.714231491 0.367362440 0.361543179
0.746109843 0.382542819 0.380138904
0.780265570 0.399747163 0.402656496
0.812903523 0.420999587 0.417077988
0.846299946 0.442251980 0.435294002
0.081087977 0.222264007 0.183048964
0.087159984 0.222264007 0.170904204
0.096268274 0.224414781 0.172296077
0.108918488 0.226185977 0.175964981
0.126122490 0.226185977 0.175964952
0.138266504 0.226185977 0.179000556
0.160910636 0.223908663 0.181657299
0.178747475 0.224035203 0.183554977
0.194686621 0.228083491 0.185832009
0.222011015 0.234155506 0.191904008
0.243516371 0.237065375 0.200253367
0.266666502 0.242251977 0.207084492
0.289816618 0.248070985 0.213282987
0.311448485 0.254143000 0.219354972
0.335736483 0.260214984 0.225426972
0.362808406 0.266540021 0.231878489
0.385452479 0.274256706 0.240986481
0.407084048 0.283744514 0.253130645
0.440480500 0.295888484 0.265275478
0.465275258 0.302466482 0.274509609
0.489690006 0.308665007 0.281720459
0.515243173 0.315875649 0.289057851
0.542947054 0.324857473 0.298418492
0.579379857 0.330929488 0.313598931
0.611005545 0.341809064 0.326375484
0.644402325 0.355344772 0.339911163
0.680582106 0.370398074 0.355471134
0.717014849 0.385578424 0.373687893
0.745351255 0.400758803 0.386590928
0.778241813 0.415939182 0.409740835
0.812776983 0.433143586 0.431625873
0.843263566 0.454395980 0.435294002
0.096900873 0.252624720 0.190133005
0.108791865 0.243895859 0.186717093
0.117014639 0.246046647 0.187475860
0.124857865 0.247817874 0.194813296
0.136116415 0.249335870 0.198987991
0.150790736 0.259455860 0.194433928
0.170525059 0.256926179 0.199999869
0.191144869 0.257178903 0.206704706
0.207337067 0.260214955 0.210499868
0.228210241 0.264136732 0.212270856
0.252624720 0.267298877 0.215433002
0.269829124 0.272359490 0.222517639
0.291460991 0.277293086 0.229728222
0.314990222 0.281340897 0.237571001
0.341935724 0.284756750 0.243642986
0.363820523 0.293231934 0.249715596
0.388614982 0.299809873 0.255787730
0.412144125 0.306261599 0.265148729
0.443263859 0.311574906 0.277292967
0.468310863 0.323718876 0.289436996
0.492599577 0.330043852 0.296773851
0.517899990 0.336116135 0.302846134
0.545477331 0.343453735 0.310182989
0.579126835 0.355091721 0.322580785
0.608728290 0.363441020 0.333206564
0.639848113 0.374952853 0.346109658
0.674257040 0.388108730 0.361796141
0.708285987 0.400885284 0.380012900
0.739405751 0.413408846 0.392915994
0.774067104 0.428336143 0.408601940
0.808096349 0.444402188 0.429095477
0.834408879 0.463630855 0.438203871
0.124225236 0.278937489 0.214421242
0.124225251 0.279949367 0.207336843
0.138267025 0.277419269 0.210752755
0.148640245 0.279190511 0.213029593
0.156230241 0.279190511 0.219101802
0.166476920 0.284756511 0.221252501
0.182669312 0.288298309 0.221252501
0.200632691 0.288551688 0.224035501
0.219228357 0.291587412 0.230487153
0.238709971 0.294623464 0.231751993
0.258697003 0.297659636 0.230613634
0.282985508 0.298671514 0.237697244
0.300442904 0.304743975 0.242631376
0.323592544 0.308665276 0.249462292
0.347375214 0.311701655 0.253763497
0.371916503 0.315496415 0.267931610
0.393168926 0.324604422 0.274003983
0.416318566 0.331182480 0.280075967
0.442504704 0.335610241 0.289436996
0.471347272 0.340923518 0.297533035
0.491840243 0.349272490 0.303984731
0.517900050 0.355344504 0.310942411
0.546362996 0.361796498 0.318279505
0.577862203 0.375838250 0.330423802
0.610752523 0.387729287 0.344339222
0.638076901 0.396837652 0.353446841
0.669702888 0.407337248 0.366350085
0.701581419 0.416445255 0.380012631
0.736369610 0.432637244 0.394939989
0.766729891 0.444781661 0.410625935
0.804553926 0.460594475 0.429727584
0.833396733 0.478810966 0.445287734
0.155344635 0.312334269 0.244402289
0.151549637 0.316129267 0.238709539
0.158254415 0.317900270 0.236938536
0.172169641 0.320177287 0.242631465
0.184313625 0.319797724 0.239595175
0.191903636 0.319038630 0.245667577
0.203288957 0.320429951 0.247185647
0.220746338 0.322327346 0.249462634
0.235926732 0.326122642 0.250221550
0.256420135 0.329537809 0.253257155
0.273624271 0.332574129 0.253890157
0.293611497 0.333586276 0.257811666
0.316761643 0.333586276 0.263503909
0.338014036 0.339405298 0.266540229
0.359266371 0.342441708 0.269576401
0.382922262 0.346616119 0.281214595
0.406830817 0.351549447 0.293358654
0.428715765 0.358760267 0.298165649
0.450474262 0.363820255 0.303225636
0.476660371 0.369386643 0.309297621
0.501707613 0.374320269 0.316887736
0.522959769 0.381404161 0.321948141
0.553067505 0.387729138 0.331182986
0.582416475 0.400885552 0.343327016
0.612776935 0.412650287 0.355471253
0.645667315 0.423402935 0.367868602
0.673497796 0.433017284 0.377482295
0.703858495 0.440354288 0.387223065
0.738393605 0.455913901 0.402783096
0.774699509 0.472865045 0.422011226
0.805945396 0.485895216 0.441112876
0.842125297 0.503858268 0.462365270
0.181657031 0.359140009 0.267425984
0.181403995 0.359140009 0.267425984
0.188361764 0.359140009 0.265528232
0.198482037 0.361164033 0.267046034
0.210120037 0.366350502 0.271726578
0.222264037 0.363314122 0.268690944
0.232890353 0.362808049 0.269450039
0.247311696 0.363314062 0.270715028
0.267299116 0.364073038 0.276533931
0.282479525 0.370145053 0.279569536
0.297659844 0.373560935 0.285262734
0.315369993 0.374826014 0.291081965
0.334471643 0.374826014 0.295382947
0.355471075 0.375079036 0.295889020
0.376723409 0.378115445 0.298924625
0.399873555 0.383302003 0.306008816
0.424162000 0.389373988 0.313599020
0.447944105 0.394434035 0.319165021
0.472232968 0.394434035 0.319165021
0.494244337 0.402530342 0.324731082
0.517646968 0.409740984 0.334598064
0.542694151 0.416571915 0.345477164
0.570018530 0.425806046 0.354459018
0.597343683 0.435040951 0.366350055
0.625174224 0.443896323 0.376217306
0.655028641 0.453257650 0.385578632
0.687919140 0.462871999 0.395446002
0.718279839 0.475015998 0.407590002
0.751549780 0.489563853 0.424541622
0.788235068 0.506008983 0.446552932
0.824667752 0.523845613 0.469955593
0.858065009 0.539026022 0.491207987
0.196837410 0.386464387 0.276533574
0.193801016 0.386464387 0.276533574
0.204300761 0.386464387 0.276533574
0.215686142 0.386464387 0.282226145
0.225047410 0.387729377 0.292852372
0.231372416 0.387602866 0.286906898
0.251106709 0.387096792 0.299051285
0.261606395 0.390385807 0.292979389
0.273877174 0.392915726 0.286654294
0.291587889 0.391397387 0.294749916
0.306767553 0.397470117 0.297786266
0.328020066 0.400885522 0.301454723
0.348766387 0.402150393 0.306261569
0.367615074 0.402403414 0.311068624
0.385831773 0.405439824 0.317141384
0.404680371 0.408475608 0.317773819
0.427197963 0.413661987 0.322707385
0.450221390 0.419101566 0.329411805
0.469196558 0.421758413 0.337380975
0.496267974 0.427324414 0.342947692
0.522327363 0.434028983 0.352814823
0.548007250 0.440100968 0.362934828
0.573054910 0.447058409 0.369639397
0.600379288 0.459203184 0.375711381
0.632257879 0.466160804 0.385325700
0.662997842 0.475648373 0.395825356
0.693991125 0.487159967 0.407843053
0.724351883 0.499303997 0.422770411
0.760025620 0.511448622 0.434914380
0.795825303 0.524225414 0.457178712
0.827577233 0.540291011 0.482099563
0.848956585 0.560278416 0.503351986
0.221631780 0.413788795 0.297659576
0.218596011 0.416192591 0.292852610
0.219860613 0.414041817 0.299303830
0.235294119 0.418848783 0.301327944
0.246300042 0.421505213 0.309677243
0.246299803 0.411384970 0.305628985
0.262618303 0.420999587 0.310057104
0.278937399 0.419354886 0.318659067
0.288045585 0.422390878 0.311827958
0.302972943 0.422643900 0.319291294
0.323086739 0.423529506 0.320176840
0.334218860 0.425553769 0.319165260
0.355471462 0.427071571 0.321441978
0.375205666 0.427324533 0.325995803
0.395572603 0.430360407 0.329917818
0.413788766 0.430992991 0.335989982
0.430486977 0.434028983 0.335989982
0.452751547 0.439215600 0.340290964
0.476280808 0.444022775 0.347627848
0.502846181 0.447438627 0.358759910
0.530170560 0.457305610 0.364832669
0.555470943 0.465401709 0.373940796
0.578494489 0.472738862 0.380012780
0.605818868 0.478051782 0.386084795
0.633143246 0.490195990 0.394434065
0.664895296 0.497912645 0.404933751
0.695256114 0.509044826 0.417077780
0.725616872 0.521188796 0.430360436
0.756482959 0.533333480 0.447691590
0.791144967 0.547248542 0.461606324
0.824288368 0.561796188 0.484629571
0.847059011 0.581530809 0.505882025
0.241365984 0.444149196 0.318911970
0.245920569 0.444149584 0.320430189
0.245667607 0.445920408 0.314484626
0.249968380 0.442884356 0.326122552
0.266413987 0.453004390 0.329791397
0.269070268 0.445793629 0.327893645
0.277672172 0.445793629 0.326375425
0.292599201 0.452751666 0.332321674
0.305502892 0.449715286 0.333839297
0.318405956 0.451233476 0.337634176
0.336242855 0.452878177 0.339405388
0.352435231 0.454395980 0.338899434
0.364958972 0.454395980 0.337002188
0.385325819 0.454649001 0.339405388
0.404048204 0.457684934 0.341176599
0.421378970 0.461353362 0.348133981
0.442631364 0.459835559 0.354205996
0.459076732 0.462871790 0.354838580
0.484630197 0.468058199 0.360025197
0.505882204 0.471347541 0.367109418
0.533206940 0.478558004 0.380012274
0.562555313 0.488678008 0.387096941
0.585958183 0.497153819 0.393674970
0.611890912 0.501581430 0.399747014
0.637697458 0.509930193 0.406578064
0.663630486 0.519291222 0.415686429
0.694244266 0.528779149 0.427703977
0.725616872 0.540923357 0.439847976
0.757495105 0.554585874 0.458823442
0.785072565 0.566983104 0.469196916
0.820240557 0.583048344 0.491460741
0.850095034 0.601265013 0.516508222
0.256040126 0.475015551 0.335230559
0.267552316 0.473877370 0.348133922
0.271094561 0.474509776 0.342188537
0.272991985 0.476913124 0.337634593
0.279822975 0.473877519 0.351296961
0.291966975 0.479190558 0.351549983
0.299683541 0.478937209 0.347754508
0.309044540 0.477292687 0.346995413
0.320682645 0.480076045 0.351423472
0.335863024 0.477039635 0.348387063
0.350410849 0.478557855 0.352435410
0.365591228 0.482226282 0.352182418
0.382542551 0.484123528 0.355344951
0.400505573 0.484376550 0.355344951
0.415685982 0.487412959 0.355344951
0.431498945 0.492220134 0.359392762
0.449968368 0.494370729 0.366982549
0.472991973 0.491967529 0.372422159
0.494244426 0.495003164 0.375458539
0.511195183 0.498671889 0.380392313
0.532068193 0.504237831 0.387855828
0.560152113 0.511701167 0.401644111
0.593168974 0.517899632 0.410625994
0.617457032 0.524478376 0.416698158
0.641745567 0.532194853 0.422770143
0.667299271 0.541176140 0.430233628
0.692094028 0.547754228 0.440354049
0.725237429 0.559772432 0.452624559
0.756736159 0.573940754 0.470208377
0.786717355 0.587982476 0.484629750
0.812270999 0.600000143 0.494497150
0.851739466 0.618216157 0.533965588
0.280329019 0.496268064 0.344339013
0.289437383 0.502340019 0.371663362
0.292347014 0.503352106 0.369512975
0.293611854 0.506135046 0.361163855
0.298039049 0.510309577 0.360404611
0.310183048 0.507273972 0.363440990
0.319797367 0.510056674 0.363694072
0.330297023 0.507652998 0.363187999
0.341682106 0.504617155 0.363694072
0.351043463 0.507400513 0.363567531
0.363314033 0.504364133 0.372169882
0.377735317 0.507906020 0.370651484
0.395192683 0.511448026 0.373054713
0.415686011 0.511701047 0.385705024
0.430866420 0.514737487 0.385705024
0.448450625 0.517773867 0.380898029
0.466413945 0.519545019 0.382162988
0.485136002 0.519292057 0.387602597
0.503352106 0.519292057 0.390639007
0.524604499 0.525110960 0.402024031
0.543453515 0.529032290 0.405819029
0.565465212 0.532574177 0.411131978
0.593168974 0.536116481 0.422770053
0.617457032 0.545224905 0.428842843
0.641745567 0.551803052 0.434914947
0.668817282 0.560910940 0.442378283
0.698166072 0.572043061 0.452498108
0.725490451 0.581151426 0.467678457
0.750663936 0.593169034 0.477292866
0.781024575 0.607337236 0.494497180
0.811005950 0.620493591 0.514231622
0.836559117 0.630360961 0.537002027
0.321315736 0.553700447 0.386844099
0.327640772 0.554206491 0.389121085
0.334598392 0.555977464 0.399240941
0.337128550 0.554712296 0.395319372
0.340544105 0.555471063 0.394180745
0.347881109 0.554838657 0.394813299
0.354965091 0.554332733 0.397849709
0.363820463 0.555471063 0.399747044
0.373308092 0.553194106 0.401644498
0.380392224 0.554206192 0.403668731
0.397975743 0.556989610 0.398482263
0.410120279 0.555977464 0.399494112
0.425680071 0.558254421 0.398734748
0.444528729 0.558254421 0.407716393
0.457178771 0.558760524 0.407716393
0.474762976 0.559393108 0.412523389
0.492979378 0.562049568 0.412523568
0.511195362 0.563946962 0.416065753
0.529411376 0.566097736 0.416951358
0.547628164 0.566097796 0.417204380
0.570777774 0.570272028 0.427451104
0.590765297 0.572295785 0.431119591
0.612650335 0.573687375 0.437950373
0.636938393 0.580138922 0.449336201
0.661226928 0.591524601 0.457685083
0.686906993 0.600000083 0.468437672
0.715370059 0.609740555 0.481340796
0.742694438 0.616572142 0.496521175
0.770018816 0.630992830 0.514357686
0.796204448 0.641492605 0.527387559
0.827577412 0.653763354 0.548386991
0.857558727 0.664768994 0.573434412
0.342947751 0.585958242 0.407716990
0.349019736 0.587855995 0.409614265
0.360784471 0.589753747 0.425047696
0.363061309 0.589753747 0.416698128
0.364832550 0.588108897 0.412776530
0.369386762 0.589626729 0.417330742
0.375458747 0.591524482 0.412270576
0.388108730 0.591524482 0.416951239
0.397976100 0.590765357 0.423276097
0.405186743 0.589626729 0.430866480
0.417204469 0.590638816 0.427071720
0.435167521 0.591650963 0.423023492
0.447311997 0.592789590 0.422264367
0.463757008 0.593548715 0.427071482
0.477545708 0.593548715 0.427071482
0.492599607 0.595445991 0.431878477
0.512334168 0.596964180 0.436432272
0.530297279 0.599999845 0.438836008
0.547248483 0.603035986 0.438836008
0.569259703 0.601391733 0.442631483
0.587476432 0.601391733 0.446426481
0.608728588 0.604427338 0.453510612
0.625933170 0.605565786 0.456799239
0.644908011 0.611638188 0.467172801
0.674889266 0.618469298 0.480835170
