Assets/Shaders/EldamarStudio/100 Sci-Fi LUTs Pack/LUTs/cube/Katherine LUT.cube
LUT_3D_SIZE 8
DOMAIN_MIN 0.000000 0.000000 0.000000
DOMAIN_MAX 0.903226 0.903226 0.903226
0.000000000 0.000000000 0.070588000
0.019101545 0.008601999 0.064642541
0.142568097 0.024288097 0.104237907
0.254522294 0.055534288 0.140670642
0.372042984 0.103225991 0.170777991
0.481846988 0.162302732 0.219228476
0.603162527 0.228715986 0.279696584
0.741682589 0.299683630 0.340164781
0.007084001 0.063377991 0.083871000
0.044529092 0.077925548 0.096015446
0.148766294 0.094750091 0.120303541
0.257685184 0.122201093 0.149272650
0.367868632 0.156609908 0.184946090
0.475522161 0.204047829 0.230360284
0.597216845 0.257685006 0.290575266
0.729790807 0.314737648 0.346236378
0.050727189 0.191903993 0.152688190
0.104870096 0.195825189 0.154712558
0.185578987 0.206831098 0.185832009
0.278052092 0.217710182 0.195066199
0.383934289 0.251486301 0.231878281
0.491966993 0.285515636 0.271853179
0.614041567 0.326628655 0.317267478
0.746109843 0.382542819 0.380138904
0.155344635 0.312334269 0.244402289
0.184313625 0.319797724 0.239595175
0.235926732 0.326122642 0.250221550
0.316761643 0.333586276 0.263503909
0.406830817 0.351549447 0.293358654
0.501707613 0.374320269 0.316887736
0.612776935 0.412650287 0.355471253
0.738393605 0.455913901 0.402783096
0.241365984 0.444149196 0.318911970
0.266413987 0.453004390 0.329791397
0.305502892 0.449715286 0.333839297
0.364958972 0.454395980 0.337002188
0.442631364 0.459835559 0.354205996
0.533206940 0.478558004 0.380012274
0.637697458 0.509930193 0.406578064
0.757495105 0.554585874 0.458823442
0.342947751 0.585958242 0.407716990
0.364832550 0.588108897 0.412776530
0.397976100 0.590765357 0.423276097
0.447311997 0.592789590 0.422264367
0.512334168 0.596964180 0.436432272
0.587476432 0.601391733 0.446426481
0.674889266 0.618469298 0.480835170
0.778747559 0.657937825 0.535230696
0.446932554 0.705123544 0.498292267
0.461733013 0.711322308 0.508539021
0.490955353 0.713725448 0.515243411
0.532067895 0.713472664 0.522959948
0.575585246 0.713725507 0.529538214
0.640860438 0.716888011 0.540038049
0.711322308 0.721441984 0.557748258
0.792030215 0.743832767 0.594433963
0.603162408 0.830360770 0.648829758
0.609107971 0.838329911 0.645920336
0.633269787 0.840986788 0.648197353
0.661859632 0.842251658 0.659076571
0.700822115 0.840859950 0.670208573
0.741302788 0.846679389 0.677672446
0.787476242 0.849715173 0.691334605
0.847438455 0.860594749 0.722327530
0.000000000 0.016065547 0.104997002
0.022264546 0.012903451 0.101454549
0.136622533 0.037571095 0.141809091
0.242378533 0.086906999 0.178621098
0.348133832 0.132700548 0.211511984
0.466919482 0.189120546 0.259708822
0.578494847 0.241239995 0.304744005
0.724730730 0.301960528 0.361796051
0.001138547 0.069702998 0.117520094
0.055913642 0.078304999 0.140670538
0.148386747 0.103352092 0.164199546
0.245920181 0.132321194 0.186084643
0.352055818 0.173434541 0.222896740
0.460594237 0.214168534 0.267299294
0.569765866 0.256546825 0.305882543
0.701834321 0.308665365 0.354838789
0.069955640 0.187602639 0.187602639
0.111954182 0.195445642 0.196331561
0.187602639 0.204047740 0.206831083
0.269070536 0.227198094 0.229221731
0.373307765 0.253763378 0.259708911
0.472738713 0.285515755 0.296141982
0.591777086 0.327134639 0.334092557
0.728652775 0.379759669 0.390385598
0.148133829 0.308032930 0.263251185
0.183175191 0.312460274 0.256926179
0.231625363 0.317900300 0.267046183
0.307273924 0.329284936 0.280708641
0.390638649 0.346489727 0.304237723
0.483871251 0.370018929 0.330170751
0.594686985 0.401644558 0.364199996
0.719165206 0.446173340 0.412144005
0.234914377 0.434788376 0.329158872
0.260721087 0.435547352 0.334092647
0.301201612 0.439848036 0.339658648
0.362681985 0.448197395 0.352688074
0.436432362 0.452751279 0.362049401
0.519418180 0.470082164 0.380771369
0.626818538 0.501834631 0.419228256
0.745983422 0.545603752 0.470714658
0.341682464 0.570398331 0.417330533
0.352940828 0.579759479 0.422643900
0.389247268 0.578874230 0.428968936
0.439721733 0.583175063 0.429601640
0.504491150 0.587096930 0.438583374
0.576091051 0.595825553 0.453510284
0.665148556 0.613030016 0.483364999
0.771916211 0.653636873 0.534471869
0.437191367 0.688930869 0.500822067
0.453889817 0.697786093 0.510562956
0.482353181 0.700062931 0.512334168
0.520430148 0.704237580 0.519670844
0.576091111 0.707400262 0.528272808
0.637065113 0.709045053 0.539026260
0.704237819 0.712081313 0.557115972
0.781783462 0.730929673 0.590259254
0.601391315 0.824667811 0.634155512
0.608981788 0.835799932 0.649968326
0.624288321 0.839594901 0.646426499
0.656293571 0.835546970 0.655028403
0.692726076 0.839215517 0.666919470
0.738393068 0.841239512 0.676786840
0.787602961 0.849715173 0.693738341
0.840480626 0.855028152 0.711068571
0.000759096 0.036811996 0.203668192
0.016318997 0.031752452 0.196963742
0.137001991 0.043769997 0.210753098
0.241619632 0.097533353 0.232637271
0.347881198 0.151170194 0.268058270
0.461353362 0.208349079 0.306388170
0.582795441 0.260847479 0.351676255
0.715496778 0.319923908 0.403288960
0.005819450 0.083364643 0.202909201
0.070082545 0.100189999 0.213535652
0.141302735 0.114737637 0.219355002
0.244781733 0.146489277 0.242125198
0.347881198 0.186464190 0.280961543
0.450980544 0.233523086 0.322201163
0.559266448 0.277293026 0.354838371
0.694370747 0.334092259 0.400632709
0.075142190 0.187982187 0.234282091
0.127641097 0.199367538 0.248703629
0.199747190 0.213789091 0.270335168
0.279316664 0.237318188 0.291081607
0.368248075 0.264769286 0.314990193
0.469323367 0.299304098 0.344085991
0.583554566 0.334598154 0.376091301
0.721062660 0.389626890 0.434408814
0.166982830 0.309677601 0.303226084
0.194560647 0.319164842 0.301455081
0.248576820 0.322200805 0.317646831
0.310816199 0.332447618 0.323845714
0.392409980 0.346489727 0.343074203
0.485515356 0.372295827 0.366097540
0.591650724 0.407084286 0.401391447
0.713345826 0.452877909 0.446046829
0.253890097 0.425427198 0.371536911
0.271726996 0.434029281 0.368627727
0.309424281 0.439468473 0.376850188
0.365085244 0.446679294 0.385578990
0.436432451 0.452119082 0.394940168
0.512713552 0.471220732 0.416951269
0.621252537 0.501454949 0.443516970
0.738772810 0.546742499 0.490322560
0.343327105 0.570018768 0.446426332
0.358633667 0.576597154 0.453510463
0.392030627 0.577861726 0.454648793
0.442124933 0.579000354 0.458697021
0.504111469 0.582922339 0.468564272
0.572675347 0.590259135 0.478684396
0.662871540 0.608981788 0.510436654
0.769006789 0.651739478 0.555723965
0.436685562 0.690322578 0.518658996
0.454901993 0.696394384 0.520430088
0.481594175 0.695003271 0.538899422
0.519291461 0.699177802 0.541303098
0.570904374 0.702087224 0.549019635
0.632005334 0.704364479 0.556989193
0.698039293 0.712207258 0.569639385
0.780012786 0.731562495 0.612017274
0.596710622 0.826565623 0.649968565
0.606831193 0.829601347 0.655787468
0.622390687 0.832510889 0.659455955
0.653889835 0.832890451 0.664516151
0.690069616 0.834535182 0.675268590
0.734724641 0.837571025 0.680202484
0.785958350 0.844908476 0.699936688
0.846299708 0.850221634 0.720303476
0.002783356 0.030234357 0.308285624
0.023782544 0.032890901 0.309171557
0.158254102 0.063757353 0.311068982
0.252245277 0.102592997 0.316634983
0.350917190 0.153826535 0.339278996
0.460594535 0.211005732 0.371789813
0.575711548 0.265148640 0.407463551
0.715496778 0.333712786 0.457937807
0.003795190 0.112460449 0.303985089
0.077925451 0.121821642 0.302846551
0.164073557 0.135483995 0.311827987
0.250601172 0.159392536 0.315749288
0.345477372 0.193801552 0.337381452
0.447691709 0.239342451 0.371030748
0.569133520 0.287918955 0.406578273
0.697406650 0.346869171 0.448323816
0.094623998 0.215433091 0.329158992
0.135863543 0.216571748 0.324730843
0.205186382 0.232257828 0.342061639
0.281214297 0.247944444 0.343579710
0.369766086 0.272991717 0.365591615
0.469702929 0.310310006 0.390132993
0.583048940 0.351802498 0.430487037
0.713093042 0.401897639 0.480328977
0.165464640 0.316761643 0.353194296
0.203921631 0.322327644 0.362681985
0.261606365 0.335990071 0.381530315
0.335863292 0.359898627 0.397976279
0.400505990 0.372928262 0.405312806
0.488678277 0.388235539 0.423023254
0.596584558 0.416571558 0.456925899
0.718026638 0.464010298 0.496141791
0.262365401 0.435420632 0.423276275
0.284756511 0.439215839 0.419607818
0.326755285 0.447817743 0.434661567
0.380392015 0.456419736 0.446299642
0.442251742 0.465780914 0.445540726
0.523466170 0.481467634 0.467173010
0.624794722 0.510816157 0.494497001
0.742820978 0.554585516 0.538140416
0.358127892 0.576090991 0.489184111
0.372422725 0.574446440 0.487792611
0.403415471 0.579127073 0.500316501
0.451992393 0.580645144 0.503478587
0.509044886 0.588108897 0.511321902
0.579000354 0.594307661 0.523845732
0.661226988 0.613029897 0.547248542
0.770398259 0.657178938 0.595066726
0.444022864 0.689942896 0.560405016
0.465781003 0.696900666 0.566856682
0.490828663 0.695382595 0.567741871
0.525869906 0.697785854 0.575079262
0.578620851 0.701581120 0.582289279
0.637191951 0.707906663 0.593674600
0.699557245 0.712966561 0.604806960
0.781530619 0.735230923 0.634408534
0.598102450 0.824035585 0.673118293
0.609740555 0.829348564 0.679443240
0.630107462 0.832511127 0.683744371
0.653636813 0.831751823 0.688930809
0.691208005 0.835926414 0.695382535
0.733586252 0.836432695 0.705123305
0.786084890 0.844528913 0.717014790
0.843516767 0.852751434 0.735736728
0.001518192 0.047691189 0.419355184
0.033523187 0.057811379 0.405692577
0.172422290 0.089184098 0.412270904
0.271853268 0.129917994 0.414927632
0.366603196 0.171410188 0.427830368
0.458570719 0.220746279 0.439974934
0.573308170 0.273497701 0.469323456
0.713092923 0.330929816 0.516128957
0.017836725 0.142061934 0.393421710
0.091967538 0.153573900 0.405819178
0.184061080 0.161669537 0.408601910
0.272486061 0.183681443 0.412523836
0.361037165 0.209108189 0.422391176
0.451486617 0.246426344 0.435673267
0.564832270 0.291840613 0.465907544
0.697027087 0.345098108 0.511321962
0.129918098 0.242884189 0.417457283
0.169639558 0.247564986 0.419607729
0.229601189 0.253763378 0.416698366
0.297659963 0.269829512 0.430233985
0.375964373 0.285135984 0.436432272
0.468311369 0.312207431 0.451992184
0.583554327 0.352561474 0.492852449
0.718532681 0.405060083 0.542441487
0.199620277 0.335989982 0.442757994
0.223023385 0.344338834 0.439468384
0.275648266 0.346489638 0.448450714
0.340290934 0.363441110 0.452372044
0.410373271 0.374825805 0.467299014
0.493738085 0.395066738 0.482479393
0.597596526 0.425679922 0.511195660
0.719671249 0.466286987 0.550410986
0.274257213 0.435673356 0.473371178
0.290322542 0.445414633 0.479949653
0.331436068 0.452119082 0.489057183
0.394560456 0.470588565 0.498418987
0.477925360 0.496015191 0.524098337
0.541808724 0.500696182 0.531688750
0.628336251 0.521189094 0.546995461
0.744212627 0.560910702 0.588361681
0.361796558 0.570525169 0.537761211
0.376470536 0.573940635 0.540923297
0.412144184 0.578620791 0.548007846
0.460721165 0.585705101 0.559519231
0.527767122 0.595572472 0.573940575
0.582922280 0.601771176 0.575584948
0.666413665 0.622138202 0.596710742
0.768121362 0.659961760 0.630233705
0.450348288 0.691967249 0.602783144
0.469955474 0.698544979 0.606704652
0.495762199 0.698165536 0.609614074
0.531562090 0.702087164 0.618722618
0.581404030 0.706768274 0.627071500
0.640227556 0.712207437 0.632763863
0.705123544 0.717647076 0.643390477
0.785958230 0.743453324 0.673371017
0.592536449 0.825047433 0.697280169
0.607589900 0.824920893 0.705502689
0.623782456 0.831751883 0.710056961
0.652878046 0.829727948 0.711448610
0.688424945 0.836052954 0.717014670
0.735736787 0.838077009 0.723212957
0.786970139 0.846805632 0.742567897
0.843769848 0.851612806 0.760531187
0.000000000 0.095762245 0.524731457
0.076154351 0.112207733 0.525237024
0.197217092 0.135863349 0.527640820
0.289310753 0.165970892 0.523972332
0.387981921 0.202529937 0.521821439
0.475648195 0.238835976 0.526755214
0.573940277 0.273750752 0.538392961
0.703605235 0.332827061 0.583428562
0.065528087 0.165591344 0.508412421
0.128652528 0.173814282 0.511575162
0.205060199 0.188361630 0.513725281
0.294876665 0.210626170 0.514611185
0.382542729 0.231752083 0.513472557
0.469449908 0.262998074 0.524857521
0.559898555 0.293990850 0.530170560
0.690196037 0.341809005 0.578114867
0.160025358 0.269450068 0.519544482
0.193169177 0.268943638 0.512839973
0.249462545 0.276407182 0.523718894
0.322707087 0.291334569 0.526122749
0.402530193 0.306641549 0.527514100
0.481593996 0.327387601 0.535863459
0.579506457 0.354838490 0.553447008
0.715369761 0.403289139 0.599367261
0.224415258 0.354205996 0.525616765
0.244528919 0.362807930 0.527261019
0.290449172 0.367995262 0.530929387
0.354712278 0.375838280 0.537254453
0.418342978 0.388741016 0.538646460
0.497027367 0.399367273 0.546236634
0.589626729 0.420366853 0.563820481
0.711195111 0.463377476 0.606831253
0.290195733 0.456546545 0.553447127
0.301454961 0.463630557 0.563693941
0.339911193 0.469196677 0.562049091
0.399999708 0.475901634 0.571157217
0.468437672 0.488045156 0.576976776
0.537381291 0.500189722 0.584440231
0.627956748 0.519291341 0.605566204
0.739911199 0.558760464 0.640606999
0.362302721 0.573940754 0.603415489
0.376091301 0.577356219 0.597976208
0.408855170 0.579759479 0.604933441
0.460215092 0.588867784 0.609234750
0.520936131 0.601012170 0.622517526
0.603289008 0.622896969 0.646426499
0.676533997 0.631119490 0.654649019
0.766856492 0.657178938 0.676786661
0.448703468 0.687033296 0.653889537
0.467046201 0.692979038 0.651612878
0.490195960 0.690575600 0.657052636
0.526249290 0.696014941 0.659582436
0.581657171 0.705882251 0.672612190
0.643896461 0.712460518 0.679190457
0.712713540 0.718406260 0.686780453
0.788741291 0.747627795 0.712713361
0.583554626 0.821378767 0.726375520
0.606198549 0.822643638 0.737001538
0.613156021 0.824541390 0.731562316
0.641492486 0.829728067 0.741935551
0.680328846 0.836685598 0.747121871
0.730170667 0.837064743 0.753700018
0.786844075 0.842251658 0.768121302
0.844908476 0.856672764 0.780644774
0.067552269 0.152561277 0.659329534
0.131815255 0.163693696 0.660594702
0.230993286 0.179253563 0.658696949
0.325743288 0.205186278 0.655913889
0.426818281 0.234914482 0.651612639
0.521695018 0.263504028 0.648703277
0.611638546 0.302213699 0.656420290
0.705629468 0.341050088 0.663124382
0.108538985 0.201517820 0.637697816
0.162175804 0.209108293 0.645920098
0.235294119 0.221631795 0.639595032
0.329284936 0.241366282 0.645161211
0.423655897 0.258823544 0.643263757
0.510309875 0.289816290 0.643643320
0.599493980 0.315622985 0.640733838
0.687033296 0.349652082 0.649968565
0.181784093 0.294623911 0.640733838
0.214547783 0.298924834 0.648703456
0.275774807 0.308665186 0.652625024
0.351676375 0.319291562 0.645920098
0.437697679 0.334471881 0.644655287
0.527134717 0.350158185 0.648450553
0.615433455 0.374446571 0.657938063
0.710436463 0.401897639 0.671600401
0.238962919 0.390765250 0.642631531
0.264136732 0.391903937 0.642631233
0.310436428 0.396205068 0.648197114
0.376723558 0.401391625 0.645793915
0.454522520 0.411132276 0.652877986
0.537254512 0.422897160 0.656420290
0.618975163 0.437824279 0.657052517
0.714610994 0.458823442 0.669323087
0.299304187 0.482606083 0.653257370
0.323719174 0.488045245 0.661227047
0.362808317 0.495129555 0.666540325
0.414294451 0.496774286 0.665527999
0.484123886 0.502972960 0.669196546
0.560531139 0.511574984 0.672612071
0.643896341 0.524984241 0.678558171
0.735230863 0.546489537 0.692726016
0.381024539 0.598608255 0.688171804
0.397975981 0.600885510 0.694117308
0.427324712 0.600379705 0.690448999
0.471094012 0.604553878 0.691587627
0.532827258 0.611005485 0.702087164
0.600126505 0.619355023 0.703731954
0.680835009 0.631498992 0.712207556
0.770145595 0.656799436 0.733712733
0.459076285 0.683871269 0.705755532
0.462365538 0.689816594 0.705502987
0.485389262 0.691714227 0.710689247
0.524604678 0.696773887 0.714611292
0.579759419 0.704364479 0.721441984
0.642504692 0.714231730 0.730297267
0.729285479 0.736495554 0.756103516
0.802150488 0.753573477 0.766350031
0.581656992 0.816192567 0.771663606
0.593548357 0.817836881 0.781277359
0.607463598 0.820999324 0.779126942
0.638203621 0.822517395 0.782542467
0.676660240 0.830866814 0.790638924
0.727514446 0.837950528 0.799493790
0.784566820 0.848070741 0.807336807
0.851486564 0.857558429 0.823402882
0.159771785 0.217204124 0.796457767
0.205692634 0.223655820 0.798735082
0.285768658 0.235167697 0.799367487
0.371283978 0.254775792 0.796584606
0.476280987 0.284503609 0.795319438
0.577988565 0.313598812 0.790006459
0.668058515 0.345604092 0.785451889
0.760025442 0.385957956 0.787349641
0.179379791 0.252498537 0.790385902
0.212396905 0.259962082 0.790006459
0.287792712 0.268184632 0.791524172
0.374319971 0.285009652 0.788235247
0.470208734 0.309297949 0.788488269
0.564452767 0.333965808 0.782289743
0.660468161 0.362934828 0.778874099
0.750411212 0.396711081 0.778747618
0.232384682 0.336116076 0.783554733
0.257811368 0.344212502 0.791524291
0.320682913 0.347375005 0.786337614
0.398228914 0.359898716 0.788235247
0.486654013 0.375584900 0.787982464
0.580518544 0.395192832 0.788994372
0.668690801 0.415939361 0.784946144
0.762555420 0.445667088 0.791271627
0.268943816 0.423149914 0.778874040
0.298039645 0.428083450 0.785198987
0.347501516 0.434281826 0.785325825
0.419228286 0.441239804 0.788361788
0.501580954 0.450727701 0.786970079
0.582795322 0.461606503 0.783301413
0.668943465 0.477292925 0.781783342
0.752941251 0.497027218 0.784187436
0.331815362 0.524478018 0.776470602
0.360910803 0.530044317 0.792789578
0.390006274 0.529917955 0.788488269
0.445793986 0.533080220 0.788108706
0.522327542 0.537128329 0.787602961
0.599873304 0.548386931 0.792030394
0.681214452 0.558760464 0.787476361
0.766603291 0.577735603 0.792915642
0.428589463 0.636938512 0.801770985
0.438709438 0.636559069 0.803415656
0.465528011 0.643896461 0.804300785
0.505249977 0.638836265 0.800759137
0.559013009 0.637318075 0.802024066
0.627071619 0.644022644 0.802403569
0.707273602 0.649589121 0.802530110
0.785958230 0.666793406 0.810499787
0.493105650 0.731183052 0.807589948
0.511827767 0.730423331 0.810373247
0.529285133 0.727387607 0.809613883
0.560910463 0.733206689 0.811131954
0.605186403 0.735610247 0.816065788
0.664010048 0.736875176 0.817584038
0.733965576 0.739152372 0.824161887
0.814421058 0.759898901 0.830740094
0.604680538 0.829095662 0.831625640
0.614294589 0.829601347 0.841619372
0.619101644 0.831751823 0.842884541
0.647185445 0.832005143 0.840986788
0.684756279 0.834028840 0.844908476
0.728779316 0.843390226 0.853130698
0.785831630 0.850094557 0.850474179
0.865907729 0.873624623 0.888045788
