Assets/Shaders/EldamarStudio/100 Sci-Fi LUTs Pack/LUTs/cube/Kayla LUT.cube
LUT_3D_SIZE 8
DOMAIN_MIN 0.000000 0.000000 0.000000
DOMAIN_MAX 0.903226 0.903226 0.903226
0.000000000 0.000000000 0.000000000
0.122201093 0.012523999 0.032891002
0.274257004 0.024288096 0.077546000
0.411385268 0.047691286 0.120556280
0.536749005 0.104744181 0.193421990
0.640733719 0.176090986 0.262365460
0.745351255 0.248956561 0.326754987
0.863124788 0.321821660 0.397596806
0.153953552 0.121062547 0.114737540
0.210373536 0.126122996 0.122201093
0.312207550 0.145350635 0.139405191
0.438456744 0.162935093 0.183681443
0.545351028 0.197722927 0.234155282
0.648576736 0.244402274 0.295383006
0.755850554 0.300316244 0.356862545
0.873624623 0.364832312 0.420619965
0.325237185 0.256167203 0.258444101
0.350158185 0.258444101 0.290195733
0.402783185 0.269449979 0.267046213
0.476407290 0.278052121 0.272991627
0.564200163 0.321948171 0.317267269
0.661226809 0.352055758 0.361164004
0.760910749 0.394054174 0.405819178
0.876913548 0.450221270 0.470208794
0.461226940 0.418722630 0.416445643
0.480455279 0.429348290 0.428083718
0.521694660 0.448450744 0.472865641
0.556989670 0.450094938 0.432131618
0.619607568 0.429728031 0.408222377
0.683365107 0.486527383 0.447058648
0.776217639 0.525237203 0.488804579
0.890195966 0.564832270 0.531688631
0.581151366 0.606451392 0.553953171
0.603668809 0.613029838 0.564958990
0.633017182 0.622011483 0.596331298
0.668311357 0.633776367 0.599620759
0.696647346 0.625174403 0.558760226
0.741303205 0.575079203 0.519797623
0.822643459 0.625932932 0.554965079
0.913598955 0.681340992 0.604807317
0.720809460 0.746236682 0.704617441
0.737760901 0.751043916 0.721568823
0.766477048 0.758001208 0.766350567
0.801897466 0.774826348 0.835420609
0.823402703 0.773813725 0.803035736
0.848450720 0.762049198 0.723971903
0.878810823 0.714231431 0.638962507
0.954205811 0.755344629 0.706894398
0.851866245 0.872106314 0.988867998
0.850600958 0.869576097 0.991524279
0.862618387 0.878431439 0.999240935
0.894496918 0.891587615 0.997216642
0.910816193 0.893485069 0.998481810
0.910816252 0.887665808 1.000000000
0.921189308 0.881593943 0.985579014
0.946615994 0.844655275 0.936242938
0.941429675 0.950537801 0.998734832
0.946363091 0.950917244 0.996457577
0.954585612 0.955597639 0.997469962
0.971410692 0.959645987 0.997469962
0.974193573 0.969007194 1.000000000
0.975331962 0.964832127 0.997343183
0.976596773 0.970145822 1.000000000
0.980518878 0.954458773 1.000000000
0.000000000 0.040734001 0.161796555
0.137507647 0.011385452 0.177103072
0.291081667 0.022264550 0.196204633
0.423150182 0.075142093 0.242504537
0.541935503 0.124857537 0.287539363
0.642884135 0.179253280 0.325869262
0.751169980 0.246173710 0.378494352
0.866793036 0.323718786 0.440607190
0.078304991 0.166476652 0.222517177
0.190765530 0.156736106 0.218596086
0.327134639 0.142568082 0.246046990
0.446299613 0.164579093 0.275901169
0.550537586 0.189879626 0.306514889
0.651233494 0.234155461 0.349904835
0.747501552 0.289437026 0.394054264
0.858823359 0.356103599 0.447691232
0.256167114 0.266414076 0.286780179
0.317773640 0.266793549 0.300949007
0.394560635 0.272232622 0.328779548
0.469829530 0.289816260 0.328273207
0.566603184 0.317646742 0.360405087
0.653130770 0.350537837 0.394560426
0.758886755 0.391271472 0.440354377
0.873877466 0.446805805 0.496141791
0.416571647 0.418343097 0.400379270
0.454649001 0.421505392 0.421632111
0.510310054 0.438709468 0.474383652
0.540797055 0.442124903 0.456040353
0.601517975 0.438709378 0.439215660
0.669702590 0.484124064 0.471347660
0.771157563 0.516508698 0.509803653
0.881720185 0.556483090 0.541682303
0.544592142 0.601265013 0.551802218
0.571536839 0.602150798 0.554459035
0.622138202 0.613788843 0.587729216
0.668690741 0.638203740 0.616950870
0.695003390 0.623656154 0.566856503
0.733459592 0.583681405 0.538899660
0.817710042 0.632763922 0.576090991
0.904743552 0.684123933 0.612144232
0.701328158 0.742062151 0.693611622
0.718406141 0.744844913 0.709424615
0.756862521 0.756230354 0.754332244
0.793801308 0.770777822 0.830486894
0.816192210 0.774193287 0.816824436
0.838077009 0.759645879 0.736243010
0.877672255 0.712207258 0.657811761
0.945603728 0.758127987 0.727008164
0.832004845 0.861226976 0.985199273
0.842631102 0.872106433 0.993422031
0.859203041 0.873750567 1.000000000
0.889689922 0.883238554 0.997596204
0.914737344 0.895762086 0.995825291
0.906894386 0.887919188 1.000000000
0.918912053 0.877040029 0.988235295
0.944845021 0.834028840 0.920556664
0.949778795 0.953067780 1.000000000
0.946615815 0.955850780 1.000000000
0.954585493 0.952941120 0.997090459
0.965464830 0.958380818 0.999620438
0.975205481 0.966982901 0.998481750
0.978747725 0.968248069 1.000000000
0.973055243 0.967109442 0.997722745
0.985072792 0.957368731 0.999240994
0.001517998 0.109677091 0.335357279
0.007463548 0.043010999 0.333333611
0.282099992 0.008602098 0.342441171
0.428589284 0.052751541 0.354965180
0.537508130 0.129159003 0.380771399
0.643137336 0.191397727 0.422770441
0.745224357 0.255281359 0.468564183
0.868437767 0.320682824 0.505882263
0.003542452 0.217836991 0.384440541
0.089057550 0.183302000 0.373687267
0.304364622 0.144971192 0.376850218
0.451739639 0.151549637 0.379253298
0.549272478 0.199367553 0.405439734
0.643010914 0.248323992 0.437571019
0.744844794 0.289943099 0.469702810
0.857432246 0.344212711 0.507274091
0.162935004 0.347881168 0.416698366
0.248070657 0.339658678 0.430613637
0.358128011 0.296901017 0.413662195
0.476913571 0.283238560 0.413282812
0.564959109 0.301581085 0.444276094
0.652498722 0.340038121 0.467425823
0.753700197 0.373561203 0.498292118
0.864389658 0.432258159 0.530550122
0.345224649 0.414548010 0.445920289
0.368501097 0.410119832 0.448323995
0.424035192 0.416824996 0.458444089
0.517394125 0.427830279 0.482352734
0.582795620 0.446552992 0.490195811
0.668057978 0.466034263 0.511575103
0.766350210 0.500062943 0.542694688
0.878178656 0.545477450 0.571916282
0.458444089 0.572802067 0.526502371
0.475142628 0.570272267 0.532447815
0.535990119 0.582163274 0.552561343
0.628463209 0.602023959 0.591903806
0.664516270 0.609614313 0.593295276
0.715749860 0.591144741 0.571789742
0.800885439 0.638709545 0.600506067
0.900821984 0.674256861 0.640986919
0.632764280 0.724351645 0.651486456
0.650347888 0.724351704 0.660847664
0.696647823 0.729032218 0.696900547
0.758760154 0.749905169 0.766350627
0.802024007 0.770651579 0.849082708
0.819987178 0.757368863 0.756103814
0.867425561 0.723213136 0.690196216
0.935357094 0.766729712 0.764073491
0.797976017 0.853510559 0.956483006
0.811637998 0.857052565 0.966476619
0.840860367 0.864516079 0.983554542
0.866540492 0.871726930 0.999240935
0.902719557 0.891208172 0.997722805
0.909171522 0.884883046 0.999240935
0.912460446 0.870714784 1.000000000
0.938393414 0.834914505 0.942314863
0.935610533 0.949145973 0.998102248
0.938013911 0.950917244 1.000000000
0.937760770 0.955217898 0.996584296
0.961289942 0.961543262 1.000000000
0.973307788 0.963566959 0.996204793
0.977988839 0.969766021 0.999240935
0.974066794 0.966603339 0.996837080
0.980518818 0.957748234 0.998481989
0.003922000 0.178873926 0.516255260
0.002783356 0.145604089 0.505376279
0.131689101 0.071979992 0.511575162
0.421505272 0.053889997 0.500569284
0.543959200 0.106008738 0.511321664
0.641872346 0.178494379 0.523971915
0.747627974 0.249462619 0.556483328
0.864515781 0.320683002 0.575458288
0.000000000 0.273371190 0.543959200
0.003162904 0.242378533 0.535104275
0.145730197 0.170271739 0.536369622
0.433270186 0.158127993 0.525236964
0.551296592 0.184819892 0.516382277
0.644149363 0.235041082 0.535736620
0.751423180 0.289436817 0.560784340
0.861227036 0.350158185 0.576343656
0.025427185 0.415939301 0.565844297
0.182795644 0.398355633 0.568627656
0.295382917 0.343453735 0.556356251
0.437570930 0.291840732 0.550790370
0.569006979 0.294117749 0.541935682
0.663377583 0.329664588 0.557621717
0.760151565 0.377862006 0.578494489
0.873244822 0.428083807 0.594433784
0.239848003 0.536369622 0.591777265
0.291967362 0.533586264 0.592156649
0.375458300 0.525236845 0.594560564
0.480329007 0.471979618 0.582289279
0.588361740 0.428968936 0.570145667
0.670461714 0.455914170 0.574952662
0.769513011 0.490449250 0.588994324
0.878051817 0.529158831 0.615180492
0.396204829 0.595825672 0.605060279
0.407590210 0.597343624 0.599620283
0.455660820 0.597469866 0.600379467
0.527640879 0.587981999 0.593674660
0.614674091 0.579633176 0.605692565
0.695888340 0.588108718 0.610246658
0.789373934 0.616698205 0.627956867
0.897659779 0.655407965 0.678810835
0.507906497 0.682732701 0.625047445
0.518911898 0.687033474 0.631372452
0.567109525 0.693358600 0.640101254
0.642251551 0.703858137 0.669449449
0.744718552 0.729032218 0.750917256
0.793169022 0.736875117 0.790259361
0.844655395 0.726628959 0.734218776
0.911195219 0.774952471 0.814927101
0.736495554 0.833902538 0.878810763
0.749146223 0.835673928 0.893611670
0.766856730 0.840101242 0.926755190
0.810499609 0.848576605 0.967109561
0.865275145 0.868816912 1.000000000
0.908159494 0.885262728 0.996963859
0.902340233 0.868690908 1.000000000
0.923719227 0.837697387 0.964958549
0.911701560 0.942314744 0.995445848
0.917141020 0.940923691 0.998481810
0.928272963 0.948260605 0.999240935
0.949651778 0.955597460 1.000000000
0.966223836 0.962175548 0.996457815
0.978115022 0.971663594 0.998861372
0.978874087 0.967868567 1.000000000
0.977482855 0.962681949 0.997722983
0.001518192 0.269450188 0.654395998
0.000379548 0.245540828 0.644022584
0.004807013 0.157369092 0.648830116
0.345097721 0.126754984 0.642631173
0.533712983 0.133712977 0.633270204
0.650094926 0.164326474 0.622011662
0.750031352 0.236559182 0.637950659
0.872359455 0.312333941 0.657684982
0.000000000 0.345477372 0.673750579
0.002403808 0.318912089 0.665527999
0.008349469 0.245414525 0.674383581
0.352308542 0.204427287 0.653384328
0.546236157 0.202529937 0.641999006
0.657305598 0.224288538 0.625806630
0.757368803 0.275648296 0.644781709
0.868437767 0.337887347 0.661100745
0.000000005 0.459962100 0.694876552
0.046047002 0.445035070 0.690575719
0.201391295 0.400253087 0.687919140
0.353573889 0.323466092 0.674130023
0.543200254 0.313978255 0.651992381
0.657432199 0.320683032 0.638709366
0.769513071 0.366729915 0.661353350
0.885009706 0.418975174 0.681467414
0.108918458 0.614800870 0.758254409
0.207084104 0.604553938 0.747121692
0.346109867 0.573181748 0.741935432
0.441239923 0.518279612 0.717140853
0.554206192 0.461100727 0.693105638
0.672359407 0.446173429 0.668690741
0.779253542 0.473877370 0.688298464
0.877799094 0.517899990 0.692473173
0.316508174 0.696647346 0.793295324
0.347122163 0.702214181 0.791018546
0.408222377 0.700569391 0.794054627
0.505755782 0.690322399 0.794560194
0.600379407 0.644149184 0.762175560
0.685262501 0.584946156 0.706641376
0.795572519 0.599367261 0.714864135
0.895888448 0.630233824 0.743073821
0.462744802 0.748007834 0.794686735
0.466666818 0.742062211 0.792915940
0.505249977 0.741303146 0.791650712
0.570777833 0.737128556 0.788488448
0.643642902 0.728779435 0.788614750
0.729411721 0.715116680 0.782416165
0.816951275 0.715622962 0.790386081
0.900948703 0.755218327 0.856672943
0.563946605 0.795319498 0.809487820
0.578115225 0.801138580 0.818469346
0.624288559 0.805439591 0.834282219
0.693738103 0.813409150 0.870588243
0.774320245 0.830487251 0.948639810
0.852751374 0.852245510 0.994813263
0.889437199 0.856420219 1.000000000
0.916002691 0.844276071 0.991144776
0.839215755 0.927260756 0.996963978
0.855407953 0.926375389 0.997722983
0.874256611 0.934977651 0.996204913
0.905755877 0.938013732 1.000000000
0.940796793 0.947627962 1.000000000
0.969639540 0.963187814 0.994687021
0.978873789 0.970145822 0.995951772
0.972549021 0.962555110 0.996963978
0.004048004 0.342820734 0.851613224
0.000000000 0.325996190 0.845920444
0.001517998 0.272612363 0.849336147
0.003162904 0.205692738 0.832384527
0.436053365 0.204047933 0.810373187
0.613535702 0.215306982 0.781530738
0.735989988 0.239088818 0.757115901
0.854269624 0.300695986 0.806578040
0.002403808 0.396963835 0.874003530
0.000000000 0.382036537 0.874762535
0.002024260 0.335736930 0.858190835
0.000000000 0.259582758 0.849082887
0.429854810 0.259582728 0.824667931
0.607589960 0.264263004 0.785199225
0.730170727 0.271979809 0.758001029
0.852498472 0.325996101 0.802656710
0.000000000 0.503099203 0.924731076
0.000379548 0.485642076 0.907273948
0.000000005 0.456799448 0.900948822
0.129285112 0.390765369 0.882859111
0.425806463 0.366477191 0.870588183
0.604427338 0.364579439 0.827956975
0.738772631 0.360657722 0.786843777
0.864263177 0.407210648 0.832384586
0.002024260 0.637318134 0.956356585
0.013662009 0.631245911 0.949399173
0.164958909 0.604048014 0.954711854
0.309677720 0.565211952 0.943200290
0.438330114 0.497659653 0.910056949
0.612144291 0.485135913 0.856672883
0.740417480 0.466034383 0.807590187
0.864263177 0.497533262 0.847817779
0.153826386 0.774193585 0.995952010
0.250980020 0.767235994 0.999240816
0.358507127 0.753067493 0.998481989
0.465401828 0.730423450 0.997975767
0.530929863 0.680581689 0.969639182
0.622770607 0.624415219 0.930803418
0.763820529 0.582922161 0.865528166
0.884250522 0.607843459 0.898924708
0.441239893 0.826818526 0.994307280
0.456419647 0.819481552 0.999240994
0.506767571 0.819861054 1.000000000
0.579000831 0.818975449 0.999240935
0.655534387 0.820620179 0.996078014
0.718785703 0.767994940 0.993927777
0.791524529 0.709298015 0.946362913
0.889436781 0.728273153 0.958507121
0.571283996 0.858696997 0.996711016
0.585957885 0.864010155 0.999240994
0.611764729 0.860594273 0.999620497
0.648956358 0.857178867 0.998355269
0.700316250 0.849841952 0.999620497
0.758633733 0.831878424 0.988994300
0.828462780 0.824288607 1.000000000
0.899936497 0.840607464 0.998734832
0.675521672 0.903225899 0.999240935
0.684250057 0.900822043 0.997216880
0.708032727 0.905123174 0.996837080
0.778368056 0.915622771 0.996204793
0.866033912 0.924351811 1.000000000
0.924857795 0.936495662 1.000000000
0.972675323 0.962934673 0.996204972
0.973055005 0.955976784 0.996078014
0.000000000 0.403542280 1.000000000
0.001897740 0.391397715 0.996457577
0.001644713 0.360278368 1.000000000
0.000000000 0.290449262 0.992789268
0.050094917 0.281214386 0.995445788
0.435420632 0.291714013 0.999620438
0.627450943 0.303857982 0.982289553
0.786211014 0.314231396 0.973940372
0.000000000 0.444655240 0.998102307
0.001897740 0.431752264 0.998102307
0.000758999 0.407083839 0.997722745
0.000000000 0.341176540 1.000000000
0.058444105 0.318279803 0.999620438
0.441998541 0.325996011 0.997722745
0.630107701 0.325743079 0.985199273
0.779632926 0.337381274 0.968121290
0.000000000 0.532068253 0.999240935
0.003415545 0.525743127 0.997596264
0.001644712 0.502846241 1.000000000
0.001644718 0.460215032 0.999240935
0.119291306 0.417584002 0.992789209
0.456925809 0.420113802 1.000000000
0.641999006 0.413409144 0.996711016
0.788108766 0.410752743 0.979759753
0.047817826 0.661353290 1.000000000
0.055028465 0.655787587 0.999620438
0.076660186 0.637444615 0.998861432
0.200632364 0.607590199 1.000000000
0.328146845 0.560278058 0.999620438
0.500189781 0.535483956 0.998861372
0.660341561 0.518532515 0.998861372
0.799620450 0.498545021 0.988994360
0.401138216 0.787729204 1.000000000
0.425932735 0.785452187 1.000000000
0.471347213 0.772675395 0.998481989
0.511195302 0.748513341 1.000000000
0.546236396 0.712586939 1.000000000
0.590639055 0.655913830 0.997975767
0.708918273 0.634029150 1.000000000
0.824035466 0.599494100 0.997469962
0.617204309 0.879064023 0.993168533
0.636179686 0.882226408 1.000000000
0.662112713 0.881088078 0.996963859
0.700695634 0.867298901 1.000000000
0.738014102 0.843896568 0.996963978
0.749399006 0.798608243 0.996331453
0.782922029 0.753067493 0.996457517
0.870208561 0.715243518 0.998355269
0.701454878 0.904870272 1.000000000
0.712840080 0.907780051 0.996331453
0.734471738 0.910816014 1.000000000
0.765717924 0.911195636 0.996078312
0.809108317 0.905502737 0.997596204
0.856546581 0.907780051 0.994307280
0.879949272 0.873118520 0.998355329
0.909171104 0.826185822 1.000000000
0.795572460 0.946362972 0.998481989
0.796204865 0.948892832 0.996457577
0.811132133 0.945856929 1.000000000
0.820620060 0.946869075 0.998861432
0.845793962 0.943579853 0.999240875
0.865528047 0.937254846 0.998102248
0.905882239 0.917647064 0.995445967
0.956356466 0.942062020 0.990892053
0.000000000 0.457684994 0.997343183
0.000000000 0.448449999 0.996078014
0.000759096 0.430739909 0.997469962
0.004174634 0.388867795 0.998734832
0.000000000 0.348134011 0.996204793
0.375585377 0.370398551 0.998102248
0.579127073 0.390765250 1.000000000
0.749525666 0.402909815 0.996078014
0.000758999 0.491334647 1.000000000
0.003795180 0.478810966 0.991524041
0.001897737 0.462871701 1.000000000
0.002783356 0.429854631 0.998481870
0.003795093 0.385958135 0.995445788
0.384440005 0.401518196 0.998861313
0.580012560 0.412396908 0.997343183
0.749778330 0.419734359 1.000000000
0.000759096 0.566729963 0.994687021
0.004174728 0.563061237 1.000000000
0.002277097 0.548386812 1.000000000
0.003542280 0.519165039 0.996584296
0.141429335 0.477798969 0.999240935
0.428716034 0.486780643 0.998482049
0.608475626 0.490449071 0.998355269
0.769133568 0.487665892 0.998102248
0.076280728 0.675142467 0.992789388
0.083364934 0.673118234 0.996204793
0.187096536 0.664136767 1.000000000
0.290575176 0.643896639 0.998861372
0.378368288 0.608475924 0.999240994
0.497027010 0.579759240 1.000000000
0.649462402 0.578368187 0.995066166
0.790385723 0.560531139 1.000000000
0.520809710 0.799493968 0.998481810
0.536622226 0.797976136 0.995698869
0.528526247 0.784313679 0.997722864
0.543326557 0.763061583 0.997596204
0.580771565 0.737508118 1.000000000
0.617710531 0.696774065 0.995825350
0.718785644 0.678304732 0.998481810
0.828336477 0.657937825 1.000000000
0.717267394 0.890322804 0.998734832
0.718532562 0.892093360 0.995698810
0.736495793 0.886527598 0.998734832
0.761543274 0.876660645 0.997975707
0.779127121 0.856419861 0.999620378
0.779000700 0.823149979 0.999240875
0.808854997 0.785199463 0.998734832
0.885009825 0.764073431 0.997343242
0.810626507 0.943832815 0.996204793
0.825426817 0.944592118 0.999620438
0.829981029 0.942694604 0.999240935
0.850980461 0.946489453 0.995319188
0.883238494 0.941556215 0.999241054
0.902340293 0.935230911 1.000000000
0.906768262 0.900695980 0.993421853
0.936116397 0.861733079 1.000000000
0.865654767 0.968753815 0.997469962
0.870461643 0.968374252 0.994813144
0.878937781 0.974573076 0.994813144
0.899809778 0.964832127 1.000000000
0.906388342 0.969007194 0.994939685
0.933459640 0.973814011 0.998734832
0.960404992 0.972675800 0.999620438
0.962175965 0.957115650 0.996078014
