Assets/Shaders/EldamarStudio/100 Sci-Fi LUTs Pack/LUTs/cube/Kayla LUT.cube
DOMAIN_MIN 0 0 0
DOMAIN_MAX 1 1 1
LUT_3D_SIZE 32
0.000000000 0.000000000 0.000000000
0.030360773 0.003036387 0.006072000
0.058570772 0.008223000 0.012143999
0.088425159 0.011765000 0.020746322
0.122201093 0.012523999 0.032891002
0.158633873 0.018595999 0.045034997
0.200126633 0.022137677 0.054649319
0.239342406 0.023529001 0.065401994
0.274257004 0.024288096 0.077546000
0.304617047 0.027324483 0.089690007
0.340796739 0.027450999 0.096014999
0.377229512 0.035546992 0.106134996
0.411385268 0.047691286 0.120556280
0.441745996 0.059835996 0.138520032
0.472105950 0.071979985 0.153700411
0.504870415 0.086527795 0.173687786
0.536749005 0.104744181 0.193421990
0.565844119 0.125363976 0.212270558
0.590133011 0.143580019 0.233522981
0.617204368 0.159013376 0.246426001
0.640733719 0.176090986 0.262365460
0.664010108 0.194307253 0.279570132
0.691460967 0.212523982 0.294876963
0.721821845 0.230740011 0.313093007
0.745351255 0.248956561 0.326754987
0.770777941 0.265781283 0.343073636
0.801644206 0.281973064 0.363820136
0.835041285 0.303225428 0.382036895
0.863124788 0.321821660 0.397596806
0.892219901 0.343579918 0.418089926
0.924351215 0.365211576 0.442378193
0.960784018 0.380391985 0.466666996
0.027324386 0.021252386 0.024288775
0.042504773 0.030360773 0.021252386
0.075015776 0.033396609 0.029475160
0.106641158 0.041113321 0.038962774
0.141176090 0.048577227 0.049968548
0.182921872 0.051992387 0.054143384
0.211764961 0.047944389 0.066287383
0.248450369 0.051106766 0.075901702
0.283364832 0.053130873 0.085895285
0.313725442 0.051613264 0.095762007
0.344086140 0.060467903 0.107905999
0.382289618 0.064895384 0.122327507
0.418595642 0.073877029 0.135357410
0.450853676 0.083871029 0.147881389
0.481214345 0.093232371 0.165844411
0.509171128 0.107780181 0.183427989
0.538266778 0.122960187 0.202529997
0.565211535 0.139911175 0.219481379
0.587096632 0.155724034 0.233522996
0.619734704 0.176723361 0.257558703
0.643770158 0.190512478 0.268817008
0.664010406 0.205439642 0.281593859
0.685515463 0.221758097 0.295129955
0.718785405 0.242884010 0.319164991
0.749146163 0.261100560 0.335104257
0.774066925 0.276533961 0.350790352
0.802150130 0.290069461 0.369386077
0.838076949 0.306261808 0.385072500
0.868817270 0.327514172 0.408602238
0.892979145 0.349651933 0.421379179
0.920429945 0.372169197 0.441113353
0.954712033 0.389500380 0.469702601
0.069702551 0.046805769 0.050727770
0.071979932 0.053763386 0.056293383
0.102213547 0.062871777 0.051106770
0.128019929 0.063377388 0.057685159
0.156103417 0.071094319 0.066413775
0.193295419 0.079443611 0.071220934
0.225300193 0.077039771 0.079696774
0.255914330 0.077545770 0.086907066
0.290322542 0.083617769 0.096521318
0.320682973 0.084756486 0.108412303
0.357495546 0.086906895 0.116128772
0.391903758 0.091967024 0.130297020
0.426691920 0.099051192 0.147248641
0.457305551 0.108412541 0.158887044
0.483870804 0.119418181 0.175205752
0.518279552 0.131182790 0.195572525
0.544085741 0.143327191 0.212270737
0.569512546 0.157242119 0.227957174
0.590764999 0.172422543 0.238583028
0.616698325 0.188867912 0.257558733
0.646299958 0.206324786 0.276154727
0.670082390 0.218722478 0.288804531
0.692219973 0.232890517 0.303605467
0.723592699 0.252118677 0.325869799
0.748260558 0.268943578 0.341176271
0.777229667 0.285768658 0.354964972
0.803794861 0.300189853 0.371663123
0.838582873 0.318659216 0.388488203
0.871853411 0.339152545 0.407336861
0.900442898 0.356862962 0.433396369
0.925110757 0.380012512 0.447438419
0.957242012 0.400758982 0.472738773
0.114484482 0.080455318 0.080582157
0.119038545 0.082732156 0.087159775
0.130044311 0.087159775 0.091840312
0.161416635 0.095003322 0.085768320
0.177735478 0.091207936 0.088045612
0.208475798 0.097153865 0.091460995
0.238077164 0.105502836 0.100063317
0.266287088 0.107400157 0.107147448
0.298924983 0.112713255 0.112460352
0.329285026 0.118279316 0.127134815
0.367109478 0.119797483 0.137381151
0.402024150 0.123086572 0.145730570
0.436179429 0.127261326 0.160910666
0.463378012 0.135990158 0.175838053
0.487665981 0.146110147 0.190006569
0.516508579 0.158254147 0.204933628
0.549398959 0.170145512 0.223150030
0.573687136 0.179886311 0.238330394
0.595572174 0.194434136 0.248703212
0.620872736 0.208349362 0.266160876
0.644528747 0.220999569 0.281214714
0.671853125 0.236179441 0.295382977
0.699303985 0.248703659 0.313219488
0.729664803 0.265781313 0.334471911
0.754459083 0.281720281 0.348893017
0.777229667 0.296900660 0.363567293
0.806072116 0.312081069 0.376217395
0.840227604 0.331815422 0.393675029
0.872359455 0.353067786 0.411891103
0.900948942 0.373308182 0.432890326
0.930930018 0.389373988 0.459329367
0.962049186 0.412902981 0.478305161
0.153953552 0.121062547 0.114737540
0.170271799 0.118785255 0.119291246
0.176849857 0.117520094 0.125489861
0.186843857 0.120429866 0.129411638
0.210373536 0.126122996 0.122201093
0.234661534 0.117014602 0.119164705
0.260720879 0.128020093 0.124730863
0.286400974 0.138899088 0.132194534
0.312207550 0.145350635 0.139405191
0.342567593 0.148387030 0.151549980
0.377608836 0.152182415 0.165844217
0.409234524 0.157242551 0.175711498
0.438456744 0.162935093 0.183681443
0.469070494 0.169007093 0.198861137
0.493737996 0.175079077 0.211132377
0.518785596 0.185958073 0.222011283
0.545351028 0.197722927 0.234155282
0.574446142 0.209487975 0.248576656
0.598735034 0.221632004 0.263757110
0.625426948 0.233396560 0.281341165
0.648576736 0.244402274 0.295383006
0.671853125 0.255534679 0.307527006
0.699303985 0.270588547 0.319923997
0.729664803 0.285515904 0.340923429
0.755850554 0.300316244 0.356862545
0.780518293 0.315116763 0.369133323
0.806072116 0.330297053 0.387603074
0.842504859 0.345477402 0.402783424
0.873624623 0.364832312 0.420619965
0.901581466 0.386084706 0.440986693
0.927514195 0.406831086 0.462745190
0.963946998 0.425047100 0.487033993
0.193421930 0.148386940 0.154205933
0.217710704 0.151423320 0.169386312
0.225426957 0.149146035 0.171789795
0.230993032 0.151676029 0.174573034
0.243769944 0.159519389 0.173814252
0.261985928 0.162554979 0.158633873
0.283744246 0.158507258 0.155597478
0.307653338 0.160657868 0.159518927
0.333459944 0.164705873 0.166350022
0.363819987 0.175711423 0.175837964
0.391271532 0.184566811 0.185072869
0.418089867 0.190638930 0.197216868
0.442251652 0.195572585 0.204933643
0.466034114 0.199367866 0.211005911
0.499430507 0.205439866 0.226186275
0.528905571 0.216318861 0.243263915
0.555218399 0.226945058 0.258444071
0.580518782 0.236559346 0.272359431
0.604807019 0.245919988 0.281973869
0.629095793 0.255281359 0.297153533
0.650094926 0.268690675 0.309044808
0.671853125 0.282859057 0.319671005
0.699303985 0.297912925 0.332067996
0.729664803 0.310056955 0.350284815
0.757748246 0.322706997 0.373560905
0.784566581 0.335357249 0.383301616
0.811891139 0.348513782 0.387856066
0.842504859 0.363693446 0.408855438
0.873624623 0.376217663 0.426691979
0.905756116 0.395193100 0.448450387
0.934092522 0.416445524 0.471347511
0.957875013 0.437191844 0.493106008
0.232890308 0.185831964 0.188614964
0.241999090 0.181277394 0.193674713
0.261986315 0.184313774 0.204554096
0.268184632 0.183301643 0.206957474
0.276407301 0.188235328 0.209234536
0.290322334 0.193421707 0.202656701
0.308538973 0.196457967 0.195066646
0.329791337 0.190132946 0.188741267
0.354712307 0.188994318 0.188867643
0.385072351 0.197596326 0.192662805
0.402403295 0.206831187 0.204300866
0.427704185 0.217963308 0.217457250
0.453130960 0.227324307 0.232384607
0.477166355 0.234788045 0.242378592
0.501454711 0.240860626 0.248450398
0.527640343 0.244528830 0.261226982
0.556230247 0.256293297 0.276154369
0.582163513 0.266413569 0.289057732
0.608349383 0.275521666 0.298165679
0.630107760 0.282099664 0.310310304
0.652498722 0.291208059 0.323592633
0.674383461 0.305123448 0.334345311
0.701707840 0.320050806 0.346615821
0.729664803 0.329791009 0.362428814
0.757748246 0.344212264 0.376091003
0.786464274 0.356609643 0.396584332
0.814927399 0.368754327 0.405060321
0.843263865 0.381910175 0.424288422
0.873624623 0.399493665 0.440354288
0.902214110 0.413409173 0.458570242
0.933206975 0.434029192 0.481340855
0.959392667 0.456926316 0.504238009
0.278937101 0.222011700 0.222011700
0.283365190 0.219228342 0.229981020
0.293105662 0.219607458 0.235673472
0.304996848 0.220113844 0.243516684
0.311068952 0.220872954 0.247690946
0.321948111 0.228210106 0.249715328
0.342441320 0.235041022 0.237571403
0.355724394 0.231499404 0.229854703
0.376976788 0.222391009 0.222264305
0.404680401 0.224035397 0.221378699
0.420493275 0.233017266 0.229728118
0.438456506 0.240860403 0.237317950
0.462745279 0.253004402 0.252498329
0.489310712 0.265148401 0.269450039
0.511954367 0.274003804 0.275268972
0.532321393 0.280961603 0.283870697
0.558127582 0.285515398 0.292978704
0.583554924 0.297406375 0.305502832
0.607843280 0.307526648 0.316634744
0.636179686 0.312207401 0.328526437
0.654143035 0.320177138 0.340670705
0.678431571 0.329285264 0.351802856
0.706261933 0.343200475 0.363314390
0.732068181 0.355344504 0.376976609
0.759392977 0.364072978 0.389879704
0.786717355 0.379253358 0.402023673
0.817331076 0.392157048 0.419734418
0.846932411 0.405439675 0.437950701
0.873624623 0.422896653 0.456799507
0.908792138 0.437697589 0.477039635
0.933459997 0.454649001 0.490828305
0.960784018 0.478178710 0.509804010
0.325237185 0.256167203 0.258444101
0.331309587 0.257685184 0.269829184
0.336369514 0.257558525 0.275395095
0.345983237 0.261100233 0.284503311
0.350158185 0.258444101 0.290195733
0.359646112 0.266413927 0.298545033
0.376091093 0.274003863 0.287160188
0.392156810 0.276280701 0.274636567
0.402783185 0.269449979 0.267046213
0.424035579 0.260341614 0.264009774
0.439468950 0.264136940 0.265907735
0.456673086 0.269703120 0.266919911
0.476407290 0.278052121 0.272991627
0.500190020 0.289943159 0.287919074
0.523465991 0.301581174 0.297533512
0.542947590 0.312839955 0.307400376
0.564200163 0.321948171 0.317267269
0.589626968 0.328652769 0.323339254
0.607843041 0.340670288 0.338140190
0.636938393 0.345983446 0.350537717
0.661226809 0.352055758 0.361164004
0.679949224 0.361923158 0.372296154
0.710183442 0.371030748 0.381657511
0.735104024 0.384945989 0.394434094
0.760910749 0.394054174 0.405819178
0.788994670 0.403541744 0.419481158
0.816319048 0.418722153 0.432131261
0.849209428 0.433902532 0.450094998
0.876913548 0.450221270 0.470208794
0.907021046 0.466413498 0.490955055
0.944845080 0.478178680 0.512839615
0.963061094 0.499431103 0.515875995
0.355598003 0.292599976 0.303984523
0.370778412 0.298671991 0.313092887
0.374700010 0.295888990 0.313725233
0.381404310 0.296521306 0.319923818
0.395698607 0.303984523 0.335736930
0.407843381 0.303984523 0.338772565
0.412270695 0.306894332 0.331941843
0.419481248 0.310183287 0.324099004
0.430107623 0.311954021 0.318659365
0.445288002 0.311954021 0.315622985
0.460721374 0.302846402 0.306767613
0.477925479 0.300569534 0.298292279
0.497280121 0.305376530 0.296521336
0.518406034 0.317267567 0.306135058
0.536622047 0.326375932 0.318279803
0.555091619 0.340417773 0.330297470
0.574826241 0.353827000 0.343833148
0.595698953 0.365085572 0.356736422
0.613914967 0.374193966 0.362808466
0.634914339 0.383428127 0.374825984
0.658570468 0.390385509 0.383174986
0.682479441 0.398608267 0.390512139
0.707147062 0.410499960 0.399873525
0.734471440 0.419607580 0.415053904
0.759392560 0.428968787 0.425553769
0.786590815 0.439341962 0.438962936
0.816319048 0.452118576 0.456420034
0.843643427 0.467298925 0.471600413
0.876533806 0.479823172 0.489563465
0.906008661 0.495762408 0.506135225
0.936495721 0.511069119 0.522580504
0.972169518 0.520683527 0.540163994
0.397596747 0.340670735 0.340796739
0.398229271 0.335104734 0.346995264
0.406957865 0.343326956 0.356103659
0.413535863 0.341049850 0.357368588
0.426312268 0.341935277 0.365338415
0.435926735 0.349525630 0.378494680
0.448070884 0.346995294 0.386590928
0.455534458 0.350916862 0.381404161
0.464642823 0.355217844 0.373813868
0.475522220 0.357368588 0.364326239
0.487792730 0.354458749 0.349651873
0.500948846 0.345351130 0.336495489
0.516255498 0.340417743 0.326754987
0.533459902 0.341935754 0.327007890
0.549019694 0.353700280 0.336495787
0.564832509 0.362808675 0.348639965
0.582542837 0.378494859 0.363820374
0.603036165 0.393421859 0.379127264
0.625806689 0.404806972 0.387475967
0.646806061 0.413915366 0.393548727
0.668058455 0.423023462 0.401644737
0.691334844 0.432131588 0.410752892
0.715622902 0.443896383 0.423782736
0.740164638 0.447438717 0.436179787
0.769765735 0.456546307 0.446806163
0.798102319 0.469829202 0.460088849
0.828969061 0.483997613 0.477798939
0.861100435 0.491967171 0.492979288
0.880455673 0.507147551 0.502846003
0.912586987 0.517773628 0.520303369
0.942188442 0.533459604 0.534851432
0.972549021 0.550664008 0.546995759
0.432004988 0.381151497 0.379253745
0.434029251 0.383175492 0.381277740
0.438330233 0.379759729 0.383428276
0.444402248 0.387602508 0.391271502
0.455407798 0.385325491 0.395446062
0.467805177 0.389500171 0.413915426
0.479443252 0.394560158 0.424035311
0.488298237 0.396457911 0.431499422
0.494749963 0.401770920 0.425426811
0.500063181 0.404806972 0.413282484
0.510056973 0.402024120 0.398228616
0.526249528 0.403035760 0.391144753
0.538393557 0.391650856 0.377103001
0.551929235 0.382163227 0.368500978
0.561796367 0.378367960 0.363440901
0.585072756 0.392156780 0.372928232
0.598734975 0.402783364 0.382036626
0.615306556 0.419987470 0.396331668
0.635420680 0.434914529 0.405439287
0.654902339 0.446299613 0.417836696
0.676154792 0.455408007 0.423908979
0.697407126 0.463504225 0.432005227
0.720809758 0.473624229 0.445920736
0.746995807 0.482352912 0.456166983
0.771789968 0.491967469 0.468058527
0.800758660 0.499683738 0.481341213
0.829474866 0.514358222 0.497533262
0.858317435 0.523466229 0.508159459
0.890575647 0.535483778 0.520050406
0.914105117 0.547122180 0.527387261
0.945224583 0.558001101 0.542820930
0.972549021 0.576976478 0.553067982
0.461226940 0.418722630 0.416445643
0.463124663 0.422517627 0.416445643
0.469449639 0.426692158 0.419861257
0.474383295 0.424035281 0.422391266
0.480455279 0.429348290 0.428083718
0.493358552 0.429348290 0.444781929
0.508285642 0.435546935 0.457052618
0.517140687 0.441619068 0.466793060
0.521694660 0.448450744 0.472865641
0.521694660 0.452245444 0.462997943
0.530423522 0.450601161 0.445667058
0.543326855 0.450474650 0.438582897
0.556989670 0.450094938 0.432131618
0.568627656 0.434914559 0.419228584
0.574699640 0.419734150 0.402277231
0.596457779 0.417204082 0.399493843
0.619607568 0.429728031 0.408222377
0.632384181 0.442505032 0.416192561
0.647564590 0.460215002 0.426312327
0.663251042 0.472865283 0.437571019
0.683365107 0.486527383 0.447058648
0.702593505 0.495635748 0.455154896
0.723592818 0.501960754 0.467046618
0.748893261 0.513092637 0.475142390
0.776217639 0.525237203 0.488804579
0.801897287 0.535737038 0.498039603
0.829727769 0.541809142 0.514737606
0.855281532 0.552688241 0.521441996
0.890195966 0.564832270 0.531688631
0.921315789 0.577482462 0.542567611
0.944212615 0.587476254 0.550410807
0.970272005 0.602403641 0.562555611
0.489058018 0.459456056 0.450854033
0.488552034 0.459203094 0.451360047
0.495003253 0.464895844 0.456293821
0.501834154 0.469702929 0.464137048
0.505250037 0.467299074 0.470335543
0.511322021 0.467299074 0.473371178
0.526755035 0.474383384 0.483997673
0.539405107 0.481847048 0.495889038
0.544718087 0.488172174 0.506009042
0.544718087 0.497280568 0.512081027
0.552940965 0.498166054 0.493738234
0.563314080 0.497913033 0.483617842
0.573181272 0.496142030 0.477925062
0.579760015 0.490323067 0.466034025
0.585832059 0.475142688 0.444781661
0.604807019 0.459962308 0.432131350
0.627071202 0.454902232 0.430613250
0.647058547 0.463757455 0.439468563
0.662238955 0.478937089 0.454648972
0.675142050 0.491587728 0.461227030
0.692725837 0.507021010 0.467805028
0.712207198 0.522454202 0.476154268
0.727640510 0.531942010 0.488298982
0.748892963 0.541429162 0.494623989
0.776470542 0.552814543 0.509298027
0.805186629 0.563820422 0.520556688
0.832764089 0.572675169 0.524352014
0.863124788 0.578747869 0.533459604
0.897785962 0.590133071 0.542567849
0.929411590 0.603289187 0.553700030
0.953067958 0.618090034 0.566350162
0.965211987 0.630234063 0.578494966
0.522454381 0.514104784 0.496394396
0.516382396 0.511069179 0.502466321
0.522327602 0.510816216 0.496521145
0.530170381 0.515243769 0.497533381
0.535610080 0.519038618 0.503984928
0.541682780 0.521947801 0.512840331
0.550284505 0.524478078 0.523466229
0.566223800 0.530423820 0.533966064
0.579633117 0.535736918 0.541429818
0.587222755 0.539785266 0.542441785
0.590132654 0.545983791 0.542694807
0.594434083 0.544718504 0.528146923
0.600506246 0.543453395 0.520050585
0.607084394 0.541935444 0.514610767
0.619228423 0.538899779 0.505502343
0.625300407 0.523719370 0.484250575
0.639721572 0.508538961 0.471600443
0.656166971 0.500948787 0.467552245
0.671347380 0.500189483 0.466792971
0.689310431 0.515369773 0.470841348
0.706261873 0.528019965 0.480202407
0.725110829 0.541429222 0.492093533
0.742820859 0.553194404 0.506514966
0.764073253 0.571410418 0.518658996
0.787602961 0.583174825 0.529537976
0.813156366 0.595319331 0.538772643
0.838583052 0.606325209 0.542315006
0.866160452 0.615179837 0.548639953
0.891208231 0.626565635 0.557748199
0.923339605 0.635167837 0.570398569
0.951929152 0.646679401 0.585831761
0.971284032 0.663630426 0.602782965
0.546236813 0.563946605 0.525110602
0.547374964 0.560910940 0.526375592
0.552055776 0.560025573 0.530296803
0.561163723 0.562555552 0.528526306
0.567615390 0.567489028 0.535357594
0.569639623 0.566476643 0.546489716
0.583049119 0.574319959 0.558127761
0.590512395 0.575711608 0.563693762
0.604933918 0.581024647 0.569765985
0.617330909 0.587350070 0.573054969
0.627830446 0.593295574 0.573054969
0.628842592 0.591271579 0.566983223
0.631499112 0.588994384 0.554838896
0.637318075 0.588994384 0.549272597
0.653763533 0.588109016 0.544465125
0.658696771 0.582669616 0.532953560
0.664769173 0.567489207 0.514737546
0.677293003 0.549778819 0.501960814
0.692472935 0.532574415 0.490069598
0.705629587 0.539026022 0.490196139
0.727640569 0.552308619 0.497027040
0.746869266 0.565464735 0.508665204
0.764959097 0.578874290 0.522327781
0.781656921 0.590259612 0.534471810
0.802909255 0.606198311 0.539785028
0.828463197 0.619860470 0.551549613
0.853257656 0.633522987 0.559645832
0.876787007 0.646426141 0.571410596
0.901454628 0.655787468 0.577735603
0.927514136 0.666161001 0.590385973
0.953446984 0.675521970 0.608222783
0.970145166 0.692219794 0.629474759
0.581151366 0.606451392 0.553953171
0.576597214 0.609487712 0.555471361
0.585452139 0.604048193 0.553067803
0.594560504 0.607843339 0.558633447
0.603668809 0.613029838 0.564958990
0.607084155 0.609993398 0.574826002
0.612144291 0.615559459 0.580897987
0.623909175 0.621252358 0.591018200
0.633017182 0.622011483 0.596331298
0.648956418 0.629601896 0.606198370
0.658191383 0.635800362 0.612523377
0.668311357 0.639848351 0.611005425
0.668311357 0.633776367 0.599620759
0.671220541 0.632764339 0.588994503
0.684376955 0.631499171 0.579632938
0.693611801 0.628210425 0.570904136
0.696647346 0.625174403 0.558760226
0.702087581 0.609993994 0.544844806
0.713725388 0.586211562 0.529285192
0.723086715 0.574320138 0.520177364
0.741303205 0.575079203 0.519797623
0.766603351 0.587223172 0.527893364
0.786338031 0.601897538 0.538646519
0.802909315 0.613788903 0.546616197
0.822643459 0.625932932 0.554965079
0.842504501 0.641112864 0.562176168
0.869956017 0.655787289 0.575332224
0.894244194 0.669955790 0.591524422
0.913598955 0.681340992 0.604807317
0.933586121 0.693485379 0.616192162
0.957368612 0.704364538 0.631372631
0.970145166 0.719544172 0.653763175
0.625933111 0.644149125 0.588614702
0.616319120 0.651992500 0.590385914
0.620114088 0.648197353 0.587602913
0.630993068 0.646679282 0.587855935
0.638962924 0.654649138 0.596204698
0.647311568 0.651865721 0.602023721
0.651359677 0.655154705 0.604300678
0.655660808 0.660214841 0.609866798
0.665781081 0.663251042 0.621378779
0.683997095 0.666287422 0.642631173
0.693105638 0.670967937 0.656419694
0.701961100 0.677672505 0.660467684
0.709551096 0.681088090 0.656040132
0.710057080 0.675269067 0.641113460
0.716129124 0.672232687 0.623655856
0.724604726 0.669196725 0.611384869
0.730676889 0.667046547 0.601391077
0.733080089 0.665781558 0.587349534
0.736116529 0.650601089 0.578241110
0.742568135 0.629601479 0.564199865
0.754332721 0.613535702 0.554712355
0.776344121 0.609740555 0.552814543
0.803542018 0.621758044 0.558507085
0.822770178 0.635926485 0.560531497
0.842630804 0.649462163 0.568121254
0.862491846 0.661100209 0.577355921
0.880202472 0.676280618 0.590512574
0.909929991 0.688551843 0.608728528
0.928272784 0.700063527 0.627577603
0.944085717 0.714611113 0.647185445
0.958001196 0.727893949 0.661732733
0.973181605 0.743073583 0.676913142
0.656293988 0.686653972 0.628083944
0.656293988 0.689690351 0.625047565
0.659582973 0.684630215 0.622517228
0.667425811 0.683112144 0.624288201
0.675395012 0.691082001 0.632637560
0.675395012 0.691082001 0.635673940
0.686274707 0.690828979 0.641492963
0.694117963 0.694623947 0.650347948
0.701960981 0.699683845 0.663757205
0.714357972 0.702719510 0.682100415
0.732573986 0.702846050 0.700442970
0.741682589 0.709424376 0.706008971
0.745983958 0.716002643 0.702593327
0.746489942 0.717773974 0.692726016
0.752561986 0.714737594 0.680582047
0.761037171 0.711701155 0.665528178
0.767109215 0.708665252 0.653889775
0.769512951 0.705250025 0.641998410
0.769513011 0.699178040 0.620746017
0.778115392 0.686780989 0.608855009
0.783175230 0.667932212 0.596458018
0.793801188 0.653004706 0.588108838
0.815686047 0.649082541 0.585831583
0.839974821 0.658190966 0.582795918
0.859202921 0.672359288 0.589373648
0.877672255 0.683111966 0.597090304
0.895382881 0.691460967 0.605693042
0.910562515 0.706641376 0.623908997
0.932320774 0.716255784 0.644781768
0.951296389 0.730929911 0.671094358
0.966603577 0.745351017 0.694876909
0.976217985 0.752182007 0.707274020
0.686654031 0.712460756 0.656420350
0.686654031 0.712713778 0.656167328
0.688804805 0.715749621 0.657431960
0.696774364 0.714231551 0.661986053
0.706641316 0.718785822 0.672233105
0.709045112 0.716382027 0.677672744
0.714105129 0.716382027 0.685768485
0.727388084 0.719671011 0.695382774
0.737634599 0.724984050 0.707527041
0.747754395 0.728020251 0.721695364
0.757368743 0.733712733 0.748260736
0.771536767 0.735736966 0.758380711
0.779127061 0.742188752 0.762175739
0.782669067 0.746616364 0.761037111
0.786211431 0.746110320 0.748893142
0.792283416 0.743073940 0.734345317
0.797975957 0.741555750 0.716128945
0.801012158 0.739152431 0.699430525
0.803162396 0.733080387 0.678178132
0.814295053 0.729791045 0.662491739
0.821505725 0.713852048 0.638962746
0.826439083 0.698545396 0.623529732
0.838203788 0.692220092 0.618090093
0.846552849 0.682732701 0.601770937
0.870841563 0.691840470 0.605566025
0.888678014 0.703225672 0.618342638
0.906008720 0.711701334 0.632511437
0.925742924 0.724604428 0.653004706
0.940923214 0.737128675 0.676533699
0.956609309 0.748134315 0.696141779
0.971030891 0.764326334 0.722454309
0.982037008 0.777988374 0.745983362
0.720809460 0.746236682 0.704617441
0.722707212 0.746236682 0.717900157
0.730550230 0.746489704 0.712460399
0.729791462 0.749525607 0.711701214
0.737760901 0.751043916 0.721568823
0.743832946 0.744971514 0.736749172
0.749399483 0.748260438 0.743453622
0.753826737 0.753194153 0.750916898
0.766477048 0.758001208 0.766350567
0.775584936 0.759898901 0.784187198
0.782795608 0.763946712 0.803289056
0.792030513 0.771789968 0.825932920
0.801897466 0.774826348 0.835420609
0.807716429 0.779380441 0.843263686
0.810752392 0.777735710 0.837697685
0.814294696 0.775331914 0.821252108
0.823402703 0.773813725 0.803035736
0.828842580 0.773181319 0.783048511
0.834408522 0.768374443 0.764326394
0.838203728 0.766982853 0.739152312
0.848450720 0.762049198 0.723971903
0.854522705 0.743832886 0.692599773
0.860847712 0.734092236 0.677672684
0.870461762 0.723719478 0.654143155
0.878810823 0.714231431 0.638962507
