Assets/Shaders/EldamarStudio/100 Sci-Fi LUTs Pack/LUTs/cube/Kayla LUT.cube
LUT_3D_SIZE 5
DOMAIN_MIN 0.000000 0.000000 0.000000
DOMAIN_MAX 0.903226 0.903226 0.903226
0.000000000 0.000000000 0.000000000
0.239342406 0.023529001 0.065401994
0.472105950 0.071979985 0.153700411
0.664010108 0.194307253 0.279570132
0.863124788 0.321821660 0.397596806
0.278937101 0.222011700 0.222011700
0.355724394 0.231499404 0.229854703
0.511954367 0.274003804 0.275268972
0.678431571 0.329285264 0.351802856
0.873624623 0.422896653 0.456799507
0.522454381 0.514104784 0.496394396
0.566223800 0.530423820 0.533966064
0.619228423 0.538899779 0.505502343
0.725110829 0.541429222 0.492093533
0.891208231 0.626565635 0.557748199
0.758254111 0.783681095 0.769386470
0.788235545 0.787602663 0.821758449
0.828968883 0.811764717 0.927261412
0.874762952 0.793422043 0.795825303
0.961036921 0.774573088 0.738520026
0.941429675 0.950537801 0.998734832
0.956103563 0.954838693 1.000000000
0.969386399 0.963566959 0.998734832
0.976344109 0.965844274 0.998355269
0.980518878 0.954458773 1.000000000
0.002277292 0.087665990 0.284503400
0.242631376 0.010120292 0.301454395
0.484883100 0.096521109 0.340037793
0.665654898 0.208349273 0.406830847
0.863883734 0.312333822 0.484629989
0.138646409 0.298545122 0.365844101
0.314864129 0.256673127 0.363567382
0.510310054 0.261606812 0.391398102
0.671473861 0.310942292 0.440100998
0.865401506 0.411764681 0.512333691
0.409866989 0.488551795 0.471473366
0.479570091 0.493105799 0.498291969
0.593674839 0.524478197 0.533839107
0.708159268 0.555217803 0.541935444
0.891840637 0.621632099 0.596711159
0.715496659 0.762049139 0.720303476
0.748766601 0.772549152 0.765211761
0.816192567 0.801644325 0.914990604
0.855154991 0.792789459 0.818089724
0.949525654 0.778368056 0.784566760
0.943453670 0.950916946 0.998355269
0.945856810 0.954206109 0.995825231
0.967488885 0.963567376 0.996711016
0.978494823 0.968753815 0.998987913
0.981530726 0.959013104 0.995952010
0.000632584 0.226945400 0.587096810
0.000000000 0.130550101 0.591018438
0.481214821 0.090322822 0.574699402
0.668944001 0.193674833 0.579379976
0.865780830 0.315243810 0.607969880
0.001265006 0.407463372 0.619481146
0.175585121 0.342694402 0.619481444
0.492978960 0.271094084 0.590385795
0.682352722 0.309044689 0.596963823
0.880202234 0.404806823 0.624668121
0.280582219 0.628463209 0.672232807
0.367488801 0.625806391 0.672232807
0.543327212 0.556483269 0.661732793
0.707906127 0.524731219 0.633902669
0.891208231 0.585325360 0.672232747
0.498798400 0.717647135 0.684250653
0.541176140 0.717647016 0.692220151
0.658191144 0.730423450 0.726122499
0.809361219 0.764453232 0.855787456
0.908665121 0.791144788 0.885768473
0.884123743 0.937507927 0.993421853
0.901580870 0.935483992 0.997343183
0.952055752 0.944592237 0.999367416
0.976850152 0.971790075 0.998355269
0.977862000 0.962302089 0.999367416
0.002023998 0.358001143 0.916382253
0.000000000 0.313852012 0.912081003
0.151929468 0.219101831 0.890575767
0.622644067 0.235547245 0.830107510
0.841113508 0.307780117 0.848323941
0.001012128 0.478305131 0.952055812
0.001012128 0.442631394 0.945224404
0.152814627 0.347248673 0.931815207
0.616065741 0.348893136 0.869449496
0.845793724 0.391777217 0.869575918
0.041492607 0.710436106 0.999367416
0.214927241 0.695129633 0.999367416
0.397469908 0.635294139 0.999367416
0.631119728 0.566603541 0.953573644
0.861732841 0.554838717 0.934471726
0.526249230 0.853130996 0.991271138
0.567995071 0.848956168 0.997722745
0.662997901 0.846300125 0.997722685
0.762302339 0.796331286 1.000000000
0.885894835 0.754838943 1.000000000
0.696015060 0.905250072 1.000000000
0.710562944 0.909171104 0.998355329
0.775205076 0.910815775 0.996711016
0.915496647 0.932447612 0.997976005
0.971031129 0.954206169 0.998355329
0.000000000 0.457684994 0.997343183
0.001012124 0.437065274 0.998734832
0.000632584 0.363061190 0.999367416
0.431752115 0.377482772 0.998355269
0.749525666 0.402909815 0.996078014
0.001012124 0.546236694 0.994180977
0.000000000 0.529917479 1.000000000
0.001644708 0.474383533 1.000000000
0.468437672 0.464263082 0.997469962
0.762302279 0.470208794 0.997090101
0.348260611 0.741429627 0.997343183
0.382289588 0.729031980 0.999367416
0.459329635 0.698291957 0.997469783
0.592283547 0.638836265 0.996078432
0.818848789 0.615306556 0.999367416
0.745604217 0.911575139 0.998987854
0.765085220 0.906767845 1.000000000
0.795572102 0.893991113 0.996711075
0.819987297 0.842378139 1.000000000
0.896141648 0.790132940 0.998355329
0.865654767 0.968753815 0.997469962
0.876154602 0.973054945 0.997090101
0.905502617 0.967488825 0.998734951
0.942314923 0.975584924 1.000000000
0.962175965 0.957115650 0.996078014
