Assets/Shaders/EldamarStudio/100 Sci-Fi LUTs Pack/LUTs/cube/Keira LUT.cube
LUT_3D_SIZE 8
DOMAIN_MIN 0.000000 0.000000 0.000000
DOMAIN_MAX 0.903226 0.903226 0.903226
0.027450999 0.062744997 0.121569000
0.068943992 0.062744997 0.125489995
0.141809002 0.076027997 0.126249090
0.211891636 0.096395001 0.140037641
0.289057195 0.122201189 0.141176000
0.379885972 0.156736001 0.150790736
0.491714269 0.198988289 0.155218288
0.651612759 0.244655117 0.176596820
0.063883543 0.099556997 0.125110537
0.096774541 0.096774541 0.132953539
0.152814895 0.116002187 0.133712545
0.216192186 0.131688908 0.137254998
0.296141982 0.153447181 0.144338906
0.380645066 0.185325548 0.152814999
0.495003283 0.218722284 0.168626994
0.639595330 0.261100829 0.176850453
0.121442094 0.163820192 0.138013899
0.141429543 0.168880537 0.134851098
0.181784093 0.167615101 0.130044177
0.242125079 0.186843738 0.145857096
0.314104974 0.206831083 0.151296899
0.404174387 0.227198094 0.155977100
0.516761303 0.263883650 0.173181564
0.675774813 0.313598931 0.187855870
0.184440643 0.241619632 0.144591644
0.187855989 0.248703629 0.141429543
0.229854733 0.250221550 0.152941003
0.279190630 0.261226922 0.155218005
0.349272370 0.277672648 0.165085465
0.427957028 0.300316632 0.170651257
0.537760854 0.333586276 0.176596925
0.691334188 0.385958463 0.198608637
0.248323992 0.340038180 0.156609803
0.268311530 0.341935545 0.165844366
0.289057165 0.344592005 0.162175894
0.335736811 0.350537628 0.169765636
0.390133202 0.364199996 0.179506987
0.472612023 0.388108939 0.181404248
0.589626551 0.428336471 0.189626694
0.727007926 0.481467158 0.222643822
0.336875468 0.473877460 0.178368255
0.346742541 0.478178531 0.189626798
0.379632741 0.480455637 0.189247444
0.418216348 0.486653835 0.189247355
0.477924913 0.495003194 0.197090641
0.548007488 0.510942698 0.211384982
0.653889537 0.545477450 0.235420540
0.776597083 0.595825434 0.285641879
0.442378551 0.632511139 0.246299550
0.459835291 0.631878555 0.242125109
0.486148179 0.638077259 0.250348061
0.526502192 0.642504930 0.262998283
0.577862382 0.645287812 0.271600366
0.649209499 0.655407548 0.289942980
0.718785524 0.671094596 0.313598990
0.814421177 0.705376506 0.383175373
0.620366573 0.797975540 0.419101387
0.629980743 0.804807007 0.434282035
0.647817791 0.803921282 0.444781482
0.677292585 0.812017560 0.459456027
0.720303595 0.813788772 0.472738564
0.775332272 0.819987595 0.492726326
0.829981029 0.830233872 0.532447696
0.892093599 0.839721680 0.570904374
0.039216001 0.066666998 0.130171001
0.072106093 0.067046449 0.129411995
0.142188549 0.084250547 0.141555548
0.203288749 0.115622737 0.142314643
0.283111840 0.138646200 0.149779007
0.381024718 0.171663284 0.165085450
0.482100010 0.205312997 0.170904279
0.638330162 0.247185141 0.190512285
0.068184994 0.103478998 0.138773009
0.104617544 0.104237996 0.134471536
0.150790557 0.123845898 0.138393447
0.214674190 0.137128100 0.143832743
0.286274642 0.161037549 0.157242462
0.373181522 0.187982291 0.160404742
0.489690036 0.224035293 0.164452791
0.642757893 0.265780896 0.184819683
0.127261549 0.161417007 0.138772994
0.141809106 0.170019001 0.139532000
0.185325637 0.174319640 0.142694190
0.242504641 0.189247459 0.154079646
0.310183167 0.210753083 0.159898996
0.393042266 0.234661534 0.163314432
0.508032799 0.267046213 0.181783900
0.663757026 0.311954498 0.194180787
0.185958534 0.238077179 0.153574005
0.193801627 0.240860537 0.155976996
0.229475185 0.249083087 0.161163554
0.269323289 0.257305652 0.159519449
0.341429293 0.275648177 0.164958730
0.419607669 0.301201731 0.176091358
0.539025962 0.337128639 0.183428288
0.689689875 0.384060621 0.205059975
0.248703539 0.333333641 0.163061202
0.259329408 0.334092528 0.169892356
0.290702105 0.339152306 0.171283722
0.331056446 0.344971657 0.174825996
0.388614982 0.355597585 0.177482635
0.472232461 0.381277442 0.192030087
0.584946454 0.423149735 0.200252846
0.730044127 0.481847018 0.229475185
0.335990191 0.461227268 0.187096745
0.345856905 0.468311280 0.190891743
0.372422636 0.472485721 0.192536280
0.415053546 0.478431284 0.196331546
0.474003911 0.489437103 0.208855256
0.539025784 0.502593279 0.217204735
0.646805525 0.537508011 0.240860552
0.777608931 0.592662811 0.295509249
0.440228015 0.616572022 0.237571269
0.448450565 0.626438856 0.250727534
0.476786673 0.626438856 0.253763705
0.513219833 0.632637560 0.261986166
0.574699640 0.641239643 0.277419537
0.639974833 0.650221288 0.292852789
0.718153000 0.673118293 0.328146845
0.817836642 0.705376506 0.393927813
0.605692327 0.797216535 0.433523238
0.630360305 0.801011860 0.443643123
0.641366482 0.802909255 0.446679324
0.674762607 0.807842791 0.458570629
0.716761410 0.812523961 0.472738773
0.768880606 0.818848729 0.496521056
0.822390914 0.830233872 0.526754975
0.884503365 0.837950587 0.565843940
0.050854094 0.068184994 0.147375092
0.085388996 0.072105996 0.146236539
0.145730197 0.088551894 0.148133993
0.211891636 0.117140643 0.155218005
0.286653996 0.150537804 0.167109191
0.375458717 0.179886252 0.176091254
0.478431463 0.213156089 0.191271186
0.640354514 0.250727087 0.200759098
0.085768551 0.107779637 0.153320551
0.113978542 0.109297536 0.141049996
0.157874644 0.127387539 0.158001453
0.215812743 0.149272546 0.158380911
0.287918746 0.171663284 0.165844455
0.371916294 0.198988184 0.172801822
0.487919182 0.229854539 0.190765455
0.642378092 0.270967990 0.202529833
0.141050085 0.165338203 0.153700098
0.163820103 0.173560649 0.163947001
0.191145092 0.185705096 0.166224003
0.246426433 0.194307089 0.160278454
0.311701208 0.217836991 0.173181176
0.393295467 0.243769988 0.182795897
0.507273555 0.267805099 0.191777274
0.658823311 0.318279803 0.213915080
0.195825189 0.245161191 0.161037445
0.208349183 0.245540738 0.165338203
0.241239980 0.252624631 0.173560724
0.281973273 0.262365282 0.173687637
0.348133802 0.275648266 0.181783885
0.426312804 0.301455081 0.189247444
0.540670276 0.337507993 0.198228985
0.691714168 0.385578603 0.231752172
0.260973990 0.333712995 0.184946179
0.265148729 0.335610539 0.188994095
0.296774298 0.341555983 0.191271186
0.332068175 0.346236259 0.191650629
0.388488263 0.357242167 0.186464190
0.472991556 0.385325551 0.198988095
0.587096632 0.426059395 0.217583984
0.725489974 0.480708361 0.260974109
0.341555983 0.465654731 0.210373342
0.352435082 0.466034293 0.215053737
0.373307705 0.470967799 0.207842827
0.421884716 0.478810817 0.219355002
0.477292746 0.485515475 0.225173727
0.544971526 0.499177724 0.234534726
0.649589002 0.538772643 0.266160458
0.770524800 0.595445812 0.319924027
0.442504466 0.617583811 0.261100560
0.450980484 0.622137785 0.271600097
0.480708569 0.626438737 0.276786536
0.519418001 0.630360425 0.283112079
0.576976597 0.638836324 0.297153652
0.640860021 0.655028045 0.322454214
0.717267334 0.671853483 0.350284636
0.819607973 0.709550917 0.417962879
0.613156319 0.795192719 0.438203514
0.623908877 0.799620271 0.454648852
0.638836086 0.801391304 0.455913752
0.672485888 0.805565953 0.468184590
0.714484394 0.809993625 0.482479393
0.765464842 0.815433502 0.502972424
0.823149741 0.828209937 0.543580055
0.885641754 0.843137324 0.585831463
0.086906999 0.076787002 0.166476637
0.116381735 0.084629998 0.174066991
0.163694084 0.103858449 0.172801733
0.218595996 0.122200996 0.175964639
0.293358624 0.156736195 0.184566632
0.380518556 0.183048636 0.192789093
0.486653924 0.214673996 0.205692649
0.646173179 0.249588624 0.230739832
0.113219440 0.121062540 0.173181280
0.135863647 0.124604896 0.174066991
0.178747907 0.133206993 0.176470995
0.226059645 0.149652094 0.172422275
0.292599559 0.173560739 0.183934450
0.382668823 0.202909291 0.195193008
0.495762289 0.235420734 0.214294821
0.647438407 0.267931908 0.234661639
0.156356543 0.173940286 0.170778096
0.173940182 0.181404456 0.172296092
0.213535741 0.195572555 0.193421558
0.258190632 0.201011732 0.186590999
0.319164842 0.222137749 0.195193097
0.401138395 0.245287895 0.205819264
0.515243411 0.279316843 0.220113888
0.667805314 0.316508472 0.248197064
0.209614351 0.253890008 0.183807641
0.224414632 0.253763199 0.185325548
0.258949757 0.264389664 0.196711004
0.302719623 0.274130285 0.200126633
0.358254015 0.285894990 0.208475992
0.437697470 0.306641519 0.216318995
0.545603812 0.343073994 0.228715986
0.695509255 0.385958463 0.266160667
0.273750842 0.339278996 0.210752800
0.287539274 0.345477194 0.206704289
0.310310096 0.351802200 0.213156089
0.349399149 0.355976909 0.214674190
0.406451374 0.369006991 0.224035367
0.483617902 0.391271651 0.234155267
0.597469866 0.426692188 0.251739532
0.730550170 0.484503418 0.296394616
0.348260641 0.468058199 0.244275883
0.364073366 0.469576120 0.239848197
0.386970192 0.476154387 0.245161384
0.422897100 0.479569733 0.248197377
0.482353091 0.491460800 0.258823544
0.553194046 0.506388605 0.269702643
0.654775202 0.541049600 0.297406554
0.774825871 0.595445693 0.356989384
0.445793897 0.624035597 0.303984910
0.459202915 0.626818180 0.310689270
0.483997375 0.627197623 0.314610958
0.527640581 0.632384598 0.323592603
0.579886138 0.641998529 0.335104197
0.648450375 0.655028045 0.355091661
0.720430255 0.673371315 0.383175254
0.819354713 0.711701453 0.449588597
0.605818629 0.796963811 0.472738922
0.620366812 0.796964049 0.469702840
0.636432648 0.801770747 0.485135853
0.671094596 0.804680228 0.494244069
0.717899799 0.811385334 0.511954546
0.765717685 0.817204356 0.532700539
0.824288309 0.828715801 0.565591216
0.889689744 0.847691417 0.602909386
0.121315181 0.093231998 0.204554200
0.140543833 0.096394800 0.195572540
0.183175176 0.116002284 0.199114382
0.236938640 0.133586347 0.206957996
0.301454991 0.157495186 0.212397188
0.382922351 0.187981993 0.221252441
0.494876593 0.216950998 0.242883995
0.657178700 0.255028814 0.283491164
0.148386836 0.131562188 0.200885549
0.169259995 0.141429543 0.209360987
0.198608533 0.148513645 0.204933539
0.246047094 0.164199635 0.205439806
0.303225875 0.182669193 0.207590193
0.391144902 0.204427481 0.220746368
0.502972901 0.238203794 0.246299833
0.658570468 0.273118258 0.275268823
0.190512091 0.191145092 0.212270901
0.197469890 0.196711004 0.204554096
0.226439089 0.204554006 0.215685993
0.271094173 0.212776735 0.212397188
0.327387363 0.225679994 0.217078090
0.409234732 0.251992434 0.231119365
0.519924164 0.279696196 0.255281389
0.675521493 0.316761434 0.302466899
0.232890800 0.256419927 0.215433285
0.236432463 0.260467798 0.221884996
0.270209074 0.269070536 0.219734445
0.314864069 0.282352835 0.227577552
0.365718067 0.293611377 0.235294014
0.444655269 0.318026185 0.250727177
0.557115912 0.343832910 0.275268823
0.701834083 0.389879733 0.311954290
0.287539393 0.343074203 0.236306176
0.298165530 0.349019557 0.250347733
0.324351400 0.361164004 0.245161280
0.374066830 0.374066710 0.259708792
0.433902383 0.387729347 0.271853387
0.500822067 0.403794914 0.275774986
0.602909565 0.432384372 0.294370264
0.738772929 0.484503150 0.345730335
0.362302750 0.475901723 0.283870727
0.370525181 0.480076164 0.289310515
0.401012003 0.483871073 0.293611348
0.440606982 0.491460800 0.300822198
0.494496942 0.500442445 0.304870635
0.562302291 0.514863729 0.320936173
0.667172790 0.551296651 0.353320599
0.783934295 0.600126207 0.405945808
0.453384072 0.625679851 0.360025376
0.467046171 0.630487204 0.362681717
0.485515565 0.634408474 0.362302452
0.522960186 0.637444854 0.369765818
0.584187388 0.649841607 0.382542670
0.652750969 0.660468161 0.402403474
0.727640808 0.677292645 0.430233836
0.821252346 0.718912065 0.494370639
0.598987818 0.798228920 0.510436594
0.609108210 0.801770747 0.511827707
0.631498992 0.800379395 0.518532574
0.665148795 0.807842970 0.530044138
0.708285987 0.809867144 0.541302562
0.762302101 0.820999324 0.565085351
0.821125984 0.829348266 0.594560325
0.882479429 0.848956585 0.625679493
0.160658002 0.117520481 0.246805996
0.182542801 0.122960187 0.243896633
0.220746472 0.133965895 0.249842077
0.269323289 0.151170000 0.249968380
0.328905642 0.172042921 0.252498746
0.397343725 0.197722733 0.260467738
0.503099322 0.222517282 0.294117540
0.661353469 0.257811666 0.339025885
0.187222987 0.153953448 0.244528800
0.203415737 0.156356752 0.241619334
0.227450714 0.162935004 0.246046886
0.274889380 0.177103087 0.251106918
0.328399926 0.190385804 0.254901946
0.403668553 0.211132362 0.262238979
0.514863789 0.239721805 0.287286580
0.665148556 0.275648177 0.347754389
0.217710286 0.212017745 0.251739651
0.227071270 0.210752994 0.249842182
0.254522353 0.213030100 0.248956367
0.296774268 0.224414736 0.258064657
0.354712278 0.238583535 0.260847360
0.421379089 0.251865745 0.275142640
0.528779328 0.286021560 0.307273924
0.684123635 0.321315706 0.358380616
0.259708822 0.270588607 0.257432073
0.267172992 0.278431654 0.263251007
0.288931042 0.283491284 0.266919464
0.333712876 0.290575385 0.270082355
0.389247268 0.305503070 0.281847090
0.459582359 0.319544345 0.301075637
0.572043061 0.344212353 0.328779280
0.712207615 0.393042356 0.379126996
0.303984970 0.356609941 0.290069699
0.310942382 0.360530943 0.291207969
0.340923280 0.367994994 0.298292071
0.382668912 0.379886270 0.302593619
0.447058648 0.397090167 0.321695387
0.519291461 0.411132365 0.335104346
0.622264266 0.441998720 0.369006813
0.749272466 0.488172024 0.416065902
0.368121475 0.473877490 0.330929726
0.381783724 0.480455726 0.341049910
0.400632709 0.487412721 0.347121835
0.449209750 0.501581192 0.360404730
0.516634762 0.521948159 0.379253924
0.585452199 0.532447457 0.395192474
0.680835009 0.555218160 0.415939003
0.789120674 0.601644337 0.463504255
0.460720986 0.627830565 0.415559739
0.476027757 0.628336072 0.421378791
0.495255798 0.638962865 0.425806373
0.535104334 0.644781947 0.438456714
0.587729216 0.657811463 0.449461997
0.657432020 0.668058276 0.465528458
0.731815279 0.684756279 0.488425285
0.831119537 0.725110829 0.551675975
0.605059683 0.795445800 0.565085411
0.620367050 0.798102319 0.569007158
0.636432469 0.796837211 0.575585067
0.659708858 0.804300785 0.578368068
0.695382357 0.813156188 0.585578620
0.758886516 0.819607794 0.605945349
0.819608033 0.832510650 0.635041058
0.890069306 0.846299767 0.671726704
0.213029996 0.140164286 0.344338983
0.233396575 0.144465744 0.342314839
0.272612274 0.154332906 0.345856994
0.322959900 0.166476637 0.346616268
0.390638471 0.187349990 0.349778354
0.462998271 0.202529833 0.354838818
0.550158083 0.230993286 0.370777845
0.682352602 0.260594547 0.415812790
0.232258022 0.170651585 0.332700819
0.245288014 0.173813984 0.343073845
0.277166367 0.181024700 0.341935575
0.328779280 0.192789197 0.347754627
0.396205097 0.207590088 0.351802737
0.470841318 0.226944730 0.362302363
0.559519291 0.245161086 0.380519032
0.683364868 0.282732666 0.421631634
0.246805787 0.228589460 0.343453556
0.258064538 0.233902544 0.346868813
0.295256078 0.238077372 0.348007381
0.342567921 0.243896425 0.352055460
0.409361452 0.255407900 0.356609643
0.483617634 0.267172992 0.368121088
0.571916759 0.288931280 0.384819567
0.693358660 0.326881915 0.431372166
0.274636358 0.297153622 0.357368559
0.288298577 0.301201850 0.358507186
0.318405837 0.304364353 0.362681985
0.368880302 0.311069012 0.367362201
0.433776170 0.322707176 0.377988636
0.511195302 0.336875260 0.391524196
0.603289187 0.354332626 0.409613848
0.727007985 0.400000066 0.456040531
0.319038481 0.391524285 0.383301556
0.332321167 0.392283291 0.394307345
0.355597466 0.396964103 0.398102373
0.402276903 0.401391566 0.399746835
0.466666460 0.407969356 0.411638170
0.543832839 0.423149735 0.424794346
0.643643379 0.447058648 0.446805656
0.758254230 0.495129615 0.497533351
0.380265445 0.504617274 0.434535027
0.392030537 0.509045184 0.434535325
0.415559709 0.514357984 0.437697828
0.457432181 0.518658996 0.446679354
0.520430207 0.531182647 0.465148896
0.599747002 0.543453276 0.480581552
0.686780214 0.571157277 0.506641269
0.800632358 0.612270713 0.555218279
0.473118544 0.640354574 0.497533262
0.468943834 0.638203859 0.496015549
0.500316203 0.646805704 0.507653534
0.545477629 0.654269218 0.517140865
0.603921413 0.664136767 0.532194853
0.681846738 0.688045800 0.561543107
0.753447592 0.700189829 0.582795501
0.843390346 0.732068539 0.629475355
0.611005723 0.792410076 0.624667704
0.617583692 0.799493849 0.624794245
0.635673523 0.800252795 0.629980683
0.666160583 0.808095813 0.639848053
0.706388354 0.813788772 0.657685101
0.755850434 0.828842342 0.669702530
0.815686047 0.838709891 0.693864524
0.893990815 0.859582186 0.726375699
0.262871832 0.164832145 0.538140416
0.287159830 0.170018986 0.534471989
0.332447827 0.178621083 0.536748707
0.394054085 0.181783989 0.536748707
0.475015789 0.204174638 0.546109915
0.569006503 0.226059631 0.553826392
0.664010048 0.251360267 0.570018530
0.764199436 0.286653787 0.570777595
0.268564254 0.194434002 0.534851551
0.289310783 0.200885832 0.537507713
0.332068175 0.204933733 0.538393140
0.405186802 0.212270990 0.539911211
0.480708361 0.227450818 0.544085622
0.567235708 0.247817814 0.555091560
0.662998199 0.269575894 0.555850565
0.766097248 0.309298068 0.581530809
0.280455559 0.258064806 0.539911330
0.305376261 0.256166875 0.537887216
0.338772923 0.266666919 0.543959320
0.402783096 0.269070446 0.546109915
0.485389173 0.282732278 0.550031424
0.576976538 0.295888662 0.562555194
0.671726584 0.322833806 0.569259882
0.772675455 0.353952974 0.587855458
0.283871204 0.329791278 0.551423192
0.308159173 0.334345371 0.546236575
0.349525660 0.336242616 0.551170051
0.416192085 0.348007619 0.556230187
0.500442624 0.356230468 0.565591097
0.585199237 0.371916354 0.570524931
0.683618069 0.393421918 0.585705280
0.782795548 0.425426811 0.599746764
0.326754987 0.439089179 0.570145547
0.336875379 0.440480828 0.570777953
0.366730094 0.435673624 0.572169423
0.430107296 0.437571168 0.576976180
0.515370131 0.446552992 0.586970210
0.602530003 0.465781361 0.595572233
0.701834261 0.484882772 0.606957555
0.797090530 0.514610946 0.626185954
0.391650975 0.566982746 0.609993458
0.406830907 0.567488551 0.609993637
0.437824190 0.568627417 0.610752523
0.483744472 0.564705849 0.611132443
0.541935325 0.564452708 0.613788486
0.626945138 0.576597214 0.625047565
0.726375937 0.596584260 0.644149303
0.822643816 0.622517526 0.662365317
0.495888501 0.698165476 0.644528627
0.506514668 0.697533488 0.658570170
0.529158473 0.697153986 0.657811642
0.567235887 0.697280169 0.662239194
0.618975163 0.702719808 0.667551875
0.685262501 0.712586939 0.680328906
0.760657549 0.719924092 0.698038876
0.853889585 0.748134017 0.727007926
0.616192579 0.817710400 0.710436463
0.621126056 0.813156366 0.726502299
0.638582945 0.820746541 0.724857390
0.667046428 0.819987416 0.730044007
0.708538651 0.823908806 0.738266885
0.764705777 0.835673630 0.752308369
0.828083396 0.851233304 0.781783640
0.899809718 0.871094584 0.804553747
