Assets/Shaders/EldamarStudio/100 Sci-Fi LUTs Pack/LUTs/cube/Keira LUT.cube
DOMAIN_MIN 0 0 0
DOMAIN_MAX 1 1 1
LUT_3D_SIZE 32
0.027450999 0.062744997 0.121569000
0.030487388 0.059709385 0.121569000
0.039974999 0.058823999 0.119418226
0.053384159 0.060088836 0.120177001
0.068943992 0.062744997 0.125489995
0.087159991 0.062744997 0.125489995
0.107906319 0.070335321 0.128020316
0.125869706 0.074510001 0.127767280
0.141809002 0.076027997 0.126249090
0.160025015 0.082100004 0.129285485
0.172422737 0.082353003 0.132321119
0.190639243 0.088425256 0.137380987
0.211891636 0.096395001 0.140037641
0.232890993 0.102467000 0.137254998
0.251106977 0.108538993 0.137254998
0.269322991 0.114610992 0.139658198
0.289057195 0.122201189 0.141176000
0.311574548 0.131941974 0.142441154
0.338899016 0.144086018 0.148513943
0.357874721 0.150664002 0.146236643
0.379885972 0.156736001 0.150790736
0.407210380 0.164832264 0.155850872
0.440101475 0.176976979 0.152941003
0.461353898 0.189121008 0.152941003
0.491714269 0.198988289 0.155218288
0.527893603 0.208096310 0.161037311
0.567362189 0.217710122 0.168626994
0.606831312 0.229854882 0.168626994
0.651612759 0.244655117 0.176596820
0.695382297 0.258064419 0.183933973
0.739658117 0.272865593 0.192662597
0.788235009 0.294117987 0.207843006
0.033523001 0.059709385 0.121569000
0.018342614 0.062744997 0.124604613
0.040733770 0.066160612 0.120303616
0.058190998 0.066666774 0.121442162
0.071979702 0.067299381 0.128146842
0.090196379 0.077925391 0.125489995
0.108412385 0.072865389 0.128020316
0.127513990 0.079443701 0.132700995
0.144844815 0.083618388 0.133080393
0.163061410 0.085136391 0.129285485
0.178368270 0.097027384 0.135230988
0.192663252 0.097533390 0.136369392
0.211891636 0.102466993 0.137001738
0.232637957 0.109044999 0.134977639
0.248070583 0.120682992 0.143326998
0.268690377 0.121947996 0.138520002
0.290575385 0.128273189 0.139658183
0.313345939 0.137381569 0.142441154
0.335863411 0.147122413 0.148513943
0.354838401 0.162049040 0.151802644
0.378747314 0.165084988 0.151170000
0.404174238 0.169892117 0.151802614
0.431372613 0.179886118 0.147121996
0.461353898 0.189121008 0.152941003
0.496268272 0.198988289 0.157495007
0.532574296 0.209487975 0.164073288
0.569892526 0.220746383 0.171663389
0.606831312 0.232890502 0.171663389
0.646299779 0.245034590 0.174320221
0.692852318 0.263377160 0.177356377
0.741429150 0.279316843 0.183554739
0.794306993 0.294117987 0.198734611
0.033143774 0.069576226 0.128020227
0.035167385 0.066160612 0.128905609
0.041492544 0.071347006 0.123339772
0.066793315 0.074889004 0.119797774
0.080708541 0.074256770 0.126249447
0.095382869 0.084629998 0.130297050
0.113598995 0.083744772 0.128020316
0.128526002 0.085895061 0.129411995
0.144971102 0.093485318 0.132954001
0.161796212 0.094877005 0.129665002
0.179253876 0.102213994 0.133080214
0.198482245 0.108285740 0.137128487
0.215053990 0.110689513 0.137254998
0.234535217 0.116508745 0.135483772
0.247817561 0.122959986 0.138899416
0.272106320 0.129790992 0.140291005
0.288804531 0.131309181 0.138772801
0.309930563 0.139784977 0.141176000
0.331183016 0.150411204 0.144212395
0.356103778 0.165085420 0.151802644
0.376217484 0.172675505 0.154838741
0.405059874 0.175964415 0.156103641
0.432890475 0.185199007 0.153953001
0.461227059 0.196331680 0.160025001
0.494117469 0.205439508 0.159645781
0.533586264 0.214547887 0.164326087
0.569766164 0.225427061 0.170904279
0.602909863 0.235926762 0.172548994
0.650600791 0.250221521 0.173055053
0.690069556 0.267678708 0.177862197
0.739278853 0.285388917 0.184819803
0.793927789 0.296268225 0.202529773
0.041492999 0.084756166 0.130803004
0.045540936 0.079949327 0.129538164
0.058949772 0.079949327 0.129411772
0.072865322 0.083491325 0.125363842
0.089943446 0.084250323 0.125363842
0.101201840 0.092473097 0.131815061
0.118406154 0.095256314 0.132068157
0.134598315 0.096268281 0.130676836
0.147501215 0.104617186 0.131435931
0.162681505 0.108159646 0.131941989
0.178241745 0.111575156 0.132321119
0.197217077 0.116888061 0.135357261
0.218469471 0.119923674 0.137254998
0.237065032 0.125616863 0.137507960
0.252245128 0.128652737 0.138519838
0.272612393 0.134092152 0.139784992
0.294876993 0.143706352 0.138772801
0.309550971 0.147375152 0.142441154
0.331435859 0.158254176 0.143706337
0.354459375 0.169386357 0.148260519
0.379253566 0.178241566 0.154838741
0.402530223 0.182289824 0.156863004
0.435420632 0.191397488 0.159898639
0.465022087 0.204680651 0.167108998
0.494370431 0.212017864 0.167615131
0.528019845 0.221125826 0.168627635
0.567489088 0.230740160 0.171157315
0.600126863 0.240607440 0.173434615
0.644022703 0.255028814 0.173814163
0.697406411 0.271221161 0.179886132
0.735990047 0.290702373 0.185958147
0.788361847 0.300568998 0.205313012
0.063883543 0.099556997 0.125110537
0.061606836 0.097280383 0.122833841
0.070714772 0.096774548 0.126249462
0.084250323 0.096774548 0.130676836
0.096774541 0.096774541 0.132953539
0.105882153 0.102846548 0.132953539
0.121821634 0.108918540 0.133332998
0.138014153 0.112966381 0.133712545
0.152814895 0.116002187 0.133712545
0.167994529 0.122074969 0.136748940
0.181024745 0.123086996 0.134724677
0.197596550 0.126755446 0.135357261
0.216192186 0.131688908 0.137254998
0.236938581 0.134724587 0.137254998
0.257937938 0.137760967 0.140164122
0.276787072 0.143579990 0.143200263
0.296141982 0.153447181 0.144338906
0.314484507 0.166350543 0.142820612
0.338772595 0.172422558 0.148893401
0.357874721 0.179253563 0.149779007
0.380645066 0.185325548 0.152814999
0.405565828 0.191397548 0.157242462
0.432764441 0.197596058 0.157242462
0.465401918 0.212270454 0.165591091
0.495003283 0.218722284 0.168626994
0.525110662 0.225300655 0.170651242
0.559519231 0.234535545 0.176850453
0.598988295 0.246679544 0.176850453
0.639595330 0.261100829 0.176850453
0.689183831 0.276281178 0.182416409
0.743959188 0.291840911 0.193927988
0.780391991 0.307020545 0.200000003
0.072991937 0.111700997 0.122074932
0.076027550 0.114737384 0.125110537
0.082352839 0.116761774 0.129285067
0.092473097 0.118026935 0.132827058
0.102846548 0.118026935 0.132953539
0.118026935 0.118026935 0.129917935
0.129664868 0.124098927 0.132447615
0.142820999 0.126881927 0.134977713
0.155471057 0.127387866 0.135989845
0.167994529 0.128146961 0.133712545
0.186084747 0.134218991 0.136748925
0.205313250 0.137254745 0.136748940
0.223782569 0.140796706 0.137254998
0.239974976 0.143832967 0.137254998
0.255155325 0.146869346 0.137254998
0.273750901 0.154712126 0.140164137
0.296521276 0.163314193 0.144718438
0.319797575 0.172169581 0.148640290
0.335736960 0.175458953 0.151929006
0.357242316 0.187096953 0.155218422
0.383681476 0.194433928 0.155851007
0.411005855 0.200505927 0.157874867
0.435800076 0.206704438 0.160278067
0.460088879 0.215812832 0.160278067
0.492726266 0.223655939 0.166349992
0.525110662 0.233396649 0.168626994
0.559519231 0.246553063 0.171157196
0.598988295 0.255787909 0.179886058
0.646426558 0.267931908 0.179886058
0.689943254 0.282353163 0.179886058
0.736369491 0.298418969 0.186337665
0.780391991 0.316128939 0.200000003
0.087160319 0.126375318 0.126628995
0.087666251 0.126881376 0.127134934
0.095002867 0.132067993 0.132321313
0.105376318 0.135483831 0.135863319
0.115370318 0.136748999 0.136242777
0.124098927 0.136748999 0.137507617
0.136748999 0.136748999 0.134471998
0.150537699 0.141176715 0.135863319
0.163567320 0.144339219 0.138772994
0.175711334 0.149652004 0.141049832
0.191144750 0.147881314 0.133712545
0.209360987 0.153953329 0.136748940
0.228968963 0.158633649 0.139532000
0.246047035 0.163061351 0.142568037
0.265781403 0.166097730 0.144845322
0.283364981 0.171537310 0.147248521
0.303099185 0.179000631 0.148766324
0.327134550 0.185831740 0.152182266
0.346110016 0.188867658 0.155218378
0.366856366 0.197723016 0.160784364
0.393801451 0.206072003 0.160025269
0.422138005 0.213156119 0.159392685
0.446426004 0.220746309 0.160910517
0.470714808 0.227450907 0.163314328
0.497280300 0.238835990 0.165591031
0.537128270 0.246805653 0.172801659
0.577229559 0.259202987 0.175711378
0.616698623 0.270335108 0.176723763
0.659076869 0.284629971 0.182922319
0.705882370 0.298545182 0.188235074
0.750031769 0.315496594 0.193168595
0.795572639 0.335357308 0.205060005
0.103984989 0.144844696 0.132700995
0.105629697 0.143200412 0.132700995
0.105502933 0.149145693 0.135357276
0.117140867 0.151422858 0.136369288
0.129285544 0.152941152 0.135610282
0.136622697 0.151675999 0.137381062
0.146109998 0.156609699 0.141935319
0.158254400 0.151675999 0.132321298
0.174193710 0.156230375 0.135357291
0.188108712 0.165338218 0.143200278
0.199873567 0.166097581 0.139658123
0.217077687 0.167488977 0.138646260
0.233016685 0.172422633 0.140543997
0.250727355 0.178241655 0.145603999
0.273371398 0.184060693 0.150031701
0.290575683 0.187855989 0.149778917
0.311827660 0.193927988 0.151296720
0.332574129 0.199999988 0.151929140
0.352814704 0.204047740 0.154965267
0.375711381 0.209361061 0.157495305
0.399367452 0.216571704 0.162808269
0.426692128 0.224667683 0.160784006
0.450727195 0.234281987 0.161036998
0.479569793 0.240353987 0.165591195
0.509424269 0.250980407 0.170272127
0.540923297 0.263124377 0.173307732
0.586970210 0.272991687 0.179886058
0.626439273 0.285135686 0.176850453
0.673497856 0.299936503 0.185072988
0.716129065 0.310183167 0.192916170
0.759898782 0.328905553 0.204680383
0.803921998 0.351675987 0.216065705
0.121442094 0.163820192 0.138013899
0.123719387 0.163061485 0.137254998
0.123972222 0.167109326 0.139405221
0.126249254 0.172675237 0.139405102
0.141429543 0.168880537 0.134851098
0.151296824 0.165085152 0.135610089
0.157368779 0.171410322 0.141682416
0.168121323 0.172928393 0.139152393
0.181784093 0.167615101 0.130044177
0.200000092 0.176723480 0.142188191
0.211764872 0.180771962 0.144212186
0.224668086 0.183048934 0.143200263
0.242125079 0.186843738 0.145857096
0.254522115 0.189880058 0.146110058
0.277292818 0.197975665 0.151675999
0.295888782 0.202276900 0.152055800
0.314104974 0.206831083 0.151296899
0.339658111 0.212903082 0.150664479
0.358380944 0.218975097 0.153447136
0.379886121 0.223023355 0.154459000
0.404174387 0.227198094 0.155977100
0.428969234 0.235294074 0.161543101
0.450474590 0.247311592 0.161669582
0.482605994 0.254016191 0.167108998
0.516761303 0.263883650 0.173181564
0.551549315 0.276028067 0.177103415
0.586970150 0.288172096 0.181151032
0.625680208 0.300316066 0.179127350
0.675774813 0.313598931 0.187855870
0.722833335 0.325743169 0.198988199
0.765211701 0.338772655 0.206957877
0.804680884 0.366097093 0.225173905
0.136622488 0.175964981 0.141049519
0.136622488 0.182036981 0.138013899
0.138899237 0.185578719 0.139405221
0.142947331 0.188867658 0.139911160
0.150537953 0.190132931 0.137887493
0.165717542 0.181024566 0.143959492
0.165464848 0.184819505 0.147248805
0.171157494 0.187729016 0.143959790
0.184819728 0.188867494 0.139152572
0.203036502 0.194939494 0.148260966
0.221252486 0.201138750 0.154585972
0.233017251 0.203036502 0.150284722
0.245920479 0.205439985 0.146236643
0.263630509 0.211132467 0.149146453
0.278810918 0.214168072 0.152182072
0.299177796 0.217457309 0.155344814
0.318658978 0.222011492 0.158127800
0.339658111 0.228083491 0.159772098
0.370018959 0.234155521 0.156736478
0.385958344 0.240227520 0.159519136
0.407210469 0.244275749 0.158633739
0.432510912 0.250474483 0.159013480
0.459582984 0.262491971 0.164705977
0.486907423 0.271600366 0.167741582
0.521315455 0.280582249 0.173181564
0.557621300 0.291208446 0.176470995
0.593042135 0.303352475 0.178115413
0.623402834 0.315496475 0.187223017
0.672738969 0.324984342 0.193168491
0.720809579 0.337887704 0.203035936
0.765338182 0.357115924 0.212397382
0.807716548 0.387349486 0.216065511
0.145983875 0.196837872 0.144085869
0.140164122 0.200000003 0.138140380
0.150916904 0.203921780 0.141555995
0.159519032 0.203162760 0.144085869
0.166476995 0.202403873 0.142694443
0.169006929 0.211005807 0.141176134
0.179127187 0.204427749 0.142188132
0.187476575 0.207337022 0.146489680
0.201644629 0.209360957 0.145983875
0.217710093 0.213282734 0.148640484
0.224288866 0.213535726 0.146110132
0.240480602 0.217583746 0.150158390
0.254775405 0.220746413 0.149146229
0.272738874 0.226565838 0.151929125
0.287919283 0.229601443 0.152308583
0.303099066 0.235040858 0.155344814
0.326375693 0.240100995 0.159898996
0.349399298 0.246173143 0.163693875
0.372928828 0.252245724 0.162934959
0.392156869 0.258317769 0.165464640
0.413156480 0.266286999 0.164705753
0.436432868 0.271347135 0.163693875
0.460215479 0.277672380 0.167615131
0.493105918 0.286780745 0.167868093
0.520430207 0.295888573 0.170904279
0.554965198 0.307779789 0.179127112
0.593421996 0.320936054 0.184693187
0.638203740 0.330676854 0.184187412
0.668564498 0.350790650 0.182669044
0.716635287 0.360911071 0.195066407
0.762429059 0.374699861 0.210373372
0.804933906 0.396963865 0.221504986
0.163188249 0.218090251 0.143073738
0.163187727 0.221125871 0.143074006
0.162049025 0.216065511 0.147628248
0.169639409 0.222897068 0.144845098
0.176470712 0.221379235 0.142188549
0.184692994 0.223656252 0.145730570
0.192283317 0.228716254 0.149272516
0.201391697 0.225933254 0.147627801
0.214295089 0.227830499 0.151043743
0.226945043 0.229601741 0.151043743
0.237444729 0.233776242 0.150158137
0.249589235 0.235799983 0.149146006
0.263630509 0.238835886 0.151043743
0.279823035 0.243516997 0.152941003
0.295003414 0.244781837 0.152941003
0.316255420 0.252245516 0.159392804
0.332953632 0.258317500 0.162428796
0.356862962 0.263124496 0.165464744
0.376723737 0.266413927 0.162681758
0.397217005 0.274510235 0.169512913
0.417330742 0.280582249 0.168753520
0.442504853 0.288551509 0.166729733
0.466034204 0.292979240 0.168626994
0.495635659 0.303984910 0.168626994
0.528526545 0.313093215 0.176976532
0.558633924 0.323592484 0.175838262
0.594940007 0.338140309 0.184187263
0.638962567 0.350284696 0.188741446
0.683744371 0.365971059 0.191777423
0.719418287 0.380138993 0.192283466
0.764579535 0.393674910 0.209234968
0.805945754 0.414168268 0.225553259
0.184440643 0.241619632 0.144591644
0.186337903 0.243516907 0.146489397
0.188361645 0.242504507 0.151549771
0.190512151 0.238835961 0.155091852
0.187855989 0.248703629 0.141429543
0.199240699 0.242631629 0.147501931
0.210499614 0.244402647 0.152941361
0.220746338 0.249462634 0.155218288
0.229854733 0.250221550 0.152941003
0.238963127 0.250600994 0.152941003
0.249841988 0.255281627 0.155218005
0.262871891 0.258191019 0.155218005
0.279190630 0.261226922 0.155218005
0.291840643 0.264263242 0.155471042
0.307906389 0.265148640 0.156356648
0.326881647 0.270082414 0.160151809
0.349272370 0.277672648 0.165085465
0.368121535 0.283112049 0.168121070
0.386843652 0.283618003 0.163567007
0.407843024 0.291967362 0.170272008
0.427957028 0.300316632 0.170651257
0.452245295 0.305376470 0.170651257
0.479696125 0.311574996 0.171157271
0.507020533 0.323719293 0.173181280
0.537760854 0.333586276 0.176596925
0.574573278 0.344086260 0.187223360
0.608475745 0.356230259 0.182163343
0.647311687 0.370778054 0.191777349
0.691334188 0.385958463 0.198608637
0.735736549 0.402150661 0.208602205
0.776091158 0.415685862 0.215180591
0.815812647 0.439974636 0.233143643
0.204680964 0.268438041 0.152688041
0.204934001 0.268691003 0.153447002
0.207590282 0.270335317 0.154838741
0.212144032 0.273371190 0.155850872
0.216951028 0.275774986 0.153067544
0.216951028 0.269703001 0.150031939
0.226818636 0.268944025 0.152308717
0.239216030 0.271979988 0.153447002
0.250095069 0.276786983 0.153194040
0.259203464 0.279822588 0.153194040
0.268564194 0.282605886 0.158507049
0.279696524 0.284124047 0.160531044
0.294117987 0.285009652 0.160784006
0.311322004 0.288298994 0.161290005
0.329537958 0.291334599 0.164326385
0.346362799 0.294370830 0.165212005
0.364073187 0.298925012 0.165465042
0.385072559 0.304617465 0.166097462
0.406325012 0.307653099 0.169133082
0.427577406 0.316002399 0.173434675
0.447691470 0.324857771 0.172928557
0.469197035 0.332700908 0.171410218
0.499683499 0.335989535 0.177356467
0.527260900 0.348007798 0.183302000
0.557115555 0.357874751 0.182795748
0.592283309 0.368374318 0.185705021
0.634029090 0.380772054 0.196331039
0.670461833 0.392916024 0.196331039
0.709803760 0.407463819 0.202150628
0.750790298 0.425933182 0.214800984
0.793042183 0.447564960 0.232384592
0.835547030 0.471853018 0.247565001
0.213788569 0.289690375 0.149652421
0.216824964 0.292725980 0.158760041
0.223529756 0.290828735 0.155218005
0.231372654 0.291587651 0.154838756
0.237950385 0.294243962 0.156230420
0.232131407 0.293990970 0.156103939
0.239721730 0.295509309 0.160658002
0.252751678 0.297912687 0.161163703
0.264263302 0.300063074 0.158760101
0.268311083 0.298039347 0.156230420
0.280329317 0.298165828 0.156230420
0.291840851 0.302846402 0.157495424
0.306261986 0.305376381 0.158633783
0.323466003 0.306514978 0.161290005
0.329537958 0.312586963 0.167361990
0.354964793 0.315623194 0.170398384
0.373687178 0.320177376 0.172802180
0.390765131 0.326249391 0.175205827
0.409361422 0.331941843 0.178241432
0.430613786 0.337760806 0.167362407
0.455661148 0.344465375 0.170398593
0.479064137 0.353193969 0.175964400
0.502719879 0.363313913 0.186464086
0.536116302 0.372422308 0.189500481
0.568247736 0.382163256 0.190891996
0.601011932 0.392662764 0.190259412
0.637318492 0.405313045 0.193801418
0.676533878 0.420240402 0.199367419
0.718279600 0.432384372 0.209993392
0.758380532 0.448703378 0.220872983
0.798481822 0.467552364 0.236053392
0.838583410 0.487033397 0.253636986
0.230107591 0.315749794 0.149020001
0.230740190 0.316382200 0.155724421
0.238077015 0.312966585 0.162681803
0.245920494 0.313472778 0.160151809
0.253510594 0.316888034 0.161669999
0.255534589 0.314863771 0.161669999
0.254902124 0.319797307 0.159519196
0.264010072 0.319544703 0.160657912
0.276154310 0.321062505 0.159898803
0.282479316 0.321315467 0.161796480
0.296647727 0.323592782 0.161669999
0.308791995 0.323592782 0.163693726
0.319797635 0.327767134 0.164073184
0.333712786 0.329031974 0.165844023
0.344085783 0.330802977 0.169765800
0.359772414 0.336875588 0.173434615
0.381024420 0.339911580 0.174952805
0.398102134 0.345730573 0.175838426
0.419860959 0.353573799 0.175332040
0.438456565 0.359645784 0.176470786
0.463504374 0.363820523 0.173814058
0.490828931 0.371410608 0.177355990
0.515243769 0.383554578 0.183554515
0.546362877 0.394939691 0.186590910
0.577482581 0.404048055 0.189626709
0.613535404 0.415939420 0.192536175
0.648450315 0.429095566 0.196078271
0.682226419 0.442378223 0.204047993
0.717140794 0.459708750 0.208222792
0.766729891 0.473623961 0.229221955
0.805819154 0.491208166 0.245414585
0.839215994 0.509424627 0.262112796
0.248323992 0.340038180 0.156609803
0.254395992 0.338519990 0.162682191
0.247185424 0.338773191 0.162681803
0.261353344 0.336496025 0.166223809
0.268311530 0.341935545 0.165844366
0.273245186 0.341176450 0.164706007
0.275774986 0.344212174 0.165211678
0.279190451 0.346868694 0.165211707
0.289057165 0.344592005 0.162175894
0.298924476 0.346868694 0.165970802
0.310815841 0.346869051 0.163187817
0.322454184 0.349399000 0.166729733
0.335736811 0.350537628 0.169765636
0.346110195 0.353067368 0.169892147
0.359519392 0.351802200 0.170398220
0.374952406 0.355091602 0.171916425
0.390133202 0.364199996 0.179506987
0.405945361 0.366603196 0.179506987
0.428462982 0.373054951 0.177356213
0.448703200 0.379379988 0.175332353
0.472612023 0.388108939 0.181404248
0.500949025 0.393169075 0.183427989
0.528779507 0.404807001 0.183807492
0.557748199 0.416951388 0.189626902
0.589626551 0.428336471 0.189626694
0.619987309 0.437444836 0.195445657
0.658570290 0.452372253 0.202656195
0.690955043 0.465528369 0.212776437
0.727007926 0.481467158 0.222643822
0.763693511 0.497912347 0.230740145
0.813915372 0.515749395 0.258950174
0.843769789 0.535231173 0.277293175
0.265274972 0.361290544 0.168626994
0.276154160 0.360151738 0.174699768
0.271220535 0.362049311 0.172802031
0.266919732 0.363820374 0.168626994
0.285515577 0.366856098 0.169006541
0.288298905 0.369892478 0.166476935
0.291334659 0.372295827 0.167868257
0.297912538 0.374319732 0.170271710
0.304237545 0.374319732 0.173055053
0.316381544 0.374319732 0.170018658
0.324983835 0.371410429 0.164072990
0.335357219 0.372422457 0.166097149
0.346742600 0.376090765 0.171030626
0.361922979 0.379127085 0.174067020
0.377103388 0.376849711 0.171789721
0.391018331 0.377988338 0.170524567
0.405945361 0.383681118 0.174066812
0.419355124 0.394560128 0.184313998
0.437571168 0.394560128 0.184313983
0.459202945 0.400126129 0.180645391
0.482985288 0.408096015 0.182795838
0.510689259 0.419861019 0.189499989
0.540923476 0.428968638 0.189753011
0.568247855 0.440607339 0.198355496
0.599493861 0.452751547 0.200885281
0.632131279 0.464136630 0.200885251
0.663504064 0.474763125 0.212523580
0.699936807 0.490069956 0.225173548
0.737760723 0.504617274 0.239341944
0.776090920 0.521062315 0.253510326
0.811511576 0.536369145 0.266287148
0.850979984 0.560657978 0.296647966
0.277419060 0.382543027 0.168627009
0.283491820 0.388615012 0.174699768
0.287919194 0.393927991 0.174320236
0.291714132 0.395951867 0.171030805
0.300696015 0.394180566 0.169006556
0.300696015 0.397216946 0.172042951
0.303478748 0.397723019 0.172043011
0.313092768 0.399620712 0.172295973
0.325236976 0.401644945 0.173308104
0.331561983 0.401644945 0.176091462
0.337887019 0.398735076 0.170145214
0.350284278 0.399747282 0.172169521
0.364958644 0.403921962 0.177103311
0.380139023 0.409487963 0.180139050
0.395319432 0.412523568 0.183175415
0.405692816 0.412649989 0.180898145
0.419860959 0.414421231 0.179632977
0.437571168 0.418848991 0.181277618
0.455787987 0.424921006 0.184314013
0.479569972 0.430487007 0.187096655
0.501707733 0.434661716 0.189373791
0.525490105 0.441493005 0.192915842
0.553067505 0.453257501 0.195825040
0.580391943 0.462365896 0.201897845
0.609993577 0.474004030 0.210499689
0.641998649 0.486148000 0.213029668
0.675648153 0.499051213 0.215559989
0.712080836 0.517267942 0.239847958
0.745856702 0.529918015 0.252498657
0.783301592 0.547628164 0.270209134
0.819860935 0.565718055 0.289563954
0.850979984 0.578874052 0.308792055
0.311827749 0.434408754 0.174193710
0.312333792 0.434914738 0.174699768
0.316255778 0.438836515 0.178621218
0.320556760 0.441746116 0.179380178
0.327387810 0.440607458 0.179759711
0.329791009 0.441240042 0.180392295
0.337381333 0.441746116 0.183428034
0.345856756 0.441746116 0.182036728
0.357621580 0.442884743 0.181657255
0.363694102 0.442884743 0.184693143
0.372548729 0.448324203 0.184566632
0.380645007 0.445287824 0.180518627
0.394307375 0.445667386 0.184314013
0.409234732 0.447944403 0.188488320
0.421884775 0.448450327 0.186464056
0.434661359 0.456293553 0.189500451
0.448703408 0.460468113 0.190259159
0.466287315 0.463504165 0.190891594
0.482353330 0.463124365 0.189626977
0.500569403 0.469197094 0.195446000
0.522960126 0.477166355 0.196584359
0.546236515 0.482985377 0.199746996
0.573813856 0.491587400 0.205059856
0.606451273 0.503352642 0.219101816
0.636052907 0.512460470 0.222897291
0.666413665 0.524098694 0.229601696
0.696900725 0.536243081 0.233270362
0.724224865 0.549905300 0.248450339
0.760657609 0.568121374 0.272738993
0.792409658 0.584060788 0.290702105
0.828842580 0.603415728 0.316381812
0.864895344 0.619354784 0.345983386
0.336875468 0.473877460 0.178368255
0.336875468 0.473877460 0.184060991
0.344718486 0.476027757 0.186211213
0.342694581 0.477798998 0.187981993
0.346742541 0.478178531 0.189626798
0.355850548 0.479696721 0.188108996
0.352561325 0.481593996 0.192536414
0.368247718 0.479949683 0.188994035
0.379632741 0.480455637 0.189247444
0.385705233 0.481593996 0.195698991
0.392789602 0.485515743 0.193927735
0.411384970 0.487413198 0.190006256
0.418216348 0.486653835 0.189247355
0.430866748 0.487159759 0.194307297
0.447944462 0.485515475 0.194560319
0.458190709 0.488930762 0.192536071
0.477924913 0.495003194 0.197090641
0.496015102 0.500695705 0.199873477
0.509930730 0.501454473 0.198102713
0.527893782 0.506767690 0.205312982
0.548007488 0.510942698 0.211384982
0.569259882 0.518026352 0.212397113
0.594686747 0.523339272 0.217330739
0.622770369 0.533712804 0.223655909
0.653889537 0.545477450 0.235420540
