Assets/Shaders/EldamarStudio/100 Sci-Fi LUTs Pack/LUTs/cube/Keira LUT.cube
LUT_3D_SIZE 5
DOMAIN_MIN 0.000000 0.000000 0.000000
DOMAIN_MAX 0.903226 0.903226 0.903226
0.027450999 0.062744997 0.121569000
0.125869706 0.074510001 0.127767280
0.251106977 0.108538993 0.137254998
0.407210380 0.164832264 0.155850872
0.651612759 0.244655117 0.176596820
0.103984989 0.144844696 0.132700995
0.158254400 0.151675999 0.132321298
0.273371398 0.184060693 0.150031701
0.426692128 0.224667683 0.160784006
0.673497856 0.299936503 0.185072988
0.213788569 0.289690375 0.149652421
0.252751678 0.297912687 0.161163703
0.329537958 0.312586963 0.167361990
0.479064137 0.353193969 0.175964400
0.718279600 0.432384372 0.209993392
0.358128130 0.506262004 0.184439987
0.380391955 0.517393827 0.201138556
0.468311369 0.524604678 0.202403545
0.592536271 0.548387170 0.228589118
0.787476420 0.623656094 0.305123061
0.620366573 0.797975540 0.419101387
0.638203263 0.805692732 0.444275677
0.697279751 0.814927578 0.468184799
0.789500415 0.824035585 0.501834154
0.892093599 0.839721680 0.570904374
0.044781707 0.068943709 0.142820716
0.127514005 0.079443708 0.140543997
0.247184977 0.128146991 0.153573588
0.402529687 0.186969995 0.175585121
0.645414293 0.250727296 0.199746951
0.125869706 0.149398699 0.146109700
0.170651421 0.166729987 0.155598000
0.270714819 0.191271693 0.161163718
0.413030118 0.232131407 0.175205573
0.656799555 0.304111540 0.207843155
0.223908693 0.288678110 0.171916410
0.261606812 0.295256078 0.167995006
0.334471703 0.311574697 0.178115278
0.474509716 0.351549655 0.193801284
0.712966263 0.434661508 0.241366223
0.366856247 0.494497240 0.213155985
0.385958225 0.506641328 0.210626245
0.466413796 0.518026292 0.224667698
0.585452080 0.544212282 0.248956531
0.788741231 0.622011185 0.330803096
0.613409281 0.797216773 0.439468890
0.634534776 0.805692732 0.454142749
0.693358600 0.807083726 0.476533979
0.781909943 0.819481432 0.510309696
0.882605910 0.843643665 0.580012381
0.104616992 0.088930994 0.186969995
0.163820699 0.106261700 0.183048993
0.258317411 0.143200412 0.190891996
0.405818969 0.192915991 0.207969412
0.645034730 0.251106828 0.253131211
0.164199814 0.169386402 0.187349692
0.197469994 0.176217288 0.191904113
0.281847388 0.198102415 0.196457699
0.419228405 0.238330126 0.214168116
0.661732852 0.300189555 0.267805278
0.253131241 0.293611377 0.202024415
0.282479405 0.302087396 0.213788986
0.366223812 0.328272969 0.226185992
0.489563525 0.358760118 0.249209240
0.714357793 0.429728031 0.302339941
0.371536821 0.503985107 0.266540557
0.400253266 0.512080848 0.272865266
0.474509537 0.523592353 0.287160397
0.596204996 0.545857012 0.304870248
0.790132761 0.627324402 0.403795063
0.600632548 0.792030156 0.487665981
0.623402774 0.800252914 0.495382160
0.686780572 0.803794980 0.515749395
0.778367996 0.819860876 0.555724263
0.888171554 0.845034599 0.620619535
0.170778006 0.123592995 0.261986136
0.220746279 0.135989577 0.261985958
0.306767970 0.166097417 0.267932117
0.430740148 0.208855137 0.281720132
0.664136589 0.256040692 0.352688074
0.217710406 0.196837410 0.272738993
0.248450562 0.204680413 0.268184811
0.329917520 0.222011268 0.276660413
0.450980127 0.251106828 0.291081399
0.684377015 0.309930533 0.373560995
0.278178155 0.321442127 0.294117957
0.315243393 0.329285085 0.294623852
0.391397506 0.341682523 0.311321944
0.512207687 0.367868096 0.330677122
0.731309414 0.439595371 0.413914949
0.391398132 0.507274151 0.363314241
0.415559679 0.519291282 0.370651394
0.498039544 0.543833017 0.400379270
0.625933290 0.574952245 0.437697262
0.799746990 0.633270085 0.499936819
0.606071830 0.793927789 0.583301902
0.635926664 0.801897407 0.594054461
0.678937197 0.808728397 0.598102450
0.769512892 0.823149741 0.622643769
0.890575409 0.847564578 0.686906874
0.262871832 0.164832145 0.538140416
0.320809692 0.174320102 0.534218371
0.437064767 0.193548158 0.539405406
0.591776907 0.229854524 0.559645534
0.764199436 0.286653787 0.570777595
0.279190421 0.240354359 0.539152265
0.325363696 0.246932521 0.540670395
0.443516791 0.257684976 0.545603871
0.596963763 0.287792414 0.563820064
0.769386530 0.341302902 0.582542539
0.299430996 0.378747374 0.558886409
0.340291113 0.380771607 0.554079711
0.463757217 0.393801630 0.568121433
0.616192162 0.423908800 0.588994026
0.794812977 0.467172623 0.611891031
0.419228405 0.600885451 0.622137547
0.446173072 0.599494100 0.618342578
0.527514338 0.604174554 0.628589571
0.661606967 0.612270772 0.642251730
0.826438785 0.654143214 0.677292705
0.616192579 0.817710400 0.710436463
0.633269548 0.818975568 0.725110531
0.685515642 0.822138011 0.735483527
0.780898035 0.839721680 0.758633673
0.899809718 0.871094584 0.804553747
