Assets/Shaders/EldamarStudio/100 Sci-Fi LUTs Pack/LUTs/cube/Koltand LUT.cube
DOMAIN_MIN 0 0 0
DOMAIN_MAX 1 1 1
LUT_3D_SIZE 32
0.133332998 0.058823999 0.066666998
0.133332998 0.058823999 0.066666998
0.135483772 0.060974225 0.068817228
0.139784992 0.065274999 0.073118001
0.145477548 0.070588000 0.078431003
0.148513943 0.070588000 0.078431003
0.156609684 0.078178324 0.086021319
0.160784006 0.082353003 0.088551708
0.162302002 0.082353003 0.087033898
0.168374002 0.082353011 0.090069525
0.174446732 0.088172004 0.096014999
0.178494737 0.092220254 0.100063257
0.186084643 0.096395001 0.105376355
0.200253040 0.102467000 0.113472030
0.203289419 0.108538993 0.110436417
0.208728999 0.114610992 0.114610992
0.219355196 0.122201189 0.123718992
0.233270407 0.131309405 0.133965582
0.242378056 0.140417039 0.137001976
0.257052362 0.149525359 0.145604357
0.274130464 0.158633739 0.152814999
0.295383126 0.166730002 0.159898862
0.322327971 0.173054978 0.169006497
0.340543985 0.185199007 0.178114906
0.363314569 0.197343573 0.187223285
0.391777635 0.209487975 0.197722986
0.426692128 0.222643986 0.210373074
0.469196856 0.240859985 0.225553438
0.514357746 0.259076655 0.246046796
0.559898555 0.280834913 0.269070387
0.605439544 0.303352177 0.292473346
0.650979996 0.321568996 0.313724995
0.139404997 0.061859611 0.069702610
0.139404997 0.067931615 0.069702610
0.137254775 0.070082389 0.074003614
0.139784992 0.070588224 0.076660000
0.145857006 0.071726546 0.078810550
0.151549563 0.079696387 0.081467390
0.154585943 0.079696387 0.086527385
0.157748386 0.083997712 0.088551708
0.160025284 0.086148284 0.087792993
0.168374002 0.088425003 0.093105905
0.171536863 0.091334872 0.096141517
0.179506853 0.097280383 0.098039001
0.185705394 0.102466993 0.101201609
0.194434002 0.108539000 0.108158998
0.200253025 0.114610992 0.113472030
0.210499600 0.118279800 0.117647216
0.220872998 0.123719379 0.122201189
0.234535396 0.131309405 0.129158571
0.248450056 0.140417039 0.137001976
0.263124377 0.149525359 0.142821014
0.276407480 0.158633739 0.151676342
0.293358862 0.167742133 0.159898862
0.316634715 0.175964862 0.169006497
0.343580395 0.185199007 0.178114906
0.368627667 0.199620277 0.189499989
0.397849619 0.213915274 0.202150270
0.431752145 0.228210062 0.215939119
0.469196856 0.243896380 0.228589833
0.503731787 0.262112349 0.243769512
0.551296532 0.282099754 0.262492001
0.602024138 0.304237574 0.286907166
0.654016376 0.324604601 0.316761404
0.139025778 0.069196776 0.072738774
0.143326774 0.070967771 0.072738774
0.145477548 0.072738774 0.077039778
0.141176447 0.075774841 0.079316616
0.143706322 0.075648099 0.079190098
0.149778783 0.082985714 0.083997712
0.157621548 0.086654000 0.087412998
0.160657942 0.088298708 0.091840707
0.162681997 0.092093997 0.092093997
0.170398280 0.096521296 0.098166004
0.175837860 0.097406872 0.101328127
0.178874254 0.100442737 0.104364254
0.186590999 0.106388226 0.106767774
0.192916036 0.112460293 0.112333775
0.200885773 0.118532769 0.114610769
0.213914990 0.124351799 0.122833602
0.221505180 0.127387807 0.124351807
0.232384786 0.133459792 0.128019974
0.247564822 0.142567813 0.138646200
0.262745142 0.151676133 0.142821014
0.279822767 0.160784021 0.152687997
0.294497222 0.169892356 0.162049353
0.314736992 0.179127201 0.171157271
0.340037942 0.190259099 0.180265680
0.369513273 0.201771051 0.191650763
0.399620622 0.215559751 0.202403441
0.432005078 0.229981065 0.215559766
0.463504076 0.245161444 0.227704108
0.503731787 0.262997985 0.240354121
0.549525321 0.282985151 0.266160578
0.598861396 0.306008548 0.288045734
0.648450196 0.329790980 0.317647010
0.141050160 0.078305162 0.078305162
0.143326998 0.077040002 0.077040002
0.143453613 0.080835164 0.080076165
0.149020001 0.078305162 0.084883004
0.144465327 0.081720322 0.082985163
0.150537863 0.087792866 0.089057706
0.155344844 0.090069838 0.091334678
0.162428722 0.094370708 0.094370708
0.165464908 0.097406901 0.097406901
0.171030819 0.102972843 0.102972843
0.178368002 0.104491003 0.106135286
0.182416260 0.106514737 0.109171093
0.186590999 0.110689282 0.113346122
0.192916036 0.116508290 0.118912160
0.202024415 0.121568672 0.118912160
0.213409185 0.127640828 0.124857798
0.225047186 0.134724960 0.130423799
0.230613559 0.138393149 0.128652573
0.245793983 0.146868974 0.138899162
0.260974377 0.157242194 0.146489352
0.278052002 0.165085569 0.152687997
0.295256138 0.174193189 0.164832264
0.313851625 0.183428004 0.174320146
0.341555804 0.195572332 0.184566900
0.365338534 0.206451416 0.193421990
0.395825475 0.217330977 0.204174668
0.429222047 0.230486989 0.213789001
0.458064586 0.246426284 0.225932986
0.497406602 0.262997985 0.240606964
0.544465303 0.284250319 0.258823425
0.598228753 0.305502743 0.291334808
0.641872168 0.332068145 0.316381842
0.148640454 0.088551991 0.086654447
0.146742612 0.084756613 0.084377162
0.141556010 0.089563772 0.085262768
0.141050160 0.093485445 0.087539837
0.149020001 0.088172443 0.090954997
0.155092001 0.094244450 0.097027004
0.156863004 0.096015446 0.098797999
0.160152003 0.098165996 0.100063160
0.165464908 0.103478901 0.103099450
0.168500513 0.106514513 0.106135063
0.177355871 0.109550864 0.109550864
0.182416260 0.112966284 0.111827739
0.187350005 0.116761282 0.116002284
0.193675041 0.122580968 0.122074999
0.202783421 0.125616580 0.122327998
0.211891189 0.131815091 0.126755446
0.220619738 0.138266742 0.131309345
0.231372565 0.147121996 0.134724587
0.246552989 0.153194025 0.137760982
0.261353821 0.164832100 0.149146020
0.278431535 0.173181474 0.157874554
0.295256138 0.180265874 0.165211722
0.310942471 0.189373508 0.177229956
0.343832910 0.201265275 0.189121008
0.366603583 0.211511701 0.197090551
0.390765488 0.221378654 0.204933673
0.421631634 0.232005090 0.214927554
0.455028772 0.250221074 0.227071539
0.494117767 0.265780926 0.243769497
0.538519859 0.285894841 0.261985838
0.587223172 0.309677601 0.282985508
0.638836443 0.330929995 0.313345551
0.145604059 0.106767997 0.089690059
0.151676059 0.097659618 0.092726447
0.147628009 0.098165773 0.092599936
0.145351171 0.102213845 0.091840833
0.149020001 0.103352055 0.090954997
0.149020001 0.103352062 0.097027004
0.155092001 0.109424062 0.103098996
0.160152003 0.109550774 0.104869999
0.165464908 0.109550901 0.106135160
0.168500513 0.112586513 0.109171458
0.177355871 0.115622863 0.115116931
0.182416260 0.120682999 0.114610747
0.188868001 0.125110567 0.116002284
0.199747041 0.128652960 0.122074999
0.208855420 0.131688580 0.128146991
0.217963189 0.141935602 0.130803183
0.225553378 0.146995872 0.134345248
0.234661922 0.150411353 0.138013929
0.252624989 0.159266025 0.143832982
0.265022010 0.170904726 0.155218020
0.281467557 0.179253861 0.165464744
0.297659904 0.186337873 0.173054919
0.310942471 0.195445508 0.180265561
0.338266909 0.204553917 0.189373970
0.364326566 0.216445059 0.198988289
0.391777635 0.229474649 0.208981916
0.424667984 0.244149119 0.221126065
0.458064407 0.262365848 0.236179918
0.499430686 0.277925670 0.248323902
0.543200493 0.296647608 0.265021861
0.589247465 0.319291264 0.285009265
0.635800064 0.343073994 0.310309917
0.152688324 0.114863999 0.102846317
0.151170000 0.110815607 0.100822061
0.155091777 0.110309772 0.103858449
0.152688324 0.112080999 0.104237996
0.154080003 0.113472320 0.102846317
0.154080003 0.113472320 0.104617320
0.156609684 0.116002642 0.108158998
0.164326385 0.122074634 0.114231415
0.171283990 0.123972312 0.116002642
0.176090837 0.128779158 0.117267802
0.177355871 0.129285187 0.118153319
0.186464250 0.130297318 0.122201055
0.192789644 0.135357320 0.121315315
0.203795284 0.140037999 0.124857709
0.217457086 0.145350903 0.133206993
0.224162281 0.150790319 0.139278993
0.236179441 0.159645677 0.142441511
0.247817814 0.164199814 0.146742731
0.266034335 0.175205693 0.154712021
0.278684318 0.182036728 0.163820326
0.292726040 0.192283735 0.170272052
0.312333971 0.198988318 0.179127321
0.330803007 0.206831142 0.188108802
0.350917250 0.220746547 0.192409590
0.378241599 0.234408334 0.206071958
0.406957626 0.248196974 0.218469322
0.441366166 0.263377398 0.231246069
0.478811055 0.279569894 0.242378429
0.517646909 0.295129806 0.259961963
0.563693643 0.315622926 0.280961156
0.612650096 0.340290487 0.301454514
0.663124323 0.367868304 0.322454333
0.158507288 0.122580700 0.113092996
0.155471325 0.119544312 0.110056609
0.160025060 0.122453764 0.109677061
0.160531446 0.122960150 0.110183448
0.160152003 0.123339698 0.110183448
0.160152003 0.125869706 0.111448288
0.165971100 0.128399611 0.115623094
0.169006705 0.128146991 0.117014416
0.176597089 0.134978086 0.123086996
0.181783706 0.141935691 0.124857992
0.183680996 0.140543997 0.124857992
0.188108534 0.143832996 0.128526434
0.198355570 0.144971639 0.132700697
0.207717001 0.150790662 0.133712694
0.218722284 0.158253983 0.138646409
0.229980886 0.164326400 0.146995693
0.239089265 0.170398414 0.150031701
0.253510147 0.176470399 0.154206410
0.269702971 0.186590955 0.163314044
0.285642028 0.193169013 0.170778081
0.301328003 0.202783018 0.179380015
0.318532407 0.213915408 0.184440404
0.342314512 0.222011492 0.195825502
0.365085542 0.234155908 0.201897517
0.388488263 0.247691393 0.212396979
0.418595612 0.261479676 0.223402679
0.453510135 0.276913136 0.238330126
0.494117618 0.293232143 0.250854135
0.533586502 0.311701506 0.269576401
0.578368008 0.330550343 0.293105572
0.623402894 0.355723977 0.317773402
0.673497677 0.385325700 0.335990012
0.160784006 0.132448003 0.120682999
0.156989291 0.131688699 0.116128810
0.161796227 0.132827193 0.115243196
0.168121055 0.137381256 0.116255254
0.164326459 0.134345546 0.113978542
0.163188010 0.139279008 0.117014155
0.171537220 0.142061770 0.121821642
0.177356377 0.143326819 0.123845898
0.181151092 0.142568097 0.125363901
0.184187487 0.151676491 0.131435886
0.189500213 0.151423231 0.131688893
0.193801194 0.152181983 0.134218886
0.200632289 0.157874733 0.140291095
0.212523967 0.161164090 0.145857096
0.219101891 0.169765770 0.145857096
0.230739981 0.176470608 0.153067708
0.242884174 0.183302090 0.159139901
0.255028158 0.190006509 0.162302464
0.267172992 0.196205020 0.171663135
0.284883022 0.202277005 0.177988619
0.303099185 0.210626185 0.184440345
0.320809126 0.223023206 0.192789122
0.342188001 0.238077074 0.201897502
0.368880630 0.247817904 0.211005911
0.395446092 0.259202987 0.223150089
0.423908710 0.272106051 0.233269975
0.457305163 0.285768151 0.242378116
0.499050856 0.304237902 0.261100888
0.540417433 0.324351907 0.277419806
0.582922220 0.345604241 0.302214146
0.632511079 0.369386554 0.328399986
0.668943882 0.396710992 0.346616000
0.160784006 0.144592017 0.132826999
0.154712006 0.150664017 0.123719394
0.157368511 0.149905264 0.121315978
0.163567007 0.151043981 0.123845980
0.167362064 0.155597955 0.129158944
0.158254474 0.152561560 0.132194549
0.167236000 0.152435020 0.135230809
0.174320221 0.154206216 0.135104284
0.178115472 0.157748491 0.134471506
0.184187502 0.163820505 0.140543506
0.195951998 0.170019016 0.140796512
0.201644748 0.169639230 0.140796527
0.205945969 0.170398295 0.143326819
0.212523967 0.176344499 0.148893490
0.221631587 0.182416499 0.148893505
0.235420316 0.188614979 0.156103685
0.248956367 0.196205214 0.163693517
0.261100948 0.205186903 0.171410084
0.273245007 0.214294553 0.186590493
0.290955007 0.220493004 0.193168491
0.309171468 0.226565480 0.197343260
0.326375842 0.234914973 0.201644480
0.342188001 0.247185484 0.207969502
0.366476804 0.259329498 0.217077896
0.395446062 0.271346986 0.230740279
0.426945120 0.284882635 0.243010789
0.460341543 0.300948530 0.254522115
0.493737906 0.322200894 0.278810889
0.538140476 0.340670645 0.284250826
0.579886079 0.360784650 0.302214146
0.624161601 0.384693444 0.328652948
0.678051472 0.414927006 0.352688015
0.169512868 0.156736001 0.133332998
0.163440883 0.162808001 0.135863379
0.163820103 0.164579004 0.133206993
0.167868167 0.166097447 0.135737002
0.173054859 0.171031326 0.140290990
0.181656927 0.167994931 0.135736927
0.172549307 0.170019194 0.141302869
0.180392146 0.170398742 0.141429275
0.186717123 0.172928870 0.140670180
0.192789122 0.179000869 0.146742731
0.195951998 0.182163000 0.149904877
0.204048008 0.186211258 0.151929140
0.210246772 0.189500391 0.153953105
0.218849033 0.196837872 0.158254132
0.233270317 0.197596863 0.163567126
0.239974737 0.206072047 0.165970936
0.255154878 0.211132184 0.175584868
0.270082295 0.217457563 0.184439853
0.282226890 0.226565793 0.192788973
0.297153533 0.232890755 0.196837366
0.315243483 0.240859985 0.202782869
0.333460003 0.249968380 0.207843006
0.350916862 0.262112856 0.214168012
0.375205666 0.274256885 0.226059780
0.401771128 0.284124136 0.235167578
0.430107623 0.297027022 0.247691453
0.462492049 0.312207043 0.258823723
0.505502403 0.328652412 0.273497880
0.536242664 0.349904805 0.295129776
0.580518723 0.368374527 0.310310185
0.625806391 0.390259564 0.333586603
0.678430974 0.418595880 0.355850875
0.172548994 0.172928512 0.141429514
0.172549263 0.176976249 0.144465387
0.166856229 0.180771500 0.145350993
0.169892162 0.182036340 0.146616161
0.172928542 0.186970279 0.150790706
0.180139259 0.187223300 0.146362990
0.186717048 0.187223315 0.148387253
0.184187442 0.190259710 0.152814537
0.191777259 0.191398144 0.152055353
0.197849259 0.196204990 0.156862959
0.201012135 0.199367628 0.160025120
0.208095998 0.202403247 0.161036998
0.216445282 0.206577986 0.165212020
0.226186246 0.214547783 0.169386506
0.236053407 0.218090251 0.175458506
0.248070985 0.223276690 0.181151062
0.257178992 0.230866492 0.185705245
0.273118168 0.235041231 0.194939822
0.285262972 0.242757961 0.199620515
0.302213937 0.249082997 0.202909350
0.319291264 0.255154967 0.205945730
0.337507993 0.264136404 0.212903127
0.356230229 0.275142491 0.220113486
0.384313524 0.285389274 0.230360553
0.406830996 0.301328272 0.242251694
0.438330024 0.314610958 0.255534321
0.469576180 0.329917371 0.269450068
0.512080908 0.343579918 0.283112228
0.550410867 0.366097033 0.301201761
0.587855577 0.389120638 0.324225366
0.632258177 0.409614205 0.346616209
0.680455267 0.435799986 0.369006991
0.174825996 0.199114636 0.154712349
0.176723748 0.201011896 0.156609610
0.176723734 0.202909410 0.157494992
0.176723152 0.208222762 0.161037162
0.178620979 0.210119918 0.162934989
0.179380283 0.210879222 0.159139693
0.187476322 0.212523639 0.162302315
0.192156717 0.213029712 0.164199919
0.197469994 0.216824993 0.167235732
0.204300985 0.220240146 0.170272127
0.208602220 0.223276511 0.175584763
0.214548022 0.226312652 0.176596642
0.223655626 0.228209913 0.177735269
0.235800400 0.234534875 0.183555022
0.243643627 0.241492823 0.188741639
0.254522622 0.247564986 0.195951983
0.266666621 0.253637284 0.199746981
0.280075610 0.259709269 0.205186576
0.293232322 0.265781254 0.208222970
0.309803993 0.272991657 0.214674279
0.326881647 0.280202270 0.221125722
0.348133743 0.286274284 0.226186112
0.366856486 0.295382619 0.235293776
0.394180655 0.305502892 0.244402185
0.422264218 0.320303619 0.253510267
0.449335575 0.337381244 0.267298967
0.486274332 0.355597407 0.285009712
0.525743306 0.369007170 0.300190061
0.566350400 0.390638858 0.319165230
0.607589960 0.414927036 0.340923369
0.648323834 0.440986812 0.369639754
0.690322638 0.465780914 0.395192921
0.180391997 0.237065032 0.169892028
0.180139035 0.236812055 0.170145065
0.183048770 0.236812055 0.169639051
0.188108832 0.240607157 0.173434153
0.195824996 0.248323992 0.181150988
0.189752996 0.242251992 0.175078988
0.196331322 0.243263751 0.178368032
0.200506002 0.245161071 0.181910068
0.203289032 0.246426031 0.182416126
0.215433031 0.252498031 0.185452521
0.221504986 0.255660892 0.193801165
0.227830470 0.258697301 0.197343037
0.235041380 0.261101007 0.198228642
0.244655058 0.261101037 0.201517999
0.256799847 0.270208657 0.204554379
0.269197017 0.277166039 0.211891219
0.281593978 0.283238351 0.216698050
0.294750005 0.289311022 0.217836574
0.312966049 0.295383036 0.220872968
0.328905374 0.303731680 0.231752008
0.343832731 0.313345790 0.243390039
0.362555146 0.321442038 0.254269153
0.390006006 0.327893525 0.263503999
0.411637932 0.340164065 0.272738904
0.441745847 0.354838282 0.280075997
0.475142628 0.370018691 0.290322661
0.509551048 0.385452121 0.305503070
0.549019456 0.403668880 0.320683420
0.590638578 0.424288809 0.340923756
0.633396327 0.447564989 0.364705980
0.673877180 0.473371208 0.392662734
0.710309982 0.503732026 0.432131976
0.180391997 0.258317381 0.185072407
0.177356377 0.255281776 0.188108802
0.185705423 0.255028814 0.184060827
0.192156836 0.258823663 0.185578659
0.196078002 0.266792983 0.193547994
0.195824996 0.266539991 0.193294972
0.202403322 0.262998313 0.189753294
0.206578001 0.266160816 0.195193112
0.208855093 0.270208716 0.200126827
0.218469411 0.273750395 0.200632900
0.221884534 0.276913255 0.203668535
0.229601249 0.279949665 0.209993407
0.238077223 0.284124374 0.212523401
0.247691453 0.288425386 0.213661984
0.262871832 0.288425386 0.219733983
0.277419776 0.297533005 0.222770378
0.291967183 0.304490387 0.227071598
0.306514561 0.310562700 0.230740234
0.322074413 0.316635400 0.239088953
0.343073785 0.319924027 0.244907975
0.357368410 0.331815124 0.252245456
0.373181134 0.342694372 0.259582818
0.396077991 0.349145889 0.266540408
0.426438808 0.364326298 0.278684437
0.454901963 0.381150782 0.290195972
0.487286627 0.397343040 0.302466631
0.521695018 0.412523478 0.317647070
0.561163425 0.427956879 0.332827419
0.597975612 0.446173638 0.350663960
0.640986562 0.470335543 0.378368139
0.682353020 0.497027367 0.408981770
0.716382027 0.524984360 0.441239566
0.190005988 0.277166605 0.200252801
0.186970368 0.278937370 0.198482201
0.188235208 0.280202746 0.201518029
0.198355362 0.282985777 0.201264977
0.202529803 0.289816588 0.206957340
0.198481813 0.289816588 0.200885609
0.206072137 0.292093307 0.205566123
0.213535801 0.290701985 0.205819085
0.215812698 0.294497073 0.211891279
0.221631676 0.297533095 0.213535994
0.232131720 0.300568849 0.218848914
0.239215329 0.299557269 0.215812802
0.248323634 0.302973002 0.220366806
0.257684976 0.309044957 0.223149836
0.270714611 0.313345969 0.227071598
0.283491790 0.318152964 0.233143613
0.297153980 0.325742781 0.237697795
0.312713355 0.332447350 0.242251977
0.331435800 0.340290904 0.249588847
0.349778384 0.345983416 0.253510624
0.372928470 0.354712248 0.261479884
0.389120609 0.367362469 0.270082444
0.409107804 0.374952286 0.279064268
0.434914589 0.385578692 0.288931012
0.462998062 0.400759041 0.303352296
0.496015280 0.420240253 0.318405777
0.530423880 0.437950581 0.336116135
0.566097200 0.455028206 0.356989205
0.607716382 0.468058437 0.367615581
0.642377913 0.493358701 0.392915517
0.681846738 0.520430207 0.423023373
0.715243161 0.546236813 0.450347781
0.194560200 0.301454991 0.212397188
0.200632572 0.304490983 0.216951370
0.197343603 0.306008965 0.216698408
0.201644376 0.307780176 0.218469188
0.209740639 0.313725650 0.224414736
0.207083985 0.317140996 0.222138122
0.212144122 0.318152875 0.219608188
0.219608203 0.319544196 0.224035472
0.226439089 0.320303291 0.225553274
0.230992720 0.323339671 0.227071673
0.239721537 0.324857503 0.231499001
0.248324111 0.328399450 0.235546991
0.259708732 0.327640802 0.231751978
0.269323051 0.333080351 0.236558989
0.278937370 0.337887198 0.238330215
0.291081578 0.342441380 0.243770182
0.306261957 0.350031555 0.249842182
0.319038540 0.356103569 0.256546587
0.338519990 0.364326358 0.263503969
0.356988996 0.370651394 0.266793370
0.377482265 0.380518436 0.273624629
0.400758922 0.391651124 0.281720370
0.419860512 0.400758892 0.292852968
0.445540994 0.409867287 0.303352296
0.475142449 0.422011465 0.315496266
0.502466798 0.438583165 0.330676645
0.538520098 0.459203124 0.348260254
0.572928607 0.477419376 0.369512886
0.611258805 0.491840422 0.388108999
0.649968088 0.508539081 0.406578094
0.685135782 0.540670395 0.438709348
0.719797373 0.567489207 0.465528190
0.194686994 0.331182539 0.222770557
0.207969815 0.334851384 0.233649567
0.208729014 0.336369544 0.235926583
0.209614560 0.337002128 0.238456562
0.215307027 0.337381572 0.238836110
0.218342617 0.345983207 0.247438505
0.223276138 0.348133713 0.245793983
0.228715822 0.347501129 0.244022846
0.234914884 0.347627640 0.246805668
0.244022503 0.350664020 0.243770048
0.250853568 0.351423115 0.245287687
0.257558495 0.354838550 0.250347555
0.267046511 0.361037165 0.255407542
0.281720132 0.364073545 0.255913615
0.288172245 0.367109269 0.256672710
0.299683958 0.368880361 0.259582609
0.314231545 0.374952734 0.265022546
0.331815124 0.383428544 0.270461977
0.346995562 0.389500558 0.279569596
0.364326179 0.395572543 0.284376919
0.385704875 0.404807121 0.291208148
0.406957269 0.415939122 0.299936950
0.428589135 0.425173998 0.306261957
0.456420273 0.434788436 0.318405986
0.487033844 0.446806133 0.331815124
0.518912196 0.462365508 0.344718188
0.547248602 0.480075598 0.360910624
0.583554804 0.498165876 0.376343966
0.619354963 0.514990211 0.399494171
0.655155003 0.532573879 0.424415052
0.691207767 0.552941144 0.449715167
0.730677009 0.589373946 0.486148000
0.206831053 0.358507037 0.237951025
0.212903038 0.364579052 0.244023025
0.213282853 0.368247867 0.241999030
0.217584208 0.371031225 0.244023040
0.230487451 0.373814464 0.254016578
0.233523056 0.376850069 0.257052958
0.236559317 0.380392313 0.260594696
0.239848241 0.379886270 0.261227041
0.243896052 0.377862006 0.262239099
0.250094533 0.377988517 0.265022516
0.259202868 0.381024897 0.261986136
0.268058240 0.383807749 0.265528023
0.279190660 0.389373690 0.271600008
0.293864936 0.397470057 0.277166069
0.302972555 0.400506437 0.283238828
0.316634864 0.398735195 0.281594157
0.331562191 0.402277231 0.282353252
0.346995562 0.410753012 0.285642415
0.362176031 0.416825026 0.288678050
0.377356380 0.422897011 0.297786385
0.400379717 0.430866748 0.306388259
0.425174087 0.440227866 0.315496206
0.446805984 0.449462086 0.324478030
0.477166772 0.461606860 0.336622059
0.504997313 0.475775272 0.353320599
0.535610676 0.493485272 0.368247956
0.568501115 0.513472080 0.382163078
0.601897359 0.528652430 0.403415442
0.635546744 0.549398839 0.426818639
0.669196606 0.570145130 0.452878147
0.702846527 0.591144621 0.479063958
0.736749053 0.613662064 0.504364073
0.235673741 0.433143497 0.286527395
0.233396381 0.430866838 0.287033379
0.241619140 0.432637841 0.290955156
0.242378384 0.431246132 0.288045585
0.248830006 0.430107504 0.291460931
0.254269421 0.435547531 0.294497311
0.259835392 0.436053455 0.295003384
0.264769018 0.437192112 0.297786027
0.270461470 0.436812401 0.300442576
0.278557748 0.438836128 0.305503219
0.290322244 0.438962609 0.302719891
0.299430639 0.441999018 0.299683481
0.309677362 0.443896472 0.303478658
0.322960049 0.447818100 0.309045076
0.334598660 0.453384161 0.310057193
0.348513275 0.456419915 0.316129357
0.362175763 0.457178950 0.315749764
0.377988696 0.461859763 0.318785787
0.399620384 0.463630766 0.326122433
0.412018120 0.472486079 0.331942111
0.432890743 0.478558093 0.339152753
0.458317637 0.485768735 0.348387063
0.481594235 0.493358612 0.359392732
0.509298205 0.508159518 0.371536762
0.535104394 0.520303726 0.385958016
0.563314319 0.532195032 0.403668702
0.594307423 0.547881186 0.420114160
0.623149753 0.567615509 0.441366524
0.653889954 0.585452020 0.465275049
0.688931048 0.608349085 0.491334528
0.726881921 0.628842711 0.522201180
0.767868400 0.646300137 0.555977464
0.260341734 0.472232729 0.311574757
0.247817606 0.474889368 0.311574757
0.257178754 0.475901723 0.319417775
0.263757169 0.474636555 0.318658978
0.265148729 0.470714480 0.316128731
0.271220744 0.476786882 0.320682913
0.281087726 0.481593996 0.324983984
0.283870727 0.481593996 0.324983984
0.292472899 0.481593996 0.327007741
0.304996967 0.483491272 0.330803216
0.311321706 0.485515475 0.331941843
0.325236976 0.487539232 0.330803216
0.334345371 0.490575612 0.331182480
0.345730454 0.491334736 0.337002009
0.357874811 0.494117737 0.338646710
0.374319911 0.497786403 0.341555953
0.391018122 0.502340198 0.347627968
0.403289288 0.506388426 0.349652141
0.421252519 0.508918464 0.357495248
0.438203722 0.515370071 0.361922681
0.454142988 0.520683467 0.369892716
0.478431225 0.526755452 0.377988696
0.502719939 0.532827497 0.390132695
0.528273165 0.542694628 0.402276725
0.557115734 0.555597723 0.418595731
