Assets/Shaders/EldamarStudio/100 Sci-Fi LUTs Pack/LUTs/cube/Koltand LUT.cube
LUT_3D_SIZE 5
DOMAIN_MIN 0.000000 0.000000 0.000000
DOMAIN_MAX 0.903226 0.903226 0.903226
0.133332998 0.058823999 0.066666998
0.160784006 0.082353003 0.088551708
0.203289419 0.108538993 0.110436417
0.295383126 0.166730002 0.159898862
0.514357746 0.259076655 0.246046796
0.158507288 0.122580700 0.113092996
0.169006705 0.128146991 0.117014416
0.218722284 0.158253983 0.138646409
0.318532407 0.213915408 0.184440404
0.533586502 0.311701506 0.269576401
0.180391997 0.258317381 0.185072407
0.206578001 0.266160816 0.195193112
0.262871832 0.288425386 0.219733983
0.373181134 0.342694372 0.259582818
0.597975612 0.446173638 0.350663960
0.279570132 0.496521235 0.326755136
0.308159232 0.519038379 0.351296246
0.379127115 0.530803144 0.366350412
0.493611366 0.561163962 0.405313104
0.692346454 0.642631054 0.525363803
0.581151247 0.801897585 0.639974594
0.610499561 0.810625851 0.650221407
0.660847425 0.816192567 0.666666865
0.733965576 0.829221785 0.698418736
0.830739558 0.858064413 0.744465590
0.135610282 0.072232708 0.101961002
0.160152003 0.083997712 0.112460412
0.200379297 0.118026704 0.137634292
0.299810141 0.179506868 0.198481709
0.501834035 0.264262825 0.271473825
0.160152003 0.124857992 0.132067993
0.175205410 0.139911428 0.143832996
0.214421421 0.169386402 0.167742118
0.312586844 0.220366985 0.213156417
0.520556450 0.306767821 0.294749945
0.193168700 0.252371967 0.211511701
0.206578419 0.266793400 0.219734401
0.263883680 0.290702075 0.238709822
0.374825984 0.340417504 0.280202538
0.587222815 0.441239655 0.376597047
0.267805129 0.487666130 0.352561414
0.302213967 0.503352106 0.359772235
0.376470536 0.522327542 0.383934230
0.489310235 0.549399257 0.420619816
0.679822564 0.639089108 0.529285252
0.572295666 0.792662799 0.636812031
0.598355472 0.802782893 0.651865661
0.649335802 0.809993446 0.671853125
0.730423927 0.823655725 0.696394682
0.830486834 0.851486564 0.741049647
0.145098001 0.086907417 0.160151586
0.160783991 0.099051289 0.166729987
0.209867418 0.128146991 0.185072407
0.295635551 0.180518985 0.246552989
0.500569165 0.265527993 0.336242795
0.162428722 0.143200412 0.179506689
0.175205410 0.149398714 0.184060693
0.217709988 0.174572989 0.214168116
0.310309708 0.223655999 0.265528411
0.518911958 0.314610958 0.361163616
0.187602580 0.262239397 0.255661368
0.210879117 0.278937519 0.278937519
0.277292818 0.315876365 0.310689390
0.382289976 0.354838669 0.339405239
0.588109016 0.453384042 0.439594954
0.282605827 0.492219955 0.410120398
0.304237813 0.513472676 0.420873135
0.383681089 0.525869727 0.440480947
0.496267945 0.557621539 0.479569674
0.689183891 0.649588943 0.579633236
0.552940965 0.790765166 0.677165985
0.589247286 0.799873590 0.674130321
0.637191534 0.811005771 0.682858765
0.725490153 0.821125925 0.716635048
0.832131624 0.856167018 0.771409988
0.151929140 0.111827999 0.275775135
0.169007137 0.126502126 0.281340837
0.228210405 0.152688131 0.305249691
0.309171110 0.195193127 0.331689000
0.514990389 0.279696524 0.443263948
0.156863004 0.168374285 0.294370830
0.181657001 0.174952701 0.305123538
0.233776122 0.200126410 0.324478239
0.331056416 0.240354538 0.359519124
0.542188466 0.329411507 0.468058169
0.179126993 0.292346805 0.357115984
0.208855286 0.305755526 0.377103120
0.283491522 0.327640384 0.405566424
0.391903818 0.368247658 0.442631096
0.600885510 0.461606503 0.534850895
0.280581981 0.505376399 0.496647477
0.302846253 0.524857700 0.512080848
0.400379241 0.548134267 0.541935503
0.532827377 0.595572412 0.583807409
0.701960683 0.661606967 0.655787528
0.562681735 0.795066476 0.716887772
0.587602556 0.800505579 0.725363791
0.638203681 0.810626090 0.734471619
0.726628721 0.830992758 0.760784030
0.848070741 0.862112403 0.810879230
0.084630050 0.155723974 0.575964391
0.155850708 0.163187861 0.578368306
0.286653787 0.191018134 0.591018021
0.443769753 0.246046960 0.625679970
0.623023450 0.344338775 0.656925738
0.077419370 0.220113695 0.590765238
0.157115877 0.225426838 0.590638518
0.288804650 0.254522383 0.604048014
0.453510225 0.307273775 0.632384419
0.637065172 0.394054413 0.672612429
0.090575784 0.365085632 0.621631563
0.166982710 0.369386494 0.628842413
0.319417775 0.393295199 0.643263996
0.488931030 0.447944462 0.669070303
0.677293003 0.517646968 0.704617143
0.329158634 0.612776756 0.707020760
0.361037195 0.604554236 0.712460577
0.434914768 0.614294648 0.717647016
0.570904374 0.636811912 0.739784777
0.745098054 0.691840887 0.772675574
0.612776518 0.822770476 0.813788414
0.616824627 0.825806499 0.814674318
0.669449806 0.833269775 0.826818466
0.763820529 0.858064413 0.848323762
0.875142455 0.898671746 0.893358767
