Assets/Shaders/EldamarStudio/100 Sci-Fi LUTs Pack/LUTs/cube/Koltand LUT.cube
LUT_3D_SIZE 8
DOMAIN_MIN 0.000000 0.000000 0.000000
DOMAIN_MAX 0.903226 0.903226 0.903226
0.133332998 0.058823999 0.066666998
0.145477548 0.070588000 0.078431003
0.162302002 0.082353003 0.087033898
0.186084643 0.096395001 0.105376355
0.219355196 0.122201189 0.123718992
0.274130464 0.158633739 0.152814999
0.363314569 0.197343573 0.187223285
0.514357746 0.259076655 0.246046796
0.148640454 0.088551991 0.086654447
0.149020001 0.088172443 0.090954997
0.165464908 0.103478901 0.103099450
0.187350005 0.116761282 0.116002284
0.220619738 0.138266742 0.131309345
0.278431535 0.173181474 0.157874554
0.366603583 0.211511701 0.197090551
0.494117767 0.265780926 0.243769497
0.160784006 0.132448003 0.120682999
0.164326459 0.134345546 0.113978542
0.181151092 0.142568097 0.125363901
0.200632289 0.157874733 0.140291095
0.242884174 0.183302090 0.159139901
0.303099185 0.210626185 0.184440345
0.395446092 0.259202987 0.223150089
0.540417433 0.324351907 0.277419806
0.174825996 0.199114636 0.154712349
0.178620979 0.210119918 0.162934989
0.197469994 0.216824993 0.167235732
0.223655626 0.228209913 0.177735269
0.266666621 0.253637284 0.199746981
0.326881647 0.280202270 0.221125722
0.422264218 0.320303619 0.253510267
0.566350400 0.390638858 0.319165230
0.194560200 0.301454991 0.212397188
0.209740639 0.313725650 0.224414736
0.226439089 0.320303291 0.225553274
0.259708732 0.327640802 0.231751978
0.306261957 0.350031555 0.249842182
0.377482265 0.380518436 0.273624629
0.475142449 0.422011465 0.315496266
0.611258805 0.491840422 0.388108999
0.260341734 0.472232729 0.311574757
0.265148729 0.470714480 0.316128731
0.292472899 0.481593996 0.327007741
0.334345371 0.490575612 0.331182480
0.391018122 0.502340198 0.347627968
0.454142988 0.520683467 0.369892716
0.557115734 0.555597723 0.418595731
0.675142348 0.617330670 0.495256424
0.356736571 0.627956510 0.433523268
0.388488114 0.635421038 0.445414275
0.409108281 0.634914756 0.455407530
0.444781929 0.645287812 0.463757217
0.496015459 0.650727451 0.479696274
0.555091500 0.662492454 0.501707554
0.627956510 0.679569542 0.535104513
0.727008343 0.719797313 0.595698774
0.581151247 0.801897585 0.639974594
0.596963823 0.804553986 0.646552861
0.616571605 0.809613764 0.650980294
0.644781590 0.812270582 0.663124382
0.682479620 0.817836642 0.670208573
0.723845661 0.827197731 0.693358600
0.772549093 0.839975059 0.712713182
0.830739558 0.858064413 0.744465590
0.141176000 0.066666998 0.083112001
0.142314553 0.067805447 0.083491549
0.166224003 0.083871000 0.103478998
0.189753100 0.111321896 0.119165093
0.217836991 0.128146634 0.139531896
0.276913732 0.161290079 0.173181474
0.355977118 0.199999824 0.202403545
0.490954876 0.259456098 0.250094801
0.145098001 0.087792993 0.099936545
0.157622010 0.102340452 0.103478998
0.170145184 0.107779540 0.112460539
0.188108891 0.123845898 0.124225348
0.221884891 0.144212201 0.146995649
0.275648296 0.175458282 0.173181474
0.367488980 0.217330545 0.206831113
0.508159161 0.279823095 0.261859834
0.155597553 0.135989651 0.126122996
0.165464997 0.139405087 0.128905535
0.178368449 0.142947540 0.143073648
0.199873179 0.159772098 0.148134097
0.237824351 0.186084732 0.162555546
0.293990910 0.214168534 0.188614890
0.379633278 0.253763288 0.227957189
0.518279254 0.314231485 0.282099783
0.172801644 0.203921631 0.162049189
0.183048546 0.204301283 0.164073631
0.197470099 0.209360823 0.173434630
0.215686530 0.225806743 0.179253384
0.262745023 0.249715179 0.203542084
0.324098468 0.280708551 0.227956891
0.426565439 0.328399926 0.271979839
0.568121493 0.400759339 0.337001622
0.200379550 0.299557537 0.213029906
0.204427376 0.300316542 0.228083387
0.221378624 0.313219279 0.233016834
0.249462545 0.321441829 0.241619542
0.299683541 0.340290725 0.253004402
0.365970701 0.372295916 0.281593919
0.470714897 0.420999557 0.319671094
0.606451809 0.494623810 0.397849292
0.252498746 0.453130722 0.309424281
0.262365282 0.461859643 0.319038510
0.281847090 0.465022355 0.321315736
0.325616479 0.478431463 0.332574368
0.383428246 0.489310473 0.349398941
0.450853527 0.507779717 0.374572814
0.542314827 0.548134148 0.417584002
0.663630545 0.610246718 0.495762080
0.355977297 0.609993577 0.432131380
0.366603106 0.621252120 0.433396518
0.393168896 0.619734287 0.442505091
0.433396578 0.632005274 0.457305074
0.484250575 0.641619205 0.477672160
0.554711819 0.656799614 0.501328349
0.636685550 0.686653495 0.546236515
0.733080268 0.727640808 0.608728647
0.572422266 0.794434071 0.645287931
0.592029989 0.800253093 0.643263578
0.605439425 0.803288758 0.654269457
0.630486846 0.807842791 0.661353350
0.668564141 0.815306842 0.667172730
0.720303416 0.820493162 0.685894787
0.768753886 0.835420489 0.712966561
0.827830076 0.850600898 0.743832707
0.135610089 0.075268902 0.104997002
0.146236554 0.079569645 0.112460546
0.166983098 0.088551894 0.123845898
0.181783900 0.112840094 0.136369094
0.220999286 0.137128100 0.159013197
0.276027739 0.170398742 0.186843634
0.360910773 0.211385280 0.223276183
0.496520877 0.262997985 0.276280940
0.143073648 0.099557094 0.116002098
0.156483471 0.100316092 0.112839997
0.163061097 0.114863545 0.130929902
0.188108891 0.128146544 0.141809002
0.228210002 0.151170105 0.168501005
0.275648385 0.182542995 0.194686636
0.367362320 0.226312563 0.238836080
0.503352165 0.283871114 0.294117808
0.163946912 0.134725094 0.142694190
0.165464997 0.145730197 0.152055904
0.186590895 0.153573990 0.158254087
0.206578359 0.170398548 0.167235732
0.238962799 0.191903993 0.189627081
0.299683720 0.225680083 0.220493436
0.382669359 0.259962082 0.249715269
0.524351656 0.318659186 0.309424341
0.183554903 0.208222374 0.180012375
0.182669088 0.211385190 0.189626992
0.203035995 0.220746279 0.196963638
0.223655626 0.232511178 0.206704274
0.267425716 0.250474274 0.224668086
0.323592693 0.284124076 0.247691631
0.425426900 0.331562102 0.288045675
0.567362547 0.399114460 0.362428427
0.198355094 0.303858399 0.242125288
0.206198901 0.308918536 0.241619453
0.223276183 0.317267269 0.252245367
0.254649162 0.326628476 0.258949846
0.302466869 0.341429293 0.278052092
0.371790141 0.374952465 0.306514919
0.475015551 0.426565498 0.346616298
0.608475447 0.500316083 0.419734180
0.254648983 0.455534637 0.339152366
0.265528262 0.459962189 0.337128520
0.284250379 0.465401709 0.342315078
0.327640742 0.477292746 0.352688015
0.385578930 0.487919062 0.372675478
0.447058558 0.509677351 0.390259147
0.538519621 0.545350969 0.434155554
0.662871778 0.608728588 0.508285761
0.359013259 0.613535523 0.449968368
0.369133532 0.611511827 0.450347811
0.394307464 0.620999575 0.461859435
0.434155554 0.629095197 0.475901306
0.487286657 0.641872346 0.492979258
0.558001280 0.661479831 0.518279314
0.639468729 0.687539458 0.560404658
0.738646030 0.735737085 0.621758342
0.569259524 0.788867652 0.635293841
0.582416177 0.798355043 0.643643141
0.601644635 0.801770747 0.653636694
0.631499112 0.805692732 0.665781260
0.667172551 0.809993625 0.675521612
0.709171355 0.816571891 0.690828204
0.767489016 0.830613434 0.720303416
0.830739558 0.848956585 0.744844913
0.145098001 0.084629998 0.140164286
0.149779007 0.088172451 0.141809002
0.169765636 0.099177644 0.150790647
0.186084643 0.116002284 0.157495007
0.222137824 0.139911443 0.184946194
0.278178483 0.169133380 0.216192290
0.364452928 0.211891353 0.254522294
0.501581252 0.268563986 0.321821660
0.152561650 0.103478998 0.140290901
0.154965371 0.108918093 0.148513645
0.167362541 0.116381735 0.153953359
0.186084643 0.132827550 0.169639543
0.221758187 0.153953344 0.192789197
0.279190630 0.183681548 0.217330739
0.371031076 0.229095623 0.265275359
0.510309815 0.288931072 0.320809543
0.157115549 0.148893088 0.170019001
0.163820103 0.147627726 0.171916544
0.181909993 0.164579093 0.187729448
0.206957906 0.174319640 0.195825279
0.243263736 0.198987991 0.222896725
0.298418880 0.229980826 0.246679261
0.388994366 0.274509728 0.288930982
0.527387440 0.331941754 0.349019468
0.178747997 0.208601922 0.216951281
0.181404456 0.222391084 0.219607741
0.205313087 0.235673368 0.235673368
0.231498644 0.252878278 0.246679276
0.271726966 0.267805189 0.260341644
0.336242735 0.295129478 0.289310753
0.437950641 0.339278638 0.332574248
0.571789742 0.406198621 0.396837443
0.201770842 0.315243632 0.276154637
0.209234893 0.322327614 0.286907107
0.231625631 0.330550283 0.287159801
0.267552614 0.340290844 0.298419088
0.314484507 0.359012932 0.317267388
0.382416099 0.389500111 0.342188269
0.478684545 0.434787929 0.384819746
0.616698325 0.504237711 0.456040442
0.260594755 0.463377625 0.372928441
0.270714551 0.470335096 0.376849979
0.294117630 0.476154387 0.382542729
0.331562012 0.484376848 0.391144842
0.389879674 0.498165578 0.406831026
0.453257382 0.518911719 0.428463072
0.545730293 0.553194106 0.468437731
0.665781260 0.617330670 0.537381411
0.362428904 0.618469596 0.490702271
0.383428097 0.621758223 0.482985288
0.403289020 0.625300348 0.491461396
0.439721555 0.633017182 0.502972603
0.491840869 0.645540893 0.520936012
0.564579070 0.665149033 0.547374964
0.637064874 0.691334546 0.582163095
0.737002015 0.738140285 0.643263459
0.566097379 0.790385604 0.661226928
0.579000592 0.794939876 0.656546175
0.600126386 0.799367249 0.668437660
0.628462553 0.805945337 0.675268948
0.665654659 0.813788772 0.683491409
0.713851810 0.821378767 0.709297717
0.773181081 0.834408462 0.732321203
0.833649755 0.853004336 0.766097009
0.144212380 0.090828799 0.185578987
0.150917351 0.096015349 0.189247355
0.171789899 0.107400000 0.190259278
0.193548277 0.124225445 0.200885534
0.224794373 0.145730183 0.223276183
0.278811187 0.176596925 0.254522204
0.364832371 0.218595698 0.297406465
0.509297788 0.269702613 0.367109329
0.153953359 0.121441990 0.189374000
0.165970549 0.121821538 0.200632200
0.174826086 0.126502439 0.197343275
0.192789197 0.141809091 0.209993988
0.229601383 0.160658002 0.227577642
0.285136193 0.188361630 0.259076357
0.375332028 0.232637376 0.310689390
0.518406153 0.293105602 0.379127175
0.170145184 0.162302196 0.213788897
0.166603446 0.162935093 0.212144181
0.188235000 0.172296196 0.228716180
0.210879087 0.184440449 0.237318277
0.246047080 0.205313087 0.253004283
0.304744095 0.233016819 0.288298368
0.394433558 0.277293026 0.332827181
0.531688809 0.336874992 0.393927991
0.177229807 0.219481632 0.255281270
0.188994199 0.233396471 0.261606455
0.204554096 0.240354180 0.271727055
0.235420644 0.254396081 0.282606095
0.276407182 0.273244977 0.305755824
0.340797007 0.305376172 0.334724844
0.437191635 0.348766625 0.377735913
0.580012679 0.412902981 0.445034713
0.202403814 0.319544196 0.311068982
0.218216643 0.327767015 0.324984372
0.233523190 0.341556191 0.331309378
0.282859087 0.365844220 0.357621610
0.332195163 0.385325581 0.375964373
0.392156482 0.410246372 0.394180924
0.491334736 0.442251652 0.432131380
0.620872617 0.508791864 0.496647984
0.265275240 0.470588535 0.412903190
0.275268912 0.478304833 0.420240730
0.301075429 0.487919152 0.433143497
0.345351011 0.501960635 0.444528908
0.397849470 0.514104724 0.455787450
0.465907454 0.529031992 0.476154447
0.559013486 0.565338433 0.513978481
0.675269067 0.623655915 0.572801888
0.374825984 0.625553548 0.522960365
0.384566993 0.628462911 0.531182945
0.404680550 0.634408474 0.534851313
0.445667237 0.640227914 0.542567551
0.496015251 0.655407727 0.560531437
0.565717697 0.669449568 0.580392182
0.643390596 0.695129573 0.614421546
0.748892963 0.741935372 0.672991574
0.555850387 0.795319438 0.679949462
0.573560894 0.800379395 0.677039981
0.594813347 0.802909374 0.685894608
0.621505320 0.806831121 0.692978919
0.659582198 0.813788772 0.705629051
0.714358032 0.822138071 0.722453773
0.772928357 0.836685658 0.747881234
0.834914625 0.855281353 0.772295773
0.148892999 0.107779734 0.252498746
0.153700009 0.110942543 0.254522473
0.176091254 0.124984249 0.263883471
0.199367642 0.137507737 0.269323379
0.237697527 0.158254191 0.287665725
0.283870727 0.182036728 0.303352714
0.367489010 0.219228283 0.346742570
0.513725340 0.276660681 0.425300390
0.154079735 0.132447809 0.253637195
0.159013182 0.132321283 0.258823544
0.174826086 0.142188549 0.265021831
0.207337350 0.157874748 0.277545810
0.240986735 0.170271739 0.287665725
0.296394736 0.202403724 0.315749705
0.384313643 0.239721805 0.364452720
0.533459842 0.299683452 0.443137258
0.165211648 0.180265903 0.280708641
0.170904279 0.181277737 0.278810710
0.190512091 0.186084822 0.287160009
0.217077985 0.199367538 0.299430609
0.254522204 0.213030085 0.312080920
0.304490983 0.238836080 0.337001860
0.400252998 0.284377277 0.383175015
0.542694330 0.338772535 0.461226881
0.174573258 0.241492629 0.317647278
0.189626753 0.245414451 0.318153024
0.207337350 0.251992464 0.329917729
0.234155461 0.265401363 0.341303170
0.284250379 0.288172185 0.364452839
0.344844759 0.313598633 0.385705113
0.448197186 0.356736124 0.435420454
0.593042374 0.426438898 0.508412480
0.197090447 0.335231185 0.371663630
0.208096445 0.339278698 0.374446720
0.228716075 0.352308363 0.388235271
0.271347612 0.365970939 0.410246462
0.331309199 0.388361573 0.424794525
0.400759399 0.414927363 0.451359928
0.502466559 0.456040829 0.491966903
0.629728019 0.519165337 0.549525678
0.260341734 0.469955474 0.460214734
0.266413808 0.478431463 0.468184620
0.299557358 0.492473364 0.482732624
0.343706459 0.502340078 0.492852598
0.412523448 0.527387977 0.519924402
0.487286747 0.550031722 0.542314768
0.579001009 0.580898464 0.570777774
0.683238328 0.629475117 0.623655677
0.379380256 0.622896791 0.567109287
0.379759818 0.630360365 0.569512844
0.409108341 0.634661973 0.577735603
0.452118844 0.650221169 0.591018379
0.512207329 0.669576585 0.614294767
0.580518723 0.686021566 0.630613506
0.662238777 0.712207317 0.662744999
0.764073133 0.755597591 0.710183203
0.560404360 0.792536616 0.709550858
0.573813975 0.796457887 0.705629408
0.592156827 0.798734665 0.713978410
0.618216395 0.803541720 0.719923854
0.655281544 0.815306604 0.728146493
0.708665252 0.824667692 0.744591713
0.774446607 0.842378438 0.770904481
0.841745615 0.861606717 0.808349192
0.142820716 0.130043998 0.372422546
0.151170269 0.132321283 0.374446690
0.176470801 0.142441571 0.381024659
0.215812638 0.158633649 0.386970192
0.263757169 0.174699366 0.398228854
0.329032302 0.199620277 0.420367002
0.414547801 0.239468277 0.453763247
0.531941652 0.287539512 0.503858209
0.143200263 0.153067738 0.374572635
0.155091748 0.151170015 0.377988577
0.179506898 0.161543295 0.387602806
0.221252546 0.176343992 0.398228556
0.276280880 0.196204931 0.412144542
0.345856994 0.221631989 0.438836455
0.430866838 0.260214835 0.469196558
0.550031364 0.312966645 0.515749633
0.146995530 0.197217077 0.393295377
0.164579451 0.198481649 0.401138544
0.186590895 0.206704572 0.402909577
0.227577344 0.220746100 0.411385357
0.287286162 0.239595383 0.429474741
0.355724096 0.266160458 0.453763455
0.441998661 0.298165351 0.481973559
0.557874620 0.354079604 0.532447815
0.155091658 0.273624629 0.438456565
0.170018971 0.270082176 0.434535086
0.199873284 0.279949427 0.440480649
0.247185633 0.294370562 0.447564870
0.310562909 0.314737380 0.471473813
0.388994455 0.337381274 0.495256364
0.482858837 0.376217633 0.525490224
0.603921235 0.437191814 0.575837851
0.181656986 0.374826193 0.476913571
0.195572644 0.376976818 0.489436984
0.231878474 0.382669181 0.492093623
0.275015980 0.392536223 0.498292476
0.343706369 0.406957656 0.520303726
0.428842664 0.437444657 0.543073773
0.529664695 0.474256665 0.572928488
0.646046698 0.527514219 0.624541402
0.255534708 0.506388426 0.547627985
0.268817216 0.508032739 0.555344939
0.297026902 0.510815859 0.558507144
0.343200713 0.521189332 0.565211475
0.411132097 0.538519740 0.587602794
0.493485004 0.564452469 0.616697967
0.585578680 0.591144681 0.639342308
0.699683785 0.638456821 0.679443538
0.392030567 0.651106834 0.639341831
0.401518106 0.644655108 0.629601598
0.424667954 0.653763235 0.642125309
0.467805564 0.662745237 0.653257132
0.523466289 0.680455387 0.668564498
0.610246956 0.711448252 0.703352273
0.691334546 0.738393545 0.730550528
0.772801638 0.769892514 0.757874787
0.571663320 0.796710730 0.748766661
0.577735186 0.797596157 0.751675844
0.594307482 0.800758779 0.752055347
0.621125758 0.809234500 0.759519219
0.667931318 0.825426877 0.770777702
0.724351346 0.837318242 0.793042362
0.785072863 0.854395866 0.813156009
0.854649067 0.875648618 0.845414340
0.084630050 0.155723974 0.575964391
0.111448579 0.152435169 0.573813975
0.171031103 0.164453089 0.579380095
0.241872281 0.181530654 0.586084425
0.324984014 0.205945462 0.599620223
0.418722332 0.237191558 0.618342459
0.514990091 0.286148220 0.640227675
0.623023450 0.344338775 0.656925738
0.082100041 0.181657270 0.593295097
0.108539023 0.180771664 0.585199416
0.167741820 0.191018268 0.589247286
0.243896455 0.206578061 0.595445633
0.331309199 0.234029159 0.611005604
0.430107594 0.267805189 0.628083527
0.531688571 0.311195254 0.645667195
0.640101373 0.370651603 0.661985993
0.074636482 0.239088893 0.600885391
0.114358053 0.236052915 0.589753032
0.173814282 0.242883980 0.595951676
0.247438461 0.258950263 0.605692506
0.336749017 0.281214476 0.614927173
0.434535384 0.315622807 0.637444675
0.537001789 0.359265983 0.654016376
0.643137217 0.410246789 0.677672505
0.071853220 0.315749586 0.616571784
0.109171294 0.318152815 0.619354725
0.180265903 0.325996101 0.621631682
0.267552257 0.342947274 0.633270144
0.359645784 0.363314241 0.639215767
0.455281496 0.395445794 0.656419635
0.561037242 0.437318146 0.682099938
0.665022075 0.486147761 0.698545218
0.153320581 0.434155345 0.643643022
0.169386446 0.433775902 0.650094867
0.210246563 0.430234015 0.644275546
0.285642177 0.439721853 0.653889716
0.383807987 0.458570361 0.666413426
0.483618051 0.492093682 0.687918782
0.592283487 0.525743127 0.706008554
0.695761800 0.569892108 0.724730968
0.286654115 0.572043300 0.689816356
0.298798203 0.565591455 0.694497287
0.328652799 0.570145369 0.692979217
0.374826193 0.571790099 0.694244087
0.436559021 0.579126775 0.698292494
0.525363624 0.596837282 0.719797313
0.630234003 0.631625533 0.737254858
0.727134585 0.665781379 0.762302279
0.452245444 0.711574912 0.753320634
0.465401351 0.707526624 0.755724311
0.480328977 0.709930480 0.755724013
0.517773330 0.715875864 0.762176037
0.565464854 0.720683098 0.770018995
0.633270085 0.736622512 0.783554792
0.711068690 0.754459083 0.795445859
0.795445859 0.783807516 0.825300097
0.612776518 0.822770476 0.813788414
0.607210696 0.824794412 0.816318631
0.619354546 0.826059520 0.816192389
0.651106656 0.827703595 0.820113957
0.691587746 0.836305976 0.826691806
0.746616066 0.855281591 0.841745675
0.806325138 0.869070351 0.866540313
0.875142455 0.898671746 0.893358767
