Assets/Shaders/EldamarStudio/100 Sci-Fi LUTs Pack/LUTs/cube/Kyle LUT.cube
LUT_3D_SIZE 8
DOMAIN_MIN 0.000000 0.000000 0.000000
DOMAIN_MAX 0.903226 0.903226 0.903226
0.031373002 0.050980002 0.129411995
0.060341999 0.063503996 0.134092003
0.111322001 0.084630094 0.145857096
0.157494992 0.108158998 0.161922649
0.213029996 0.141809195 0.179506987
0.276027739 0.180138990 0.197975740
0.361669868 0.234914273 0.232637569
0.461859614 0.306134969 0.282605976
0.080328546 0.088551991 0.137254998
0.092852540 0.099936545 0.149779007
0.128905639 0.114863545 0.157242462
0.173940286 0.132827550 0.168501109
0.224794373 0.161037549 0.185831800
0.288172185 0.196584478 0.207210541
0.365085274 0.245540544 0.235800281
0.466286778 0.320050627 0.288172245
0.142568097 0.152814895 0.172422081
0.143327087 0.155092001 0.177229986
0.180265903 0.162935004 0.176344082
0.212271094 0.186084643 0.190512091
0.264769286 0.208349288 0.206072196
0.321568638 0.242758080 0.235040992
0.396331251 0.297533363 0.265781194
0.490954936 0.374952555 0.318532646
0.203542277 0.229348272 0.211258650
0.218469188 0.240733728 0.211891636
0.239974722 0.250980616 0.218975633
0.276913643 0.268564284 0.235420644
0.314863980 0.291208267 0.251486182
0.358633369 0.319038540 0.264769375
0.425553620 0.365085214 0.298924565
0.515876174 0.443010628 0.362681806
0.285136193 0.339152187 0.260973990
0.291081637 0.345097721 0.267425835
0.305503100 0.354712278 0.278937280
0.331436098 0.372042984 0.290322632
0.375332177 0.396205187 0.304744154
0.415433109 0.425553620 0.326881915
0.476913273 0.470588267 0.374319881
0.553826451 0.536369145 0.438456655
0.362681746 0.487792730 0.362428725
0.374193728 0.500822008 0.370271921
0.394433826 0.504870713 0.381024629
0.408601820 0.514104784 0.384819835
0.445414424 0.536116004 0.412270725
0.483744711 0.555977464 0.438456476
0.537381291 0.594939709 0.474256754
0.615053713 0.651865780 0.537001610
0.455787271 0.631878555 0.487412542
0.475395262 0.644655287 0.500189841
0.484630167 0.649335742 0.504870355
0.504490972 0.658696949 0.521947920
0.528652787 0.665781498 0.535610557
0.565464854 0.685389042 0.556609571
0.609993815 0.708032846 0.582542837
0.678305030 0.744844913 0.634408653
0.597975612 0.793927789 0.668690383
0.618596017 0.794939876 0.659709036
0.627577484 0.794686854 0.678304732
0.649841607 0.803035915 0.680202484
0.675648391 0.812397122 0.692472696
0.709424496 0.824541390 0.718152761
0.744212449 0.836305797 0.738140285
0.792789459 0.855407596 0.761416733
0.039974999 0.066666998 0.141555548
0.068564542 0.070967548 0.149020001
0.116381645 0.088172451 0.158381000
0.162555635 0.118279286 0.170904279
0.220493540 0.150411204 0.186970443
0.286653996 0.192662999 0.210879192
0.361796260 0.243137240 0.243010804
0.458317488 0.310436487 0.291334361
0.087792993 0.099936545 0.164706007
0.108538538 0.104237996 0.158001453
0.134725094 0.117520086 0.170145094
0.182163551 0.142188653 0.176723555
0.231119379 0.169260010 0.195192903
0.298039436 0.207210749 0.218595803
0.373181701 0.261480004 0.251106858
0.473245084 0.332194477 0.305502981
0.139405191 0.156736091 0.179886535
0.161417097 0.165338099 0.183427989
0.192789197 0.174699187 0.197596103
0.218089730 0.191524550 0.197090447
0.265148729 0.217330739 0.215053737
0.321948260 0.250600994 0.237824440
0.390385836 0.298292369 0.271347523
0.483491778 0.368880481 0.325490057
0.214548096 0.236432388 0.216192186
0.227577537 0.239215642 0.221758187
0.243137538 0.251739651 0.226059541
0.273245096 0.268184632 0.242884174
0.318026274 0.292473018 0.255787641
0.364959091 0.326881707 0.279696286
0.436306089 0.374699652 0.318026304
0.519670784 0.451233268 0.376217842
0.286780179 0.339152396 0.277039737
0.289563715 0.348133713 0.272612184
0.305882543 0.358380824 0.286400825
0.334218830 0.374066830 0.295762450
0.372169167 0.396331370 0.313346207
0.415053636 0.424794644 0.337128639
0.476154178 0.474003851 0.377356380
0.559266388 0.541808605 0.445920438
0.365718156 0.483364999 0.369386733
0.373940706 0.492978811 0.373055011
0.386970311 0.499177903 0.377861947
0.408096284 0.512207270 0.392662913
0.439721704 0.531435847 0.416192204
0.486021519 0.554459274 0.438836008
0.536116004 0.590133071 0.477672279
0.611511767 0.646426141 0.537254870
0.447817564 0.629095078 0.485768825
0.466287076 0.636306107 0.491840512
0.471347481 0.640607476 0.501707733
0.493232161 0.651612878 0.517394066
0.524098873 0.662871897 0.534977794
0.565717816 0.683997273 0.562428832
0.614294827 0.716128826 0.596964002
0.680075765 0.749651968 0.642631471
0.604807019 0.787982523 0.659835458
0.622770429 0.789753377 0.660594642
0.625174046 0.794307351 0.672865152
0.645920515 0.800252974 0.683111846
0.671347260 0.808854997 0.691081762
0.702466607 0.820872903 0.710942626
0.743832886 0.831751823 0.729032218
0.788867712 0.851486564 0.762808383
0.057937998 0.075268902 0.163820192
0.085009553 0.086654447 0.169765636
0.122200996 0.104237907 0.171663180
0.173560634 0.129284993 0.189752996
0.224035278 0.159772083 0.201391295
0.294876635 0.206451640 0.231246084
0.370524973 0.255281359 0.267931819
0.466286898 0.323339641 0.313598931
0.101834096 0.107400090 0.161416993
0.120303541 0.108918093 0.173687443
0.142567977 0.131688997 0.182669088
0.190006554 0.149272546 0.192409739
0.244149536 0.182163358 0.217204079
0.300822109 0.223276272 0.236685798
0.378241301 0.272106320 0.273371279
0.472485870 0.346362919 0.322200894
0.156736091 0.159772098 0.187350005
0.170524642 0.169639558 0.193927631
0.186464190 0.182542995 0.205313087
0.227577537 0.202909291 0.217457443
0.274130255 0.230360284 0.232764080
0.337254822 0.264389843 0.264010012
0.401897371 0.310056865 0.296900809
0.490196049 0.382795632 0.351170003
0.224794284 0.243137538 0.234661639
0.229095533 0.247817636 0.238203898
0.261226833 0.264642358 0.252624750
0.289816260 0.288551718 0.265907615
0.323845744 0.306135178 0.278051972
0.377103001 0.337128431 0.301075429
0.444275886 0.384819716 0.341429293
0.524098635 0.460721076 0.400126368
0.292220086 0.350917190 0.287286371
0.300948888 0.351170003 0.300063193
0.319671094 0.369766086 0.310310096
0.343579829 0.382542759 0.319923937
0.382542998 0.407337189 0.342441171
0.423782289 0.436053395 0.360151559
0.484756261 0.483871073 0.403921485
0.562049091 0.554965377 0.468184739
0.374952644 0.494623661 0.395066738
0.378368169 0.500695944 0.393928260
0.394813448 0.506641448 0.407463700
0.417204499 0.520809472 0.414294451
0.449335903 0.538393140 0.430233806
0.486401081 0.560784340 0.456925809
0.540796697 0.596331000 0.493611842
0.612144232 0.649588764 0.552055538
0.458064377 0.634282351 0.508286297
0.469955564 0.636432648 0.510689080
0.478558004 0.646173239 0.518405974
0.502846241 0.654775560 0.532068253
0.531688571 0.670208573 0.550411165
0.570018709 0.690448940 0.574572921
0.622517407 0.718279421 0.611385345
0.686653852 0.751928985 0.656040192
0.609107971 0.787982523 0.677292645
0.609993458 0.790765464 0.672106147
0.628209770 0.788867652 0.681720495
0.643011034 0.801012039 0.691334248
0.669702828 0.807843089 0.701707661
0.700189650 0.818848729 0.720556617
0.742947578 0.835040927 0.747248113
0.792409658 0.853510320 0.773434579
0.089690350 0.088551998 0.196204633
0.110056639 0.099177644 0.196331546
0.139784738 0.114484094 0.206199005
0.190006644 0.136748642 0.214042008
0.244402185 0.170398548 0.233523190
0.296521366 0.209487736 0.255534291
0.375078976 0.263503939 0.289816588
0.468563944 0.333585978 0.350284815
0.120176636 0.127387539 0.198988095
0.139911458 0.125363991 0.195825279
0.162555546 0.144212186 0.212017551
0.204047829 0.159013107 0.221758187
0.249462649 0.191524550 0.239089087
0.305882424 0.227577642 0.255281359
0.382542729 0.280708641 0.300569177
0.476407379 0.349905163 0.360784650
0.177229911 0.177482545 0.228210092
0.181657180 0.176596746 0.229601175
0.208475992 0.193548083 0.246173188
0.246047094 0.209108204 0.244402200
0.287918746 0.236559182 0.263630748
0.337634385 0.270209074 0.289943010
0.406957746 0.326628655 0.328652650
0.494876444 0.392662615 0.381151229
0.236559272 0.254522294 0.260594636
0.245667636 0.257558376 0.270714641
0.266034544 0.275648266 0.278937280
0.293738306 0.290954918 0.283111632
0.334851414 0.312460244 0.309424162
0.380771488 0.346489519 0.334092498
0.448450625 0.399746895 0.371663362
0.530929446 0.472612292 0.438836098
0.302213609 0.363061547 0.328020334
0.305249661 0.364959180 0.325869381
0.327514201 0.377988726 0.335357189
0.356103837 0.401391834 0.360025436
0.397722840 0.430360824 0.382542849
0.437950581 0.459329724 0.404427826
0.497280359 0.503478765 0.447058439
0.570524991 0.564831913 0.501454830
0.378494471 0.499810249 0.420999706
0.383175075 0.504870594 0.426438987
0.398481816 0.514611006 0.434029192
0.423023373 0.537001729 0.452245623
0.459962159 0.558507442 0.475901544
0.500695884 0.579759479 0.500189722
0.546742558 0.609361351 0.528906047
0.617457151 0.663377404 0.582669139
0.467046171 0.644781888 0.541176200
0.475774974 0.648956299 0.542567611
0.487539649 0.650853574 0.546868980
0.512966573 0.665907562 0.563440919
0.538266957 0.678304732 0.578621149
0.580645323 0.699051261 0.600126326
0.630739927 0.729285240 0.635800302
0.693738222 0.759013355 0.674383044
0.615306616 0.788867831 0.682732821
0.620113611 0.791650832 0.689689696
0.631878614 0.800505579 0.693105400
0.650221407 0.803288937 0.699683607
0.677292824 0.811131954 0.717394114
0.707147419 0.822517395 0.730297148
0.750411093 0.837824047 0.756103814
0.796963751 0.858190954 0.790765405
0.129158795 0.109803997 0.240480989
0.139405385 0.116761386 0.240101442
0.170778185 0.132447794 0.249209374
0.215433285 0.158253998 0.257811189
0.266413808 0.191904187 0.270335168
0.321189165 0.224288732 0.296521246
0.381277472 0.270208687 0.326501966
0.476027817 0.342947453 0.391776979
0.159772083 0.139278993 0.247565195
0.165338099 0.156735986 0.244022742
0.192662999 0.160531297 0.254142731
0.230360180 0.181404352 0.268437535
0.274636626 0.205692634 0.281340986
0.329791158 0.239974722 0.303858280
0.392410278 0.289690256 0.336622179
0.483871222 0.360531002 0.397470027
0.201391295 0.199746981 0.267046213
0.209993988 0.205313191 0.272612274
0.231119379 0.214674294 0.272612274
0.261606365 0.233523086 0.291461110
0.303858370 0.253004283 0.304617256
0.353320450 0.286654174 0.327387452
0.415180355 0.333586276 0.364073277
0.499556929 0.404174685 0.418722212
0.253131002 0.270588428 0.305882633
0.259708732 0.278811008 0.313725621
0.280834645 0.286527276 0.316382170
0.307400614 0.305755645 0.328905404
0.344212621 0.327261269 0.350411028
0.388488352 0.363820612 0.375458628
0.449589282 0.409234911 0.409487575
0.528652430 0.475268751 0.466413796
0.301707774 0.373561174 0.368121386
0.323339552 0.379886389 0.374320269
0.331309378 0.391651183 0.382922173
0.365211964 0.414421380 0.400253177
0.401264966 0.433902383 0.423023373
0.438330114 0.465527922 0.438583374
0.493485063 0.506767869 0.480076015
0.568753958 0.567236006 0.527893603
0.380138993 0.509550869 0.463630438
0.389373988 0.513092995 0.462239116
0.407463282 0.525996149 0.473624557
0.428589374 0.540417254 0.485262752
0.462998182 0.563187480 0.506388664
0.503732204 0.592156470 0.530297339
0.560404718 0.627450943 0.568121076
0.628968954 0.675142348 0.619860888
0.473877281 0.645414531 0.563187659
0.475901634 0.654143274 0.566982567
0.488045454 0.658823431 0.573308170
0.511954725 0.672106564 0.590512276
0.552182376 0.691714048 0.612523615
0.592915535 0.712333977 0.636179924
0.637571335 0.738646328 0.665654719
0.708918214 0.768374443 0.708032906
0.614927411 0.788741589 0.693231940
0.619987428 0.795825601 0.705249906
0.630739868 0.801011860 0.709424496
0.656925559 0.809108138 0.723339617
0.682099819 0.816318810 0.733839571
0.714104593 0.830866814 0.751549423
0.755977333 0.844149351 0.776090860
0.802150190 0.862112582 0.799746811
0.164579004 0.137127995 0.303605229
0.177355915 0.143327191 0.303858280
0.206704468 0.160278261 0.315243751
0.245540723 0.180518731 0.324730814
0.294117719 0.206830993 0.338646710
0.346615702 0.248576716 0.362302750
0.407716721 0.297533274 0.389499992
0.487160057 0.360910654 0.445540637
0.187602729 0.164073348 0.304237753
0.196331367 0.170398533 0.309803933
0.222517088 0.183301985 0.320430189
0.256926090 0.203288928 0.328146279
0.299557447 0.233016834 0.344212532
0.360784560 0.268564284 0.374320149
0.418089569 0.313978285 0.406325072
0.493737787 0.383301824 0.459076524
0.232384726 0.225932717 0.337128639
0.236179724 0.223529533 0.334345460
0.254649073 0.232257813 0.346995354
0.283618093 0.252245277 0.349272579
0.322707087 0.275268823 0.362808019
0.378114730 0.312586993 0.398102641
0.433649629 0.356609821 0.426692098
0.509550691 0.419607729 0.474509627
0.270588607 0.296394646 0.379253477
0.282858968 0.299810171 0.379127294
0.296142012 0.311701357 0.382542729
0.322707295 0.330929726 0.395825654
0.363440990 0.351170003 0.413029909
0.405818969 0.386084378 0.435041010
0.465021938 0.430360645 0.467931837
0.541176438 0.489816606 0.527767420
0.319164932 0.399367362 0.425173968
0.332194984 0.400379717 0.436053365
0.350537747 0.415053666 0.442504436
0.369386464 0.427197933 0.453004628
0.407716811 0.450980574 0.469070196
0.449335933 0.478051931 0.491460949
0.506135523 0.520303607 0.532574236
0.576344132 0.571536839 0.574699402
0.395572484 0.522833705 0.510815740
0.398355752 0.529032052 0.513599157
0.414041847 0.539152086 0.521948099
0.438330114 0.552561760 0.532953680
0.465275377 0.570904493 0.549272716
0.505249918 0.595192432 0.573687732
0.563820243 0.629728138 0.602530181
0.631119430 0.673497498 0.642125547
0.481341034 0.652751327 0.599367082
0.480835199 0.654396057 0.614168406
0.494876564 0.664136589 0.610752761
0.515243530 0.678684294 0.626438797
0.552055657 0.694370747 0.645034790
0.601011813 0.722327232 0.669197023
0.656040549 0.753447533 0.702466547
0.722201109 0.790132821 0.741555810
0.612903476 0.789247394 0.731435537
0.624161720 0.797975779 0.725616515
0.629095495 0.797849298 0.737128437
0.646299839 0.807336926 0.737001717
0.676407516 0.819481373 0.749525428
0.721315324 0.833016753 0.772928596
0.770398200 0.851233363 0.800126433
0.815559864 0.867299139 0.824288368
0.211385280 0.173813999 0.411005557
0.217078000 0.175458282 0.406830996
0.245161086 0.191903800 0.417963356
0.284756631 0.213029698 0.425047278
0.329791188 0.243516982 0.439974755
0.381024539 0.281467736 0.457937986
0.440101266 0.335863560 0.493358552
0.504237652 0.397596538 0.528273523
0.218089551 0.203921720 0.417963266
0.237065449 0.206072003 0.418595999
0.256546736 0.217077807 0.420746118
0.292599738 0.240480900 0.432764173
0.335863262 0.264642566 0.452751189
0.392789423 0.306514829 0.474256635
0.450601012 0.355344355 0.501960814
0.514484346 0.416445255 0.539025903
0.248197094 0.253763199 0.427956939
0.263251215 0.257558554 0.436812192
0.281847179 0.273245096 0.440607578
0.311701179 0.286274552 0.450094849
0.356483281 0.313978463 0.470588267
0.407337189 0.350284845 0.492599368
0.464516282 0.397596449 0.518279433
0.525237024 0.452877820 0.555471122
0.298671722 0.335863262 0.476027846
0.302087337 0.338140279 0.470461547
0.317393899 0.348893017 0.480076104
0.346995294 0.364452630 0.488298625
0.387982368 0.390259087 0.506261826
0.433649451 0.427071810 0.529285371
0.487160265 0.469829291 0.559519112
0.551169813 0.522707105 0.594181061
0.342062086 0.445540667 0.521821737
0.353320479 0.446679115 0.527893662
0.367488980 0.455661386 0.528399527
0.389753550 0.464010030 0.540290534
0.423023164 0.484630197 0.554332733
0.469576120 0.514737785 0.573181570
0.521568477 0.551170409 0.596710622
0.587855697 0.595445693 0.640227795
0.413915306 0.559519291 0.586085021
0.417963743 0.563187778 0.587476492
0.428842515 0.567741632 0.590385735
0.453131050 0.583048940 0.599746704
0.486401170 0.597343683 0.618089795
0.519418180 0.616572022 0.629854620
0.574066937 0.646552801 0.658950329
0.643263996 0.685262442 0.693864524
0.505123556 0.678937554 0.667805552
0.503478885 0.675015569 0.664895833
0.521441996 0.684503257 0.670082271
0.539405584 0.697912574 0.680075943
0.571536541 0.711195350 0.692473173
0.618975043 0.736749053 0.719038248
0.667805552 0.759013295 0.745603502
0.729917943 0.790512323 0.766350091
0.630233884 0.798861325 0.766097367
0.629980624 0.798987865 0.763567328
0.639215887 0.802909374 0.772548974
0.661733210 0.814294815 0.780392051
0.688804269 0.824414790 0.790006042
0.725363970 0.839848280 0.801264882
0.776976407 0.863377392 0.825553358
0.831245780 0.885009527 0.863124549
0.240606993 0.215812817 0.548260450
0.250853688 0.222770527 0.551170230
0.275395244 0.234914556 0.559519470
0.310562819 0.261100590 0.567741990
0.361543328 0.293737978 0.577229202
0.417457551 0.338393271 0.595951796
0.478178412 0.398228645 0.619734168
0.540290654 0.459329635 0.647691369
0.248703241 0.251359969 0.558254004
0.262745112 0.252751619 0.569513023
0.284882933 0.261480063 0.564452887
0.322833568 0.288424909 0.572295845
0.369006991 0.321695149 0.584946275
0.427324623 0.367741823 0.609867334
0.480329096 0.421252370 0.629348636
0.552435040 0.485262334 0.654901803
0.274762839 0.308032811 0.573054731
0.285389096 0.307147533 0.567995131
0.306388170 0.323213071 0.581024647
0.340164393 0.339658171 0.583554566
0.383554935 0.370018810 0.598481953
0.436685830 0.411764562 0.618975282
0.493864715 0.460974157 0.636432588
0.558506906 0.514104664 0.666666806
0.315875798 0.386211097 0.593927741
0.322201014 0.393801451 0.597722948
0.341302633 0.405059993 0.605059862
0.378368199 0.421125650 0.616065800
0.413788795 0.448070765 0.628715813
0.459708989 0.482985437 0.640733778
0.520050287 0.526502013 0.663630605
0.586843550 0.575078964 0.689563572
0.377229542 0.503478765 0.641745806
0.380645186 0.503478825 0.635041118
0.386084646 0.502087176 0.640480816
0.408096284 0.511574686 0.642378092
0.450727522 0.537001610 0.655787468
0.497280151 0.563946784 0.669829249
0.554838717 0.599873364 0.691840589
0.619607747 0.635800123 0.716381609
0.459076703 0.619860470 0.692852616
0.460341454 0.619607985 0.690702081
0.472106457 0.625173867 0.695003033
0.488930911 0.632005215 0.699304402
0.508791685 0.633396447 0.700569272
0.552435279 0.658950210 0.717393935
0.605692685 0.686400771 0.737507820
0.672612548 0.720050573 0.761416554
0.558380783 0.728905499 0.747880876
0.558380783 0.729538381 0.754079759
0.567615211 0.731688857 0.751802385
0.590132713 0.742947280 0.763946772
0.619354963 0.755850732 0.774825871
0.657052696 0.772169292 0.786970496
0.695129812 0.783301830 0.798734725
0.751929283 0.812270880 0.825300097
0.661985755 0.821505547 0.804300785
0.661985993 0.823656023 0.816571832
0.678557634 0.823276520 0.822770476
0.692979217 0.830360413 0.826438844
0.720050573 0.841239810 0.831625581
0.759645402 0.857811570 0.849209547
0.806704700 0.878178596 0.871347070
0.858190596 0.903731704 0.897279739
