Assets/Shaders/EldamarStudio/100 Sci-Fi LUTs Pack/LUTs/cube/Kyle LUT.cube
DOMAIN_MIN 0 0 0
DOMAIN_MAX 1 1 1
LUT_3D_SIZE 32
0.031373002 0.050980002 0.129411995
0.028336613 0.047944386 0.126375601
0.036052998 0.051360000 0.127640769
0.048197322 0.057431996 0.130676836
0.060341999 0.063503996 0.134092003
0.072485998 0.069575995 0.140164003
0.084629998 0.075648002 0.143706322
0.098418698 0.080075711 0.145098001
0.111322001 0.084630094 0.145857096
0.117394008 0.093738481 0.148893490
0.132194862 0.094117999 0.149020001
0.145350993 0.100189731 0.155091733
0.157494992 0.108158998 0.161922649
0.169892028 0.114484027 0.164958969
0.185072407 0.123592407 0.167994574
0.197849602 0.132700801 0.173434600
0.213029996 0.141809195 0.179506987
0.230613559 0.151549980 0.185578987
0.245793983 0.163694024 0.191651002
0.258190989 0.170272008 0.194939643
0.276027739 0.180138990 0.197975740
0.297280133 0.192283258 0.203036129
0.318405986 0.204554468 0.212144479
0.336622000 0.219734102 0.221252099
0.361669868 0.234914273 0.232637569
0.386211634 0.251486331 0.243390307
0.407969981 0.269703001 0.253004134
0.432257980 0.287918985 0.265148908
0.461859614 0.306134969 0.282605976
0.488677949 0.329664588 0.302593172
0.515622795 0.356989563 0.322074592
0.549019992 0.384314001 0.337255001
0.034408614 0.057052772 0.123339996
0.034408614 0.054016385 0.132447600
0.044275772 0.059582774 0.135862991
0.056040548 0.066540383 0.135989621
0.066034451 0.071853384 0.132953539
0.075521611 0.072612382 0.131056383
0.085135929 0.081214704 0.144718707
0.096773989 0.086148061 0.148134395
0.110562705 0.089184090 0.147375301
0.123466000 0.093738489 0.145857096
0.129538000 0.099936999 0.151802614
0.144338861 0.106261730 0.154079884
0.157494992 0.114231281 0.158886746
0.170145065 0.120303772 0.162428647
0.188108802 0.126628801 0.171030968
0.200885385 0.135736585 0.176470384
0.214547813 0.143326998 0.181024805
0.230613559 0.151549980 0.185578987
0.245793998 0.163694024 0.191651002
0.269322991 0.175838009 0.194939643
0.280581743 0.184313729 0.199873477
0.298292249 0.195319399 0.206072256
0.321442366 0.207590118 0.215180114
0.339658380 0.222770497 0.224288493
0.364705652 0.237950668 0.235673383
0.389247268 0.254522353 0.246426284
0.411005735 0.272738725 0.256040394
0.435294360 0.290955365 0.268184513
0.459582329 0.309171349 0.288298398
0.485641986 0.332700551 0.298039198
0.512586951 0.361796170 0.317014575
0.545983613 0.393421590 0.349399000
0.043896001 0.067425996 0.125870004
0.043896001 0.066540390 0.132827386
0.054648772 0.069955774 0.141935542
0.063503996 0.074003838 0.141682386
0.070714772 0.077419326 0.135863230
0.083364837 0.080961771 0.136369169
0.090322323 0.084250547 0.137760773
0.101074994 0.091714226 0.149652153
0.113219194 0.096014999 0.151170224
0.127008259 0.100442708 0.149525508
0.135609999 0.104237996 0.150916994
0.145730510 0.110309996 0.156989008
0.159645766 0.118152767 0.160151869
0.172295764 0.124225222 0.163693815
0.190512046 0.130297214 0.172802180
0.203921765 0.138772964 0.179506764
0.217583969 0.146362767 0.184060574
0.232764170 0.153700203 0.186464220
0.247944221 0.165844247 0.189500242
0.265022039 0.177988783 0.194939643
0.287412733 0.188235030 0.201770738
0.300569236 0.197343349 0.208096221
0.322327971 0.208475500 0.216065496
0.340543985 0.223655909 0.225173905
0.361290276 0.240986496 0.234408766
0.388614625 0.256166875 0.246552765
0.411891133 0.273118079 0.257937998
0.436179876 0.289690107 0.273370981
0.460467935 0.310056955 0.284882814
0.488298357 0.337128133 0.302593172
0.514231563 0.365211546 0.314231545
0.545098007 0.396077991 0.348639995
0.059835162 0.078305162 0.131941989
0.059835162 0.078305162 0.138013989
0.065527931 0.083871000 0.142441601
0.076913163 0.087412998 0.149020001
0.078431159 0.084756166 0.141050160
0.092725925 0.089057706 0.143200383
0.100315996 0.093864672 0.143706322
0.108412154 0.098544993 0.147374868
0.119797260 0.103098996 0.153447077
0.131435961 0.108158998 0.152941003
0.140670449 0.111321867 0.155470997
0.153067350 0.117647156 0.158254176
0.165212125 0.123719163 0.165464818
0.177103117 0.129791155 0.168754131
0.192282975 0.135863155 0.175838247
0.206957445 0.144338965 0.181277990
0.221885189 0.151929155 0.185831800
0.236432984 0.158001155 0.188867584
0.250980198 0.168880180 0.189500183
0.266160548 0.181024551 0.195066184
0.285135895 0.192536578 0.204300731
0.306388289 0.201644182 0.212396994
0.324857980 0.211005494 0.218342498
0.343073994 0.226185903 0.225173905
0.361037254 0.241112977 0.234282285
0.383807778 0.257937640 0.247311980
0.411638141 0.274130076 0.258950084
0.437444717 0.290828437 0.274889141
0.462997943 0.312586963 0.287665993
0.489563197 0.335863292 0.299051166
0.517267406 0.367488712 0.316887945
0.543832839 0.394813150 0.343832821
0.080328546 0.088551991 0.137254998
0.079949096 0.088551991 0.144465551
0.082099773 0.094244219 0.146236554
0.087159999 0.099556997 0.147501618
0.092852540 0.099936545 0.149779007
0.104996540 0.099936545 0.149779007
0.112080544 0.104617089 0.149399459
0.119797245 0.110309541 0.152688459
0.128905639 0.114863545 0.157242462
0.138014033 0.114863545 0.154206067
0.147501871 0.118532412 0.159519017
0.160278276 0.124857701 0.163946822
0.173940286 0.132827550 0.168501109
0.185832039 0.138646513 0.176850453
0.194939673 0.144592002 0.179759577
0.209613889 0.153067812 0.183175266
0.224794373 0.161037549 0.185831800
0.242504984 0.167488992 0.189247042
0.254649043 0.173561007 0.192283437
0.269955903 0.184819564 0.198482007
0.288172185 0.196584478 0.207210541
0.308665574 0.207716867 0.217330530
0.329917938 0.217077494 0.223529041
0.348387003 0.232257903 0.227071449
0.365085274 0.245540544 0.235800281
0.384440303 0.259076178 0.246805966
0.408602536 0.275268614 0.264263064
0.438962519 0.296520948 0.273371428
0.466286778 0.320050627 0.288172245
0.494370133 0.343327165 0.301960945
0.520303130 0.365971088 0.317647040
0.541555583 0.393295527 0.341935098
0.095508933 0.106767997 0.137254998
0.092473321 0.106767997 0.152435392
0.094244100 0.108918220 0.155344933
0.101074994 0.111700997 0.156609774
0.111068547 0.112080544 0.158886611
0.114104934 0.115116931 0.155851007
0.121188931 0.117647253 0.153320685
0.128905639 0.121189155 0.155724064
0.138014019 0.123971932 0.161037162
0.147122428 0.123971932 0.163314447
0.159139931 0.132700801 0.166097060
0.170778006 0.136748672 0.171663508
0.182289571 0.141935349 0.176091284
0.191904038 0.147754893 0.179886058
0.201012418 0.150790513 0.179886058
0.219734654 0.159139812 0.185198992
0.232384861 0.168248191 0.187729061
0.243010983 0.176850334 0.189499989
0.260721028 0.185705006 0.195319042
0.278431714 0.194560349 0.203921422
0.294244170 0.204174668 0.208728746
0.310436219 0.213788867 0.214294940
0.326881558 0.223149493 0.220493436
0.348133981 0.238329902 0.229601845
0.368880272 0.253510267 0.244528934
0.390512317 0.268184572 0.252878010
0.414295077 0.284377009 0.258444071
0.435926884 0.305629343 0.273371428
0.460973859 0.326881707 0.290448964
0.491081119 0.352182150 0.306388259
0.520809174 0.377609193 0.323719203
0.544591963 0.402403921 0.348007888
0.108158998 0.122454315 0.154965326
0.105123386 0.119923994 0.154965073
0.110689774 0.124224998 0.159392685
0.114484482 0.127640486 0.160657853
0.122074313 0.128526092 0.163314328
0.127260923 0.127260923 0.162428945
0.135357320 0.132826999 0.161923006
0.143074021 0.137508094 0.162175611
0.152941316 0.141429543 0.167362183
0.163820475 0.143200323 0.172169805
0.170777991 0.144338876 0.175205454
0.182921991 0.151423007 0.176217318
0.195066288 0.156103328 0.180139318
0.205566287 0.162175730 0.183428317
0.214674085 0.167489216 0.187982321
0.228589475 0.172928631 0.190385520
0.248071060 0.180392310 0.194813192
0.260088891 0.189120978 0.197722897
0.276407659 0.200126365 0.205692649
0.289563715 0.209234670 0.209487349
0.307779998 0.218343049 0.216697991
0.323592454 0.228463322 0.221378937
0.339025795 0.239215627 0.227704301
0.360278219 0.251992226 0.239215910
0.379253298 0.267172605 0.248324275
0.400252640 0.283744305 0.260215312
0.423908859 0.301075071 0.265528321
0.449209750 0.322327405 0.282732427
0.473118246 0.341050088 0.298039287
0.499177456 0.367615223 0.318026483
0.531941473 0.395698786 0.337381274
0.562808335 0.421632320 0.361669689
0.123592407 0.137634695 0.166350290
0.117267378 0.134598300 0.164958596
0.122833766 0.139658406 0.169006705
0.128146991 0.140670419 0.167741865
0.131562248 0.142568156 0.168880612
0.138899416 0.142061755 0.166350290
0.150790304 0.146615699 0.171283990
0.158254400 0.147754416 0.167995006
0.166603699 0.153826997 0.171789706
0.176976696 0.157748222 0.177862242
0.183301702 0.161163703 0.182669118
0.191777408 0.165211707 0.183680996
0.203921407 0.170145348 0.183680996
0.216066003 0.175964370 0.186211318
0.226565272 0.183428109 0.190891996
0.240480497 0.187855989 0.196204916
0.255660892 0.195446193 0.202276915
0.273750961 0.202909678 0.206198692
0.289943278 0.215053707 0.214294970
0.300696015 0.221126065 0.219481349
0.314990699 0.231878728 0.227703691
0.334218830 0.241998985 0.232763827
0.350790679 0.254269481 0.238456979
0.370524883 0.267931700 0.250600994
0.391144693 0.282352984 0.257179290
0.410752356 0.298924685 0.267678976
0.432510853 0.317646772 0.275269002
0.458697319 0.338899106 0.291207969
0.483364969 0.360784352 0.308412522
0.514357805 0.377862334 0.327134877
0.538140297 0.406451374 0.346616089
0.569260001 0.433017284 0.368627012
0.142568097 0.152814895 0.172422081
0.133459702 0.152055800 0.170145184
0.134977773 0.153826669 0.173560768
0.142568097 0.160405010 0.180645153
0.143327087 0.155092001 0.177229986
0.152055934 0.157748163 0.171157315
0.163187861 0.161037192 0.176976413
0.173434407 0.164452821 0.179380089
0.180265903 0.162935004 0.176344082
0.186337903 0.169007003 0.182416081
0.194687009 0.175838098 0.187728986
0.202783257 0.181910098 0.189752996
0.212271094 0.186084643 0.190512091
0.224162057 0.189121038 0.190765128
0.235799983 0.197216779 0.193801507
0.251106888 0.202276900 0.198481992
0.264769286 0.208349288 0.206072196
0.279949516 0.218090072 0.214547992
0.298038989 0.230234101 0.220620006
0.309424341 0.234788358 0.227451101
0.321568638 0.242758080 0.235040992
0.338014156 0.255661190 0.244908035
0.358886987 0.267805159 0.248070925
0.375837982 0.282353014 0.258950084
0.396331251 0.297533363 0.265781194
0.417583644 0.314105064 0.273750961
0.439848065 0.332321078 0.286401093
0.464389801 0.353320420 0.298798084
0.490954936 0.374952555 0.318532646
0.520050406 0.396964073 0.337002158
0.551802695 0.417078137 0.356483579
0.566983104 0.441366196 0.371663213
0.163820490 0.167994529 0.187602490
0.154712111 0.174067304 0.178494886
0.152055502 0.171157435 0.174067199
0.156230181 0.172042683 0.176597178
0.164579496 0.179380015 0.183301985
0.170651495 0.179380015 0.177229986
0.174320325 0.176976815 0.181277961
0.179506972 0.179253981 0.184187487
0.186337903 0.184187397 0.185452491
0.195445538 0.187223002 0.191524476
0.210246399 0.196204886 0.194686607
0.220999256 0.203162506 0.195825011
0.230107650 0.206957504 0.196963653
0.239342451 0.207337052 0.199873522
0.248450041 0.210373431 0.202909917
0.264895588 0.216065988 0.205945686
0.278431654 0.223529696 0.212144196
0.289057910 0.233270481 0.220619991
0.304237574 0.245414525 0.226692006
0.319544375 0.251992494 0.235547349
0.332573980 0.259835750 0.240733743
0.346868783 0.271094620 0.245161012
0.364959002 0.286021948 0.251106530
0.377103001 0.298165977 0.257179290
0.396331251 0.312713742 0.265781194
0.417583644 0.329285443 0.277419180
0.439848065 0.347501457 0.292473078
0.467172414 0.365717471 0.307653427
0.499683291 0.381403804 0.333333254
0.529158592 0.404047668 0.353194177
0.555092037 0.432637304 0.368627578
0.576091468 0.465654969 0.383807957
0.167615131 0.186084747 0.185325876
0.170145482 0.189246908 0.193674520
0.167488873 0.191018134 0.186717138
0.173814029 0.190259039 0.184186995
0.185072869 0.194939867 0.187223122
0.186084867 0.194939867 0.186211124
0.194687188 0.197470188 0.190259129
0.200126871 0.200126871 0.196331546
0.206198871 0.205439776 0.198102772
0.213156268 0.208475381 0.197723001
0.225173742 0.211511746 0.203795001
0.234281868 0.220620126 0.206831142
0.242504641 0.226439103 0.207716748
0.251866013 0.228715867 0.209234878
0.263630450 0.234408408 0.214927405
0.272738665 0.237444818 0.215559989
0.287919194 0.244529054 0.225679860
0.299178004 0.253004849 0.237065002
0.307526946 0.260594875 0.238582999
0.325489879 0.267172873 0.241872355
0.338899463 0.278937578 0.250727743
0.353067726 0.290069729 0.256799757
0.371157497 0.301328152 0.262871742
0.386084855 0.313472867 0.268943787
0.402782857 0.327893555 0.277293265
0.424794316 0.343073785 0.289184034
0.447564930 0.359772146 0.303858101
0.470082283 0.377988726 0.316635281
0.494749814 0.401517689 0.334471822
0.525616348 0.420999020 0.359266371
0.554079711 0.445161045 0.376976848
0.579380095 0.472486019 0.390132993
0.180771500 0.204300985 0.196457997
0.185831636 0.207337126 0.193421617
0.188741505 0.210246250 0.201897264
0.190006346 0.211511418 0.197090417
0.200632542 0.214547798 0.196710974
0.202277258 0.216192499 0.198355258
0.209867060 0.216698572 0.201391518
0.215686440 0.221379250 0.204174519
0.222138077 0.226692155 0.209488004
0.229475245 0.229727760 0.210246757
0.239341974 0.234787852 0.211891264
0.251486510 0.237824246 0.217963248
0.257558495 0.245793998 0.219861001
0.265781283 0.249968246 0.219861001
0.276154518 0.256040245 0.222390980
0.287919044 0.259709060 0.231751993
0.298545241 0.264263242 0.233270183
0.311321974 0.272865564 0.245793685
0.317394018 0.280329227 0.247184992
0.330550015 0.286401272 0.249968350
0.346868724 0.294370502 0.253004730
0.360151857 0.308285981 0.260847986
0.377355993 0.318405986 0.267046481
0.394434154 0.328652531 0.275015742
0.413915515 0.345098197 0.289437294
0.433523178 0.360278159 0.299936950
0.456673324 0.376976490 0.314484328
0.477925688 0.398228884 0.328146875
0.503858447 0.417710453 0.347628236
0.528146446 0.440227687 0.364073426
0.557115555 0.463251054 0.388488561
0.584439993 0.488678247 0.406325251
0.203542277 0.229348272 0.211258650
0.208475634 0.232384667 0.206704244
0.212397411 0.235420495 0.208222404
0.215433478 0.238456443 0.214547798
0.218469188 0.240733728 0.211891636
0.221505582 0.242251933 0.214168355
0.227324307 0.243896633 0.217204317
0.235420346 0.244908631 0.217457637
0.239974722 0.250980616 0.218975633
0.249083117 0.254395813 0.225047633
0.255913764 0.261479914 0.225300640
0.264769137 0.264389515 0.228210002
0.276913643 0.268564284 0.235420644
0.283491641 0.274636298 0.235673666
0.293485403 0.280708253 0.236559272
0.303858638 0.284376800 0.243896276
0.314863980 0.291208267 0.251486182
0.327640563 0.296015292 0.255154997
0.335230649 0.303605616 0.258696675
0.345730275 0.312207609 0.261732996
0.358633369 0.319038540 0.264769375
0.374825895 0.328146428 0.270841628
0.390006244 0.340291142 0.277293116
0.406198800 0.351423025 0.286400735
0.425553620 0.365085214 0.298924565
0.446805984 0.381910294 0.315496594
0.468058407 0.398102701 0.328146696
0.489310771 0.421758264 0.343327075
0.515876174 0.443010628 0.362681806
0.541429520 0.464136809 0.383807808
0.565717816 0.486274600 0.401644588
0.592789292 0.513346016 0.428716004
0.232637957 0.264769047 0.220873028
0.236179650 0.267552435 0.223908648
0.238203734 0.270335317 0.226438805
0.241998911 0.273371190 0.229222164
0.244528547 0.276407480 0.232637957
0.247564942 0.273371100 0.232637957
0.251106739 0.275142312 0.234661713
0.256925702 0.277040005 0.234661713
0.265781134 0.277799040 0.233902991
0.274889529 0.283871055 0.239974990
0.278431177 0.292852908 0.240481034
0.283997536 0.296141982 0.242757812
0.291841000 0.298418999 0.247817680
0.303985000 0.304744005 0.256419986
0.316128999 0.310815990 0.259456366
0.325869799 0.314484298 0.264896005
0.335230827 0.321568429 0.269196868
0.344844580 0.331689030 0.272865057
0.360024989 0.331689060 0.278937072
0.370398372 0.342315048 0.281973392
0.381151050 0.350917041 0.285515696
0.395066231 0.358254164 0.291081965
0.413282990 0.367489010 0.303352475
0.425680041 0.382542908 0.312713116
0.442125052 0.395699024 0.321821302
0.461985648 0.409234673 0.333965659
0.483238071 0.425174057 0.348893076
0.504490495 0.446426421 0.364073455
0.530296862 0.469829023 0.381909996
0.555597425 0.494370401 0.403162420
0.580392122 0.518912017 0.428969055
0.604680955 0.543200076 0.453257114
0.247817561 0.289057791 0.236053407
0.256925941 0.289057791 0.239089027
0.251865625 0.289690375 0.237824187
0.254142880 0.291587651 0.237318411
0.262492269 0.295002967 0.239089444
0.259708911 0.300695479 0.247817561
0.267805278 0.300189406 0.245287895
0.272359103 0.304110974 0.245161414
0.277419180 0.306641042 0.246046990
0.283997893 0.305123389 0.252118975
0.290196389 0.314105242 0.255281836
0.299683809 0.319165111 0.259709388
0.308285981 0.322706968 0.265148818
0.316128999 0.329032004 0.271600366
0.328272969 0.338140368 0.274635971
0.338013768 0.341809213 0.280076176
0.348639965 0.346363217 0.283112407
0.358886391 0.353700370 0.285009801
0.366097003 0.359013408 0.291081846
0.384060711 0.364579409 0.291587830
0.394687146 0.373814136 0.297912687
0.406451702 0.383301795 0.304743558
0.422390580 0.394813389 0.312460065
0.440607399 0.406957418 0.327640474
0.455281675 0.422011256 0.337001681
0.475268781 0.436559051 0.350284368
0.498418480 0.452245384 0.366856098
0.519670844 0.470714390 0.379253834
0.538267076 0.489310622 0.397090375
0.560151994 0.514104962 0.415306807
0.584693372 0.540796936 0.441872567
0.613788545 0.567488790 0.480582207
0.265401602 0.313345969 0.248829991
0.267299175 0.313345969 0.249462426
0.274256796 0.313345969 0.252498567
0.270208597 0.315875977 0.249968633
0.276280999 0.319670767 0.249588996
0.275268883 0.321694791 0.256672859
0.279949307 0.332321405 0.265275121
0.285768688 0.327387691 0.262239099
0.289563596 0.330423713 0.261480004
0.295635968 0.333966076 0.264263004
0.306514978 0.337760836 0.269829065
0.310563236 0.342821240 0.272865444
0.320430130 0.346995592 0.276280999
0.328273058 0.352814555 0.279823005
0.340417594 0.357621372 0.285009354
0.352561593 0.364326596 0.288045615
0.360151798 0.368880779 0.294117987
0.369892359 0.374952763 0.296521395
0.377735615 0.381024778 0.300822198
0.387728930 0.389500588 0.303731978
0.407842934 0.401264817 0.313219726
0.420999318 0.411385119 0.324351609
0.435926288 0.422011286 0.333333075
0.447311819 0.431878597 0.343959510
0.467805266 0.446299851 0.354585320
0.486021638 0.461480230 0.367868304
0.508285820 0.477166563 0.386084586
0.527640402 0.495382577 0.402023882
0.546236634 0.513598621 0.414674580
0.567994893 0.535357356 0.439974517
0.590765357 0.561163783 0.462492168
0.618089795 0.586969972 0.495888978
0.285136193 0.339152187 0.260973990
0.285136193 0.339152187 0.264009982
0.284882993 0.340670377 0.269196779
0.289690167 0.339405209 0.269703150
0.291081637 0.345097721 0.267425835
0.294496983 0.348513365 0.272359192
0.296520978 0.352561623 0.276407301
0.302466899 0.360784471 0.280455470
0.305503100 0.354712278 0.278937280
0.310815990 0.362302691 0.279696375
0.319670975 0.365591317 0.283997178
0.327261090 0.370145261 0.289563239
0.331436098 0.372042984 0.290322632
0.340417385 0.377356052 0.290449202
0.352561802 0.381657124 0.296521187
0.363188177 0.388614625 0.301707804
0.375332177 0.396205187 0.304744154
0.382669151 0.401644766 0.310816169
0.392662972 0.406831354 0.314737439
0.403288841 0.414168537 0.317773342
0.415433109 0.425553620 0.326881915
0.433649361 0.438709527 0.340038061
0.448197156 0.447944373 0.351675987
0.458696872 0.458444089 0.362176090
0.476913273 0.470588267 0.374319881
0.496774316 0.484376967 0.386210829
0.517394245 0.500442863 0.403289109
0.535610199 0.519670963 0.419481367
0.553826451 0.536369145 0.438456655
0.577103317 0.556609392 0.453637093
0.599620402 0.580898225 0.483997375
0.622644007 0.605186343 0.509551167
0.305755973 0.366476536 0.275648147
0.305755973 0.367741704 0.281087548
0.304870367 0.369892299 0.286147773
0.302466720 0.371663541 0.291461140
0.306641579 0.369386137 0.290322959
0.316002220 0.377988458 0.294117630
0.317520142 0.379506528 0.294623554
0.320176840 0.382163107 0.295256138
0.325490475 0.387476057 0.296015054
0.328526080 0.390512466 0.299051434
0.334471554 0.394180834 0.301454663
0.340543568 0.397975713 0.305882156
0.346615702 0.403668106 0.309803605
0.353194475 0.403921127 0.307526976
0.365338564 0.409614354 0.313598931
0.375079215 0.417457312 0.318405956
0.385705560 0.425932735 0.324225187
0.396584541 0.434408575 0.327893943
0.408728600 0.437444955 0.333965957
0.420872569 0.442631543 0.337887168
0.433649451 0.452498525 0.346616000
0.446426541 0.462998122 0.357748419
0.458570540 0.472232968 0.366982549
0.470714569 0.484376967 0.379127353
0.489057243 0.496521145 0.392283261
0.508918285 0.510562718 0.406830788
0.527135015 0.523212731 0.423529148
0.545350969 0.544212162 0.436179847
0.563567102 0.560151339 0.457052499
0.587728977 0.578873694 0.477925301
0.611764967 0.599114180 0.494370610
0.629980981 0.623402953 0.524731398
0.323972017 0.393801033 0.299937010
0.323972017 0.399873793 0.302972615
0.326122791 0.403289199 0.299810022
0.324857980 0.406325191 0.298798203
0.321822017 0.408855408 0.302467048
0.333966017 0.411891043 0.314611048
0.335736960 0.412903041 0.315876007
0.337381244 0.414547741 0.317520708
0.340670168 0.417836905 0.320303887
0.343706518 0.420872539 0.323339522
0.349652022 0.426818788 0.323466033
0.355723977 0.428589970 0.325743258
0.361796021 0.432511300 0.329032332
0.368374139 0.440353990 0.331815034
0.380518913 0.443390429 0.337887019
0.390259206 0.449083030 0.339152068
0.400885463 0.455407977 0.344212234
0.411764979 0.461733013 0.352182060
0.417837024 0.467805028 0.358254045
0.429980993 0.470841408 0.364326060
0.444022715 0.479822993 0.373940468
0.458950162 0.489942998 0.385072887
0.473751009 0.496521056 0.394307017
0.485894978 0.508665025 0.406451821
0.502592981 0.520809591 0.416318715
0.521062315 0.537128627 0.427324355
0.539278984 0.556609988 0.441745967
0.557494998 0.571790338 0.466033936
0.575711727 0.587476075 0.481340826
0.601011872 0.606198192 0.502593398
0.626691639 0.625679612 0.523466349
0.642125010 0.641619027 0.539911091
0.350537360 0.451739490 0.338140398
0.353320748 0.455028176 0.343959332
0.353320748 0.456799388 0.344844729
0.354459375 0.457937747 0.342567742
0.351802826 0.458696932 0.342947364
0.351929009 0.456926197 0.340670377
0.361543328 0.459961772 0.345224679
0.365591347 0.463504165 0.348766744
0.370524734 0.466920078 0.352941304
0.375584871 0.467931956 0.355976909
0.378747731 0.471094131 0.353320748
0.382795453 0.473118365 0.353320748
0.389247000 0.476534009 0.357875019
0.397216767 0.484883100 0.364200056
0.406831175 0.485389143 0.367741704
0.416572154 0.493231922 0.376217514
0.425679862 0.498165607 0.380392075
0.434661597 0.502340376 0.386970341
0.438583404 0.506262064 0.390892088
0.453004748 0.512334049 0.399746746
0.465148717 0.519164979 0.400126517
0.480455399 0.531435490 0.408855528
0.497153550 0.542947233 0.421505541
0.506641388 0.552435040 0.430992812
0.525616646 0.564579070 0.449968308
0.542947412 0.575332046 0.462492079
0.559266388 0.590006471 0.475142688
0.575205684 0.605186820 0.492599368
0.598734677 0.620367229 0.511574984
0.618975163 0.635547280 0.528652668
0.644528568 0.655661047 0.552688241
0.665401757 0.676533699 0.577356100
0.362681746 0.487792730 0.362428725
0.375205398 0.488931090 0.370398462
0.374193728 0.497406483 0.374066740
0.374193728 0.499936461 0.370271891
0.374193728 0.500822008 0.370271921
0.372675538 0.497786403 0.374825716
0.379759312 0.496015161 0.368754059
0.388867706 0.499051183 0.376723737
0.394433826 0.504870713 0.381024629
0.399367481 0.507147729 0.381783247
0.402529866 0.510056853 0.382795602
0.405566186 0.512966454 0.383681476
0.408601820 0.514104784 0.384819835
0.416445047 0.521189034 0.392156988
0.427198112 0.522833705 0.396837324
0.436306030 0.530044436 0.404680520
0.445414424 0.536116004 0.412270725
0.453889728 0.540417314 0.417077720
0.458191007 0.545983672 0.418848962
0.474257112 0.549905479 0.431246132
0.483744711 0.555977464 0.438456476
0.495888740 0.564073205 0.437444836
0.512207270 0.576217473 0.449083209
0.524857640 0.583554685 0.461733282
0.537381291 0.594939709 0.474256754
