Assets/Shaders/EldamarStudio/100 Sci-Fi LUTs Pack/LUTs/cube/Kyle LUT.cube
LUT_3D_SIZE 5
DOMAIN_MIN 0.000000 0.000000 0.000000
DOMAIN_MAX 0.903226 0.903226 0.903226
0.031373002 0.050980002 0.129411995
0.098418698 0.080075711 0.145098001
0.185072407 0.123592407 0.167994574
0.297280133 0.192283258 0.203036129
0.461859614 0.306134969 0.282605976
0.123592407 0.137634695 0.166350290
0.158254400 0.147754416 0.167995006
0.226565272 0.183428109 0.190891996
0.334218830 0.241998985 0.232763827
0.483364969 0.360784352 0.308412522
0.247817561 0.289057791 0.236053407
0.272359103 0.304110974 0.245161414
0.328272969 0.338140368 0.274635971
0.406451702 0.383301795 0.304743558
0.538267076 0.489310622 0.397090375
0.375838131 0.515117109 0.384693235
0.406071842 0.531435728 0.397976130
0.441745937 0.556609690 0.426565230
0.513093114 0.595446110 0.473877132
0.629221976 0.676913202 0.561796248
0.597975612 0.793927789 0.668690383
0.626565337 0.794939876 0.672232866
0.662112474 0.805692732 0.686147988
0.716002285 0.827577531 0.721947730
0.792789459 0.855407596 0.761416733
0.054901998 0.074510001 0.160784006
0.108538993 0.095129706 0.166350290
0.193547994 0.141555697 0.186970413
0.316128701 0.218089700 0.233776286
0.468310952 0.323086828 0.312586993
0.139278978 0.143832982 0.184313998
0.169006690 0.160531700 0.190891996
0.239341974 0.200758979 0.218722284
0.342314690 0.260594279 0.257938117
0.483364969 0.368627459 0.335230529
0.260594696 0.294876397 0.258570701
0.285136372 0.309297979 0.268058002
0.336748391 0.346616209 0.295888662
0.414294958 0.396331400 0.334471524
0.538646519 0.501075327 0.426818490
0.389374137 0.525489986 0.413029701
0.413030118 0.537002265 0.427704245
0.444655418 0.560531259 0.444528520
0.517267406 0.596458256 0.487286687
0.628589571 0.673624218 0.575332165
0.605565846 0.791271627 0.672485590
0.627956569 0.789626956 0.676913619
0.658064604 0.804300785 0.693358362
0.713599026 0.824920952 0.720050395
0.788867772 0.851486564 0.766603410
0.104616992 0.100695997 0.222263992
0.149399117 0.116381988 0.215433285
0.226945400 0.161543414 0.236053407
0.318532228 0.223655999 0.276281118
0.470967770 0.336242795 0.363693774
0.172296122 0.173307985 0.235673696
0.199114695 0.183428109 0.245540708
0.261227131 0.214800701 0.263124704
0.348260552 0.272106409 0.301202118
0.488931060 0.380012810 0.389879793
0.271979988 0.308664978 0.304111362
0.291967094 0.325363666 0.315496266
0.344592392 0.361036956 0.346615791
0.422517389 0.414041668 0.391777217
0.548133790 0.513472378 0.483491153
0.394939840 0.532701135 0.459456116
0.413282990 0.547754347 0.469196975
0.459708959 0.577482283 0.504617095
0.533333123 0.617710114 0.542188227
0.639721632 0.694623649 0.623023093
0.611638188 0.781404197 0.690069377
0.628083169 0.792283356 0.699936628
0.657937825 0.808222592 0.714864075
0.720177174 0.829221785 0.744592071
0.806577981 0.854649127 0.801391125
0.174699247 0.146236122 0.323845237
0.211258993 0.164832264 0.336496145
0.277925253 0.202782989 0.353573531
0.367868125 0.267805129 0.385579139
0.489689946 0.365717769 0.461227208
0.221505567 0.214801118 0.344971269
0.245540693 0.221379131 0.358127654
0.302466720 0.259962112 0.376470536
0.390765131 0.314610988 0.416318685
0.505249918 0.414041817 0.487413049
0.300442696 0.352561384 0.417457670
0.322327405 0.365970939 0.429728240
0.367488831 0.394686937 0.453257233
0.443769932 0.442504942 0.484376669
0.551928937 0.527893603 0.555976987
0.416825145 0.558254123 0.551296234
0.428968996 0.572548985 0.557874918
0.471473992 0.597090244 0.576217711
0.539658248 0.637697220 0.614168286
0.655408204 0.702087104 0.673497915
0.617963254 0.791018367 0.743579805
0.629348338 0.799114347 0.750031531
0.662997842 0.810246348 0.750537753
0.730423748 0.840354204 0.783554673
0.817330897 0.870081902 0.835167766
0.240606993 0.215812817 0.548260450
0.269070268 0.230613515 0.557748497
0.334850967 0.276787043 0.575837731
0.432637691 0.355597943 0.603541732
0.540290654 0.459329635 0.647691369
0.265148699 0.289816797 0.567488849
0.291966945 0.300948799 0.571157396
0.355091810 0.337887496 0.589753330
0.445287824 0.406957626 0.617457211
0.554965079 0.503225625 0.662618577
0.338772804 0.438962340 0.611005604
0.357115388 0.440227777 0.618848979
0.408095986 0.477545768 0.636559129
0.489563525 0.531562090 0.660973907
0.600505769 0.601770759 0.696521163
0.486907125 0.648956239 0.710309803
0.490322769 0.651233137 0.708665073
0.525616765 0.666540265 0.717141092
0.582795799 0.690322816 0.735863090
0.689816952 0.744085729 0.775332034
0.661985755 0.821505547 0.804300785
0.671726644 0.823276460 0.821505547
0.709171414 0.833143771 0.831246018
0.771030724 0.864136636 0.853763282
0.858190596 0.903731704 0.897279739
