Assets/Shaders/EldamarStudio/100 Sci-Fi LUTs Pack/LUTs/cube/Lacey LUT.cube
DOMAIN_MIN 0 0 0
DOMAIN_MAX 1 1 1
LUT_3D_SIZE 32
0.023529001 0.125489995 0.176470995
0.023529001 0.125489995 0.176470995
0.029980775 0.125489995 0.178621218
0.037823997 0.129285157 0.181657165
0.043895997 0.137254998 0.184693456
0.049968001 0.137254998 0.187729061
0.063630320 0.139784679 0.188235000
0.077166408 0.141176000 0.189879715
0.090069897 0.141935095 0.192157000
0.105249524 0.144971490 0.192157000
0.114610866 0.148007870 0.192157000
0.127767250 0.151043743 0.196204990
0.144085988 0.155218005 0.202277005
0.161796063 0.161290005 0.208096042
0.173940822 0.167361990 0.211132422
0.193295792 0.171030805 0.214168191
0.214548185 0.177103192 0.218721986
0.237697959 0.185578987 0.225426570
0.268058032 0.191651002 0.234534964
0.292852730 0.192157000 0.238077357
0.317140967 0.201644734 0.237318262
0.347501248 0.213789001 0.240354121
0.389752984 0.219860986 0.255028516
0.426185817 0.225933000 0.258064896
0.469449848 0.232005000 0.267931998
0.517773569 0.239468664 0.280075967
0.568880081 0.248577058 0.291207999
0.617456853 0.257685423 0.297279984
0.679316401 0.269449979 0.311321825
0.737760782 0.281593949 0.324730963
0.791524529 0.293737978 0.335989594
0.843137026 0.305882007 0.345097989
0.026565386 0.128526390 0.179506615
0.020493388 0.131561995 0.185578614
0.024794387 0.129411772 0.181277618
0.035547160 0.129791230 0.182921991
0.047311932 0.134218603 0.187349617
0.056040771 0.134218603 0.187729061
0.064642452 0.144339249 0.180645317
0.080455408 0.147248775 0.188994378
0.093865000 0.148007676 0.195951909
0.102213919 0.151043490 0.189120606
0.117394254 0.151170000 0.194939598
0.132827386 0.156103626 0.199241132
0.146742642 0.160151646 0.205313399
0.159266382 0.164326400 0.211132362
0.176976442 0.170398384 0.214168027
0.191524416 0.174067199 0.214800611
0.213029981 0.178621382 0.218721986
0.237065539 0.186843976 0.226059139
0.265022427 0.197723016 0.237571344
0.287033767 0.206578359 0.232764393
0.316761732 0.209234640 0.236938998
0.349525511 0.215812743 0.242378399
0.390005976 0.220113978 0.255281508
0.432257801 0.232005000 0.264136910
0.475521833 0.240354285 0.271726698
0.522454262 0.245793700 0.280328959
0.572928548 0.251106739 0.289184391
0.626565218 0.257685423 0.300316393
0.677798748 0.266793132 0.314358205
0.738266647 0.278558016 0.324225366
0.792789400 0.293358743 0.336495966
0.840101361 0.311953992 0.354206383
0.027450999 0.133712992 0.182542771
0.025679998 0.134598389 0.188614771
0.028209999 0.135483772 0.188235000
0.031751998 0.136242986 0.184692994
0.042884320 0.139784768 0.188994005
0.057305932 0.139784768 0.192535996
0.070714682 0.139152095 0.189247325
0.078178421 0.149652153 0.185073003
0.094370991 0.151929319 0.197976097
0.106009007 0.154965296 0.197217062
0.116508871 0.157242000 0.196204782
0.131688729 0.161289990 0.202276766
0.148639873 0.165085003 0.208349213
0.160278261 0.167615265 0.214168265
0.176596984 0.175584987 0.217204347
0.190259025 0.179253802 0.217836767
0.211511791 0.180771992 0.219354570
0.236432970 0.187476560 0.224794149
0.262239218 0.201138780 0.233902946
0.288298607 0.206198588 0.237950996
0.317140967 0.215306967 0.241366237
0.349525481 0.218848631 0.246679351
0.385704964 0.222137719 0.255154997
0.428209811 0.232258007 0.262239128
0.472991854 0.242125288 0.273497701
0.519924283 0.249841988 0.281214356
0.569007099 0.254648834 0.288298994
0.622011065 0.262365907 0.300442994
0.680455387 0.273244917 0.310942262
0.739152491 0.282352984 0.322580636
0.794939935 0.297659934 0.334345430
0.839215994 0.320176780 0.356862992
0.026185839 0.141050160 0.186843991
0.026185839 0.142315000 0.189120829
0.031751998 0.139784992 0.190006226
0.037823997 0.143580154 0.188235000
0.039721545 0.148134157 0.189373553
0.057052705 0.146363169 0.196331173
0.072738834 0.148892835 0.194813162
0.084250420 0.149904862 0.195952162
0.091840997 0.156736165 0.195193067
0.109045006 0.159266487 0.202277318
0.118532866 0.163567290 0.202277303
0.132953897 0.168627158 0.206578001
0.148133814 0.172422156 0.210372999
0.163314208 0.172675192 0.215685993
0.178494573 0.179759577 0.217710242
0.192536309 0.185325801 0.219607994
0.209740564 0.190639153 0.223656118
0.237065539 0.191271573 0.226691738
0.261986196 0.203921810 0.232131794
0.289057523 0.210499808 0.239469007
0.318911731 0.216065735 0.243643403
0.353320241 0.224161983 0.251739144
0.384692967 0.227577150 0.255154997
0.427197814 0.235546902 0.261227012
0.470714688 0.244655281 0.270588160
0.516382277 0.252371997 0.282479197
0.564453065 0.258950084 0.288551837
0.614547431 0.268058449 0.299177825
0.675395072 0.281088144 0.308665305
0.736622512 0.292726189 0.321568191
0.795952141 0.302719951 0.333333194
0.839215994 0.325489998 0.356862992
0.024288097 0.150158450 0.192536458
0.024288097 0.152435169 0.190259159
0.029601324 0.150537550 0.189373553
0.038203545 0.149652168 0.188994005
0.045034546 0.158001453 0.188994005
0.060214929 0.151929453 0.198102385
0.074636325 0.157748237 0.197849229
0.087286703 0.163187712 0.198987871
0.096774451 0.166224003 0.203921914
0.108918458 0.166224003 0.200885519
0.118912317 0.171663553 0.203668877
0.133712992 0.177356005 0.209614292
0.150411099 0.181151003 0.215306550
0.165844515 0.181657001 0.216065511
0.181151405 0.184819862 0.216444999
0.196711257 0.190259546 0.218848810
0.215686634 0.196711197 0.224541649
0.237065539 0.205313414 0.232764423
0.264389992 0.208349049 0.235800058
0.292093813 0.217330918 0.243643358
0.321695089 0.224161997 0.247818008
0.353320241 0.230613545 0.249841988
0.389752984 0.236685544 0.255787522
0.431751788 0.242757559 0.261606574
0.474256545 0.251106828 0.271094292
0.518911958 0.258823544 0.279696524
0.565971136 0.266160607 0.291967005
0.611511469 0.275268972 0.298038989
0.672232389 0.288551807 0.306767821
0.733459711 0.301960945 0.321188927
0.790639162 0.314863980 0.339784622
0.839215994 0.327008009 0.358001441
0.030360872 0.159266070 0.195572063
0.030360872 0.156230450 0.198608458
0.030360872 0.160657942 0.198481932
0.036938936 0.162175938 0.197216764
0.048070934 0.164073452 0.195066005
0.060214929 0.167109057 0.195065990
0.070335321 0.168627381 0.199114382
0.083744705 0.171030924 0.199493945
0.096394904 0.173054993 0.202024058
0.105882071 0.178368002 0.206957519
0.120935932 0.181277871 0.209740877
0.135104313 0.184819669 0.210753009
0.149652004 0.187223002 0.212270945
0.162808120 0.187729001 0.213029906
0.181024879 0.193801001 0.222137511
0.198734984 0.199367672 0.224920809
0.220999241 0.202403933 0.229474992
0.245414212 0.205819413 0.236053050
0.264389992 0.214421049 0.241872042
0.294497013 0.225806713 0.244908363
0.326249272 0.231752187 0.250853986
0.358127892 0.237318128 0.255914003
0.389752984 0.245793924 0.261859506
0.426185817 0.251865953 0.264895916
0.468184531 0.260215223 0.279822916
0.514863968 0.267931938 0.286780685
0.566477180 0.275521994 0.289310843
0.623656273 0.290449351 0.304111004
0.679822624 0.296900928 0.312839836
0.736748755 0.308032960 0.327260941
0.790639162 0.321947992 0.346362591
0.839215994 0.339152008 0.367109060
0.028842678 0.173434317 0.203668326
0.031373002 0.170398697 0.204174399
0.033523228 0.171663538 0.207210779
0.038962677 0.174825996 0.206325158
0.050727222 0.174825996 0.204047874
0.060720995 0.175711378 0.206198648
0.072865002 0.178747639 0.206198648
0.088551380 0.180139318 0.207590327
0.103984773 0.181657314 0.209108323
0.113092847 0.187729314 0.215180308
0.125489861 0.188361868 0.215812862
0.142694503 0.193422005 0.218848735
0.157242313 0.198102325 0.220493317
0.169892311 0.201391324 0.222138032
0.188108504 0.207463309 0.226692215
0.211132273 0.213535309 0.235799834
0.229601309 0.221125871 0.236053199
0.253889710 0.224794582 0.237824321
0.277799278 0.230107695 0.240101337
0.309677660 0.239468381 0.250980347
0.338140368 0.244022667 0.257811725
0.369260252 0.248450115 0.263504207
0.400253087 0.257431984 0.268184513
0.443896145 0.263503999 0.276027918
0.484882891 0.271853298 0.276787013
0.532953560 0.282352984 0.292093664
0.585705221 0.291208059 0.296900928
0.639342248 0.302340418 0.303984523
0.697027385 0.312081307 0.318911821
0.749398947 0.321695268 0.333333403
0.800759137 0.335610300 0.352435231
0.849336028 0.353826314 0.373687655
0.032384705 0.185325697 0.209487721
0.033776384 0.185578659 0.206198722
0.040101223 0.185199216 0.216571763
0.044402316 0.185705155 0.209487826
0.054269418 0.186843693 0.206451550
0.059582647 0.191903695 0.214547932
0.076154418 0.189500317 0.219987705
0.085009418 0.192536697 0.213409290
0.103984714 0.193295598 0.214927286
0.113978498 0.198481992 0.220999271
0.130929708 0.200379699 0.222896993
0.145477504 0.202782974 0.223276451
0.163693994 0.208854988 0.226312354
0.177609026 0.214674026 0.229601711
0.197216675 0.219354689 0.234029412
0.218595594 0.225426689 0.238583192
0.241366178 0.229980886 0.244655192
0.261606246 0.238836125 0.243137419
0.288931191 0.243896246 0.244149297
0.316888392 0.249209359 0.253636986
0.348134011 0.257558405 0.262239039
0.378494531 0.259582400 0.269323409
0.410626262 0.268184692 0.272738695
0.454648912 0.277292699 0.283364892
0.502846241 0.285641998 0.288931012
0.549525678 0.294750005 0.293105662
0.603415489 0.306135058 0.306768060
0.655028284 0.315243423 0.312080979
0.705376387 0.324351817 0.324098527
0.762682021 0.336875647 0.339405388
0.809487879 0.352561653 0.358507574
0.856546760 0.372295707 0.379759997
0.039974906 0.196710989 0.214800999
0.041492902 0.198228821 0.208728999
0.047185417 0.199873090 0.214547902
0.054269228 0.200885162 0.224668026
0.061859999 0.197849557 0.205692649
0.064137086 0.208096102 0.218595922
0.075775221 0.206578091 0.226439223
0.091081999 0.205439627 0.227830768
0.099431098 0.209235102 0.219481081
0.111575112 0.212270722 0.225553080
0.130929768 0.215306878 0.227956861
0.148134157 0.218342930 0.228968993
0.165211990 0.221758097 0.230866536
0.183428064 0.227830097 0.233902931
0.204174489 0.231372401 0.239468992
0.225426883 0.236053079 0.243137196
0.246679276 0.241366178 0.246173188
0.270461619 0.245034978 0.249841988
0.298039109 0.254016101 0.253004134
0.324098825 0.258317351 0.260847360
0.352182090 0.265148759 0.267299086
0.383807451 0.274004102 0.273118138
0.420366675 0.280202568 0.276280999
0.462238938 0.291714013 0.287160009
0.510815859 0.300063282 0.295509070
0.561669827 0.310689479 0.303731650
0.613283098 0.319797248 0.313345999
0.664895475 0.328905612 0.322707325
0.712713361 0.337254912 0.333712995
0.763820410 0.351423264 0.349146158
0.816319168 0.367742032 0.365338475
0.858824015 0.392030090 0.386590898
0.043010525 0.214926988 0.226944998
0.049082521 0.211891398 0.220872998
0.054902066 0.213409215 0.216951236
0.059835806 0.217583492 0.221125841
0.064895615 0.222137555 0.229981422
0.083112381 0.219101951 0.226945028
0.082859166 0.219228491 0.227198005
0.090702228 0.220619783 0.229222223
0.105503105 0.224414721 0.231625870
0.120683499 0.230487496 0.234661475
0.135736614 0.233523101 0.234914482
0.151169777 0.236559272 0.235040992
0.168627158 0.239595339 0.237317994
0.189500064 0.243010491 0.243010551
0.207716823 0.249082476 0.246046931
0.228463277 0.252624810 0.249209180
0.249715671 0.257305473 0.252245188
0.273498029 0.263250977 0.255914003
0.306894481 0.269323021 0.261985987
0.337255239 0.275521487 0.267931491
0.367362469 0.283364743 0.272232741
0.398734868 0.292473137 0.276407480
0.432511419 0.301454961 0.282353014
0.471979856 0.310562581 0.288424999
0.518406034 0.315243274 0.297027290
0.567109227 0.324098647 0.307400465
0.616318703 0.338014036 0.319418013
0.667931795 0.347122401 0.331561983
0.719544172 0.353573978 0.340923339
0.770904064 0.368627638 0.357242167
0.819228351 0.388741463 0.377355963
0.858824015 0.407210469 0.395698518
0.057684869 0.221504986 0.230360866
0.052118871 0.230107382 0.227198005
0.056040645 0.231372774 0.231878757
0.063883997 0.230613738 0.230613738
0.072612420 0.230866730 0.231372997
0.083238870 0.240480810 0.230866924
0.091334999 0.239974871 0.237950549
0.099304155 0.239974871 0.239088997
0.113725320 0.240986735 0.239342228
0.126755491 0.242757961 0.238077387
0.141935870 0.245920122 0.238203868
0.159139723 0.250980496 0.242251873
0.175205514 0.256040871 0.245161220
0.193168864 0.260847718 0.249209031
0.216697946 0.264262855 0.252245426
0.232510924 0.270334870 0.255281806
0.258823693 0.273877174 0.258317530
0.287539810 0.278557867 0.261985987
0.318659008 0.284629852 0.268058002
0.352055371 0.293485224 0.271347374
0.378747612 0.299683750 0.275395125
0.407084107 0.307779998 0.278431267
0.438836455 0.316888332 0.282732517
0.478304893 0.325995952 0.291587859
0.524604559 0.332826853 0.297659874
0.573181272 0.339278638 0.308918655
0.623276174 0.350411057 0.323086828
0.679696262 0.359519422 0.337633997
0.720682740 0.376596987 0.349778652
0.771283567 0.387223393 0.362682045
0.822011173 0.405060440 0.378115237
0.867552161 0.425300747 0.390258998
0.054649007 0.243769497 0.241492718
0.060720995 0.246805638 0.236432597
0.069196761 0.247565016 0.237950772
0.074763149 0.249336243 0.241998821
0.085009702 0.245920703 0.237824276
0.090828672 0.253130972 0.239468992
0.099430993 0.259202987 0.245034933
0.108791977 0.257558703 0.247564539
0.123592347 0.257938147 0.247184992
0.137001961 0.259202987 0.245414212
0.148007870 0.264136374 0.247311994
0.167236239 0.267172515 0.249336243
0.185452238 0.273244977 0.251992613
0.201518029 0.279064000 0.253510267
0.220493227 0.282100081 0.258317411
0.243643299 0.291587502 0.263377547
0.266413510 0.294623494 0.266413927
0.298039258 0.297786236 0.270082235
0.327008009 0.303858280 0.276154250
0.356103390 0.312713623 0.281467378
0.389500201 0.318026513 0.282606006
0.418216497 0.323971987 0.286527246
0.451233715 0.332068235 0.290701985
0.494497180 0.341176361 0.297912657
0.538773060 0.350031495 0.306768000
0.587349832 0.358886480 0.315622985
0.635420561 0.369133234 0.330676854
0.687033236 0.379759431 0.347375035
0.732827246 0.392789483 0.359898627
0.777608812 0.411005437 0.373814166
0.826312423 0.424541563 0.389879972
0.872612238 0.443516970 0.402403265
0.058444276 0.271853268 0.254395634
0.067172639 0.272991627 0.251739293
0.078051768 0.271979749 0.252118766
0.088425167 0.271347642 0.252625108
0.096774451 0.271347642 0.249209285
0.099810056 0.273624361 0.249968588
0.110183313 0.278051645 0.255534649
0.122074626 0.281467348 0.258949935
0.133459732 0.279949546 0.256672621
0.147881135 0.282985151 0.256672621
0.161796510 0.286653638 0.258443862
0.179000884 0.291840523 0.261480272
0.199114621 0.296015292 0.264516354
0.217583671 0.301834255 0.262239069
0.234535038 0.304870397 0.268311262
0.258064568 0.311701626 0.274383277
0.284250617 0.321189284 0.277798831
0.313345760 0.321189284 0.281467617
0.340164274 0.326249272 0.287539631
0.369765639 0.335104346 0.292473018
0.402023822 0.341555893 0.298165649
0.434408873 0.346615732 0.300189644
0.470715106 0.352940768 0.306008637
0.514231563 0.362049162 0.310056627
0.559772491 0.371157557 0.318405926
0.605566263 0.380518615 0.327767283
0.654649198 0.392662734 0.340417236
0.701454699 0.404806912 0.358001232
0.746995449 0.418089658 0.373181611
0.790891945 0.433776230 0.388235152
0.837697804 0.451106876 0.406072170
0.880202651 0.466287285 0.424794286
0.086780995 0.296647996 0.263504028
0.090069644 0.299177647 0.266287386
0.096015066 0.300063044 0.268564284
0.100569196 0.301328152 0.270082146
0.104870513 0.303985000 0.267679036
0.107906125 0.303985000 0.261607021
0.120050378 0.306261718 0.263630986
0.134977728 0.310056776 0.269323349
0.148893088 0.312333941 0.271600068
0.158001497 0.315369546 0.271600068
0.178747863 0.315496027 0.271600068
0.199747279 0.319797516 0.273877293
0.219607994 0.325617045 0.276407391
0.238583103 0.331183046 0.279443085
0.259835452 0.334218651 0.285515845
0.285641789 0.337760806 0.291334957
0.312713236 0.343833178 0.294370949
0.339405119 0.351550013 0.295635939
0.363693982 0.351550013 0.301707953
0.396837443 0.359139681 0.304996669
0.431625456 0.366603047 0.311827779
0.466287196 0.373434156 0.319671005
0.497153938 0.382795513 0.325995982
0.536748946 0.392156929 0.326501995
0.580518842 0.401012272 0.333080322
0.626312673 0.410120368 0.342441648
0.672106147 0.419734120 0.352561980
0.723719239 0.431878895 0.367741615
0.769259751 0.446679175 0.384819597
0.811764538 0.463124424 0.403541982
0.851360142 0.481467605 0.423782200
0.893864989 0.496648014 0.448071003
0.092852995 0.327007949 0.272612393
0.098924994 0.323972344 0.272612393
0.110816188 0.324351817 0.268944025
0.117773816 0.325616658 0.271094292
0.120683402 0.328272969 0.277292669
0.138266876 0.328272969 0.282859385
0.141303122 0.328272969 0.266666740
0.151802823 0.335483789 0.273244977
0.164579406 0.341176629 0.283744812
0.176217481 0.336621910 0.283744812
0.196963862 0.336748391 0.283744812
0.216192484 0.342820644 0.287792802
0.233902752 0.349019617 0.289816767
0.250727057 0.352435380 0.288551420
0.278052211 0.352435410 0.291587830
0.301707804 0.360278010 0.295256197
0.326628804 0.368121177 0.297406554
0.351549774 0.376596957 0.298671544
0.375837982 0.381909966 0.304743558
0.414042085 0.381909966 0.308032930
0.446552813 0.389500141 0.314864159
0.479190111 0.396963805 0.321948290
0.512333512 0.404047877 0.325995982
0.554838419 0.419228315 0.338140011
0.596710503 0.426312417 0.343200564
0.642631173 0.434408635 0.352688372
0.689563811 0.444022804 0.364706069
0.732826829 0.456166893 0.379886389
0.771157146 0.470967799 0.389752984
0.814800560 0.484376758 0.409613937
0.855534613 0.502213538 0.433522969
0.890828609 0.527007997 0.460215002
0.113345981 0.352561593 0.291334778
0.117014781 0.349525362 0.284123987
0.120936021 0.346489757 0.279823005
0.137634337 0.347501636 0.277546167
0.145603985 0.350916773 0.283618063
0.151675984 0.354964793 0.287666082
0.162049308 0.357368588 0.297533154
0.170018986 0.357368588 0.284250498
0.182922095 0.364200085 0.291840911
0.196710810 0.363061428 0.293485194
0.212776661 0.365211576 0.293485194
0.232004777 0.365211576 0.293485194
0.251359820 0.372042805 0.297659844
0.269322842 0.376596987 0.297912776
0.290196210 0.380897969 0.303099394
0.315116942 0.385705560 0.308539003
0.340923190 0.390259385 0.311574996
0.368627310 0.396711022 0.312460601
0.399999827 0.404553771 0.314990580
0.428589284 0.407463580 0.320683181
0.464263380 0.413156331 0.323719054
0.497153610 0.423276573 0.331815332
0.532320797 0.432131588 0.337760776
0.574825585 0.440480709 0.345350802
0.617330372 0.451107085 0.355218083
0.659835100 0.460088551 0.362808645
0.704870403 0.470208853 0.373940796
0.745477557 0.480455577 0.387223423
0.782669187 0.492852598 0.406704754
0.820872724 0.509803712 0.422896773
0.861606538 0.524098396 0.445667386
0.895003021 0.545350790 0.469955802
0.137634367 0.378368199 0.304996997
0.140670389 0.378368169 0.298924595
0.145224392 0.376850128 0.295002997
0.150790334 0.372549027 0.293990999
0.169512749 0.375584722 0.297280371
0.172928378 0.382795393 0.300316274
0.183554694 0.383301705 0.304870188
0.191271365 0.386211187 0.308538496
0.204174474 0.386970282 0.301707804
0.219354883 0.390006691 0.303984493
0.234535247 0.393042296 0.304110974
0.251739353 0.397090167 0.307147384
0.269955367 0.397090167 0.307147384
0.290828228 0.402150214 0.309804142
0.310309798 0.406957388 0.314610958
0.330297381 0.413029611 0.319165170
0.359139562 0.419101983 0.320683002
0.387728930 0.419101983 0.324351788
0.423276156 0.425553203 0.326122791
0.451359540 0.430613369 0.331688792
0.482479393 0.437444746 0.337381661
0.516888201 0.446553141 0.343453377
0.553446710 0.458064705 0.353067696
0.594560146 0.465528369 0.360531390
0.635546684 0.473877281 0.370398462
0.675268471 0.481593996 0.379506826
0.717014253 0.494497120 0.388615102
0.756483078 0.506641626 0.399746984
0.793295383 0.516887963 0.418342948
0.828463316 0.534092128 0.438077152
0.866160810 0.553193748 0.463757157
0.899557173 0.569639206 0.488172203
0.162555560 0.406325132 0.311068982
0.166856334 0.408728927 0.311827749
0.171410128 0.410246968 0.310309559
0.178747281 0.408349365 0.311574578
0.187476128 0.403794706 0.316887558
0.196331486 0.412650049 0.319670916
0.209234878 0.413535833 0.321441978
0.220746562 0.412523806 0.319797456
0.229095638 0.414927065 0.317520142
0.244276047 0.417963475 0.317520142
0.259456396 0.420999259 0.317520142
0.276660532 0.426059127 0.320935935
0.295509130 0.430486709 0.325363964
0.313725144 0.430992723 0.325869977
0.334597915 0.434408545 0.329285115
0.355977118 0.438583136 0.331056386
0.379886299 0.443390131 0.332321376
0.410752684 0.449462116 0.329917550
0.444149137 0.449462116 0.335989535
0.473244488 0.455028117 0.342694134
0.504364192 0.462997884 0.349399030
0.537508130 0.472106099 0.356230557
0.573940158 0.481214464 0.368121564
0.612903297 0.490322888 0.376723886
0.651739419 0.498798251 0.387476563
0.689183891 0.509044707 0.398861617
0.726122618 0.516128719 0.409994036
0.765590966 0.534092367 0.419607699
0.801770568 0.544338882 0.436685592
0.836432576 0.559265912 0.455534488
0.869197011 0.579253137 0.475901157
0.902593434 0.600505531 0.512333989
0.189880043 0.436685979 0.317141056
0.198988438 0.436685979 0.332321405
0.203289211 0.439089239 0.333080202
0.209108174 0.439342201 0.331561983
0.217837006 0.437191963 0.332067996
0.223908991 0.443263978 0.332067996
0.232764348 0.449588984 0.337381035
0.244023025 0.449968308 0.338013738
0.256420106 0.448197037 0.335736960
0.271600515 0.448323548 0.335736960
0.286780894 0.451359928 0.335736960
0.303985000 0.456420004 0.337760687
0.323339641 0.461353630 0.341049701
0.344085991 0.464389980 0.344086021
0.362301975 0.470461965 0.350158006
0.390385598 0.471473992 0.348766804
0.416698396 0.471980006 0.349272817
0.441113532 0.473751009 0.351170003
0.462365985 0.479822993 0.351170003
0.495762378 0.485388994 0.360025346
0.528652728 0.493358731 0.368880719
0.561037362 0.502466857 0.376724005
0.592157006 0.511574566 0.383302003
0.628589809 0.520682931 0.389373988
0.665275574 0.527514040 0.397976309
0.700569630 0.539405346 0.408728957
0.735231042 0.555597961 0.422138095
0.774699450 0.567741930 0.443390459
0.808854699 0.577735782 0.460973948
0.842504561 0.590386093 0.480961204
0.875015974 0.606072366 0.501960576
0.905629039 0.621758044 0.524478018
0.250601113 0.489310741 0.353826404
0.251360148 0.489310741 0.355091423
0.260468513 0.491460949 0.357368797
0.264769316 0.491966903 0.355597734
0.270082295 0.488931209 0.355597734
0.273751080 0.487792403 0.355597734
0.282352775 0.491334707 0.353067398
0.294750094 0.495509028 0.356736064
0.307273865 0.496267825 0.358254373
0.318406224 0.498292118 0.362302363
0.336369246 0.498418629 0.362302363
0.353573889 0.499430776 0.362302363
0.371790081 0.503984749 0.364579380
0.390891761 0.508412361 0.367109716
0.406578094 0.509424388 0.365591347
0.434408695 0.513093174 0.374067158
0.461733103 0.518026531 0.374067366
0.484756529 0.521821380 0.374573141
0.503858745 0.523592412 0.372422367
0.530677140 0.526881754 0.375205725
0.564073443 0.532953739 0.388109088
0.596458018 0.540164411 0.398988247
0.626945198 0.547501206 0.406957537
0.660721242 0.556609631 0.415686369
0.692599952 0.563440740 0.424035639
0.729411960 0.570904374 0.435927004
0.765085518 0.583428442 0.449968666
0.797723174 0.593295753 0.466666430
0.823908746 0.605439723 0.485262662
0.855154693 0.619987309 0.505249858
0.885768533 0.637065232 0.527387679
0.914231360 0.654143095 0.550537348
0.291587710 0.528779447 0.376217484
0.291587710 0.528779447 0.378114730
0.299936771 0.530929744 0.379759490
0.307779998 0.531435609 0.379253566
0.311448276 0.529917896 0.378747523
0.314484656 0.532953501 0.374193728
0.326375872 0.534977853 0.381151140
0.337128192 0.533080518 0.373181462
0.350537568 0.536116242 0.374193728
0.359645963 0.540290952 0.377988756
0.379380196 0.540417492 0.382036716
0.395698965 0.544212461 0.385831743
0.411638469 0.543073833 0.384693086
0.428589493 0.546615720 0.386717290
0.447058886 0.548260450 0.390259296
0.470461577 0.550664246 0.393042535
0.496268153 0.555218458 0.399114549
0.520176888 0.562049210 0.401391566
0.540923715 0.562049210 0.403415471
0.569386840 0.566729844 0.402150333
0.592916191 0.569765747 0.405186713
0.624288619 0.573813736 0.418343097
0.653637230 0.578114748 0.427324474
0.683491647 0.585452378 0.434661627
0.718406260 0.594180763 0.449462265
