Assets/Shaders/EldamarStudio/100 Sci-Fi LUTs Pack/LUTs/cube/Lacey LUT.cube
LUT_3D_SIZE 8
DOMAIN_MIN 0.000000 0.000000 0.000000
DOMAIN_MAX 0.903226 0.903226 0.903226
0.023529001 0.125489995 0.176470995
0.043895997 0.137254998 0.184693456
0.090069897 0.141935095 0.192157000
0.144085988 0.155218005 0.202277005
0.214548185 0.177103192 0.218721986
0.317140967 0.201644734 0.237318262
0.469449848 0.232005000 0.267931998
0.679316401 0.269449979 0.311321825
0.024288097 0.150158450 0.192536458
0.045034546 0.158001453 0.188994005
0.096774451 0.166224003 0.203921914
0.150411099 0.181151003 0.215306550
0.215686634 0.196711197 0.224541649
0.321695089 0.224161997 0.247818008
0.474256545 0.251106828 0.271094292
0.672232389 0.288551807 0.306767821
0.039974906 0.196710989 0.214800999
0.061859999 0.197849557 0.205692649
0.099431098 0.209235102 0.219481081
0.165211990 0.221758097 0.230866536
0.246679276 0.241366178 0.246173188
0.352182090 0.265148759 0.267299086
0.510815859 0.300063282 0.295509070
0.712713361 0.337254912 0.333712995
0.058444276 0.271853268 0.254395634
0.096774451 0.271347642 0.249209285
0.133459732 0.279949546 0.256672621
0.199114621 0.296015292 0.264516354
0.284250617 0.321189284 0.277798831
0.402023822 0.341555893 0.298165649
0.559772491 0.371157557 0.318405926
0.746995449 0.418089658 0.373181611
0.137634367 0.378368199 0.304996997
0.169512749 0.375584722 0.297280371
0.204174474 0.386970282 0.301707804
0.269955367 0.397090167 0.307147384
0.359139562 0.419101983 0.320683002
0.482479393 0.437444746 0.337381661
0.635546684 0.473877281 0.370398462
0.793295383 0.516887963 0.418342948
0.291587710 0.528779447 0.376217484
0.311448276 0.529917896 0.378747523
0.350537568 0.536116242 0.374193728
0.411638469 0.543073833 0.384693086
0.496268153 0.555218458 0.399114549
0.592916191 0.569765747 0.405186713
0.718406260 0.594180763 0.449462265
0.844402432 0.633523464 0.505755603
0.490322828 0.673118532 0.473750561
0.503478944 0.678052008 0.486021519
0.533459663 0.682226539 0.494750053
0.582669139 0.685009658 0.503478527
0.637950778 0.690069556 0.513598979
0.712081015 0.702466726 0.528779030
0.786464274 0.711954296 0.547248244
0.868943691 0.736369252 0.594939649
0.703858614 0.812270582 0.639848471
0.725363731 0.816065788 0.656925857
0.736116469 0.818722606 0.656166852
0.758507192 0.821378767 0.664642572
0.789500356 0.826565623 0.665654421
0.827703834 0.831751823 0.680708528
0.871094108 0.845794022 0.708285749
0.916761637 0.856672764 0.725995958
0.027071452 0.137254998 0.192157000
0.040354453 0.129791453 0.185832009
0.086527549 0.146236554 0.205060452
0.139784738 0.166224003 0.211638108
0.210626185 0.181783810 0.228083372
0.310436517 0.213535741 0.256040543
0.464895844 0.236306459 0.281087816
0.668817222 0.268817008 0.316382259
0.023908548 0.150917456 0.195192993
0.048576996 0.158760563 0.204301447
0.089690447 0.167362556 0.210120097
0.146109745 0.183048651 0.222264454
0.211764738 0.203794986 0.239595369
0.318279505 0.226439193 0.261733204
0.471600533 0.260214984 0.284376979
0.687792540 0.291840822 0.329411507
0.045793641 0.195572540 0.228589550
0.064642541 0.202656537 0.226185635
0.099051543 0.212017640 0.233649999
0.157748535 0.224162012 0.238709539
0.237950370 0.246046990 0.254775077
0.344718754 0.266793519 0.271853089
0.500063241 0.302087367 0.302972823
0.703478694 0.338013828 0.342947572
0.073877536 0.269070536 0.254649013
0.100695640 0.272612274 0.260215014
0.131435990 0.276027739 0.261733115
0.191271544 0.294876635 0.270335197
0.286274463 0.311701149 0.286021262
0.398228824 0.339531839 0.307274014
0.560657918 0.378747821 0.334218621
0.755091488 0.425679713 0.386084467
0.140290737 0.375711620 0.305755913
0.160025552 0.375964373 0.302213728
0.198228911 0.383807480 0.312333733
0.267172724 0.397217005 0.315369844
0.353320718 0.414041728 0.324730724
0.476913184 0.433017164 0.347501546
0.632384717 0.472232759 0.378367990
0.787729084 0.523339689 0.432511002
0.283618003 0.517773449 0.381024510
0.301834255 0.523466229 0.380012274
0.344339103 0.529790998 0.384566486
0.405692816 0.536748946 0.393295467
0.489057630 0.547754884 0.400885463
0.587855577 0.563820481 0.416065902
0.706894517 0.588994443 0.443516731
0.835420787 0.636179566 0.514231443
0.479696363 0.668817282 0.486907005
0.499430805 0.669576287 0.484630078
0.528146803 0.671220660 0.492852807
0.572296202 0.679190457 0.497153580
0.635546923 0.683744371 0.519671142
0.707906246 0.695129693 0.531941831
0.791651011 0.719417810 0.559266210
0.877799094 0.744844794 0.608349204
0.710436463 0.808981776 0.637950838
0.712080657 0.818722606 0.650600910
0.729664564 0.815939128 0.658064425
0.753320396 0.817836881 0.661100149
0.788614631 0.823023200 0.670841396
0.827956796 0.832764149 0.686653614
0.869702697 0.843264043 0.704364300
0.920303464 0.851866007 0.730803430
0.002277094 0.141176000 0.206198901
0.032890901 0.138013899 0.208096445
0.088551901 0.150537997 0.217078090
0.139025643 0.167362556 0.240733996
0.213029996 0.189753190 0.253131211
0.317520738 0.215180248 0.278684348
0.464895844 0.242125288 0.303225815
0.670841277 0.270714819 0.343833059
0.028210094 0.154838547 0.202529639
0.045414090 0.160278544 0.214801013
0.085768551 0.166603550 0.232511446
0.140164182 0.187729448 0.248956546
0.210119843 0.208475903 0.259835660
0.318152815 0.233523190 0.282859087
0.478304833 0.260467917 0.310562640
0.686147630 0.296647817 0.355724096
0.046173193 0.203035995 0.235926986
0.069323443 0.204553992 0.242631450
0.100189999 0.217078105 0.248450086
0.158128083 0.229601189 0.257811278
0.242758080 0.249209195 0.276660204
0.351802707 0.271473736 0.299051225
0.500695527 0.304870278 0.325110495
0.704870403 0.342694253 0.370904326
0.082100086 0.272612184 0.278557748
0.100569539 0.276534110 0.278178215
0.142061740 0.282732189 0.286780179
0.200253263 0.298798651 0.294749975
0.281594187 0.317646742 0.305249721
0.400505751 0.341429293 0.323845714
0.563820064 0.378368288 0.360784441
0.753067672 0.424794346 0.406071931
0.151043281 0.376723468 0.324478090
0.170145631 0.375205278 0.323592275
0.208096087 0.386211187 0.338519990
0.272232473 0.393548638 0.336116195
0.360151470 0.411258370 0.347122073
0.480328739 0.433776289 0.372169167
0.634787798 0.476027459 0.402403444
0.794560552 0.528146505 0.465275049
0.293358475 0.520936012 0.397217095
0.315117270 0.523972392 0.401517808
0.353573561 0.526628733 0.402276903
0.409867436 0.537254572 0.415433109
0.494243920 0.548639953 0.425426990
0.589879751 0.560025454 0.436685830
0.709677100 0.588615000 0.469070375
0.833523035 0.635547161 0.530044138
0.495382547 0.665022373 0.500948727
0.498798311 0.665401876 0.502340078
0.528779566 0.673624456 0.509677529
0.576723397 0.675521910 0.519797564
0.637064934 0.685262322 0.527514338
0.713725209 0.700569034 0.552309036
0.793421566 0.718279421 0.580898345
0.878810883 0.750157952 0.626818240
0.709677339 0.803794980 0.648070574
0.716002107 0.809740782 0.654648900
0.727007806 0.815559745 0.662871838
0.752688169 0.817963302 0.669829249
0.786211252 0.822643638 0.679316938
0.822390676 0.828462899 0.691081703
0.870082080 0.843643188 0.713851810
0.919291615 0.855407596 0.738899410
0.005060354 0.139532000 0.240986645
0.028209999 0.146616101 0.244529083
0.076407455 0.155218005 0.251233637
0.129538640 0.172042638 0.259456009
0.214548185 0.192789197 0.284123808
0.316002607 0.214294627 0.301328242
0.468311191 0.243770003 0.341809005
0.679190516 0.270714819 0.385325462
0.027071452 0.167742014 0.252118647
0.045793641 0.166603550 0.242504746
0.081846744 0.178368360 0.257937998
0.134218648 0.188488454 0.264137000
0.213282824 0.208096445 0.288045555
0.321188927 0.236685902 0.311827898
0.485768437 0.262492180 0.352435291
0.690322638 0.292979181 0.396204829
0.057937995 0.210878998 0.271979988
0.068058096 0.209994018 0.267172992
0.110056743 0.226565093 0.275395453
0.167994738 0.236306444 0.292726338
0.248197272 0.255028576 0.312713295
0.359266251 0.279822975 0.328652859
0.513345838 0.307526737 0.361923009
0.705882251 0.340417534 0.407716632
0.090322636 0.274636656 0.298165649
0.107906274 0.280834645 0.318279296
0.149399191 0.292979181 0.322833270
0.211511910 0.313345999 0.330170631
0.297786027 0.320303291 0.340038121
0.411511660 0.349019617 0.362049282
0.572042823 0.383427918 0.395825624
0.753826797 0.427956820 0.446173429
0.171410382 0.378747761 0.357748628
0.184187025 0.385452360 0.364832431
0.227830276 0.396078557 0.365591615
0.285642266 0.403035849 0.374193639
0.374572933 0.420240641 0.385958642
0.492726117 0.446046948 0.411385268
0.639468670 0.480328739 0.444022447
0.795825183 0.527387500 0.493991137
0.310183614 0.520936012 0.433649719
0.325110644 0.524857581 0.435547352
0.363820374 0.529032111 0.442251831
0.420493096 0.541682601 0.444908470
0.501707494 0.550664246 0.457432181
0.596205115 0.565970778 0.475901604
0.714863777 0.592915535 0.505502701
0.828336358 0.638962626 0.559772491
0.504364550 0.666034162 0.536622226
0.516508460 0.670461535 0.538267016
0.540670633 0.670588434 0.542314827
0.586590886 0.679949284 0.550537527
0.640227795 0.686148286 0.557115734
0.714990377 0.699810326 0.577482820
0.797722876 0.718658924 0.601011932
0.878431439 0.751296222 0.641872406
0.704617321 0.809740543 0.675774634
0.712333858 0.811638176 0.674889386
0.729032338 0.813661993 0.681973338
0.753193974 0.817583978 0.685135603
0.786590755 0.820240378 0.691840529
0.825300455 0.829221785 0.706388593
0.873244882 0.840607226 0.726628542
0.926375747 0.856293619 0.752308547
0.001518192 0.155976996 0.294750184
0.021125998 0.158760354 0.289943188
0.075268909 0.166224003 0.292346805
0.142061636 0.179127440 0.303225994
0.216951385 0.199114397 0.323718995
0.319924355 0.221505255 0.351296544
0.473497748 0.245287806 0.391777456
0.686147511 0.271853179 0.441998810
0.015053542 0.183048636 0.291208446
0.049841546 0.177482545 0.289563537
0.082985096 0.190006360 0.297785997
0.144844979 0.199873388 0.314358085
0.215307191 0.213156193 0.327514082
0.326755017 0.238583431 0.358886987
0.492473215 0.261353642 0.398735195
0.698292136 0.297026992 0.450980157
0.054142907 0.224035293 0.300948888
0.078810640 0.232005194 0.318405926
0.112713285 0.235041171 0.316508174
0.169892192 0.246047080 0.340923160
0.246552989 0.257811278 0.348640084
0.359139442 0.279443443 0.374952763
0.520430207 0.306388080 0.412903100
0.713472247 0.346236587 0.469070166
0.102467082 0.289943099 0.342947632
0.122453928 0.296141982 0.343074083
0.158001274 0.300316513 0.353320360
0.224668279 0.314864069 0.369765967
0.304237574 0.328525811 0.391018271
0.425679803 0.353320599 0.414041817
0.586337626 0.380771577 0.448071063
0.761037350 0.427830577 0.494497001
0.184693366 0.378368199 0.391904175
0.204933569 0.388994575 0.404301167
0.245667368 0.397217095 0.405819178
0.315370262 0.417204618 0.424161732
0.398355573 0.433902383 0.438709378
0.510183573 0.455787569 0.457811803
0.646426320 0.482479364 0.487286389
0.799114466 0.527008116 0.535610378
0.332953900 0.524477959 0.479063720
0.351676226 0.526755214 0.479063720
0.391650915 0.535357118 0.491460949
0.443010539 0.545983315 0.497027099
0.515117168 0.553826630 0.504870594
0.606704473 0.571789980 0.516129017
0.722327828 0.601518214 0.554838777
0.842251539 0.636306286 0.597723007
0.520430446 0.668943763 0.573813796
0.534218848 0.667678952 0.574952602
0.554838657 0.673750520 0.579506695
0.592536390 0.679949284 0.590259075
0.648956418 0.688425064 0.598355353
0.716761529 0.700568974 0.611132205
0.793421805 0.719038546 0.631246209
0.877040029 0.753193974 0.673118412
0.700695336 0.803035915 0.691714108
0.712713301 0.813409209 0.696521223
0.725110590 0.813282430 0.702593088
0.752434969 0.815939248 0.707906365
0.785831928 0.822770417 0.717140794
0.824414909 0.833016992 0.724478006
0.869197011 0.844402254 0.745477438
0.919797659 0.859708786 0.766982794
0.000000000 0.176343992 0.346615732
0.015433261 0.176723540 0.349525481
0.082100093 0.183048636 0.363061637
0.151676282 0.192409739 0.369259834
0.234282106 0.207717001 0.385831743
0.330550194 0.227324471 0.407336980
0.480834812 0.247690991 0.448071003
0.694876552 0.271473736 0.509044826
0.002277191 0.194307089 0.346869171
0.036938809 0.198608741 0.356103510
0.091967538 0.207717001 0.363567263
0.159266636 0.213915199 0.374066830
0.241365999 0.224161997 0.392789632
0.344339252 0.245667353 0.416318923
0.508412540 0.265275478 0.460847557
0.715496480 0.300316334 0.521188974
0.046300005 0.248956367 0.371536702
0.077798732 0.244149551 0.377609104
0.120430090 0.252751350 0.384693205
0.186211273 0.259835720 0.393548727
0.268690795 0.265654981 0.407210559
0.379380375 0.279316723 0.431372553
0.530423641 0.312207311 0.472232640
0.725489974 0.348766834 0.528905690
0.114863984 0.314864010 0.401770979
0.135357291 0.312080830 0.408601999
0.175205290 0.321948171 0.417457312
0.238203615 0.327767104 0.426059455
0.327513844 0.341556013 0.450347990
0.439342201 0.355724275 0.470714480
0.599240780 0.384693176 0.511827886
0.771283686 0.434661448 0.563567400
0.209487647 0.399367362 0.454016656
0.221125662 0.402909726 0.453763545
0.265275270 0.419481426 0.459835351
0.327514023 0.425679743 0.477419704
0.417457104 0.441745371 0.499051362
0.530550599 0.458191365 0.525237143
0.668564141 0.485515177 0.555977166
0.808728695 0.530170858 0.601138711
0.355850458 0.517014444 0.516887963
0.371410459 0.523972392 0.519670844
0.402150482 0.530929446 0.532574475
0.459329545 0.543580055 0.548386931
0.533459902 0.566603005 0.569006681
0.624288201 0.579506397 0.579633415
0.736369014 0.603921533 0.604300976
0.842504680 0.635547221 0.646679282
0.536748827 0.664642811 0.612776697
0.546742558 0.661353767 0.615559757
0.567994595 0.670082211 0.620746136
0.607463658 0.680581808 0.637444615
0.661986172 0.694370747 0.651992083
0.731182992 0.705376029 0.659076750
0.797975779 0.727893829 0.676027834
0.888551593 0.757115781 0.717900038
0.716128826 0.807336867 0.730929613
0.724730909 0.804047823 0.733965516
0.732068479 0.807336926 0.729158521
0.753573537 0.813915312 0.735357285
0.780012667 0.822896957 0.744465470
0.820493340 0.832257867 0.753700376
0.871220946 0.849588990 0.770904481
0.925363541 0.862112701 0.792030334
0.000000000 0.198355287 0.464895844
0.008475803 0.194433704 0.460341275
0.102466904 0.199747190 0.468184650
0.189120561 0.211258635 0.478304833
0.295635462 0.217836797 0.493232071
0.408854812 0.225806281 0.523339689
0.542947531 0.251612991 0.543326855
0.704617441 0.281594098 0.583807826
0.000000000 0.220113799 0.469449848
0.025679801 0.217837006 0.472612262
0.114863895 0.227324381 0.475522012
0.205945820 0.235167697 0.495888710
0.302466542 0.242125198 0.512713432
0.430107445 0.255534470 0.532321393
0.565212131 0.272359520 0.560151815
0.730170608 0.305755794 0.596963823
0.031245904 0.267046392 0.480328649
0.071473822 0.269070357 0.482479095
0.145351082 0.271853179 0.482858747
0.226312533 0.280075729 0.503352284
0.330676645 0.286780477 0.520556569
0.448703527 0.295256197 0.546742260
0.584313571 0.315749109 0.565970659
0.742314935 0.353194088 0.605059743
0.132953987 0.341935337 0.521315634
0.146236286 0.340290934 0.514990449
0.202909708 0.343453437 0.522201359
0.276533633 0.356483251 0.533712924
0.380645007 0.362681985 0.552308798
0.499051362 0.371283859 0.572295547
0.637571216 0.396331280 0.596584558
0.779885828 0.440860152 0.636432767
0.253257573 0.439215660 0.540796578
0.269196808 0.442884117 0.553193986
0.303352565 0.446173459 0.559645653
0.361416727 0.452751279 0.568880141
0.447438657 0.460468173 0.584819555
0.562302351 0.471347481 0.613156497
0.689563572 0.494876564 0.630360544
0.807336867 0.535483837 0.662998199
0.394054651 0.551929176 0.601265013
0.400759220 0.555218160 0.608222902
0.437065095 0.559898615 0.609361291
0.488298535 0.566603303 0.619101703
0.562555432 0.577988625 0.633143902
0.645414174 0.589753211 0.651865780
0.749272704 0.614041746 0.678684235
0.842757583 0.648829937 0.701834500
0.563187480 0.667172492 0.668437541
0.567615151 0.670841098 0.666793108
0.588488340 0.676786721 0.672865391
0.634788096 0.688424945 0.686780214
0.684376538 0.697027385 0.696394622
0.749525785 0.721062541 0.722580671
0.817836761 0.743959308 0.745603502
0.893737793 0.767615199 0.769259632
0.730297148 0.797343612 0.756609619
0.732827187 0.805059552 0.760784328
0.743326664 0.805313170 0.765717864
0.764705956 0.814927161 0.774572670
0.798355162 0.823908806 0.788361907
0.834787786 0.837064743 0.795951843
0.871220946 0.857558310 0.810499907
0.929790795 0.873371303 0.836053073
0.001265167 0.223655820 0.639848471
0.038330197 0.225300536 0.642884135
0.165591061 0.229601562 0.646679401
0.270967603 0.233902633 0.658190548
0.395952165 0.240860328 0.670335472
0.523592234 0.247944221 0.686780453
0.667298913 0.268437356 0.706135273
0.790385544 0.306261778 0.715749383
0.008855250 0.248070836 0.649968445
0.075015709 0.248703241 0.647817791
0.172042966 0.252624810 0.652119040
0.285009593 0.261606485 0.660467744
0.410119951 0.267425537 0.676407397
0.536749065 0.277672440 0.695888638
0.677166164 0.291587621 0.712586880
0.811637938 0.333965629 0.726502299
0.064262956 0.305882215 0.661100626
0.117141172 0.303985089 0.659961581
0.209866896 0.302719831 0.660973907
0.310562968 0.313219160 0.665021956
0.423655987 0.319418073 0.680075645
0.555218220 0.326881915 0.698798060
0.687539339 0.348007619 0.713725507
0.811385393 0.383428067 0.730044365
0.168247789 0.380012810 0.666287184
0.200632527 0.384060681 0.673371196
0.268690616 0.386717170 0.675521851
0.354079425 0.397722781 0.686906755
0.463883638 0.402403474 0.701075196
0.590765476 0.413409263 0.716761410
0.718405783 0.427071631 0.731941879
0.832131267 0.467678815 0.744844794
0.320935994 0.491081983 0.691334367
0.329538226 0.497659892 0.691587627
0.362808168 0.489816517 0.693358660
0.425679982 0.495635629 0.703099191
0.517014325 0.498798132 0.714484215
0.624794364 0.512713432 0.733712733
0.741429210 0.525616884 0.743706226
0.847564638 0.555471003 0.762175798
0.477292657 0.608095944 0.713725328
0.490448952 0.604047835 0.722201228
0.512587190 0.606325030 0.724604726
0.555091321 0.611891210 0.728526175
0.603794873 0.613156319 0.737254620
0.682352960 0.621758461 0.750284553
0.775711417 0.635041118 0.768880486
0.874130487 0.657052457 0.789373696
0.633649468 0.724604964 0.772549093
0.641998351 0.723339438 0.765591264
0.651992500 0.722201109 0.768880427
0.684377134 0.727514505 0.773687422
0.726122797 0.735357523 0.781530797
0.773308098 0.745983183 0.796457767
0.830107689 0.758760512 0.815306604
0.901580811 0.780771792 0.837191880
0.744338691 0.820113599 0.812270582
0.759392560 0.822137594 0.818722367
0.754458785 0.823529363 0.822770417
0.780771434 0.827830434 0.827830374
0.809108377 0.833016992 0.830360413
0.846805632 0.850853860 0.840354562
0.887539387 0.865528226 0.870461762
0.936242819 0.894749820 0.886780620
