Assets/Shaders/EldamarStudio/100 Sci-Fi LUTs Pack/LUTs/cube/Lacey LUT.cube
LUT_3D_SIZE 5
DOMAIN_MIN 0.000000 0.000000 0.000000
DOMAIN_MAX 0.903226 0.903226 0.903226
0.023529001 0.125489995 0.176470995
0.077166408 0.141176000 0.189879715
0.173940822 0.167361990 0.211132422
0.347501248 0.213789001 0.240354121
0.679316401 0.269449979 0.311321825
0.032384705 0.185325697 0.209487721
0.085009418 0.192536697 0.213409290
0.197216675 0.219354689 0.234029412
0.378494531 0.259582400 0.269323409
0.705376387 0.324351817 0.324098527
0.092852995 0.327007949 0.272612393
0.151802823 0.335483789 0.273244977
0.278052211 0.352435410 0.291587830
0.479190111 0.396963805 0.321948290
0.771157146 0.470967799 0.389752984
0.329032362 0.561163962 0.389374137
0.377609253 0.574573159 0.403541982
0.484250635 0.584060669 0.416065633
0.648577094 0.607210338 0.440607131
0.851739287 0.662871778 0.528526247
0.703858614 0.812270582 0.639848471
0.731562316 0.818469286 0.658696592
0.765211761 0.825300455 0.661353171
0.840860069 0.833775818 0.684756815
0.916761637 0.856672764 0.725995958
0.006831295 0.141176000 0.206198722
0.074889697 0.144465417 0.209487721
0.171663687 0.178494826 0.238962695
0.356230527 0.222263992 0.278178543
0.672359169 0.275268823 0.334218800
0.043136999 0.186337993 0.226818413
0.087286703 0.200379699 0.238582999
0.189373687 0.227197692 0.261859715
0.377861947 0.265148699 0.290954977
0.698798239 0.325996101 0.358759940
0.111195400 0.323339671 0.296141982
0.157368675 0.330550104 0.304364294
0.271473795 0.355091363 0.313472301
0.475015789 0.395319104 0.348513395
0.769006729 0.470967799 0.422896922
0.328273386 0.556609631 0.414927542
0.377355963 0.562808573 0.423276693
0.488172084 0.576849878 0.435294122
0.644022763 0.598734915 0.460467845
0.844655156 0.662112713 0.541935503
0.711701632 0.809866905 0.649588585
0.719164908 0.813788533 0.658823609
0.764199913 0.822011650 0.674003899
0.831751823 0.832763970 0.692346573
0.920303524 0.854395688 0.736622572
0.004554423 0.148387417 0.261479974
0.066413701 0.158507288 0.271347404
0.172043398 0.180391997 0.287033379
0.348134220 0.224920839 0.331941515
0.676027834 0.274003565 0.411385387
0.056293406 0.207590118 0.277546108
0.088298410 0.213156000 0.285389096
0.197216675 0.231752113 0.309550673
0.380139232 0.274003834 0.352434993
0.707653284 0.322074503 0.430740088
0.132827401 0.323719412 0.340670377
0.175331980 0.337760657 0.351423085
0.298291951 0.370778233 0.387096792
0.493991375 0.404174387 0.412649989
0.771916568 0.470967799 0.489310592
0.353447258 0.551043510 0.474130243
0.401771247 0.564452827 0.488172114
0.496900499 0.576850295 0.490196258
0.648577094 0.602403283 0.516635001
0.842630923 0.665148795 0.590891957
0.703858614 0.802277207 0.680961132
0.721821487 0.814168155 0.679190338
0.759898543 0.818722606 0.702466846
0.838962615 0.831878364 0.714231312
0.923339784 0.854016542 0.761416614
0.001012128 0.180391997 0.371916384
0.066160403 0.185325861 0.377735704
0.196963817 0.205313414 0.399620414
0.372043103 0.233396992 0.431625247
0.698165417 0.272991866 0.526248932
0.033649869 0.231751695 0.390765131
0.104997121 0.239595264 0.391777217
0.224414974 0.255660981 0.421252400
0.411258966 0.276281118 0.461732835
0.720429838 0.333839536 0.541555941
0.164199397 0.356103539 0.437191963
0.206071824 0.374446541 0.454522401
0.325489938 0.388488382 0.482985526
0.511701226 0.406830966 0.518026650
0.783934236 0.473244667 0.588361561
0.401391357 0.551423252 0.553320289
0.440607131 0.565338135 0.562428951
0.529664755 0.587602556 0.588614702
0.680961251 0.622011244 0.619102120
0.853383780 0.669702828 0.675269127
0.720936000 0.806071877 0.736242890
0.735104442 0.807590008 0.738519847
0.766729891 0.822011232 0.753447056
0.832131505 0.835546911 0.769133449
0.922327638 0.861606598 0.801897466
0.001265167 0.223655820 0.639848471
0.130929619 0.228589684 0.645161390
0.330677003 0.241366386 0.659455717
0.560278177 0.250474244 0.691840291
0.790385544 0.306261778 0.715749383
0.039974645 0.284882694 0.651739419
0.169386476 0.287792653 0.652624726
0.356483281 0.298545122 0.668311119
0.580518723 0.312713355 0.700316131
0.806072235 0.366729677 0.729032278
0.231372148 0.433776051 0.677040040
0.287539601 0.431751788 0.678431153
0.435926586 0.440859944 0.692726195
0.629854679 0.460214943 0.724731147
0.836559236 0.509044766 0.752181768
0.520303190 0.639721632 0.727387607
0.544212341 0.640480578 0.737761021
0.613788605 0.641619086 0.741049647
0.723086774 0.653384089 0.765211761
0.879696429 0.686148107 0.800000012
0.744338691 0.820113599 0.812270582
0.751928627 0.820493519 0.819481552
0.792030215 0.830613613 0.826691628
0.854395926 0.855407596 0.845920324
0.936242819 0.894749820 0.886780620
