Assets/Shaders/EldamarStudio/100 Sci-Fi LUTs Pack/LUTs/cube/Laura LUT.cube
LUT_3D_SIZE 5
DOMAIN_MIN 0.000000 0.000000 0.000000
DOMAIN_MAX 0.903226 0.903226 0.903226
0.090195999 0.000000000 0.000000000
0.172928706 0.021252289 0.047059000
0.313219398 0.064769410 0.064769410
0.493485123 0.159898862 0.137381256
0.769133568 0.249841973 0.225047812
0.127134711 0.125236705 0.059835702
0.174572989 0.129158705 0.063124701
0.296521097 0.176596984 0.096141994
0.480708241 0.244908705 0.161163867
0.762681603 0.328020364 0.246679366
0.152941003 0.296900809 0.139278576
0.199747130 0.305755675 0.149778411
0.285135955 0.315243810 0.164199397
0.473877132 0.380012363 0.205313414
0.756736159 0.472232789 0.281973392
0.185325861 0.544592083 0.244276121
0.235167533 0.544591963 0.256419837
0.353573948 0.559645772 0.267425984
0.513219416 0.565212250 0.281594127
0.769892395 0.652751386 0.365844041
0.396837562 0.846299767 0.485768408
0.439468384 0.848956585 0.482858866
0.547121525 0.850221574 0.499430835
0.679316759 0.856419742 0.520682871
0.848956585 0.865907729 0.562808394
0.112080708 0.025173709 0.138646409
0.165085703 0.041871995 0.120682694
0.269070119 0.101075269 0.154332414
0.424162120 0.198102266 0.229222119
0.727387726 0.281594098 0.311701506
0.138899282 0.117393695 0.117773399
0.176849693 0.144212678 0.146489412
0.258317798 0.179885969 0.175964400
0.426059544 0.245920569 0.230486676
0.727387547 0.338140368 0.323339701
0.171916410 0.281847388 0.198102415
0.198734999 0.290069699 0.207969412
0.270714819 0.298545122 0.216825113
0.438203841 0.371790111 0.265148699
0.739531875 0.474889606 0.354206115
0.202656582 0.528526306 0.307653129
0.238077253 0.534092605 0.305123150
0.346362859 0.540038109 0.315623105
0.497153789 0.554079294 0.324731112
0.758380473 0.648070991 0.416698068
0.422390401 0.842757761 0.518026292
0.453637153 0.844655514 0.518911600
0.551676154 0.844276011 0.535610318
0.682985604 0.849841833 0.557621539
0.841872394 0.863250911 0.590512276
0.124224991 0.062871814 0.317141384
0.189626992 0.090954989 0.300569087
0.270714819 0.129537985 0.277292818
0.426818520 0.205692694 0.329411954
0.698039174 0.302213967 0.426565617
0.160152003 0.180518404 0.268816978
0.191523984 0.187349692 0.263883680
0.258570701 0.197216690 0.268437684
0.404174685 0.267172962 0.330297381
0.688551307 0.363693655 0.442884386
0.175838411 0.295003384 0.290448785
0.213156417 0.305755645 0.299556971
0.306008965 0.362301975 0.349905223
0.426818520 0.386590660 0.371790081
0.696774006 0.488678217 0.473750561
0.233776286 0.512207270 0.404554129
0.276027828 0.518405974 0.408096403
0.351929367 0.529158711 0.415053964
0.477925390 0.547122180 0.429727972
0.734851480 0.650853634 0.523971975
0.443137169 0.829981029 0.590765119
0.476533562 0.830360293 0.600758731
0.562808454 0.835167348 0.610373020
0.689183831 0.842378557 0.635294139
0.838709354 0.854775131 0.658823073
0.109803997 0.162934989 0.565212250
0.204680562 0.174952284 0.559266269
0.339785129 0.202403545 0.537002265
0.470082104 0.239341989 0.506388247
0.702593446 0.311448634 0.579886079
0.152309000 0.264263242 0.519417822
0.217836827 0.266160399 0.509045243
0.331941515 0.275648266 0.503352165
0.451360255 0.293991148 0.495129824
0.697027326 0.375458658 0.576344192
0.200000152 0.381024957 0.492599815
0.238330111 0.391524106 0.489690125
0.340796649 0.402276993 0.494244099
0.451992214 0.412017852 0.500316381
0.700695634 0.503352106 0.598861516
0.237444997 0.526881397 0.515117109
0.284756303 0.535737216 0.524857700
0.388488382 0.560531259 0.545477629
0.558254123 0.620999396 0.609234393
0.733965576 0.674636126 0.659962237
0.474256873 0.824414730 0.693358779
0.509424448 0.820240140 0.704617143
0.590512276 0.827071309 0.722833574
0.689816952 0.833902597 0.724731028
0.825173914 0.850221395 0.753826916
0.158506945 0.307653457 0.856672764
0.265401483 0.312839925 0.856672764
0.431751788 0.330423355 0.848829746
0.620113611 0.356989056 0.831625283
0.788867772 0.395319462 0.811005771
0.211891308 0.393801212 0.838836014
0.287918925 0.397469640 0.838076890
0.440607071 0.409867316 0.832258046
0.614800692 0.429854631 0.819481432
0.783301651 0.445920467 0.805818558
0.302466601 0.549525619 0.813535750
0.359645456 0.554459095 0.810752749
0.477672577 0.553446770 0.811005592
0.615306735 0.558380723 0.804806828
0.771916389 0.564579189 0.797343135
0.381277919 0.688677907 0.806830883
0.427703917 0.695382595 0.813029766
0.517899871 0.696647763 0.807463408
0.638835907 0.698924780 0.801517725
0.779253542 0.708032906 0.804174304
0.514610708 0.838583291 0.816192627
0.534092367 0.841113567 0.824794412
0.602656186 0.838456750 0.824035466
0.717647016 0.847185493 0.838456750
0.858064413 0.885388911 0.876280785
