Assets/Shaders/EldamarStudio/100 Sci-Fi LUTs Pack/LUTs/cube/Laura LUT.cube
DOMAIN_MIN 0 0 0
DOMAIN_MAX 1 1 1
LUT_3D_SIZE 32
0.090195999 0.000000000 0.000000000
0.093232386 0.000000000 0.000000000
0.098419003 0.000000000 0.002150774
0.108286157 0.000000000 0.008981999
0.123845994 0.000758999 0.020746548
0.142061993 0.006830999 0.029854935
0.157748327 0.015433321 0.041492999
0.172928706 0.021252289 0.047059000
0.188868001 0.025047194 0.047817901
0.207084015 0.031119972 0.050853513
0.231119737 0.034282129 0.045161001
0.249336243 0.041366253 0.045161255
0.267931998 0.049335998 0.049335998
0.291967034 0.055661030 0.055661030
0.313219398 0.064769410 0.064769410
0.332067996 0.078684792 0.073877186
0.354838580 0.092346996 0.084503382
0.382795960 0.105123565 0.096647985
0.413156033 0.120303981 0.108792014
0.437950730 0.132701010 0.118153363
0.464136720 0.146742731 0.127261251
0.493485123 0.159898862 0.137381256
0.527007997 0.169385999 0.149652466
0.563440800 0.187602818 0.164832100
0.597596288 0.198988289 0.175458282
0.637950242 0.209487975 0.184566662
0.686021149 0.222138062 0.194687068
0.731562257 0.237318426 0.209867448
0.769133568 0.249841973 0.225047812
0.812650323 0.265527934 0.243770152
0.858570576 0.282858580 0.263251364
0.898038983 0.298038989 0.278430998
0.090195999 0.003036387 0.009108387
0.093232386 0.000000000 0.006072000
0.098419003 0.000000000 0.008222774
0.109550998 0.003795161 0.012524000
0.126122609 0.010246838 0.019987451
0.139025599 0.018975001 0.023782160
0.157242253 0.022517323 0.037950546
0.171283990 0.032257993 0.040733617
0.188108698 0.037950486 0.040986609
0.213156000 0.037191976 0.050853517
0.231372744 0.046173129 0.050980002
0.249336243 0.051486515 0.047185261
0.266793638 0.059582740 0.048197355
0.288931370 0.068311028 0.052624647
0.310182989 0.082985409 0.061733022
0.329032212 0.092093796 0.068437606
0.353320777 0.102972806 0.079949185
0.381530970 0.113598756 0.093611598
0.407084018 0.126375973 0.105755635
0.434661359 0.141556367 0.120682977
0.461100310 0.153953388 0.130297348
0.490448982 0.164958999 0.139405519
0.523972332 0.172548875 0.149652466
0.560404420 0.193674818 0.164832100
0.599114418 0.202783003 0.177735567
0.639594972 0.213915274 0.188994378
0.685515106 0.228210062 0.200252995
0.728525877 0.243390426 0.212903053
0.771410227 0.253257811 0.228083417
0.812143981 0.268564343 0.241492569
0.854648829 0.286780387 0.261606395
0.891966999 0.304111004 0.287539393
0.094497003 0.010373225 0.011765000
0.097533390 0.011638387 0.008728613
0.100569226 0.010752774 0.018595772
0.106641226 0.014547935 0.015307000
0.122833312 0.023656227 0.017963547
0.145603761 0.032763835 0.031625614
0.156356648 0.036812097 0.034029093
0.174572989 0.043137480 0.040986773
0.189247191 0.052498452 0.039721675
0.212397262 0.052245490 0.050474007
0.228842750 0.058696900 0.053130776
0.251106977 0.065780774 0.053130776
0.266666889 0.071853511 0.052498642
0.286148220 0.079949513 0.056040518
0.309297562 0.091334410 0.065148413
0.330296844 0.101707794 0.071852997
0.351549625 0.112333991 0.079443194
0.380012780 0.123339333 0.093990974
0.405819029 0.137001947 0.109171018
0.432890356 0.147628367 0.121948138
0.460214704 0.159013242 0.133333027
0.488551259 0.171916351 0.141429484
0.521062732 0.181657016 0.149778977
0.559518993 0.196837679 0.166982874
0.600379050 0.211005777 0.177735567
0.641239464 0.221252427 0.188488305
0.685515106 0.235420704 0.200885355
0.728019834 0.247311667 0.216318756
0.764073372 0.263630807 0.222517028
0.813662052 0.276281148 0.248323813
0.855913997 0.294117749 0.264010131
0.892346799 0.312333792 0.288045764
0.100569002 0.028336318 0.015559838
0.103605390 0.031372704 0.017583773
0.110436380 0.029727999 0.017330611
0.113472320 0.030993158 0.028716162
0.119544320 0.039721996 0.018469613
0.142820865 0.047944222 0.034408774
0.163061321 0.054522481 0.041745998
0.174572989 0.059582703 0.041745998
0.193548098 0.067173094 0.042504903
0.212270826 0.070208840 0.050600521
0.227577716 0.074889153 0.053889871
0.245034978 0.083491154 0.057431996
0.268184632 0.088424802 0.058570638
0.284124047 0.094624028 0.061859995
0.307400137 0.103731893 0.069955729
0.329284936 0.112839796 0.076660156
0.349525243 0.123466313 0.086780354
0.374446392 0.134977728 0.096521147
0.401770830 0.148892984 0.113472171
0.429095507 0.158507362 0.123592556
0.458949864 0.167615563 0.135104254
0.489310384 0.177735299 0.144212127
0.520303667 0.192662656 0.150917336
0.557495117 0.205945820 0.167995006
0.599240720 0.218089998 0.179380283
0.641745448 0.230360478 0.191018626
0.684250295 0.245034963 0.201644316
0.726755023 0.254901856 0.219860867
0.766350329 0.270714790 0.226059318
0.805819333 0.285895169 0.241745412
0.856926203 0.302846581 0.272486031
0.894118011 0.321442157 0.288805008
0.107020542 0.057938091 0.025426548
0.110436380 0.060594931 0.033775933
0.118026547 0.058317542 0.031119321
0.127514169 0.055660706 0.026438773
0.131688997 0.058317542 0.032132000
0.137760997 0.064389542 0.035167612
0.159266323 0.072991870 0.043263771
0.178367987 0.080075994 0.047438450
0.192030102 0.085389100 0.048197452
0.213282496 0.088425480 0.051233068
0.229474857 0.091840677 0.054648869
0.244655252 0.099810086 0.058949992
0.262112647 0.108918183 0.063883640
0.283618003 0.112460509 0.067425966
0.304996848 0.121568859 0.073624447
0.325490236 0.131056279 0.080075994
0.345983535 0.140923381 0.090322636
0.366097093 0.153194502 0.104870535
0.393421531 0.162302151 0.117014557
0.420746535 0.171410367 0.123971999
0.452245742 0.180898279 0.133839086
0.486274719 0.190259546 0.145350680
0.522580922 0.202403530 0.154332548
0.555977345 0.217330903 0.168753907
0.596584558 0.230613530 0.180518731
0.638709724 0.242378071 0.191651106
0.681214571 0.254522145 0.206957996
0.723719299 0.266666919 0.225173980
0.768121302 0.281088263 0.233143538
0.810878992 0.294876963 0.248070702
0.850854158 0.308918595 0.269070178
0.893359005 0.330171019 0.293358982
0.116128936 0.082226865 0.040606931
0.122200929 0.082226865 0.043643318
0.121315770 0.084883153 0.045540933
0.127134934 0.085135862 0.040227707
0.137760997 0.085641928 0.035167612
0.149904996 0.085641928 0.038203999
0.158507317 0.094244257 0.046299610
0.172295988 0.100063220 0.050474066
0.185199097 0.103605092 0.051233161
0.201138496 0.106641486 0.054269452
0.222390860 0.112586990 0.060214933
0.238583252 0.116129190 0.061732996
0.256040663 0.121821865 0.063883640
0.277545989 0.127640903 0.067425966
0.301833987 0.136748508 0.076533571
0.318405867 0.148260668 0.085135862
0.339152455 0.156862870 0.095255993
0.363061458 0.165844560 0.107906215
0.390385896 0.180518925 0.120050952
0.417710304 0.189626530 0.129411578
0.450727552 0.200632468 0.139911473
0.485642135 0.210246935 0.152055874
0.519544542 0.217583910 0.163440928
0.552940965 0.229727939 0.169512928
0.595445871 0.244655281 0.186210990
0.637697577 0.256546617 0.198734730
0.678178191 0.266666859 0.209867135
0.720682859 0.278810918 0.225173980
0.760531485 0.290954977 0.235420823
0.804554045 0.305376261 0.251107097
0.847311854 0.320050597 0.270588517
0.887287021 0.336243004 0.287286997
0.122706994 0.103984669 0.050727319
0.126249313 0.106514990 0.053763706
0.130170539 0.108665764 0.052498545
0.132953823 0.109171480 0.052118998
0.142694548 0.107526772 0.047944319
0.148387313 0.105375998 0.048829932
0.160531327 0.107906319 0.049335998
0.172928706 0.113725707 0.055155031
0.186717421 0.117520638 0.056799550
0.201897815 0.122327797 0.059835490
0.217836544 0.130802989 0.068311319
0.237065181 0.134851247 0.072359063
0.256166995 0.140164644 0.075142287
0.278810710 0.147881284 0.079823315
0.300821990 0.156988889 0.086654209
0.322706789 0.168500915 0.098165631
0.341176182 0.177609310 0.105882317
0.364452809 0.184313893 0.114737310
0.389880002 0.195699304 0.123086624
0.414674044 0.207843289 0.132447973
0.447691143 0.216951370 0.145351052
0.482099921 0.227451190 0.157115862
0.514231503 0.235294014 0.167615175
0.552434921 0.247438639 0.176091000
0.592662573 0.259582639 0.186716989
0.636558950 0.274509966 0.200252667
0.677672148 0.285895258 0.210373074
0.720176816 0.296014994 0.225553438
0.762555122 0.308159620 0.243010491
0.807337046 0.323845565 0.259202838
0.852751195 0.339784890 0.279569864
0.893864691 0.354965329 0.296395004
0.127134711 0.125236705 0.059835702
0.128526390 0.128273085 0.056293678
0.134851217 0.131309479 0.061606929
0.136621997 0.131815538 0.062365703
0.144971386 0.129158705 0.062745154
0.151802942 0.127387479 0.061479993
0.160784289 0.126122311 0.061479993
0.174572989 0.129158705 0.063124701
0.187476277 0.132953987 0.063883990
0.200000092 0.139025986 0.064263232
0.216824844 0.146362826 0.069829158
0.234028786 0.154711962 0.079823159
0.252245575 0.158886701 0.082858771
0.275268763 0.167489022 0.088678323
0.296521097 0.176596984 0.096141994
0.317773521 0.184819594 0.107020989
0.340543717 0.195446193 0.116128989
0.363187551 0.202909678 0.123465978
0.388488263 0.213029966 0.131561995
0.412776738 0.223276705 0.137128353
0.446299464 0.236812428 0.150031731
0.480708241 0.244908705 0.161163867
0.511448503 0.253636897 0.169259489
0.550916910 0.267299503 0.181403905
0.591018319 0.277798980 0.191144705
0.633522987 0.289942950 0.204680368
0.676533759 0.304870337 0.215306774
0.720176816 0.316255212 0.230487138
0.762681603 0.328020364 0.246679366
0.807084024 0.338772923 0.263377160
0.853004277 0.356989175 0.282858580
0.894749999 0.372928709 0.300316304
0.130929992 0.146489099 0.068943903
0.131688893 0.149525493 0.062112607
0.135104328 0.151043683 0.062871777
0.144971088 0.153827026 0.071474090
0.144212097 0.150411099 0.076027997
0.154079780 0.149652004 0.072612070
0.165970862 0.147880778 0.073624194
0.175331697 0.148133814 0.073750712
0.189752996 0.151929095 0.076028004
0.195825011 0.158001095 0.069955997
0.212776646 0.164073110 0.072612323
0.230993092 0.170651361 0.079443410
0.249209195 0.178621098 0.089690447
0.267931968 0.185199097 0.093485095
0.289690375 0.194813415 0.103099413
0.310942769 0.202277094 0.113092989
0.330677003 0.209108204 0.122960091
0.357495129 0.218848988 0.128399506
0.385199100 0.230993003 0.140164003
0.411258638 0.240354344 0.145477355
0.442757726 0.252498627 0.155344635
0.480708241 0.266161084 0.167236060
0.511448503 0.272359580 0.170777649
0.550916910 0.286274821 0.185957894
0.590385854 0.296900779 0.195825383
0.632005155 0.308159143 0.207716554
0.674510002 0.320303172 0.222896963
0.719797373 0.335230500 0.238077328
0.764958680 0.346236557 0.253257722
0.808475554 0.358127832 0.270714939
0.852245569 0.371410280 0.286653668
0.891714036 0.389627099 0.301834077
0.137001991 0.167741492 0.078051522
0.140037611 0.170777887 0.078051522
0.138646290 0.169512719 0.075521789
0.144971490 0.170524850 0.078052171
0.159392506 0.174699888 0.085136384
0.153320506 0.168627113 0.079063624
0.168248162 0.167868003 0.083238654
0.177862242 0.169386208 0.084124267
0.183681011 0.173181489 0.082100011
0.195825011 0.179253489 0.082100011
0.210625872 0.185325503 0.084756874
0.227957010 0.189373761 0.087792709
0.246173471 0.193801492 0.093485169
0.264895558 0.200379491 0.102593489
0.289184302 0.212523490 0.114737473
0.310942769 0.222137809 0.121947996
0.327640980 0.229601488 0.129791185
0.345351130 0.237064987 0.137507915
0.381783992 0.249208987 0.140543550
0.412270486 0.258570343 0.149525374
0.442377985 0.269575983 0.160277992
0.475142241 0.281846762 0.170524776
0.511448503 0.293611944 0.176850423
0.550916910 0.302719593 0.192030057
0.590385854 0.312080801 0.200379565
0.632637620 0.323972136 0.210752785
0.677545667 0.338519961 0.225932583
0.720050335 0.350663960 0.241112947
0.770651400 0.357621491 0.256293327
0.816571832 0.369259715 0.276786894
0.858317554 0.386843681 0.298924923
0.897785962 0.410879493 0.317014486
0.140164122 0.188993871 0.090069741
0.143200487 0.192030266 0.092978872
0.150537640 0.190765098 0.092978872
0.151802868 0.188993871 0.089437000
0.159013331 0.191777229 0.089184128
0.165591002 0.195825741 0.088172004
0.167109311 0.197343290 0.089690194
0.180139124 0.196078449 0.093738288
0.190006077 0.196584642 0.093990996
0.204300880 0.200505868 0.093990996
0.210625872 0.203668743 0.091081865
0.225806251 0.207716465 0.096141994
0.244275764 0.213029638 0.102340221
0.264263064 0.220619902 0.110942155
0.283238798 0.224794731 0.115116991
0.305123180 0.236938730 0.124857798
0.332447827 0.248070851 0.137507856
0.356230408 0.256925881 0.148892999
0.381277978 0.264515907 0.149651930
0.409361362 0.279443234 0.161036879
0.441492617 0.288804621 0.168374479
0.473877132 0.298924625 0.176470727
0.508412182 0.309297621 0.182669461
0.545097947 0.323971957 0.192283094
0.584566832 0.333080143 0.202909291
0.629601598 0.343579829 0.215180457
0.678178191 0.356230050 0.231878668
0.723086715 0.365970850 0.247058421
0.760278463 0.383427829 0.259582669
0.810626090 0.395825058 0.281594008
0.855660975 0.411005467 0.300822407
0.895129859 0.429221988 0.308918148
0.145224512 0.214294761 0.102213994
0.146236658 0.217330635 0.095129870
0.147501767 0.216065988 0.100063257
0.154079854 0.215559602 0.101328097
0.156736284 0.215939045 0.099430531
0.169133320 0.217078120 0.104364246
0.177229568 0.220619932 0.104870312
0.181910247 0.222011253 0.106261991
0.194054350 0.220873088 0.108159252
0.209234759 0.223909020 0.108159252
0.215686262 0.224921122 0.105249599
0.227830514 0.227956980 0.108286247
0.243010893 0.230992883 0.113219604
0.261986226 0.238077253 0.120050281
0.278431296 0.242884412 0.123086669
0.303099185 0.253130972 0.132953793
0.325869381 0.263757199 0.140543982
0.355850875 0.275395244 0.155470982
0.378495008 0.284250259 0.161036998
0.405313373 0.294623613 0.166097268
0.438330472 0.307906240 0.174446255
0.470841259 0.319165111 0.181530863
0.503605008 0.330423474 0.188741505
0.543832839 0.343706161 0.197849616
0.582542837 0.356356800 0.213029534
0.624794602 0.366856486 0.219354928
0.673624158 0.379000485 0.234408990
0.717647016 0.389626682 0.251106799
0.759266317 0.402656227 0.261606663
0.797469854 0.415559441 0.273750961
0.846299529 0.431119442 0.299810320
0.888045728 0.447438508 0.311954260
0.150158361 0.242757991 0.115496635
0.150158361 0.244655252 0.107906632
0.150158361 0.244528770 0.106388636
0.154838830 0.242884472 0.108918481
0.157874539 0.245161176 0.111574635
0.170018926 0.242125571 0.118405931
0.181277677 0.245287955 0.122200996
0.188741356 0.246679276 0.121062644
0.197090447 0.247438177 0.122580640
0.212270841 0.250474483 0.123339638
0.218722358 0.250600994 0.122706771
0.229728252 0.251486361 0.123465858
0.244908631 0.254522294 0.127261356
0.260595024 0.257558674 0.130297035
0.277545840 0.262745261 0.133333415
0.300062776 0.272485614 0.141302988
0.327008039 0.283111811 0.152687982
0.351929188 0.292220205 0.159392565
0.376723975 0.303858280 0.171030641
0.402656734 0.314357996 0.177102998
0.435673833 0.325363636 0.182036638
0.471094489 0.337507635 0.189120770
0.501833975 0.352434993 0.198102638
0.542314827 0.364579290 0.206198901
0.583681166 0.376723558 0.217583984
0.624794602 0.388867974 0.232258022
0.670335174 0.401518047 0.236812472
0.713472486 0.414294630 0.253763616
0.757115602 0.427577257 0.267425835
0.798987746 0.441365808 0.280581951
0.842883766 0.450474232 0.296268195
0.889183998 0.467931986 0.323339641
0.152941003 0.272612065 0.130170956
0.152688041 0.273118079 0.130929992
0.153953001 0.272865027 0.130677029
0.157495007 0.272865027 0.128905863
0.169006541 0.272991598 0.126755029
0.172042936 0.269955963 0.126755029
0.183428034 0.274004012 0.131815031
0.192030057 0.277040005 0.133206710
0.200379089 0.277545929 0.131689027
0.215559483 0.280581534 0.137761027
0.222517043 0.280455053 0.140923157
0.232637510 0.280708015 0.142441034
0.245667607 0.281340688 0.142694071
0.260847986 0.284883052 0.142947033
0.282100350 0.287919432 0.145983413
0.303099185 0.295003265 0.150916994
0.326881498 0.304111183 0.159266025
0.354206562 0.313472599 0.170777604
0.381531000 0.322581023 0.179886013
0.406325072 0.334219038 0.188488320
0.438456476 0.346616030 0.196205035
0.473877132 0.358760029 0.203036129
0.507526517 0.371030539 0.212270990
0.544085860 0.383301795 0.218595996
0.585072577 0.395446062 0.224921033
0.627830267 0.407842994 0.234029040
0.670588136 0.420240134 0.245920092
0.716129243 0.435420483 0.258064866
0.760910749 0.450347841 0.275268972
0.805439353 0.466792941 0.293990999
0.850727141 0.482858628 0.313978195
0.905376017 0.491967022 0.338266999
0.152941003 0.296900809 0.139278576
0.149905384 0.302972794 0.148386970
0.160404637 0.301328033 0.146995753
0.163566992 0.300189406 0.142062247
0.163187563 0.300568938 0.136116415
0.172042936 0.303352296 0.141935408
0.190259323 0.302846372 0.146995410
0.199747130 0.305755675 0.149778411
0.206451744 0.307399958 0.148387074
0.221631497 0.307905912 0.146869406
0.233902737 0.305123270 0.150031537
0.244781822 0.306767523 0.155091420
0.256926000 0.306894034 0.158760056
0.269955605 0.306135416 0.161163792
0.285135955 0.315243810 0.164199397
0.303984553 0.315876395 0.164831981
0.324351192 0.322327614 0.167615175
0.348133892 0.332068115 0.173813984
0.375459015 0.343833357 0.182922378
0.402783394 0.352941036 0.186464056
0.437065154 0.366476685 0.196458057
0.473877132 0.380012363 0.205313414
0.507526517 0.392282873 0.212270990
0.546995759 0.407463312 0.224415004
0.588108957 0.419734567 0.233017281
0.632005036 0.433270097 0.244276062
0.676407158 0.447311521 0.257811755
0.719164848 0.459709227 0.267172486
0.756736159 0.472232789 0.281973392
0.803921521 0.485009342 0.303099394
0.851865947 0.499303997 0.326122761
0.899303973 0.513219416 0.350410998
0.148134008 0.330803603 0.150790602
0.154712379 0.327260971 0.155091390
0.153826997 0.329031974 0.157747999
0.163946807 0.328778952 0.157495365
0.165085360 0.330676585 0.154838786
0.178241730 0.335736722 0.160910785
0.185452327 0.331435770 0.154964998
0.200126708 0.331435770 0.159392715
0.207716912 0.332953572 0.161669806
0.222896531 0.332953572 0.163567469
0.237570941 0.334851474 0.163946912
0.249715701 0.333839595 0.166983053
0.261859804 0.335357398 0.169259965
0.274256825 0.334092557 0.170272022
0.289437205 0.338899374 0.177609175
0.309424609 0.343200773 0.180644795
0.326122433 0.344718575 0.185198992
0.346236140 0.353320330 0.188741222
0.371790141 0.367235929 0.190765157
0.406325370 0.379000425 0.199114442
0.433649719 0.388108522 0.202150539
0.471094131 0.402276903 0.212776989
0.507652998 0.415812582 0.221758500
0.549398959 0.428715706 0.231625810
0.591144741 0.441619366 0.243769795
0.635041177 0.455155075 0.254395992
0.679063916 0.470334858 0.267552257
0.717773616 0.484376878 0.276660323
0.764579356 0.496520966 0.288677812
0.802782893 0.513978124 0.307400167
0.847438395 0.528019965 0.331941754
0.888424993 0.541682601 0.357748002
0.149652198 0.362682194 0.167489186
0.155724198 0.361163586 0.172042996
0.159898996 0.359392375 0.168374196
0.161163837 0.360657543 0.167109355
0.168500900 0.362934828 0.170398638
0.184819922 0.365591198 0.177608997
0.190891802 0.363061368 0.172548875
0.200126693 0.360278368 0.170018911
0.210753083 0.361037284 0.172296196
0.225932911 0.361796170 0.176850185
0.238076866 0.363187850 0.178620994
0.251233518 0.365718186 0.180645257
0.265654981 0.365718186 0.184819996
0.279064000 0.365718186 0.183175176
0.295509219 0.367488950 0.188488409
0.310942769 0.372042984 0.191271394
0.332195163 0.372042984 0.195825189
0.347374797 0.375078768 0.201771006
0.369006813 0.386717200 0.197849244
0.402909756 0.402150214 0.207463354
0.438203901 0.413915128 0.214294538
0.467552304 0.423023254 0.219354928
0.506135166 0.437317997 0.230992973
0.548640013 0.452245384 0.241492704
0.591144800 0.464389533 0.252878189
0.633649468 0.477925628 0.263630480
0.678558111 0.493105441 0.276154071
0.717014849 0.508285820 0.287286431
0.762555361 0.522327542 0.299050957
0.810373127 0.535230517 0.318026334
0.849841833 0.556482971 0.341049731
0.886907220 0.570525169 0.368374169
0.158760414 0.390638977 0.186211407
0.159898624 0.393674731 0.191018417
0.164199769 0.394560128 0.190132782
0.168500990 0.394560158 0.182922140
0.171916142 0.397976071 0.180265978
0.189120874 0.395698786 0.188614637
0.195319265 0.393295437 0.186970145
0.203288838 0.391904116 0.185199276
0.216192514 0.392663032 0.188741550
0.231372908 0.395698637 0.188741550
0.241998702 0.395192713 0.190385684
0.253763497 0.397216797 0.192789257
0.266919971 0.399747103 0.195698991
0.285389036 0.399747103 0.201770991
0.303984553 0.399747103 0.202529982
0.318026572 0.402656525 0.203162566
0.334725171 0.405439526 0.204933569
0.355344981 0.403035700 0.209740579
0.370524645 0.406072140 0.203668579
0.400506079 0.421125561 0.211764589
0.435800463 0.435547024 0.220746145
0.471221119 0.447944552 0.227830112
0.504617453 0.457431674 0.237065002
0.545604229 0.475648373 0.249209151
0.588108957 0.489310533 0.261985958
0.629981279 0.502213597 0.272738874
0.673498094 0.517394006 0.283870637
0.716255844 0.532574356 0.299303979
0.759519160 0.546489775 0.310562551
0.806830943 0.561163902 0.330423355
0.852751255 0.574067175 0.354332536
0.892220438 0.595319569 0.381656975
0.167868033 0.420999050 0.195319057
0.161796048 0.424035460 0.195319057
0.167235777 0.424921006 0.202276826
0.175838158 0.423655838 0.203542009
0.184060946 0.422264159 0.198482037
0.190132961 0.428336948 0.198482037
0.197217017 0.428589970 0.201771319
0.206324965 0.428336978 0.202403963
0.219228148 0.429095924 0.204174981
0.234408557 0.432131529 0.209993988
0.249588907 0.429348886 0.207084134
0.264263242 0.430613697 0.206578001
0.278052032 0.433649659 0.206831038
0.291461051 0.436179996 0.207843035
0.312713414 0.436179996 0.213915005
0.328905791 0.433776200 0.217077821
0.346869230 0.434535205 0.218342975
0.367489010 0.436432958 0.218848974
0.385705084 0.436432958 0.218848988
0.409234732 0.445034653 0.218342990
0.441872448 0.456799477 0.225047722
0.477293134 0.469956130 0.233902827
0.510689497 0.484756887 0.243137032
0.544085920 0.502972960 0.255281836
0.585072577 0.516635001 0.269702643
0.626186013 0.528779030 0.281846702
0.667426109 0.541682124 0.292979062
0.716002822 0.556862473 0.314231396
0.753446937 0.566729844 0.321695000
0.797722757 0.581656992 0.340670139
0.843643486 0.597596288 0.365970612
0.883112013 0.610500038 0.387729019
0.165844351 0.462491721 0.221126080
0.168120995 0.468311489 0.218342721
0.170651555 0.469197094 0.220493495
0.179127187 0.467931926 0.223276556
0.188235193 0.465275109 0.219860911
0.196711004 0.466540277 0.222264722
0.202783018 0.470082700 0.219734401
0.212143987 0.470335722 0.218975306
0.225047112 0.470335722 0.219354838
0.240227520 0.471347600 0.225427359
0.258191258 0.471347600 0.225553855
0.275395334 0.472359449 0.224541724
0.292473018 0.474256724 0.225680083
0.308412075 0.475395381 0.227324367
0.327134758 0.475395381 0.228336364
0.343580157 0.477799207 0.229601368
0.364832550 0.477040112 0.232258201
0.387349933 0.478178740 0.233523369
0.403415740 0.478178740 0.233523369
0.424415082 0.480961412 0.236306012
0.444908351 0.488171756 0.238203749
0.477039754 0.498545289 0.246553004
0.514357626 0.511954844 0.257431865
0.555723906 0.527513981 0.266919792
0.593674839 0.543453336 0.279064000
0.637064934 0.557494998 0.296521008
0.679822743 0.571030736 0.311195463
0.723845482 0.583933771 0.323339790
0.767109215 0.596458018 0.339279175
0.807336688 0.607463717 0.354585886
0.847691238 0.625426948 0.381657302
0.879569650 0.645161748 0.410499722
0.174193740 0.503099203 0.235167995
0.169639349 0.503478765 0.239721581
0.176723540 0.505249977 0.237191767
0.182795987 0.509045124 0.233902991
0.190512195 0.508538902 0.230866730
0.196584195 0.507020712 0.238456935
0.212649986 0.503858268 0.240227655
0.222011402 0.510183692 0.237191692
0.235673457 0.510942698 0.235673368
0.251992226 0.510942698 0.240607202
0.266286999 0.510942698 0.238962993
0.284503728 0.511069179 0.242757991
0.304996729 0.514104784 0.243896633
0.324224770 0.515116751 0.247185469
0.339152575 0.516761482 0.250474483
0.360657781 0.517267525 0.248576730
0.378874183 0.520303905 0.250094920
0.404174536 0.521315873 0.251866162
0.421884984 0.522580743 0.250600994
0.442631364 0.519671082 0.257179111
0.467678696 0.522707224 0.258317471
0.486906856 0.528779209 0.259329587
0.520809174 0.539026201 0.266792983
0.558000803 0.550663829 0.274130136
0.600126088 0.567741752 0.291207999
