Assets/Shaders/EldamarStudio/100 Sci-Fi LUTs Pack/LUTs/cube/Laurel LUT.cube
DOMAIN_MIN 0 0 0
DOMAIN_MAX 1 1 1
LUT_3D_SIZE 32
0.000000000 0.000000000 0.000000000
0.000000000 0.000000000 0.000000000
0.000000000 0.000000000 0.000000000
0.000000000 0.000000000 0.002529999
0.000000000 0.000000000 0.007843000
0.000000000 0.000000000 0.007843000
0.002530322 0.000000000 0.007843000
0.010499993 0.000000000 0.006198711
0.021885097 0.000000000 0.004680902
0.030993499 0.000000000 0.007716512
0.051739868 0.000000000 0.002024001
0.068943731 0.000000000 0.002024256
0.087539285 0.000000000 0.002783356
0.111575030 0.000000000 0.000000000
0.132827401 0.000000000 0.000000000
0.163693786 0.004806995 0.007210800
0.200126559 0.010878997 0.017836994
0.238330528 0.018216146 0.029980984
0.271726996 0.030360948 0.042125009
0.302340001 0.039721653 0.051486358
0.336495459 0.052624732 0.058696993
0.370904237 0.068817250 0.067805126
0.401138484 0.086907461 0.082858987
0.428462923 0.102087095 0.095003001
0.462618560 0.119544566 0.113978274
0.493484944 0.139152646 0.132447645
0.519291162 0.160910994 0.149652064
0.552688301 0.185198978 0.176976413
0.586084783 0.214800611 0.206957608
0.617710352 0.239848167 0.233775914
0.648070931 0.262871563 0.262491763
0.678430974 0.290196002 0.301961005
0.003036387 0.000000000 0.000000000
0.000000000 0.000000000 0.000000000
0.000000000 0.000000000 0.000000000
0.001265161 0.001265161 0.001265161
0.002656839 0.002656839 0.004427839
0.000000000 0.000000000 0.001771000
0.002530322 0.000000000 0.001771000
0.010499993 0.000000000 0.003415708
0.023403095 0.000000000 0.003162904
0.037065495 0.000000001 0.001644517
0.051992867 0.002909870 0.004680870
0.072992243 0.001012131 0.005060127
0.092473119 0.000000000 0.006957613
0.114863671 0.000253032 0.005819032
0.138899401 0.003036387 0.003036387
0.167362586 0.007843383 0.010246573
0.200126573 0.016951380 0.017836610
0.233396739 0.026691958 0.027577173
0.259583026 0.036432952 0.042125005
0.301328033 0.051360361 0.048703004
0.332700461 0.064769022 0.061353344
0.366856247 0.078937255 0.072865248
0.401391476 0.092979461 0.086021848
0.434534907 0.108159095 0.101074994
0.464136541 0.125616565 0.117773563
0.494876653 0.146615952 0.136875361
0.521821558 0.170018733 0.154712066
0.552688301 0.194307372 0.176976413
0.583427906 0.218596011 0.201644629
0.614673972 0.244655311 0.229475155
0.645034790 0.269829184 0.256799579
0.675395370 0.299304396 0.289817005
0.001771226 0.000000000 0.000000000
0.000885613 0.000000000 0.000000000
0.002150774 0.000000000 0.004300999
0.000885613 0.001265161 0.001771000
0.003289225 0.003542452 0.002909773
0.009108064 0.000506065 0.006957839
0.002530322 0.002150774 0.002150774
0.008855285 0.000506066 0.000506066
0.021252321 0.000759096 0.001771227
0.036432721 0.002150775 0.000126518
0.053763866 0.002909871 0.002909871
0.070967987 0.003922000 0.001897744
0.092093855 0.003289128 0.004680645
0.114104830 0.004806999 0.006198774
0.142188594 0.009740641 0.008855423
0.169133589 0.013029995 0.015433187
0.201012179 0.023656186 0.026059382
0.233143538 0.036432758 0.032131553
0.258950204 0.047058985 0.039721753
0.293485045 0.061733365 0.053004552
0.332194477 0.075015992 0.059076544
0.364073128 0.087918900 0.072485767
0.399114221 0.099177979 0.084883198
0.430486917 0.116381869 0.102087095
0.461606562 0.129537791 0.115243569
0.491966963 0.149145856 0.136242956
0.521062434 0.172675118 0.157495067
0.553067863 0.196963876 0.182036415
0.583427906 0.219101846 0.205945626
0.615559578 0.245161369 0.237318352
0.644528747 0.271600187 0.264010340
0.672359228 0.301961005 0.290575981
0.001265161 0.001265161 0.001265161
0.001265161 0.001265161 0.001265161
0.000885613 0.001265161 0.001771000
0.003922000 0.000000000 0.005313001
0.000885613 0.002656839 0.000000000
0.008601999 0.000506065 0.006451773
0.008096324 0.002530322 0.005439840
0.011385284 0.004807292 0.003542453
0.022770191 0.002529999 0.001265161
0.038456652 0.005060323 0.001265162
0.054016575 0.005186839 0.002909871
0.073497988 0.006452000 0.004427743
0.095129639 0.007590353 0.001391646
0.117141023 0.011132031 0.004933999
0.146489635 0.018216154 0.013029994
0.171916619 0.024414964 0.020240348
0.202277347 0.032258183 0.027071383
0.235041127 0.047438558 0.039215986
0.262998015 0.060215171 0.041746017
0.295888394 0.071347363 0.053131364
0.331182480 0.084629990 0.065148994
0.363567263 0.096773997 0.073244996
0.396331131 0.106514841 0.085641980
0.428968966 0.124731161 0.103858002
0.456799388 0.139658302 0.117520571
0.485894978 0.154711798 0.133966133
0.517267108 0.175458282 0.157242164
0.551423132 0.198229045 0.182289436
0.582163095 0.222390950 0.205692455
0.613029599 0.244655311 0.234535187
0.645541012 0.271979719 0.272739023
0.670588017 0.301961005 0.296647996
0.003542452 0.003542452 0.003542452
0.003542452 0.004301451 0.003922000
0.001771226 0.003542452 0.002530225
0.001265161 0.003036387 0.000379548
0.004301451 0.000379548 0.000000000
0.001265064 0.000379548 0.000000000
0.003668773 0.003289321 0.000000000
0.012903378 0.005945837 0.001265160
0.028462643 0.008222548 0.003922001
0.046679426 0.008222548 0.003922001
0.060214996 0.009360999 0.004681000
0.077672243 0.011005707 0.005186741
0.100822181 0.014421450 0.007463646
0.127893537 0.018216094 0.005439966
0.155091390 0.027450956 0.017457439
0.178367794 0.036938798 0.024035448
0.204554021 0.047564991 0.030107643
0.237697959 0.059203107 0.033902984
0.268058032 0.074383520 0.046047010
0.301580936 0.082353003 0.056167357
0.335736454 0.091840535 0.066793442
0.368880242 0.103605092 0.078937545
0.393548459 0.115875587 0.091208011
0.429728270 0.133839354 0.109171003
0.457431972 0.149778724 0.123592563
0.483111650 0.166350529 0.139152646
0.510815561 0.184566572 0.160278544
0.547248304 0.202783331 0.178494528
0.579127073 0.228589788 0.200126350
0.609487772 0.251992613 0.225932807
0.639089525 0.274636567 0.257558614
0.669449568 0.301961005 0.300063461
0.000506065 0.000506065 0.000506065
0.000506065 0.006578065 0.003542452
0.000506065 0.003036065 0.006072226
0.001265161 0.001771226 0.005566161
0.004301451 0.003415935 0.003036387
0.007337064 0.003415935 0.000000000
0.011890998 0.008475934 0.000000000
0.020746477 0.010753000 0.000000000
0.034155775 0.011258936 0.001265162
0.049715050 0.011258940 0.003922003
0.070840932 0.019987063 0.009740999
0.086527251 0.021504998 0.004680747
0.106135279 0.024288353 0.004427643
0.130929932 0.030360870 0.011511967
0.155217916 0.042504855 0.020619571
0.182415783 0.054142922 0.023023065
0.207210377 0.065780990 0.031625248
0.234914601 0.076660156 0.042251643
0.268058062 0.083491921 0.046047017
0.303984761 0.098671585 0.060974363
0.334218651 0.108538732 0.071347252
0.364073247 0.118153058 0.081973314
0.393548459 0.128020361 0.094244398
0.426944911 0.143200770 0.109424032
0.456293344 0.158886626 0.127387568
0.483111650 0.175458387 0.143200651
0.510436058 0.193674922 0.160405070
0.538139939 0.211890936 0.181530923
0.574572682 0.235420689 0.207716718
0.606451392 0.256672949 0.232257843
0.635041237 0.277166277 0.257558256
0.660341978 0.301961005 0.284883082
0.000000000 0.012650320 0.002530322
0.005059999 0.011131998 0.003036387
0.005059999 0.012902999 0.001771226
0.006325160 0.011385160 0.002783001
0.009361451 0.014041997 0.001391678
0.012397063 0.014041997 0.000506065
0.020493319 0.019101996 0.000000000
0.031499021 0.023529705 0.000000000
0.045288093 0.025933322 0.000000001
0.060468167 0.029475324 0.001265165
0.073877193 0.033143446 0.007210677
0.095129564 0.042251572 0.015306930
0.115875952 0.047185283 0.013788674
0.142062068 0.054902285 0.020113708
0.170904607 0.064768985 0.029221892
0.197596416 0.076913595 0.035926316
0.226439014 0.087539442 0.037697509
0.254016608 0.098038889 0.047564890
0.285515338 0.106008947 0.054396305
0.316635072 0.117899977 0.068564042
0.349272788 0.131182790 0.081847146
0.377229780 0.142947495 0.094623633
0.405945808 0.155091494 0.109677501
0.434535235 0.165464893 0.120050736
0.465654880 0.182922572 0.139784917
0.494623572 0.199746937 0.156862974
0.523086369 0.217457384 0.174067378
0.550410748 0.233649626 0.199367762
0.583175242 0.257178605 0.225933105
0.617836773 0.279696137 0.251486242
0.648956478 0.302213490 0.274888903
0.676534355 0.329791307 0.297533005
0.003288997 0.026185993 0.003922000
0.006072000 0.023150027 0.002277292
0.011131996 0.027197698 0.006704931
0.012397159 0.025932860 0.006198543
0.015812997 0.027830701 0.005059995
0.020113770 0.027830701 0.000000000
0.028210025 0.034534991 0.006577994
0.038962696 0.038962699 0.006577994
0.054143090 0.041999090 0.005819092
0.069323488 0.047185708 0.004933709
0.086527698 0.053636827 0.010752704
0.104743943 0.057431955 0.015559541
0.125996336 0.067678697 0.022390934
0.152308732 0.077293023 0.025932740
0.181277797 0.086400978 0.035041116
0.207590058 0.097912595 0.040100995
0.237950847 0.108539179 0.047691189
0.267172962 0.118911967 0.053510558
0.295509011 0.130044386 0.064642981
0.327514023 0.138646424 0.076028071
0.354585767 0.150790453 0.087665766
0.385958433 0.161923110 0.101834543
0.414547771 0.175837904 0.120050684
0.441872209 0.187982321 0.133712903
0.469829559 0.202276856 0.146995559
0.500189960 0.219101936 0.171030924
0.531056046 0.237065122 0.188741401
0.560657382 0.253384143 0.214927405
0.591650724 0.274889380 0.240607485
0.625047386 0.299050868 0.267805338
0.656673074 0.318532288 0.290322393
0.686275005 0.345097989 0.310815722
0.010878998 0.040607095 0.006957998
0.010120098 0.038330384 0.002403613
0.012903097 0.042378418 0.006451775
0.020746255 0.048703257 0.011511842
0.023782548 0.046047095 0.014927001
0.029474998 0.046047095 0.005059999
0.039595317 0.049841870 0.009361098
0.048829995 0.056419805 0.016445097
0.061733093 0.060215093 0.017204000
0.076913498 0.063251488 0.014168390
0.097912870 0.072106317 0.019861095
0.118406147 0.079443350 0.023908837
0.138899639 0.083617993 0.026944742
0.160404995 0.095509022 0.029728096
0.187223300 0.104617409 0.037318412
0.213662073 0.115370087 0.043137189
0.239468470 0.126755193 0.049968284
0.276028007 0.135863572 0.060341652
0.301328123 0.150790989 0.075522080
0.331688583 0.159140021 0.085136265
0.360151559 0.168248087 0.094244353
0.385958225 0.180898219 0.106388152
0.418722093 0.189880088 0.124351919
0.444148928 0.203162909 0.141303092
0.472232759 0.219101802 0.157242179
0.500949025 0.235040843 0.174825832
0.530803144 0.251233250 0.201644182
0.563693523 0.269703001 0.225932866
0.593674600 0.289816797 0.248703614
0.625806093 0.312081009 0.274763137
0.659708679 0.336748660 0.301708072
0.687033892 0.351929069 0.319924116
0.023023006 0.061859496 0.019102002
0.019987399 0.061859496 0.009993620
0.019228496 0.063883789 0.009740781
0.025806652 0.068437979 0.010499844
0.038962945 0.073371500 0.008855007
0.041998561 0.073371500 0.014927001
0.055281326 0.068311498 0.012650331
0.065275006 0.069449976 0.015180489
0.073877111 0.075395502 0.020240393
0.089057505 0.081467502 0.023276009
0.110056877 0.090322874 0.028969264
0.129284993 0.101454973 0.033017233
0.147627816 0.109803848 0.036053136
0.166477010 0.113725044 0.038836494
0.190764979 0.122833423 0.038836494
0.219987109 0.131941810 0.046426199
0.245540664 0.142694503 0.056799393
0.272991598 0.154079586 0.069450051
0.321568489 0.163187996 0.084630474
0.346869200 0.175332025 0.094244145
0.373434663 0.185325742 0.103352264
0.400632590 0.196584612 0.115496479
0.427830487 0.211132497 0.133459538
0.446046501 0.217204496 0.145604342
0.473750561 0.232764006 0.164832771
0.503984749 0.250853807 0.185705617
0.533839524 0.269450039 0.207716957
0.561163902 0.290702373 0.232004941
0.588741302 0.309171438 0.250980645
0.619734168 0.329285145 0.274763137
0.654016197 0.352435023 0.302087575
0.690069497 0.379253477 0.329032511
0.032257870 0.083111867 0.022517130
0.040860254 0.083111867 0.025047481
0.035673872 0.083111867 0.018089870
0.039215866 0.089183994 0.020113999
0.052371997 0.097406544 0.021631870
0.062997937 0.094876871 0.017583871
0.071094193 0.092346549 0.026186192
0.082226567 0.093231991 0.026312869
0.091840640 0.098545089 0.029854869
0.107020490 0.102466866 0.035041258
0.116381869 0.105628997 0.035167739
0.139658511 0.118785374 0.041239992
0.160784379 0.129538000 0.046299867
0.181024909 0.134850904 0.051359996
0.202656716 0.143959284 0.056672998
0.224541530 0.155470863 0.063883796
0.257938057 0.165085196 0.072991922
0.288172007 0.175837845 0.083112277
0.318532825 0.187222987 0.093738116
0.347628236 0.196331352 0.108918495
0.373940706 0.204553857 0.116381861
0.399241120 0.213662252 0.126502126
0.422643960 0.226818860 0.142694369
0.446426004 0.238456875 0.157621801
0.473750561 0.251360148 0.174319983
0.502719641 0.267552376 0.193548456
0.532068193 0.284250855 0.214295059
0.564199567 0.303099394 0.240986854
0.586210907 0.321694970 0.259961843
0.620113730 0.339911401 0.283491284
0.650474429 0.360025436 0.307273716
0.672738969 0.383301854 0.326502144
0.053510241 0.108412236 0.029601254
0.050474640 0.110436492 0.026565386
0.062997982 0.112460233 0.031245992
0.059455983 0.112460233 0.027703993
0.068564087 0.119670793 0.032637544
0.080708504 0.116635174 0.034788243
0.088298574 0.119671173 0.039342310
0.095762245 0.119923785 0.041872282
0.105249986 0.124098241 0.041492734
0.119164780 0.125869468 0.045034740
0.132574126 0.132953629 0.049336247
0.147754237 0.138013497 0.051359985
0.172043025 0.152055532 0.058570635
0.193927988 0.159898758 0.065275215
0.213409141 0.167235911 0.069575988
0.242758036 0.178747505 0.078051791
0.264010429 0.189373702 0.088677987
0.297280222 0.197849497 0.097659722
0.321568698 0.207210526 0.105376042
0.350664377 0.216571867 0.116002366
0.374193728 0.227577507 0.131182730
0.399241120 0.233902499 0.139658257
0.420872986 0.244022980 0.153953001
0.448956549 0.256166995 0.171031147
0.475774825 0.270588279 0.188488245
0.503352225 0.285768628 0.205312908
0.530044019 0.301454961 0.223403066
0.560404420 0.319670975 0.247691423
0.587222755 0.333839476 0.267045975
0.615559578 0.353826672 0.290575147
0.650094986 0.372296244 0.316128582
0.668690741 0.392409980 0.333585978
0.079696283 0.144844919 0.047817633
0.076281019 0.146742672 0.041745633
0.079822861 0.149778485 0.043137278
0.090954930 0.151549280 0.047817633
0.090954930 0.151549280 0.047817633
0.100063510 0.149272561 0.054648925
0.109424636 0.151549622 0.057811640
0.118912272 0.155977204 0.062365573
0.126502275 0.159771919 0.060847379
0.138646290 0.160530925 0.061226927
0.154838502 0.165844157 0.064769372
0.169765919 0.172928274 0.069956020
0.189120561 0.177861929 0.074130282
0.213156313 0.189753667 0.082985640
0.232257903 0.196711272 0.086906865
0.259076387 0.206451625 0.097027078
0.286401182 0.218216479 0.106514625
0.308918536 0.227324694 0.117393784
0.333712667 0.233902648 0.123465940
0.359013379 0.241619334 0.133459643
0.383681357 0.251486629 0.145224363
0.405945599 0.263630629 0.159392625
0.427577466 0.269955635 0.171663135
0.456926137 0.280075639 0.188867807
0.485009611 0.294496894 0.207084268
0.512081265 0.309677303 0.225047290
0.536875308 0.324351639 0.241239697
0.564199686 0.341302603 0.262492061
0.591524065 0.355344653 0.282226264
0.621252239 0.373940796 0.304617077
0.654649198 0.392536610 0.331941485
0.679696262 0.410246640 0.353699923
0.102972999 0.194434032 0.078431003
0.108792037 0.194434032 0.073624037
0.113219261 0.196331292 0.073497802
0.117520288 0.198102072 0.076280907
0.123846032 0.198861092 0.080455065
0.123846032 0.198861092 0.080455065
0.133206993 0.198861092 0.077166356
0.146995693 0.200505748 0.078810997
0.160658032 0.204048067 0.084377065
0.172802046 0.210120067 0.087413445
0.190765038 0.210626036 0.088298991
0.205439553 0.214421064 0.092094027
0.220493600 0.219101667 0.098166034
0.241745993 0.222644061 0.103732035
0.262998372 0.231752440 0.109804027
0.286654025 0.240607262 0.123339787
0.309677184 0.250727385 0.134724841
0.331941575 0.262492418 0.143959150
0.359266013 0.271600068 0.150031954
0.378241688 0.277925044 0.161417052
0.398102760 0.285641760 0.173561022
0.420367002 0.295762062 0.185958043
0.444781512 0.308032572 0.198228553
0.472105980 0.314484090 0.213408977
0.499177277 0.326881289 0.230613604
0.526501954 0.342061669 0.248830006
0.554080009 0.356736034 0.267299056
0.581404388 0.368880033 0.288551420
0.608728766 0.383427888 0.309550852
0.637318373 0.403415382 0.332321405
0.668311536 0.425426990 0.357495546
0.701707959 0.437571019 0.384819984
0.115116984 0.221758395 0.078431003
0.118153378 0.221758395 0.087539390
0.126122639 0.221758395 0.084883168
0.132700399 0.222390816 0.084377408
0.139531657 0.223529369 0.087286822
0.151170403 0.232258230 0.104743809
0.153700083 0.232258230 0.094623819
0.165211678 0.233902514 0.092599690
0.177356079 0.236938477 0.097026989
0.181910425 0.240480810 0.102593049
0.199873418 0.243642926 0.111448430
0.218089923 0.246046633 0.114611231
0.233902752 0.248576820 0.119418390
0.250853598 0.249968424 0.124984398
0.272105962 0.259076804 0.124984398
0.295762151 0.265781373 0.140670389
0.320050389 0.272485822 0.149145991
0.343706131 0.281087965 0.154205978
0.368374377 0.292852402 0.168247938
0.387349397 0.299177378 0.177103341
0.405566037 0.305249393 0.188741401
0.426438987 0.313978225 0.201897532
0.450853497 0.326249331 0.216445312
0.478178680 0.341429740 0.231625721
0.503225863 0.350157917 0.246806100
0.529538095 0.363314033 0.264010370
0.557368755 0.377988368 0.282226413
0.587476432 0.390132368 0.300695419
0.614800811 0.402277052 0.319291651
0.640354395 0.418595761 0.339911550
0.667678952 0.440733552 0.363567531
0.698671579 0.464895397 0.390891969
0.139278784 0.249082774 0.100062788
0.139911368 0.253889799 0.106767982
0.147248760 0.251739562 0.105123043
0.156356752 0.256546587 0.105629496
0.162808388 0.260341585 0.107906789
0.166856661 0.259329706 0.113978796
0.181024462 0.265654802 0.123718977
0.185705200 0.267299503 0.118152976
0.197849587 0.268817306 0.120429881
0.205819279 0.268564284 0.124857597
0.223402783 0.274003714 0.129031852
0.237571284 0.275015593 0.134092242
0.251613140 0.275395423 0.137128621
0.264515877 0.274636567 0.141682759
0.283617973 0.281594187 0.143832982
0.307273567 0.288298786 0.148639977
0.330044180 0.295888573 0.163820371
0.352181941 0.303478569 0.171157569
0.372928798 0.313851774 0.188108757
0.389247000 0.320429772 0.192916155
0.411258459 0.328399539 0.205819041
0.431499124 0.335989714 0.217457116
0.454522282 0.346869290 0.229980990
0.481846899 0.362049699 0.247438699
0.506894767 0.372675478 0.262618482
0.535357475 0.384566426 0.280581832
0.563693881 0.398734838 0.298798114
0.588361859 0.408981591 0.313219577
0.613662004 0.425932646 0.333839446
0.642757535 0.438077420 0.353826970
0.670082390 0.455914199 0.375964761
0.700442791 0.480202585 0.401770979
0.159012988 0.280961365 0.122833379
0.166603178 0.287033379 0.127387568
0.171536759 0.288171947 0.133966014
0.179380313 0.285136014 0.132953569
0.188235626 0.295256078 0.137887627
0.191650987 0.293738365 0.136748984
0.196710870 0.294750392 0.139784858
0.209993601 0.297659904 0.142441377
0.216825083 0.300696105 0.143959373
0.228210002 0.299177706 0.147754669
0.241619200 0.298798203 0.149272501
0.260341525 0.305376381 0.156862438
0.272485971 0.305376381 0.159898818
0.281973213 0.302720159 0.162429139
0.296394795 0.304996997 0.162934765
0.316381961 0.311068952 0.169892371
0.339152187 0.318659186 0.175964370
0.360404551 0.327766955 0.188108966
0.379506767 0.336875349 0.204554006
0.394939840 0.340164393 0.210373163
0.415812641 0.351170123 0.220999435
0.439089328 0.359266371 0.236179307
0.460594654 0.368121684 0.246679187
0.487919092 0.383302093 0.264896005
0.512966335 0.392410100 0.279317081
0.537255108 0.401517689 0.294497043
0.568754017 0.415939093 0.314484328
0.591018200 0.426059604 0.327640712
0.613408983 0.444655359 0.347754598
0.641239345 0.459329396 0.367489159
0.670714557 0.474130571 0.389626950
0.700442791 0.495382994 0.413914979
0.174319714 0.314863980 0.143580124
0.188234940 0.322201133 0.147248328
0.197596133 0.322707146 0.154206112
0.203035876 0.322706968 0.163187981
0.210246995 0.320429653 0.168500990
0.219860598 0.326249421 0.165717617
0.221378550 0.327261537 0.165211558
0.226691961 0.327261537 0.164832279
0.239342451 0.328020453 0.164073557
0.248450071 0.331056058 0.170145556
0.257558405 0.326628536 0.171031132
0.272232831 0.328779221 0.177229568
0.290702164 0.334471971 0.186590612
0.303099096 0.334724993 0.189879969
0.312966347 0.332447708 0.187982127
0.327387542 0.335989535 0.193927929
0.346489340 0.342947304 0.200885534
0.367109120 0.351423115 0.207590118
0.388361573 0.360531509 0.219734147
0.405312926 0.363187969 0.226312131
0.424920887 0.370145708 0.236811876
0.447565109 0.382922560 0.251359701
0.468943954 0.389121026 0.266540051
0.495762348 0.403289318 0.284250796
0.520809591 0.412903547 0.298545569
0.545097709 0.420999438 0.311448634
0.569892645 0.430613130 0.327134967
0.594307125 0.442757845 0.342441082
0.615938962 0.460974336 0.361669362
0.641871929 0.476913512 0.381783366
0.670714557 0.490449160 0.400506109
0.698038995 0.511701584 0.424794167
0.201644987 0.339152068 0.173941001
0.210752577 0.351296842 0.180012986
0.220366791 0.350032002 0.181530982
0.226692155 0.348260850 0.183807880
0.231499463 0.350790530 0.186717063
0.246679053 0.353826910 0.186717063
0.248703003 0.354586005 0.186464027
0.251992434 0.354586005 0.188108742
0.260847896 0.355344921 0.191398025
0.275774539 0.358380526 0.197470024
0.284882873 0.358507007 0.200632900
0.293991268 0.358001024 0.203415737
0.306388676 0.358760059 0.208349019
0.321315914 0.359013081 0.214168042
0.336495519 0.362049490 0.220240027
0.346362859 0.364579201 0.225553617
0.360784382 0.369386405 0.230360776
0.379253954 0.375712007 0.234914586
0.397469997 0.381783992 0.244022995
0.418722391 0.390891671 0.250600994
0.437570989 0.395445794 0.258570701
0.456293315 0.401518166 0.269196957
0.475015998 0.410373479 0.281720519
0.499304056 0.419481099 0.296900928
0.523845673 0.431372643 0.312334299
0.548133969 0.443010956 0.325869977
0.572928250 0.454901963 0.339279026
0.600253344 0.467045963 0.357495010
0.622011721 0.479190677 0.372801840
0.646806061 0.492093980 0.392030150
0.673497915 0.505123615 0.412144244
0.698038995 0.520810008 0.430866987
0.256799400 0.394054115 0.229348391
0.257558346 0.395066172 0.229854375
0.266666502 0.398608387 0.233776167
0.271979749 0.396331400 0.234408751
0.273497939 0.397469759 0.235167563
0.279064149 0.398102313 0.232763737
0.289183766 0.398608387 0.235294074
0.293231726 0.400253087 0.237191796
0.300822228 0.401391745 0.238710001
0.313978612 0.402403623 0.238709748
0.320556611 0.402530104 0.241872609
0.329665005 0.402530104 0.244908482
0.339911759 0.403668463 0.249082744
0.353194386 0.405565768 0.254648745
0.365844280 0.408602178 0.255660743
0.381024539 0.411638558 0.261732727
0.390891939 0.414674252 0.267805398
0.404680938 0.417584002 0.272106498
0.420746744 0.417204767 0.276913345
0.436179399 0.426059395 0.280455738
0.461227208 0.431372494 0.290322721
0.483111948 0.435420752 0.301328361
0.503225505 0.442757875 0.313472360
0.524857402 0.451866180 0.325995922
0.549145937 0.463251084 0.341176271
0.570651293 0.475395352 0.356356651
0.590638399 0.487033457 0.369892359
0.608854949 0.496900737 0.383554339
0.636179447 0.509044707 0.407083988
0.659456015 0.524731398 0.424414665
0.685768545 0.539785087 0.444654971
0.711954355 0.554965019 0.464769006
0.286021471 0.423276484 0.258570462
0.291713744 0.430866480 0.262365460
0.292472780 0.430866480 0.262618482
0.302846313 0.432131320 0.266919732
0.304996938 0.432384282 0.267805189
0.304996908 0.430866480 0.264768809
0.316888154 0.432763726 0.264895320
0.324351460 0.434408426 0.272865415
0.330423474 0.435926616 0.274383694
0.340290964 0.434787989 0.270208985
0.350410998 0.438583463 0.271094620
0.360404968 0.436685711 0.277925432
0.369513065 0.438962728 0.279822707
0.380392045 0.442504466 0.284629762
0.389247447 0.443896145 0.289563477
0.401897520 0.448829800 0.286780477
0.415559709 0.448830187 0.294370264
0.426312566 0.451739460 0.300189823
0.441493005 0.452498704 0.303225785
0.458570391 0.453004390 0.306262106
0.475648195 0.460214704 0.314990729
0.499936968 0.464263231 0.326122880
0.520176709 0.470461935 0.337381452
0.539658368 0.479569882 0.349525481
0.555597603 0.487159997 0.360151738
