Assets/Shaders/EldamarStudio/100 Sci-Fi LUTs Pack/LUTs/cube/Laura LUT.cube
LUT_3D_SIZE 8
DOMAIN_MIN 0.000000 0.000000 0.000000
DOMAIN_MAX 0.903226 0.903226 0.903226
0.090195999 0.000000000 0.000000000
0.123845994 0.000758999 0.020746548
0.188868001 0.025047194 0.047817901
0.267931998 0.049335998 0.049335998
0.354838580 0.092346996 0.084503382
0.464136720 0.146742731 0.127261251
0.597596288 0.198988289 0.175458282
0.769133568 0.249841973 0.225047812
0.107020542 0.057938091 0.025426548
0.131688997 0.058317542 0.032132000
0.192030102 0.085389100 0.048197452
0.262112647 0.108918183 0.063883640
0.345983535 0.140923381 0.090322636
0.452245742 0.180898279 0.133839086
0.596584558 0.230613530 0.180518731
0.768121302 0.281088263 0.233143538
0.130929992 0.146489099 0.068943903
0.144212097 0.150411099 0.076027997
0.189752996 0.151929095 0.076028004
0.249209195 0.178621098 0.089690447
0.330677003 0.209108204 0.122960091
0.442757726 0.252498627 0.155344635
0.590385854 0.296900779 0.195825383
0.764958680 0.346236557 0.253257722
0.150158361 0.242757991 0.115496635
0.157874539 0.245161176 0.111574635
0.197090447 0.247438177 0.122580640
0.244908631 0.254522294 0.127261356
0.327008039 0.283111811 0.152687982
0.435673833 0.325363636 0.182036638
0.583681166 0.376723558 0.217583984
0.757115602 0.427577257 0.267425835
0.149652198 0.362682194 0.167489186
0.168500900 0.362934828 0.170398638
0.210753083 0.361037284 0.172296196
0.265654981 0.365718186 0.184819996
0.332195163 0.372042984 0.195825189
0.438203901 0.413915128 0.214294538
0.591144800 0.464389533 0.252878189
0.762555361 0.522327542 0.299050957
0.174193740 0.503099203 0.235167995
0.190512195 0.508538902 0.230866730
0.235673457 0.510942698 0.235673368
0.304996729 0.514104784 0.243896633
0.378874183 0.520303905 0.250094920
0.467678696 0.522707224 0.258317471
0.600126088 0.567741752 0.291207999
0.768627346 0.625679612 0.352182060
0.224415272 0.683491528 0.311322272
0.245540842 0.679316998 0.327260971
0.294876546 0.684250414 0.321568459
0.370145559 0.686780572 0.329791218
0.458443940 0.688930690 0.331815451
0.553953052 0.695888698 0.347881019
0.660594523 0.698545575 0.370145261
0.782669187 0.727894008 0.421505213
0.396837562 0.846299767 0.485768408
0.418216109 0.846299767 0.475901425
0.450600713 0.850221395 0.488930702
0.506894410 0.849082768 0.493358374
0.585957766 0.850347936 0.504364610
0.657558620 0.856672764 0.519670725
0.754206061 0.861606300 0.537634075
0.848956585 0.865907729 0.562808394
0.102720000 0.016065547 0.064642541
0.130930007 0.012144452 0.061100997
0.173560649 0.041872449 0.085768543
0.235041097 0.075521737 0.106135450
0.316128731 0.120556377 0.137001991
0.425426960 0.167109743 0.177861989
0.571536541 0.213789001 0.218089551
0.752055407 0.264642358 0.267678648
0.114104547 0.060721450 0.057558544
0.138773009 0.066160537 0.073244542
0.172801644 0.086527549 0.093611538
0.229221731 0.111195184 0.110436179
0.313725531 0.151170194 0.143327087
0.418595940 0.193801552 0.179000542
0.554079711 0.235420734 0.214548007
0.727387547 0.283112109 0.258064806
0.144718453 0.132321194 0.105376549
0.154079556 0.141050100 0.106135540
0.179886431 0.143326998 0.105756000
0.232764095 0.168374091 0.125743449
0.312207639 0.209867179 0.156609908
0.418216377 0.246299639 0.189500093
0.566350341 0.296901107 0.229854822
0.746868670 0.348893225 0.279823095
0.159140006 0.228209913 0.141682282
0.169006661 0.234155267 0.139784738
0.199114189 0.238456726 0.150031641
0.239342630 0.241113275 0.153447092
0.313345969 0.273244977 0.180518538
0.413535565 0.316761523 0.207590282
0.557748199 0.369513273 0.245161191
0.729032040 0.416951001 0.289563566
0.172169358 0.351676285 0.193548083
0.175458297 0.352940857 0.201517910
0.216698453 0.350031555 0.204174638
0.262492120 0.357115477 0.207210541
0.321568549 0.364959180 0.212650344
0.418848455 0.401771069 0.233396381
0.573181331 0.456799805 0.269449890
0.748007596 0.517393708 0.322200894
0.174573198 0.497153461 0.253384024
0.195951805 0.498292178 0.259708911
0.236811921 0.497533023 0.258064747
0.298671722 0.503858089 0.260721177
0.376850128 0.508159339 0.271727085
0.459582657 0.518279612 0.276660711
0.594433784 0.561796129 0.310689270
0.763188064 0.623023272 0.372928828
0.222138271 0.670841098 0.337887526
0.252624840 0.669702828 0.333965570
0.297912568 0.677292824 0.337254882
0.371916205 0.677292824 0.352941096
0.450474024 0.682352901 0.357748181
0.541176260 0.683617592 0.361923009
0.642631292 0.686907053 0.373308092
0.768880367 0.716888070 0.422770530
0.404680669 0.845540762 0.496773988
0.427324265 0.847058773 0.487792432
0.456040412 0.844908476 0.498924494
0.511827826 0.845667362 0.506767631
0.583934188 0.848956347 0.516761482
0.667551994 0.852245450 0.531056404
0.748892903 0.855787158 0.554712117
0.840607405 0.864262998 0.580012500
0.112839997 0.026691904 0.165212095
0.142694101 0.028969096 0.155092001
0.180265889 0.053257100 0.146489099
0.236685991 0.082985289 0.155092090
0.304744184 0.135483995 0.191903979
0.392536372 0.185958251 0.231498823
0.530044258 0.230993271 0.273371369
0.715243459 0.285388827 0.325616747
0.135610089 0.086148098 0.127261549
0.150537997 0.090069994 0.130423650
0.175584987 0.098292537 0.135104552
0.224541545 0.123339541 0.158254191
0.292220086 0.166856289 0.190765455
0.390512615 0.207210645 0.228716180
0.523845613 0.251865834 0.274636537
0.705123365 0.297912836 0.321315616
0.142694190 0.139405191 0.149651989
0.159519449 0.147248179 0.144845098
0.192030087 0.171537101 0.172296196
0.225300640 0.182795733 0.180139095
0.291461200 0.213788897 0.207590193
0.392410010 0.254522383 0.244402170
0.529917717 0.302340388 0.285895288
0.721821547 0.354332924 0.339026064
0.169006541 0.229854628 0.186464190
0.181910098 0.229475081 0.191524535
0.204933539 0.236052811 0.194940194
0.234661534 0.246299744 0.200885639
0.298418999 0.274130166 0.220746189
0.392283380 0.313598633 0.254901916
0.529917777 0.367995083 0.288931191
0.708285987 0.424288541 0.348513275
0.185072899 0.338267177 0.237318084
0.191650540 0.343453676 0.238836184
0.219481081 0.346995175 0.245287985
0.261733115 0.348513365 0.245920181
0.311828077 0.356356561 0.253763378
0.405312717 0.393801272 0.274004072
0.551170230 0.451106966 0.319544375
0.725616813 0.515117168 0.370271832
0.197090641 0.484756380 0.306894094
0.207969740 0.482226253 0.298419088
0.246426359 0.488551378 0.305123419
0.298798561 0.490069568 0.305503070
0.368374497 0.496394575 0.311321825
0.446552694 0.507020712 0.320682734
0.583554864 0.554712296 0.356230170
0.753320575 0.623276412 0.417204052
0.240227565 0.658570468 0.375079155
0.268816918 0.663251519 0.379380137
0.305123210 0.668690741 0.383554548
0.367741734 0.668690741 0.387855738
0.445161343 0.675142288 0.397596449
0.537254751 0.672612369 0.401771098
0.626944840 0.678937554 0.409361273
0.763314247 0.712966025 0.469829232
0.424920648 0.837191582 0.530423641
0.433902502 0.840860248 0.525616407
0.464769125 0.842378438 0.527513862
0.522074282 0.843137324 0.540290713
0.586716831 0.845793724 0.549904764
0.665275097 0.845540822 0.559645534
0.746362925 0.853004396 0.582036734
0.841113627 0.860720575 0.602150440
0.117647000 0.037570998 0.266287267
0.143832639 0.051992543 0.253383726
0.199873090 0.072738990 0.246299729
0.237065345 0.098671995 0.228715986
0.302340388 0.140543744 0.249082983
0.393168986 0.190765351 0.282352716
0.522580624 0.232131630 0.330802917
0.696014881 0.301075339 0.389247447
0.140796542 0.113472275 0.223150089
0.145604089 0.121821538 0.215686634
0.191271186 0.124098636 0.226439089
0.229980737 0.132321194 0.220493540
0.292599648 0.170271844 0.244276077
0.379506528 0.213409439 0.283997625
0.509297907 0.264769286 0.328146577
0.680455506 0.315496564 0.386843443
0.157621905 0.175964549 0.225932628
0.171283737 0.180518746 0.206957638
0.194307089 0.190765455 0.219987273
0.232005000 0.197343290 0.229475170
0.289943099 0.225932837 0.262492001
0.377482384 0.265907645 0.295256287
0.508412302 0.314484537 0.345730543
0.687792242 0.370777726 0.411132455
0.166983008 0.236559272 0.231498629
0.185452357 0.241619647 0.240101531
0.217457443 0.268311650 0.260088295
0.266793609 0.296015263 0.291460991
0.301960826 0.299937099 0.290575355
0.381277353 0.329411656 0.320429981
0.509803951 0.372295916 0.358254194
0.686274588 0.432131261 0.415306628
0.198355287 0.341808736 0.300063282
0.204174638 0.345730662 0.296900988
0.235800192 0.358001173 0.306388259
0.270209044 0.360657722 0.307020962
0.312966645 0.366476983 0.308159500
0.402530164 0.403035730 0.342820734
0.533965588 0.449968547 0.379127294
0.712966144 0.519165218 0.442125082
0.219860733 0.472991556 0.355977029
0.229980826 0.477292925 0.358760267
0.260847360 0.483112186 0.358254105
0.304617286 0.484630078 0.362681895
0.368753970 0.493358463 0.367235988
0.439215571 0.503099203 0.379886359
0.568627059 0.552308738 0.415686369
0.736242950 0.623276412 0.484123766
0.261859626 0.647564530 0.440101266
0.286401093 0.653004467 0.440733552
0.317647278 0.653763235 0.439974457
0.377988547 0.654901922 0.444655538
0.447691470 0.660974205 0.456926197
0.529032409 0.666160822 0.458823651
0.620746553 0.672232985 0.467678607
0.755977333 0.717899919 0.523086727
0.445920408 0.831878603 0.579126775
0.452118933 0.833649457 0.576597154
0.482605696 0.837318122 0.584187031
0.530676723 0.837318063 0.585705280
0.591144919 0.839595377 0.593168795
0.666160345 0.843137324 0.599999845
0.749652088 0.848577023 0.618848920
0.840733588 0.855407596 0.640733719
0.125489995 0.090828799 0.379886389
0.154079556 0.101707801 0.373181611
0.209994003 0.117393985 0.362555265
0.266034454 0.137760997 0.352814823
0.315623164 0.158127993 0.333712995
0.398355544 0.196963727 0.353067428
0.529285550 0.244401991 0.407969773
0.702593446 0.303984791 0.469702840
0.151676357 0.151802376 0.345603824
0.173181385 0.162175998 0.342567831
0.211258546 0.165591642 0.340290725
0.258570284 0.175458372 0.332954198
0.308285713 0.185958534 0.324984163
0.388867825 0.219734535 0.350917190
0.515243292 0.267931908 0.402150542
0.682479382 0.317773312 0.461480290
0.171663374 0.216951191 0.324351400
0.179759532 0.224414930 0.318659276
0.213915184 0.225553274 0.325869352
0.252245188 0.233016923 0.322327554
0.298418999 0.238836274 0.322707087
0.382163286 0.269702613 0.356356442
0.511954248 0.318785489 0.411005735
0.689310431 0.381656915 0.479443073
0.173687637 0.280455291 0.316255361
0.194813445 0.283111811 0.326248825
0.222896636 0.294497281 0.327387571
0.267552614 0.307780087 0.343073994
0.313851863 0.316382289 0.347374827
0.389120579 0.344212532 0.379379988
0.509803951 0.388741106 0.423402637
0.670967460 0.447185248 0.484883100
0.194940180 0.350917161 0.351549357
0.209234804 0.353573710 0.345477372
0.242125079 0.363441110 0.350031555
0.296900988 0.401012272 0.385325372
0.362682194 0.429981381 0.419734180
0.423782259 0.435040921 0.421379179
0.538772643 0.470841259 0.456040442
0.695635736 0.530929625 0.517014503
0.222896919 0.477672458 0.407337189
0.240354180 0.482732654 0.408728659
0.276027828 0.488171816 0.415812463
0.333206624 0.507526994 0.438203931
0.384060919 0.511321962 0.444402128
0.451107085 0.514484286 0.448323935
0.573434293 0.562681735 0.491714358
0.730170846 0.628715813 0.552941144
0.294370294 0.643643558 0.502087414
0.306008965 0.649082661 0.501834333
0.343580276 0.652245402 0.506514668
0.388994187 0.651865900 0.511701524
0.452245444 0.660215139 0.516761303
0.529664814 0.664895773 0.527514160
0.614547610 0.674256623 0.530044436
0.755597770 0.719544232 0.588867784
0.455787599 0.827830374 0.634408474
0.469955772 0.826944768 0.629475057
0.492093503 0.830233634 0.634028733
0.542315245 0.828969061 0.640227616
0.598861456 0.830992579 0.646046937
0.666033864 0.836179495 0.654901862
0.745983362 0.844402552 0.666793108
0.827956975 0.855281413 0.690575600
0.113852002 0.150790736 0.524731457
0.151297003 0.153574005 0.520303905
0.219355106 0.169133380 0.512713432
0.293232024 0.182415992 0.501075447
0.362555355 0.201265186 0.480708271
0.430613458 0.221125722 0.463883728
0.530803323 0.251739442 0.481720299
0.702087522 0.311195582 0.553320527
0.146869004 0.197596535 0.502719641
0.170398533 0.200506285 0.491461337
0.224920899 0.208349183 0.488931119
0.286147714 0.218848735 0.479063541
0.351043701 0.227830365 0.462618560
0.419228196 0.241998792 0.453257471
0.513472378 0.267046273 0.473371118
0.680708408 0.320936173 0.535990000
0.165211648 0.274889171 0.469323099
0.187096551 0.270714730 0.459076703
0.222896829 0.274004072 0.459962189
0.282858998 0.276027828 0.456799835
0.348133802 0.286653996 0.454016477
0.405818969 0.295003235 0.450600743
0.516255677 0.326249123 0.482985348
0.697026789 0.384313732 0.553573489
0.186590999 0.328652352 0.448323727
0.204174653 0.334345281 0.452118903
0.242884085 0.339405566 0.444149196
0.286147833 0.346110284 0.440607488
0.341176361 0.345983446 0.437444568
0.402656615 0.350284755 0.444908202
0.508285820 0.383048743 0.483238220
0.676280499 0.447818071 0.556230009
0.201770738 0.406325191 0.462365717
0.215812638 0.410373181 0.456040710
0.253004372 0.414168358 0.460720897
0.310562819 0.427577347 0.472991467
0.373181432 0.441745669 0.485515267
0.439342171 0.450727433 0.487918973
0.542188227 0.485515177 0.525490522
0.694876730 0.543453276 0.591650724
0.225300729 0.487412721 0.475648195
0.244022727 0.489816546 0.478304684
0.281720728 0.496015072 0.486907363
0.336875379 0.512207329 0.502466798
0.422517627 0.554079890 0.537381232
0.512713492 0.581530690 0.567741454
0.594687045 0.594433784 0.580898464
0.721821547 0.644022822 0.628336251
0.286147803 0.638456762 0.559772253
0.308286160 0.647185147 0.562302291
0.348007649 0.651865900 0.570398331
0.409234554 0.657431901 0.578747571
0.486401200 0.667678773 0.597469568
0.545983434 0.674256563 0.603541732
0.618595779 0.678431094 0.607843280
0.756862760 0.733333409 0.665528417
0.471979827 0.823908627 0.680961370
0.491840392 0.822643816 0.696014762
0.518532574 0.821505547 0.693738043
0.562049270 0.827324331 0.703099430
0.604806781 0.826691747 0.705376327
0.668058217 0.832637489 0.704743564
0.738013864 0.842631221 0.722580850
0.823655665 0.850221395 0.737381458
0.100316286 0.211385280 0.703099549
0.152688101 0.215686247 0.694244027
0.233396664 0.223909184 0.690828443
0.331309259 0.238835976 0.680581808
0.431499183 0.251233280 0.667805314
0.517140746 0.264263004 0.648956120
0.599493802 0.278052270 0.634155869
0.707526863 0.313978642 0.643263817
0.123845704 0.248830259 0.670335114
0.163694009 0.252245277 0.674130499
0.237697646 0.258697033 0.666666985
0.327767015 0.269450009 0.663251340
0.415306836 0.274889171 0.650727630
0.504617274 0.288551539 0.640860260
0.580771506 0.300568998 0.619607985
0.688171744 0.321441829 0.625300050
0.152687997 0.327387571 0.657685041
0.185452268 0.329664350 0.651865780
0.248323798 0.331941575 0.652118742
0.329158604 0.334724635 0.645540893
0.414927363 0.340670168 0.638836503
0.496647716 0.346110076 0.628715813
0.579126894 0.353194267 0.622390866
0.693358600 0.389120460 0.639721751
0.186717346 0.404300928 0.622011542
0.215559989 0.405439556 0.628463089
0.262871355 0.407463819 0.620619714
0.334724605 0.406578213 0.620240152
0.410246491 0.409613907 0.614800930
0.482479215 0.413662106 0.611258745
0.559772193 0.415559530 0.602403522
0.678810954 0.453130633 0.634787917
0.212270886 0.478304565 0.619860709
0.239595175 0.483871281 0.625553548
0.284250587 0.489310473 0.620872676
0.351170123 0.489310473 0.619228363
0.414927363 0.493232489 0.620999336
0.490322828 0.496900916 0.614927292
0.570651293 0.497280389 0.609993815
0.691713750 0.543959498 0.655914009
0.257052541 0.570777535 0.635800600
0.272485793 0.575079024 0.630866885
0.320050448 0.575838089 0.637697935
0.378494620 0.576723754 0.633523166
0.453004420 0.592789471 0.642504990
0.533965528 0.603036165 0.644908309
0.605186701 0.608602464 0.651865780
0.728146732 0.657811582 0.699304521
0.288425237 0.649209261 0.641998827
0.311448276 0.648197591 0.631752014
0.347375184 0.652245462 0.634282351
0.408222884 0.659329534 0.647564590
0.486147940 0.668058336 0.656293333
0.583048701 0.700695992 0.688298583
0.681846857 0.733839512 0.724351764
0.767994940 0.754585981 0.741935372
0.476913273 0.815306842 0.739531994
0.491840303 0.816445291 0.743453383
0.512587011 0.822770417 0.741302729
0.561163366 0.823402762 0.750790596
0.624414861 0.825932801 0.762049198
0.690196157 0.837318242 0.773434341
0.748766422 0.843264043 0.784946084
0.831752062 0.853383780 0.793548048
0.158506945 0.307653457 0.856672764
0.203289062 0.305629194 0.856040776
0.287159979 0.314104795 0.857937932
0.382036448 0.323086441 0.850347936
0.487286508 0.341935635 0.843643606
0.592283368 0.356482863 0.835167527
0.692978919 0.373181313 0.823402584
0.788867772 0.395319462 0.811005771
0.165085077 0.334218323 0.846426010
0.217583790 0.337254614 0.840607226
0.283744544 0.342441738 0.842505038
0.384693086 0.352561504 0.836938679
0.484503329 0.365085274 0.835041165
0.586464524 0.376470417 0.822770357
0.686021388 0.385705292 0.814547837
0.782162786 0.403794974 0.800252855
0.219228610 0.408222914 0.831751585
0.252751440 0.416698068 0.839974999
0.313219368 0.422011167 0.832004726
0.397849381 0.425806642 0.827703714
0.490069509 0.433269858 0.827830434
0.589500427 0.440227807 0.818469405
0.686400831 0.449715197 0.807969630
0.781530559 0.459076881 0.802276850
0.269323230 0.497659624 0.814927042
0.298165888 0.500695705 0.816445351
0.348640114 0.503731728 0.818469584
0.416572094 0.506388247 0.816065788
0.500063419 0.505629420 0.811132014
0.582289577 0.509044945 0.799999833
0.675648451 0.511321843 0.793295383
0.763820291 0.518785417 0.790765584
0.315116912 0.580392182 0.801264822
0.345477581 0.588361979 0.803921461
0.385957837 0.591397882 0.810752392
0.446173340 0.594307363 0.807336867
0.516761422 0.593548119 0.799873412
0.591777325 0.592156887 0.794560194
0.675774872 0.591650724 0.793295383
0.764326572 0.597343624 0.788994253
0.375711441 0.670714796 0.804806948
0.391903788 0.678178489 0.810246766
0.429221660 0.676407337 0.812523782
0.482732475 0.676154137 0.809740543
0.543959439 0.677419305 0.804806888
0.615053475 0.679696441 0.797722757
0.690448582 0.680202365 0.797975659
0.774952471 0.686780512 0.800379574
0.411638319 0.747374773 0.803921402
0.438203454 0.749652207 0.813156307
0.466919899 0.748639584 0.805565715
0.512839913 0.753320694 0.806831062
0.572801948 0.753573716 0.807463586
0.645793796 0.761543334 0.809614062
0.717520058 0.766729653 0.817330837
0.792030454 0.777988374 0.820872784
0.514610708 0.838583291 0.816192627
0.521315157 0.841745555 0.823656023
0.547248423 0.839089394 0.821505547
0.580391824 0.838456750 0.822643936
0.634028912 0.838456750 0.825553417
0.697659254 0.843643606 0.835926473
0.779126942 0.856293321 0.851739168
0.858064413 0.885388911 0.876280785
