Assets/Shaders/EldamarStudio/100 Sci-Fi LUTs Pack/LUTs/cube/Laurel LUT.cube
LUT_3D_SIZE 8
DOMAIN_MIN 0.000000 0.000000 0.000000
DOMAIN_MAX 0.903226 0.903226 0.903226
0.000000000 0.000000000 0.000000000
0.000000000 0.000000000 0.007843000
0.021885097 0.000000000 0.004680902
0.087539285 0.000000000 0.002783356
0.200126559 0.010878997 0.017836994
0.336495459 0.052624732 0.058696993
0.462618560 0.119544566 0.113978274
0.586084783 0.214800611 0.206957608
0.003542452 0.003542452 0.003542452
0.004301451 0.000379548 0.000000000
0.028462643 0.008222548 0.003922001
0.100822181 0.014421450 0.007463646
0.204554021 0.047564991 0.030107643
0.335736454 0.091840535 0.066793442
0.457431972 0.149778724 0.123592563
0.579127073 0.228589788 0.200126350
0.010878998 0.040607095 0.006957998
0.023782548 0.046047095 0.014927001
0.061733093 0.060215093 0.017204000
0.138899639 0.083617993 0.026944742
0.239468470 0.126755193 0.049968284
0.360151559 0.168248087 0.094244353
0.472232759 0.219101802 0.157242179
0.593674600 0.289816797 0.248703614
0.079696283 0.144844919 0.047817633
0.090954930 0.151549280 0.047817633
0.126502275 0.159771919 0.060847379
0.189120561 0.177861929 0.074130282
0.286401182 0.218216479 0.106514625
0.383681357 0.251486629 0.145224363
0.485009611 0.294496894 0.207084268
0.591524065 0.355344653 0.282226264
0.159012988 0.280961365 0.122833379
0.188235626 0.295256078 0.137887627
0.216825083 0.300696105 0.143959373
0.272485971 0.305376381 0.159898818
0.339152187 0.318659186 0.175964370
0.415812641 0.351170123 0.220999435
0.512966335 0.392410100 0.279317081
0.613408983 0.444655359 0.347754598
0.286021471 0.423276484 0.258570462
0.304996938 0.432384282 0.267805189
0.330423474 0.435926616 0.274383694
0.369513065 0.438962728 0.279822707
0.415559709 0.448830187 0.294370264
0.475648195 0.460214704 0.314990729
0.555597603 0.487159997 0.360151738
0.645287514 0.535610437 0.428715616
0.398608565 0.544971585 0.368880272
0.412144274 0.549019575 0.381404281
0.422770381 0.555218339 0.381277263
0.459202915 0.562808216 0.395319283
0.497912735 0.560784280 0.402909547
0.544844806 0.569133759 0.419734299
0.599873543 0.584187567 0.442378551
0.665401518 0.607336819 0.493232250
0.532447636 0.676154613 0.523339748
0.545224130 0.684629917 0.525110304
0.559392810 0.683364868 0.531182766
0.583427906 0.686653793 0.536495745
0.611890972 0.690575778 0.552434802
0.646552503 0.695761979 0.568880498
0.686653793 0.704996645 0.583554745
0.736369550 0.719417751 0.609740555
0.000000000 0.003542452 0.000758999
0.000000000 0.000000000 0.000000000
0.017583549 0.000379548 0.004301451
0.086400636 0.001138644 0.005819353
0.189626724 0.026059542 0.031498734
0.321442455 0.071853183 0.075901091
0.446299553 0.133965820 0.132447541
0.569133580 0.216445327 0.212397039
0.003922000 0.000379548 0.000000000
0.001138547 0.004680999 0.000379548
0.025300546 0.006578449 0.001517999
0.095382892 0.019101642 0.010879192
0.187981918 0.055028539 0.039848089
0.317393899 0.099683531 0.082858987
0.431752086 0.144971550 0.126628384
0.550916910 0.220872790 0.204933479
0.017963096 0.031498738 0.006198903
0.031246092 0.044908546 0.008855448
0.064896092 0.053510547 0.017078094
0.127387360 0.083238542 0.033902541
0.228842631 0.121568635 0.067552537
0.342821091 0.167362392 0.104996629
0.456925809 0.217963532 0.166097522
0.585325778 0.290575504 0.252245694
0.071347632 0.137001827 0.055281278
0.086654179 0.142567828 0.057305537
0.118279733 0.150410831 0.064262822
0.187602565 0.169133618 0.085009277
0.273750544 0.207969368 0.108412273
0.369007081 0.243263468 0.157495022
0.474762797 0.286653996 0.208981633
0.580012739 0.346995622 0.282985151
0.165464833 0.271220833 0.130929738
0.175458834 0.278304726 0.140290827
0.218469083 0.284503669 0.147501737
0.267425627 0.296774209 0.165464833
0.332068175 0.312460154 0.192536175
0.407210469 0.339025974 0.226565540
0.503225744 0.382542729 0.274256796
0.606198430 0.436179340 0.349905342
0.279443473 0.418595940 0.251992494
0.293611288 0.421252251 0.261986464
0.323339462 0.425553650 0.270714462
0.359392464 0.430740178 0.281720370
0.411511689 0.438583344 0.301075518
0.469829470 0.452118725 0.320935994
0.547627985 0.484883159 0.360025287
0.638962626 0.530550420 0.426185697
0.386084378 0.535736859 0.362934798
0.398228824 0.543073833 0.374572814
0.420114011 0.544718564 0.378874272
0.451359808 0.550537288 0.392915666
0.489816815 0.557242215 0.400505751
0.538013697 0.562302351 0.413662195
0.594054341 0.577988267 0.441872299
0.662997723 0.601897359 0.494243890
0.532827199 0.666919470 0.523971975
0.548892736 0.677293062 0.527514219
0.554585576 0.682353258 0.530930042
0.578621209 0.683112264 0.537508070
0.606957495 0.689057589 0.544971645
0.643263817 0.689437032 0.560910940
0.686021626 0.702339768 0.581910074
0.725616336 0.713219464 0.610120118
0.000000000 0.000759096 0.008602097
0.003162904 0.000000000 0.007843001
0.021126002 0.003922000 0.008602098
0.087159730 0.005060354 0.030866545
0.188488275 0.029728096 0.064895801
0.316887975 0.077419378 0.110056832
0.437697470 0.146995574 0.163441077
0.562934518 0.233776048 0.245034784
0.001138547 0.003542453 0.002276998
0.002277095 0.001138548 0.003035998
0.032384641 0.005819451 0.014801000
0.095382988 0.026185643 0.033143543
0.188867733 0.059455995 0.067299187
0.314231545 0.105629280 0.110689536
0.429854542 0.163440987 0.169259816
0.549904764 0.242124870 0.235041231
0.012397192 0.050854094 0.021758191
0.041872453 0.052372098 0.032764096
0.067173101 0.061733097 0.045288000
0.129791275 0.083617993 0.066034451
0.226186082 0.124351382 0.097659893
0.339026064 0.175331995 0.143579721
0.451866269 0.225300461 0.196331263
0.574066937 0.298924655 0.276660323
0.079316735 0.142188370 0.085895091
0.093358733 0.145351186 0.085135996
0.128525823 0.154712364 0.096015185
0.180138916 0.171157271 0.109298185
0.276660442 0.209993735 0.145351067
0.363946557 0.247185364 0.184440464
0.465401620 0.296521187 0.235673815
0.578115106 0.352435082 0.304490775
0.169892386 0.274003983 0.158001274
0.180771470 0.277419508 0.164200172
0.219987184 0.286527306 0.172802076
0.266666830 0.294750005 0.183807373
0.330550283 0.314104974 0.216825083
0.407210559 0.341429293 0.245287806
0.496521086 0.383681446 0.296647578
0.601264775 0.440481007 0.360151649
0.292472839 0.414421380 0.277672708
0.303984910 0.417836815 0.280455530
0.320177168 0.422896981 0.282985747
0.361796170 0.424415171 0.297533184
0.408475816 0.437444806 0.313219368
0.467172831 0.451107085 0.334724754
0.546742558 0.481973529 0.372928739
0.638709724 0.529664934 0.433649749
0.382289380 0.534977734 0.370398462
0.403415591 0.538013756 0.380138934
0.421252370 0.543580115 0.386590570
0.449841827 0.547881067 0.402150661
0.489437163 0.553700149 0.410246640
0.538899481 0.563946545 0.426945031
0.595319569 0.575711548 0.456546545
0.663504004 0.605692625 0.501075268
0.531688571 0.669829130 0.534092426
0.541555583 0.675648451 0.525869310
0.554838717 0.676913500 0.538266838
0.577482462 0.683491707 0.542441487
0.604174614 0.686653793 0.549272656
0.639974892 0.690448999 0.562934756
0.681087971 0.698165476 0.581150830
0.730170488 0.709677517 0.617583573
0.002783356 0.000000000 0.035926998
0.005819353 0.000379548 0.035167899
0.030866547 0.000759096 0.035547450
0.093105994 0.010119998 0.061732993
0.191271529 0.029601382 0.103226088
0.318532467 0.080582090 0.150663733
0.435040921 0.153193980 0.211385280
0.559898615 0.251486570 0.283238649
0.002783356 0.002656546 0.031119283
0.009361193 0.004933544 0.027577542
0.040986639 0.016445097 0.047691185
0.098924629 0.028842287 0.069955736
0.194813177 0.060974184 0.110815734
0.314737260 0.105123341 0.151043475
0.428715974 0.174825922 0.206957817
0.556609690 0.259456098 0.282353163
0.030993359 0.052245282 0.066919640
0.048829641 0.067678638 0.079063997
0.091208443 0.083744183 0.094750002
0.147122175 0.098165736 0.111574732
0.237950459 0.131815448 0.144338831
0.346110165 0.178747743 0.186970368
0.453131020 0.240227565 0.244022459
0.571790159 0.311448455 0.314990819
0.089816280 0.159898639 0.132954001
0.112207539 0.167362288 0.136495635
0.150663823 0.176723272 0.146615818
0.202530265 0.187981918 0.152687922
0.278558195 0.222138077 0.184187010
0.368374646 0.260215014 0.224161923
0.464263260 0.308412284 0.277672261
0.577356279 0.361922801 0.341429085
0.183934271 0.283111840 0.199999824
0.198734984 0.290449083 0.210120022
0.232511267 0.292472720 0.217963547
0.274889201 0.304237723 0.232131630
0.339531809 0.318659186 0.250600994
0.407716632 0.353699923 0.282226443
0.501328051 0.389753520 0.328399926
0.605186820 0.443516999 0.387855709
0.295003355 0.418343097 0.310436636
0.311828166 0.419481516 0.308665276
0.331309110 0.424920827 0.320682943
0.366097629 0.428842723 0.324984372
0.414041817 0.436306179 0.341555983
0.467046112 0.455407828 0.355850637
0.550664306 0.487539530 0.395446122
0.639594972 0.534471810 0.457305461
0.389120549 0.535357237 0.405945629
0.407969445 0.542062044 0.408602268
0.424035728 0.543200672 0.409866899
0.451865971 0.548260570 0.416065902
0.494117290 0.557748258 0.433017105
0.539658368 0.566729844 0.448576659
0.594813228 0.576849937 0.466540247
0.667045951 0.609108031 0.516128838
0.528525949 0.669449568 0.535357177
0.538267136 0.670461655 0.541555882
0.551422775 0.675268650 0.544212341
0.572548985 0.681467652 0.555091619
0.603795171 0.683112264 0.563061416
0.637064934 0.690575778 0.575711548
0.680581808 0.699304104 0.594939590
0.733839631 0.715875864 0.621252239
0.001518192 0.000000000 0.102340378
0.017204095 0.000000000 0.098924540
0.052372094 0.000000001 0.101707801
0.103226088 0.012017641 0.108665183
0.197090179 0.037444994 0.144591987
0.321948111 0.089057475 0.205059990
0.435294092 0.162555456 0.256546378
0.560151935 0.260847777 0.330929637
0.008981547 0.008475997 0.084377185
0.029221736 0.016318996 0.091334373
0.062492087 0.023402900 0.098798536
0.112586983 0.038330190 0.108285636
0.196837530 0.069955535 0.148513377
0.318152696 0.115369923 0.204301178
0.428209960 0.182922170 0.256546468
0.542694449 0.265654713 0.330929846
0.045287997 0.076028004 0.114104986
0.062744834 0.082985297 0.127134740
0.101708002 0.090702288 0.133839086
0.156103715 0.107526734 0.149399176
0.240227357 0.141682103 0.186970279
0.346110165 0.186970279 0.230107263
0.451107174 0.253510565 0.294370264
0.564199805 0.320177078 0.353826463
0.108412638 0.164579630 0.168374628
0.127007917 0.177482367 0.179379836
0.179127097 0.203415379 0.204174474
0.232258275 0.222138286 0.226818278
0.295129448 0.241745472 0.240480825
0.378115267 0.274256825 0.277798951
0.466160744 0.318532556 0.317773461
0.574952483 0.370145231 0.374826252
0.201897189 0.299051195 0.248071179
0.221125826 0.308918536 0.261100739
0.257684976 0.314737171 0.273245096
0.292093366 0.324225277 0.281087995
0.349398971 0.335231155 0.295129538
0.416318744 0.359013110 0.328526109
0.504491210 0.396331280 0.365085214
0.605439425 0.447944164 0.420493156
0.312586993 0.420366913 0.344338924
0.323212922 0.426565528 0.352814734
0.341049850 0.428336263 0.350410908
0.371536821 0.436306149 0.363061428
0.413914919 0.442125022 0.370398462
0.472865731 0.460468262 0.386717439
0.548639774 0.496141732 0.431372464
0.641113162 0.536875129 0.481846899
0.400885284 0.536495745 0.427577347
0.417077899 0.540417314 0.438077182
0.428336471 0.544465482 0.438456565
0.455028266 0.550664186 0.446805835
0.496647358 0.557621717 0.455787271
0.540544033 0.565844297 0.473750651
0.596204996 0.581151128 0.493358582
0.668943644 0.617204428 0.540797114
0.527514160 0.670588255 0.555850625
0.532447636 0.677545905 0.552688241
0.545350969 0.677293003 0.559772372
0.568247795 0.681973815 0.565085471
0.599873602 0.685515404 0.576090991
0.635547161 0.690069616 0.589626849
0.681340575 0.703352213 0.610499799
0.728652477 0.717014551 0.631119370
0.004048004 0.002024260 0.185705215
0.032763995 0.000000000 0.189626724
0.090954736 0.005819257 0.196331367
0.144592077 0.022643901 0.195445970
0.213155925 0.044528801 0.203668535
0.318785697 0.091713727 0.250347972
0.434662014 0.168754265 0.304743737
0.556735992 0.259709030 0.365211695
0.015812540 0.024920994 0.172549173
0.048450090 0.031246189 0.181657180
0.087918833 0.039848190 0.183175012
0.144085810 0.051486377 0.188235372
0.209867105 0.076660186 0.202023908
0.318532288 0.118785463 0.247311980
0.431499273 0.184819728 0.297785819
0.542947471 0.266919762 0.359519243
0.053889994 0.097280338 0.201771066
0.080075637 0.105123438 0.210499570
0.123466179 0.111827984 0.204048157
0.177482381 0.124730833 0.217077732
0.248703167 0.144212633 0.236179546
0.341682702 0.192409992 0.272106379
0.448197275 0.251107067 0.329791099
0.565085471 0.325490266 0.393927693
0.117773369 0.186717376 0.232510850
0.145097926 0.194939911 0.241366461
0.178494617 0.202782914 0.252498537
0.235294268 0.222770363 0.264895380
0.296900809 0.244781569 0.286907345
0.377735615 0.277672261 0.317900032
0.463377446 0.323086381 0.348893166
0.572042823 0.380012631 0.415812820
0.209487647 0.305123389 0.299810380
0.227577284 0.312334090 0.306009203
0.270082295 0.326502293 0.327640831
0.324351370 0.352435082 0.353194386
0.371916384 0.356989384 0.350537449
0.424035728 0.375458717 0.376597166
0.505882263 0.408349216 0.409487665
0.604933500 0.453889698 0.455407917
0.321062475 0.424920708 0.385578722
0.338267207 0.429222196 0.391524285
0.356735826 0.440101504 0.400632620
0.387982219 0.452245742 0.408349097
0.425679922 0.457811534 0.415432990
0.479696751 0.467931718 0.432637721
0.554839015 0.498039454 0.463504463
0.636053026 0.534977496 0.506767988
0.408348799 0.541935265 0.460341573
0.424794555 0.547627985 0.472991705
0.440860301 0.549778283 0.473750651
0.461859554 0.554332733 0.479569912
0.498165458 0.561037302 0.491334498
0.543074012 0.571284056 0.503352463
0.597596288 0.589626849 0.521062493
0.674509645 0.615433335 0.566350460
0.527640522 0.667172790 0.584819794
0.540037811 0.672738910 0.579127192
0.551170051 0.672485948 0.582669079
0.566097438 0.677419364 0.586464286
0.591650784 0.686148226 0.592789352
0.630107820 0.687412858 0.602150559
0.683365107 0.704491019 0.623149633
0.731182754 0.719417751 0.655028462
0.019608000 0.003922000 0.322454274
0.065275542 0.012017544 0.317140996
0.130550086 0.018722191 0.321441978
0.202530265 0.038203996 0.320303619
0.272991449 0.071853183 0.327893466
0.349778473 0.110436432 0.334218860
0.450221568 0.179000571 0.370145261
0.561163783 0.264389634 0.416192114
0.033396572 0.047564801 0.306894302
0.069829538 0.049968090 0.307400286
0.129158795 0.058191027 0.309424520
0.199114338 0.078178182 0.314104915
0.268943429 0.098798439 0.317140996
0.347121745 0.135231003 0.330297261
0.443264008 0.201012284 0.363946557
0.545730352 0.275268614 0.413535386
0.074889183 0.126628667 0.308791518
0.107653253 0.130170837 0.317140996
0.159645990 0.137507886 0.317394048
0.218975365 0.149272576 0.325996011
0.291840583 0.175205469 0.339658469
0.365970939 0.203035936 0.345983386
0.462618560 0.262871385 0.386590779
0.565338433 0.327260971 0.432131559
0.144212618 0.217710212 0.335357219
0.161290020 0.224794522 0.334724635
0.204427615 0.231119633 0.339531630
0.258570611 0.244022846 0.343326837
0.320050389 0.260468066 0.354838729
0.385072649 0.282858998 0.371789962
0.479443192 0.325869620 0.411638260
0.571030736 0.378747731 0.456420064
0.226944998 0.324098587 0.376470447
0.243390471 0.330803096 0.377356350
0.270082384 0.339026093 0.378747553
0.318153083 0.348639905 0.394307554
0.368880451 0.361037463 0.406451553
0.432131678 0.382922173 0.421884745
0.514484525 0.415939271 0.458191067
0.600505769 0.462745339 0.502719641
0.315875709 0.435800016 0.437444538
0.327766806 0.446046948 0.443137258
0.356103718 0.447565019 0.451107085
0.387981951 0.457811534 0.457811415
0.446805716 0.481214434 0.484124184
0.495888233 0.491840243 0.494623512
0.563440979 0.514864028 0.515243471
0.642757773 0.549778223 0.555471361
0.414294571 0.548893034 0.503478825
0.424920827 0.546995759 0.506261528
0.442378372 0.554459214 0.512713373
0.473244905 0.561163902 0.523086548
0.507526994 0.574826181 0.539405286
0.554585576 0.583175004 0.551802516
0.607716620 0.595951557 0.565211535
0.676407039 0.623909056 0.597469687
0.538899660 0.668437779 0.604680359
0.547628105 0.673624516 0.608222485
0.557368815 0.676660478 0.617457271
0.578747332 0.677419424 0.620240271
0.601391613 0.687792540 0.628842413
0.634028912 0.692346275 0.636938751
0.673371375 0.703352213 0.649968505
0.731182754 0.723339796 0.674636126
0.055028819 0.039468639 0.473750740
0.099430695 0.046299525 0.474130303
0.176723748 0.060467817 0.479190439
0.261733294 0.087665990 0.476533771
0.346868992 0.126375437 0.477672428
0.427956522 0.170524687 0.479063600
0.508665502 0.222390801 0.481214315
0.600505650 0.293231964 0.507653475
0.061100703 0.083744377 0.462239057
0.101581357 0.093611352 0.455155075
0.174446464 0.103099063 0.464263022
0.260088891 0.126881808 0.461226761
0.341176152 0.154964983 0.464263141
0.424794316 0.196964145 0.469955951
0.502846062 0.234281912 0.473497570
0.602782845 0.302719325 0.497153610
0.105376162 0.174826011 0.458696842
0.148260519 0.180771664 0.462744832
0.206072196 0.193928063 0.474889457
0.274509728 0.207589999 0.468185037
0.356483102 0.231499165 0.472485572
0.434408545 0.259329796 0.477419436
0.512333989 0.292599559 0.490069538
0.610246718 0.351549536 0.525237083
0.168500632 0.268690825 0.462365389
0.190765172 0.276407272 0.466540039
0.239215642 0.283997566 0.469323099
0.303984791 0.293738306 0.472991765
0.370271981 0.307526767 0.474509954
0.442504704 0.322454065 0.487033457
0.516635060 0.347375333 0.493485093
0.610499382 0.404048264 0.529411614
0.234661639 0.366097540 0.489943117
0.255154848 0.370272160 0.493991107
0.282859087 0.371789962 0.491714031
0.330170810 0.376597255 0.491967052
0.397849351 0.388361633 0.499936581
0.467045993 0.403921455 0.510436416
0.539911151 0.425933003 0.522580564
0.631878614 0.479822814 0.559519053
0.330549985 0.481340736 0.526122630
0.345603824 0.478937536 0.534092247
0.361037344 0.483744353 0.528905809
0.397090554 0.485389084 0.536116421
0.449589193 0.490575522 0.547880769
0.509424567 0.504617393 0.559519231
0.582036555 0.523086429 0.573434174
0.658950031 0.559266448 0.608475506
0.423909098 0.578241348 0.577229559
0.432637513 0.581024528 0.576343715
0.450347990 0.581150949 0.578368068
0.478052109 0.589500368 0.589626670
0.513093174 0.597216904 0.595192730
0.568501055 0.607589900 0.610120237
0.620872855 0.619734347 0.624920845
0.689943016 0.649715424 0.654395819
0.546868742 0.678810716 0.646046758
0.553067505 0.682352781 0.656293333
0.563314319 0.687412798 0.654775500
0.582162797 0.688045740 0.658064485
0.610120118 0.694750130 0.666160822
0.650347710 0.706894398 0.680202425
0.687792540 0.714104712 0.691840768
0.731055915 0.736369550 0.712966442
