Assets/Shaders/EldamarStudio/100 Sci-Fi LUTs Pack/LUTs/cube/Laurel LUT.cube
LUT_3D_SIZE 5
DOMAIN_MIN 0.000000 0.000000 0.000000
DOMAIN_MAX 0.903226 0.903226 0.903226
0.000000000 0.000000000 0.000000000
0.010499993 0.000000000 0.006198711
0.132827401 0.000000000 0.000000000
0.370904237 0.068817250 0.067805126
0.586084783 0.214800611 0.206957608
0.003288997 0.026185993 0.003922000
0.038962696 0.038962699 0.006577994
0.181277797 0.086400978 0.035041116
0.385958433 0.161923110 0.101834543
0.591650724 0.274889380 0.240607485
0.115116984 0.221758395 0.078431003
0.165211678 0.233902514 0.092599690
0.272105962 0.259076804 0.124984398
0.426438987 0.313978225 0.201897532
0.614800811 0.402277052 0.319291651
0.304237962 0.444529116 0.274762988
0.348640233 0.461732835 0.291081429
0.409740955 0.472865254 0.317014515
0.512080967 0.490575254 0.348387122
0.653637111 0.554585814 0.446426123
0.532447636 0.676154613 0.523339748
0.559645832 0.683111906 0.535230756
0.591271460 0.687286377 0.542947590
0.656166732 0.695761979 0.569133580
0.736369550 0.719417751 0.609740555
0.002277292 0.002277292 0.010120292
0.010499993 0.001644708 0.003288997
0.133839101 0.016065702 0.036053404
0.358127534 0.096900992 0.114864118
0.569765627 0.230739906 0.241492793
0.007843000 0.028842408 0.013409289
0.042884700 0.038962699 0.023276700
0.170777813 0.090322398 0.068058409
0.368880421 0.169766113 0.136748821
0.578873754 0.283997804 0.263756931
0.122959986 0.208981678 0.117773816
0.170777813 0.225679800 0.132194400
0.270461679 0.254143089 0.154712111
0.418216109 0.313345969 0.228716105
0.602403343 0.404933363 0.339278907
0.305123538 0.442757845 0.292346984
0.341429234 0.453257233 0.304237962
0.402276814 0.464389652 0.322200954
0.502593517 0.482985586 0.358760536
0.646046758 0.551675975 0.446552783
0.532700717 0.670081854 0.529538333
0.548766792 0.677166522 0.537001789
0.589626908 0.683744669 0.547880888
0.655407786 0.694496810 0.567488909
0.731182754 0.710183799 0.611005604
0.003289416 0.000000000 0.066792980
0.035041120 0.000000000 0.065148689
0.139405400 0.018975416 0.098165818
0.347627699 0.095002986 0.184566811
0.552055776 0.255281776 0.306894213
0.022264414 0.047817983 0.083111979
0.066413701 0.057938114 0.090322405
0.178241685 0.094876818 0.131815106
0.361037433 0.177356243 0.213282809
0.562175870 0.301581234 0.323845357
0.140670389 0.232258230 0.183807403
0.192030117 0.243010685 0.209361404
0.283238411 0.268184781 0.232890815
0.411385417 0.324477941 0.288172096
0.595192790 0.406830788 0.380644947
0.318532228 0.443137556 0.341050148
0.349652112 0.450980544 0.350284547
0.405819118 0.462745100 0.362682134
0.504238009 0.486274540 0.395066231
0.647817731 0.555597544 0.479064077
0.522580385 0.672992051 0.548893034
0.547248483 0.672232807 0.554332674
0.578114986 0.681467652 0.559898794
0.647185087 0.691840649 0.583554626
0.731815219 0.712839901 0.629981041
0.001012128 0.001012128 0.215054125
0.085135825 0.005566289 0.220619842
0.191144660 0.036052991 0.228083536
0.355218232 0.113978252 0.281720132
0.556989074 0.263756812 0.379126936
0.052624710 0.087413117 0.223782241
0.114864118 0.092599280 0.223529547
0.215939239 0.122706696 0.243769944
0.371283948 0.194686681 0.301960707
0.567109227 0.315369815 0.405566245
0.170398533 0.250221103 0.286147714
0.222011104 0.270082414 0.308791816
0.312966526 0.305755496 0.337507814
0.429095238 0.344971687 0.371537000
0.595825374 0.425174057 0.451992363
0.343326986 0.454269379 0.416951120
0.372675270 0.467932135 0.426692128
0.426691711 0.482606024 0.442757815
0.512080967 0.500316262 0.465022266
0.648703396 0.558253884 0.529538095
0.533459783 0.666413605 0.586843789
0.549651921 0.676280618 0.588741004
0.577735543 0.683744490 0.597090364
0.641998768 0.691966951 0.613535643
0.728905439 0.718152940 0.659329593
0.055028819 0.039468639 0.473750740
0.156736523 0.053130969 0.473118424
0.301707357 0.102213800 0.477039993
0.450221062 0.185958058 0.475521713
0.600505650 0.293231964 0.507653475
0.097533137 0.157115787 0.470081866
0.180012807 0.167615220 0.469576448
0.312460333 0.198987946 0.471094191
0.451359987 0.252245665 0.480202198
0.608728528 0.340164393 0.520430028
0.210625976 0.323086828 0.480202615
0.260341376 0.328652501 0.484503299
0.353193969 0.344718218 0.491334349
0.479190350 0.373181522 0.507020772
0.629981101 0.442884207 0.553446770
0.348007411 0.502340376 0.530676603
0.380012423 0.507274091 0.540290833
0.439848125 0.514104784 0.555724323
0.537254930 0.534977973 0.570398688
0.665781021 0.581783950 0.620619774
0.546868742 0.678810716 0.646046758
0.560278475 0.685641885 0.646679342
0.595825374 0.693231940 0.666540205
0.661226809 0.710183740 0.685768664
0.731055915 0.736369550 0.712966442
