Assets/Shaders/EldamarStudio/100 Sci-Fi LUTs Pack/LUTs/cube/Leah LUT.cube
LUT_3D_SIZE 8
DOMAIN_MIN 0.000000 0.000000 0.000000
DOMAIN_MAX 0.903226 0.903226 0.903226
0.000000000 0.000000000 0.078431003
0.018342545 0.004301451 0.078810550
0.111195087 0.016445097 0.096394897
0.202403635 0.044908639 0.119417638
0.314737171 0.092346996 0.155092001
0.436432719 0.135104254 0.190006256
0.596584558 0.180012271 0.232637569
0.777102768 0.221125811 0.285262793
0.003542452 0.062239543 0.095635995
0.042251997 0.070082545 0.106261544
0.120176636 0.089690447 0.120303541
0.213409543 0.107273899 0.138772994
0.319038749 0.140164196 0.163820192
0.447564930 0.178241536 0.202529728
0.610373259 0.212017834 0.241872251
0.773687601 0.251359969 0.290322810
0.040607095 0.166097105 0.159139901
0.079443544 0.173434645 0.148007289
0.160531193 0.184820086 0.166097105
0.246299624 0.207969740 0.185325742
0.357115477 0.229475290 0.210878998
0.485389084 0.252245098 0.230739728
0.641998827 0.285135984 0.266287118
0.802656472 0.329664767 0.319038719
0.118405923 0.285388917 0.220240280
0.154965281 0.294370264 0.222137734
0.214421362 0.305755734 0.228716075
0.302213997 0.320682913 0.236559272
0.405818999 0.340797007 0.260974199
0.530044258 0.358254015 0.277039737
0.675142229 0.384566575 0.307779998
0.817963243 0.421632111 0.356230438
0.228463188 0.424541175 0.282732397
0.255914092 0.434788376 0.293611377
0.302087396 0.437824368 0.296267986
0.384440184 0.446932524 0.302340388
0.487919360 0.461353362 0.315623194
0.604174912 0.480202198 0.340038180
0.725363731 0.500442624 0.367995083
0.848829746 0.537002027 0.416319013
0.379633456 0.579885960 0.368374467
0.397723168 0.578874350 0.381404161
0.435673714 0.581657171 0.386464119
0.501960456 0.585199475 0.395192713
0.578368127 0.596584678 0.404174268
0.677672446 0.611132443 0.420872718
0.784693241 0.621631742 0.449841738
0.882985532 0.652498543 0.504237652
0.543959260 0.703478813 0.486148000
0.557621539 0.701960564 0.490195990
0.584819734 0.706641555 0.496521294
0.627956808 0.712966561 0.509044945
0.683744550 0.718406200 0.517520547
0.752688229 0.721189022 0.533080578
0.820493281 0.736495554 0.548892975
0.896647394 0.751675785 0.585705519
0.714357734 0.829221785 0.638456762
0.720556319 0.828462780 0.634914339
0.737001598 0.831119537 0.641872525
0.762302399 0.835926414 0.643643618
0.797469795 0.842251658 0.656925797
0.838709712 0.846679389 0.669576406
0.885135829 0.857937932 0.687792122
0.927007794 0.873624623 0.712966442
0.000000000 0.008222548 0.099936545
0.016824545 0.001138547 0.099936545
0.111195087 0.032511454 0.121442094
0.205945373 0.070841447 0.154712558
0.308918625 0.107653350 0.182922348
0.443769634 0.151170194 0.224414915
0.594686866 0.185578987 0.256040543
0.777735412 0.223529533 0.295509100
0.001138547 0.066160545 0.128146544
0.035547547 0.070082545 0.129285097
0.120935738 0.095129639 0.149272650
0.210626289 0.119417831 0.168500900
0.320303291 0.153194353 0.197090551
0.446299762 0.182922542 0.225679994
0.590385854 0.209108293 0.252245307
0.752055168 0.247817516 0.298418969
0.052372094 0.167235658 0.179886535
0.074636541 0.185325652 0.178621083
0.156609982 0.189500183 0.192409649
0.246299729 0.211891562 0.202150285
0.355091721 0.230613738 0.226059526
0.475901335 0.256546646 0.253004372
0.636180043 0.285515547 0.284756720
0.796837330 0.328905672 0.331562221
0.131815538 0.287286371 0.229854539
0.158507630 0.295256287 0.235800087
0.212523744 0.302214086 0.244022742
0.297785908 0.319923818 0.252245188
0.404174924 0.339531839 0.272612154
0.523592651 0.354712278 0.287918925
0.663124502 0.381783634 0.317899972
0.802023947 0.411385000 0.358633667
0.228842527 0.420620173 0.294623971
0.259582698 0.422897190 0.305249542
0.304491192 0.432763934 0.312207520
0.384060621 0.441366017 0.319291562
0.481973708 0.457811803 0.329917878
0.593674660 0.474636376 0.344212532
0.720303833 0.495888561 0.376343906
0.843137443 0.527134717 0.424288452
0.380012900 0.563187659 0.380518466
0.396331042 0.569133580 0.385705024
0.440101266 0.572928667 0.397849262
0.497153342 0.584313512 0.400126457
0.576344371 0.594560444 0.409234732
0.676660478 0.603162467 0.429474801
0.771283984 0.620113909 0.457305282
0.878431380 0.650474250 0.507653296
0.538013577 0.694117546 0.488678277
0.553067803 0.701201558 0.496773809
0.579759598 0.702214003 0.506135106
0.625553489 0.708286166 0.510056973
0.682226241 0.716508627 0.515243351
0.743706048 0.722833693 0.531562328
0.818848550 0.732954025 0.549399137
0.890575707 0.748134136 0.580392063
0.715876222 0.827451229 0.637064755
0.724478304 0.828210235 0.638709486
0.735737026 0.830866516 0.640101254
0.763440788 0.832890451 0.645920336
0.798482001 0.837571144 0.664010048
0.837571025 0.846299708 0.673371315
0.879696429 0.855913877 0.686906815
0.930676520 0.867172599 0.710436404
0.000759096 0.010120095 0.142568097
0.008222548 0.009740546 0.158001453
0.104111195 0.034408998 0.177862093
0.198481634 0.077925645 0.200632185
0.317140996 0.115117088 0.230360284
0.445161134 0.154712260 0.260721356
0.602150261 0.194307193 0.293864995
0.777861834 0.231625631 0.337887347
0.001517999 0.074383095 0.155851096
0.039089091 0.085389003 0.180265993
0.116635092 0.098671988 0.196331531
0.217710182 0.126122996 0.216698542
0.324225277 0.159013197 0.248197451
0.451107174 0.190385908 0.264516443
0.599493802 0.222896740 0.295382708
0.758633554 0.260468006 0.335736811
0.063377999 0.172296196 0.210878998
0.100190088 0.179380089 0.216192201
0.161290094 0.199747190 0.233523175
0.251360178 0.209487647 0.240481079
0.354712278 0.239722088 0.266413987
0.486274391 0.264010102 0.289816380
0.635800302 0.290575385 0.320430189
0.792156816 0.334851235 0.366097212
0.140796989 0.294876635 0.271473736
0.169133291 0.295635730 0.271094173
0.222643822 0.310562730 0.283238620
0.302593529 0.320303261 0.288677752
0.405818909 0.336749077 0.304744065
0.524731100 0.354712278 0.321948051
0.663124502 0.381783634 0.350031465
0.805692613 0.416824818 0.393674642
0.248071179 0.423023373 0.331309378
0.260214925 0.424920827 0.327007949
0.306009173 0.432384580 0.343959183
0.384060740 0.442504466 0.346236289
0.481720269 0.457432359 0.355724156
0.590891838 0.472738743 0.374066919
0.718406200 0.497533202 0.402656466
0.840607405 0.526502311 0.445794165
0.387476474 0.566603363 0.414547980
0.400252998 0.569765806 0.418343067
0.439595222 0.572549105 0.418722719
0.501960456 0.580392361 0.429601848
0.578368068 0.589879692 0.441745460
0.669576466 0.602403402 0.449841738
0.772422552 0.618848622 0.479949266
0.879190624 0.649715424 0.528652549
0.542567551 0.690322578 0.504870534
0.558886528 0.694117546 0.518911779
0.589753449 0.701960623 0.522327542
0.627704084 0.706768036 0.529032111
0.684503436 0.712207258 0.538772702
0.746615946 0.716888011 0.547375321
0.817330718 0.730929852 0.565464616
0.894623637 0.751296222 0.602150500
0.718279660 0.826691985 0.647944450
0.718911946 0.830360591 0.652625024
0.737381339 0.826059341 0.651739359
0.761922598 0.831625581 0.659076810
0.795951605 0.835294068 0.668184698
0.838962555 0.843896389 0.683997452
0.877419591 0.853130758 0.700316131
0.934092522 0.866540015 0.713472545
0.000000000 0.027450999 0.214674294
0.003415642 0.030107545 0.214674190
0.102972649 0.047311738 0.242884189
0.198481634 0.080202639 0.256166995
0.319797844 0.122201189 0.289184004
0.447185367 0.157495096 0.307526737
0.606072247 0.187222987 0.347501367
0.781277716 0.228842661 0.384946287
0.001517999 0.089184090 0.223276168
0.035673454 0.099810444 0.230360284
0.117394090 0.111954182 0.248323977
0.214548096 0.133586541 0.265907645
0.328146577 0.164958641 0.292979181
0.452245653 0.189626992 0.317646831
0.608855188 0.221758276 0.348640144
0.769892335 0.258823812 0.389879733
0.083744287 0.184440538 0.265528291
0.103605539 0.191904098 0.266287297
0.160405189 0.206451550 0.279190630
0.251360178 0.216951102 0.299304098
0.362934828 0.240480989 0.318911999
0.489057720 0.262871712 0.333206654
0.646046817 0.292599648 0.372422546
0.802909553 0.329791158 0.415559918
0.165970996 0.286527276 0.313345999
0.186717540 0.297280639 0.314484626
0.236052826 0.309044719 0.333333641
0.309550911 0.325743288 0.335736632
0.419734478 0.341808826 0.355217814
0.537001848 0.360278249 0.374067008
0.668943584 0.388488263 0.400885284
0.813662410 0.423149914 0.439974636
0.256673276 0.422264159 0.381657183
0.280708551 0.427704185 0.384946167
0.325363636 0.437444836 0.385072738
0.395066828 0.447691649 0.393295258
0.486780763 0.461353362 0.402276844
0.598102748 0.480202287 0.421125710
0.721568525 0.500696003 0.451360077
0.842378318 0.534977555 0.493484974
0.402782917 0.568374753 0.456040382
0.418848544 0.568754137 0.458317429
0.455408007 0.574572861 0.464009941
0.510942578 0.579759479 0.469196469
0.585831463 0.591524422 0.475142717
0.676786602 0.604048073 0.492346734
0.773940384 0.621252477 0.516129017
0.874762833 0.655154705 0.561543226
0.549525559 0.692726254 0.550917268
0.569133282 0.698544919 0.546489716
0.589626551 0.700822055 0.551423192
0.628968954 0.706261933 0.557748258
0.684630156 0.711448371 0.568627357
0.748513699 0.718153059 0.577356160
0.817077935 0.734345198 0.595319271
0.892599463 0.751802683 0.626059234
0.711827815 0.825426996 0.665780902
0.723719180 0.822517395 0.666793048
0.742567897 0.827324331 0.676280737
0.763693810 0.832005143 0.678557694
0.795066655 0.837191582 0.683364809
0.838203669 0.842251658 0.697532833
0.882479608 0.853510261 0.717267394
0.935483575 0.868184447 0.735357344
0.001518192 0.051613189 0.288424999
0.012776543 0.052372187 0.288298398
0.111954182 0.073497891 0.308791906
0.206704468 0.094244443 0.327514172
0.323466182 0.128525987 0.348766178
0.451233208 0.160151541 0.379886180
0.610626459 0.195066288 0.416825086
0.783807814 0.234155655 0.457811326
0.009234995 0.114357896 0.304364324
0.054649089 0.118658736 0.304364532
0.129538447 0.131182626 0.320556194
0.219607741 0.143327087 0.336495727
0.325237036 0.164452985 0.354838580
0.460341662 0.195066288 0.386970192
0.609108388 0.221632004 0.414674073
0.774826050 0.254522175 0.452498347
0.097912908 0.205186397 0.337634385
0.122453824 0.214801013 0.341302842
0.176091298 0.216192290 0.349272490
0.257558346 0.225173742 0.361923099
0.368121207 0.243643284 0.380771369
0.496015102 0.261226922 0.405692577
0.647564709 0.289816290 0.436179668
0.802656531 0.331309170 0.477040172
0.177609086 0.305882424 0.370271802
0.203921631 0.307020962 0.373687387
0.250853807 0.318279624 0.385831624
0.320050448 0.335230976 0.400253266
0.417330652 0.342694759 0.417204440
0.544971585 0.362302512 0.438709557
0.679696500 0.384187013 0.458191156
0.815306723 0.416066110 0.495762259
0.286653996 0.419987381 0.425427169
0.307653189 0.425047517 0.432511151
0.346742362 0.434029281 0.442631394
0.409108013 0.452751368 0.451612741
0.499683350 0.462871552 0.463757157
0.609361410 0.477798998 0.482732356
0.727767348 0.497533172 0.502972960
0.845540404 0.532194793 0.542441308
0.425047457 0.561290026 0.509298146
0.441998899 0.565211833 0.509677649
0.471347451 0.574193358 0.513092995
0.526375592 0.582415998 0.519417942
0.590132773 0.589500189 0.525995910
0.679443181 0.605186760 0.539025962
0.781530797 0.625174224 0.565211713
0.877292812 0.649082959 0.600885272
0.564705670 0.695762217 0.588361740
0.579000831 0.697785914 0.593421817
0.600758970 0.701960623 0.595319390
0.633523285 0.703605354 0.596964061
0.688678265 0.711448371 0.600885391
0.745857239 0.720809519 0.615812480
0.824920714 0.735736668 0.633649707
0.897153497 0.754079521 0.656672955
0.714610755 0.826185763 0.695888996
0.720935941 0.822264314 0.691840589
0.733839393 0.828210056 0.695888519
0.758127511 0.831246138 0.699810028
0.790638626 0.837191582 0.708285928
0.834281921 0.843516767 0.718785465
0.882100046 0.855154932 0.737381399
0.929790795 0.868437767 0.753446937
0.000000000 0.082226478 0.377988726
0.034408998 0.086400926 0.377482265
0.132574350 0.100569345 0.389879584
0.224541277 0.121062644 0.409234732
0.337001950 0.136748537 0.432384282
0.463883698 0.164453000 0.458317459
0.613788843 0.196964025 0.492219716
0.780139029 0.231498823 0.528399706
0.017710088 0.135357082 0.376723468
0.064010084 0.142567992 0.392283529
0.147122100 0.149652183 0.398735195
0.236432374 0.157748446 0.414800823
0.339911282 0.168753833 0.437318027
0.469323009 0.195445731 0.460088730
0.609614253 0.219607830 0.483112007
0.770777941 0.253257692 0.524477780
0.112713188 0.226439089 0.409740806
0.136495829 0.224288449 0.423276722
0.188235536 0.228589550 0.426438838
0.273118198 0.234534830 0.442884117
0.389500022 0.249209195 0.458570719
0.506514490 0.265907824 0.484376818
0.645034790 0.290195912 0.506641448
0.802023590 0.328399926 0.547248542
0.192156747 0.322833717 0.436812371
0.219987288 0.329664379 0.449841827
0.260088623 0.330803037 0.457558841
0.330550104 0.337002039 0.465781361
0.429348618 0.344465464 0.487033337
0.546362817 0.358633459 0.505502641
0.672485530 0.379000396 0.525869727
0.811132133 0.411638170 0.561416507
0.302593440 0.436559141 0.492346525
0.321948111 0.442884028 0.497280151
0.366477191 0.444781661 0.507653356
0.425553620 0.454143375 0.519038558
0.508159339 0.467678577 0.533712924
0.611638248 0.477292925 0.550664365
0.727387905 0.496268213 0.566982746
0.844275892 0.525869608 0.601897538
0.440480709 0.561922729 0.552182436
0.456420243 0.565211773 0.553573549
0.488678187 0.567488790 0.567615628
0.540037811 0.578115284 0.575964451
0.602277160 0.589120626 0.591144860
0.685515463 0.603289008 0.605060220
0.780645311 0.617710292 0.619607568
0.880328655 0.641998649 0.640101433
0.577482700 0.685009539 0.630360723
0.593674839 0.693231940 0.630992830
0.617077649 0.693737924 0.635294378
0.646932364 0.698418677 0.644528627
0.688171744 0.710563183 0.653384149
0.748134196 0.718785763 0.656040430
0.819481492 0.731182814 0.674762726
0.899430633 0.757495463 0.697027445
0.723971844 0.821252584 0.737254620
0.733206689 0.821758330 0.728905678
0.745097935 0.822643638 0.735610425
0.761543334 0.828336358 0.733965755
0.786717236 0.836811960 0.737760842
0.832131505 0.845287502 0.752308667
0.883365214 0.854269147 0.766097486
0.930676937 0.872232795 0.784946382
0.010752702 0.116635285 0.500822246
0.074889086 0.120935827 0.504490793
0.171284094 0.128399894 0.512840271
0.267552286 0.141302928 0.524857938
0.386717290 0.151296705 0.543453574
0.509044766 0.158886746 0.565844297
0.644275546 0.192789003 0.585199296
0.784187317 0.234914631 0.607210577
0.041113276 0.157621831 0.499051273
0.098039530 0.163061097 0.499557078
0.174446374 0.169639349 0.513978541
0.275521994 0.179000542 0.522707045
0.381910086 0.185578987 0.544718683
0.512081206 0.191650733 0.566350579
0.638330281 0.219101831 0.577103078
0.767362595 0.254648983 0.596963763
0.118406095 0.239721894 0.525616586
0.156356543 0.241619557 0.523213267
0.219101980 0.247564897 0.534598470
0.308791935 0.253763199 0.551296592
0.418089658 0.261733294 0.564579368
0.540417194 0.263251305 0.587729037
0.672612429 0.291461021 0.605565965
0.797469914 0.328146756 0.625806332
0.205312923 0.335863560 0.551675916
0.231878579 0.343706250 0.553573608
0.277672291 0.348513275 0.559139609
0.354965180 0.349272549 0.570145547
0.458317637 0.357115567 0.586211085
0.570145249 0.360278159 0.600252926
0.689689815 0.379506648 0.612776935
0.809234440 0.409740627 0.634029031
0.321948171 0.453384072 0.574699283
0.346363008 0.464136660 0.583807826
0.385958374 0.464516103 0.595192850
0.436938584 0.467678577 0.596837521
0.517647207 0.470841467 0.611764491
0.618089557 0.477545917 0.629854381
0.731688619 0.488045484 0.643137276
0.844402552 0.515496373 0.663630247
0.470968008 0.580265462 0.634788036
0.478810996 0.584060907 0.635294139
0.508412004 0.585578978 0.641113281
0.553573668 0.591903746 0.648070991
0.615559638 0.597216785 0.656040490
0.685388982 0.604933321 0.669196725
0.782669485 0.615433037 0.689437211
0.872738719 0.639089167 0.704744041
0.588108540 0.684503257 0.677672625
0.594054580 0.687286317 0.676786900
0.615559697 0.689437032 0.683997333
0.658697248 0.693358541 0.693864644
0.701201737 0.698924243 0.701960683
0.753320694 0.714863777 0.708665490
0.822770536 0.737760544 0.732194781
0.898291945 0.751296222 0.743832767
0.728652775 0.813282311 0.761416912
0.734977782 0.817457438 0.769259751
0.744212449 0.817836761 0.769259810
0.764705658 0.825300217 0.777735591
0.796331167 0.834914744 0.785705447
0.831625760 0.843137264 0.790892005
0.876913309 0.856925905 0.807463586
0.932068050 0.868184388 0.819228530
0.085262790 0.155723974 0.654142737
0.139784962 0.162175998 0.660594761
0.228209823 0.159771994 0.664010048
0.329664767 0.169892460 0.677419364
0.450727344 0.178115010 0.687412798
0.570651472 0.182542875 0.695888758
0.707527101 0.196458280 0.712460518
0.832004726 0.244655117 0.728652716
0.095256068 0.193042234 0.648829758
0.148892894 0.191524550 0.660215199
0.232384756 0.197343275 0.662365317
0.335103959 0.198861465 0.669070125
0.447944254 0.208096161 0.683617771
0.566856503 0.211891249 0.695256114
0.696141541 0.217836991 0.709550738
0.826312363 0.266034216 0.725742757
0.152814701 0.266287178 0.666160762
0.191397622 0.271726787 0.673750758
0.266033888 0.272106111 0.675774693
0.361922920 0.275774896 0.686147988
0.467931658 0.281214088 0.695761859
0.590385675 0.288298488 0.705502450
0.716887891 0.298418790 0.726375759
0.837444603 0.334345162 0.735230803
0.218596101 0.361669451 0.676027536
0.257685065 0.361543447 0.675015450
0.315243363 0.364326388 0.689183950
0.393295288 0.373181432 0.692599773
0.495635450 0.377229631 0.705249786
0.604933560 0.377103120 0.716635048
0.728652716 0.381783664 0.727260947
0.844149351 0.415433109 0.737128437
0.352941036 0.481720179 0.695761979
0.364073366 0.485262334 0.705376208
0.394687206 0.484503537 0.706135035
0.462112457 0.478684455 0.708918333
0.544718504 0.483871013 0.719038606
0.644022644 0.489310533 0.736495674
0.753320694 0.492093176 0.741556048
0.863757014 0.522454321 0.757621586
0.507020772 0.609108210 0.728905678
0.523086667 0.609108150 0.735989928
0.538393319 0.611005664 0.738899112
0.577229559 0.607969582 0.740796864
0.627451122 0.607590020 0.745224655
0.696774244 0.613788664 0.760025561
0.793295026 0.616065919 0.773561060
0.889057815 0.641872168 0.790385485
0.624288261 0.712460697 0.768500924
0.637065291 0.718785703 0.765717804
0.650094807 0.718785644 0.769639432
0.679063916 0.723465800 0.777608812
0.714864075 0.726122499 0.780392051
0.767235935 0.731688857 0.786084950
0.827071428 0.737128556 0.795319259
0.905502796 0.757495522 0.820873022
0.742820978 0.824035585 0.818722546
0.748513460 0.830233932 0.820113659
0.761416614 0.829854429 0.824035585
0.780771792 0.833143771 0.830613434
0.808981776 0.837064743 0.833396435
0.841998816 0.840227664 0.843010724
0.873750925 0.857558489 0.851866007
0.938899696 0.878937542 0.876280844
