Assets/Shaders/EldamarStudio/100 Sci-Fi LUTs Pack/LUTs/cube/Leah LUT.cube
DOMAIN_MIN 0 0 0
DOMAIN_MAX 1 1 1
LUT_3D_SIZE 32
0.000000000 0.000000000 0.078431003
0.000000000 0.000000000 0.078431003
0.000000000 0.000000000 0.074129999
0.005059999 0.001265161 0.073118001
0.018342545 0.004301451 0.078810550
0.039594933 0.007337064 0.081846938
0.060847320 0.010373322 0.084883317
0.085388690 0.013409289 0.089563996
0.111195087 0.016445097 0.096394897
0.132447496 0.019481489 0.105502516
0.153699875 0.028336871 0.105881996
0.176976502 0.035420999 0.109929994
0.202403635 0.044908639 0.119417638
0.229222029 0.059582967 0.133332998
0.250474393 0.068690568 0.133332998
0.281340778 0.080202602 0.142947599
0.314737171 0.092346996 0.155092001
0.347501129 0.105123565 0.166603580
0.377861947 0.120303974 0.175711975
0.402656734 0.127135009 0.182036996
0.436432719 0.135104254 0.190006256
0.475901127 0.144212127 0.200126261
0.515369475 0.153446987 0.212144479
0.554838717 0.165591002 0.221252099
0.596584558 0.180012271 0.232637569
0.639089286 0.191017985 0.244781986
0.682606101 0.197596073 0.256420076
0.731182814 0.206704453 0.265528440
0.777102768 0.221125811 0.285262793
0.822643578 0.236306176 0.301201940
0.864642560 0.254142970 0.315116972
0.898038983 0.278430998 0.333332986
0.006072000 0.000000000 0.066286996
0.000000000 0.000000000 0.072359003
0.000000000 0.002150774 0.076660007
0.007589999 0.005566387 0.079190321
0.024794094 0.009614453 0.084503770
0.048703320 0.007337064 0.084883317
0.064895704 0.017963000 0.087919064
0.085136086 0.025806319 0.095888600
0.108159482 0.031625483 0.102466710
0.129411876 0.034661874 0.102466911
0.153573379 0.040607385 0.114484385
0.176976502 0.049589254 0.117014639
0.200126633 0.057811741 0.122074768
0.224415064 0.068690643 0.131309375
0.259582788 0.077798955 0.142441392
0.285642177 0.089310378 0.144845203
0.313219368 0.098418608 0.153573811
0.343326688 0.108159170 0.163567185
0.380898356 0.123339586 0.172675580
0.414041787 0.132953972 0.184566617
0.444781721 0.141176730 0.194940090
0.480961263 0.151296780 0.204174772
0.518405914 0.162302390 0.212270990
0.557874322 0.168627396 0.224288493
0.599620163 0.178494677 0.233396679
0.643516600 0.192157030 0.244781986
0.688678086 0.203668714 0.257432073
0.737254798 0.212776437 0.271600425
0.780518591 0.224541649 0.288677961
0.822137475 0.241113335 0.298924804
0.862491786 0.258443981 0.310815960
0.898038983 0.278430998 0.333332986
0.003542000 0.015053772 0.067046002
0.003921774 0.015053772 0.079569772
0.002150774 0.019354772 0.079190552
0.007210773 0.019861160 0.086527392
0.025553320 0.023276774 0.092346773
0.055154864 0.025553612 0.090576001
0.069702551 0.030866547 0.097406678
0.088171929 0.038076837 0.097153716
0.110183418 0.045414194 0.104490675
0.132827491 0.049842265 0.104237713
0.159139767 0.057937995 0.115749776
0.181404024 0.066034250 0.123845771
0.205566272 0.074003994 0.128147006
0.228336796 0.082099810 0.134472027
0.259076804 0.091208190 0.144718766
0.288298786 0.102719769 0.151802808
0.314104974 0.111827768 0.156356990
0.340290695 0.119164757 0.164199769
0.376723945 0.132826984 0.171789974
0.414927393 0.142441362 0.185831785
0.444528729 0.149652004 0.194180772
0.479443133 0.159519494 0.204807356
0.517140746 0.171410769 0.212270990
0.556609690 0.177482769 0.224415004
0.598355353 0.187982291 0.234282285
0.643643081 0.197090670 0.243390307
0.690449119 0.210246995 0.256293297
0.739025831 0.220999300 0.274762660
0.782289624 0.234914660 0.279696196
0.824794352 0.248830184 0.303225368
0.864642322 0.265781373 0.315496415
0.902339995 0.282732546 0.339784771
0.001265161 0.037571318 0.078178324
0.001771226 0.038836159 0.089563549
0.006452000 0.040607154 0.090575770
0.015307159 0.045414321 0.092599839
0.028210159 0.043517157 0.100189552
0.057178929 0.049589157 0.097153939
0.076660164 0.054395996 0.104237676
0.092472702 0.060088769 0.109297708
0.113725089 0.063124381 0.108538993
0.137507826 0.068690971 0.112080678
0.163440868 0.075142451 0.120050743
0.187982410 0.082985416 0.128146991
0.210373163 0.092093512 0.131941989
0.235167906 0.098039024 0.138014033
0.263504416 0.105123408 0.147122413
0.288298786 0.116634987 0.155091837
0.317900121 0.127008155 0.159898996
0.344718248 0.134345129 0.167868569
0.378747970 0.146489173 0.175838172
0.412650406 0.155850515 0.187729210
0.445793897 0.163061157 0.198481992
0.478178442 0.168121293 0.205566123
0.518152773 0.179759964 0.214927495
0.559898734 0.190385997 0.228210166
0.600379705 0.197217152 0.235547125
0.641872287 0.207969502 0.245920628
0.689437151 0.217583969 0.256546319
0.736495852 0.229728147 0.277039587
0.779759645 0.243263796 0.283491313
0.823529184 0.259709030 0.295635313
0.865148664 0.274889439 0.319417745
0.904617190 0.290069848 0.342567980
0.003542452 0.062239543 0.095635995
0.001644612 0.064136706 0.101328447
0.007210773 0.065781094 0.099936992
0.021379160 0.067046158 0.099430926
0.042251997 0.070082545 0.106261544
0.060467996 0.076154545 0.103225932
0.081214316 0.080455229 0.110689223
0.100822084 0.084376872 0.116128705
0.120176636 0.089690447 0.120303541
0.141429052 0.092726067 0.126375541
0.165591285 0.096141867 0.129917860
0.189500511 0.100822538 0.134598538
0.213409543 0.107273899 0.138772994
0.237444580 0.116381578 0.139532030
0.267425805 0.119670965 0.148640409
0.292852789 0.129538074 0.157368749
0.319038749 0.140164196 0.163820192
0.352688104 0.149146080 0.169007018
0.389120966 0.161290124 0.184187427
0.417583913 0.171410367 0.193421751
0.447564930 0.178241536 0.202529728
0.481214702 0.184060678 0.211258590
0.523719430 0.187223539 0.220493466
0.569006920 0.204427555 0.235420913
0.610373259 0.212017834 0.241872251
0.649842143 0.217836857 0.248703331
0.688678145 0.227071121 0.261100978
0.731182814 0.239215881 0.279316992
0.773687601 0.251359969 0.290322810
0.817963064 0.266666472 0.305123478
0.861732781 0.283617586 0.322454035
0.901202023 0.298797995 0.337634444
0.000506065 0.089563929 0.107779995
0.006578065 0.083491929 0.110815607
0.013282773 0.087539867 0.114357837
0.027451159 0.091334708 0.115876153
0.048323996 0.094370544 0.118406326
0.066540003 0.097406931 0.109297931
0.087286323 0.106008612 0.118911996
0.106894404 0.109170929 0.123971932
0.126628876 0.110942155 0.126755089
0.150537431 0.113978460 0.135483921
0.174699664 0.119923934 0.141555935
0.196964175 0.123466246 0.145098269
0.218722641 0.127008274 0.148640290
0.240480974 0.131561965 0.151676029
0.261733353 0.140670344 0.160784423
0.298924774 0.148766726 0.167488992
0.327767402 0.158380672 0.174066916
0.355471462 0.166856140 0.180897981
0.389120966 0.173434883 0.193295047
0.419987738 0.188361526 0.200126782
0.453636885 0.194939733 0.208602116
0.489057302 0.200506061 0.216697991
0.526755035 0.208475932 0.223529071
0.569259882 0.214547932 0.235673875
0.612270594 0.224921212 0.243770003
0.652878046 0.233017236 0.250727594
0.691335022 0.242125005 0.260847986
0.725110829 0.251359880 0.273244977
0.767615557 0.263503969 0.288804799
0.811891139 0.277419180 0.306515157
0.855660796 0.292219907 0.325490296
0.895130038 0.304870009 0.340670079
0.007590321 0.111828320 0.119923994
0.018722318 0.115876317 0.125489920
0.031246092 0.114105314 0.126375318
0.042378318 0.118153155 0.130296990
0.059835542 0.120809317 0.134218678
0.080202319 0.121694930 0.131562054
0.095888637 0.127260998 0.135104641
0.120430015 0.136369020 0.140670642
0.140544087 0.139784738 0.142947540
0.159519345 0.142821133 0.152055487
0.183807418 0.143706650 0.148134008
0.206071928 0.147754386 0.154205993
0.229601592 0.154206291 0.160025328
0.254143357 0.161669955 0.166097313
0.279949695 0.168501049 0.172928408
0.308412284 0.175205633 0.182036802
0.342947364 0.182669312 0.186717123
0.369260132 0.190132633 0.191777155
0.396964312 0.196204960 0.200126663
0.430107743 0.205566287 0.209234387
0.468058467 0.215053633 0.217204407
0.503731608 0.219734311 0.225300312
0.537380993 0.227197990 0.231372312
0.579885781 0.233270004 0.238709494
0.622390568 0.243896559 0.250854254
0.667678237 0.253257632 0.261606634
0.711068809 0.262871444 0.273497790
0.750537395 0.274004072 0.285642296
0.789373875 0.283238292 0.297912806
0.830107450 0.293611497 0.311321944
0.871473551 0.309930265 0.332953870
0.909298003 0.328652322 0.356356651
0.021631991 0.138013989 0.138646409
0.030486993 0.140796989 0.139784694
0.044781767 0.144212693 0.144844696
0.057432152 0.144212693 0.138519540
0.069196701 0.148007408 0.142694101
0.086653933 0.153067395 0.147754416
0.107780024 0.149904698 0.151169926
0.127893686 0.155977100 0.153953284
0.152941197 0.164326400 0.154712379
0.169007197 0.168248191 0.162049234
0.192915693 0.170018986 0.163187712
0.215179950 0.175332144 0.165211707
0.236432329 0.178368047 0.170145348
0.263251305 0.188488692 0.178241655
0.293358684 0.194560692 0.185704991
0.321441978 0.200632691 0.194180802
0.350284576 0.208222896 0.198734999
0.380518645 0.214421391 0.202909261
0.406831264 0.220493421 0.209993944
0.439469099 0.226059362 0.215559646
0.475268781 0.233269975 0.224667728
0.516761661 0.240354106 0.232763991
0.549398899 0.247185200 0.238962501
0.590385497 0.254775405 0.246552706
0.634534895 0.262112588 0.257178873
0.675648034 0.272865653 0.267931938
0.721441805 0.282985359 0.282605767
0.761669576 0.296268165 0.295888901
0.803162396 0.307400554 0.309677690
0.840986788 0.319797575 0.323465943
0.879569650 0.329791367 0.338266581
0.916002274 0.351043403 0.366350293
0.040607095 0.166097105 0.159139901
0.045161095 0.168374196 0.157621697
0.056166869 0.169006780 0.159519091
0.069576159 0.173055097 0.161290139
0.079443544 0.173434645 0.148007289
0.091967091 0.184440196 0.158633962
0.112713546 0.181150958 0.162428871
0.137002081 0.179506406 0.164579093
0.160531193 0.184820086 0.166097105
0.178747967 0.190892085 0.169133499
0.203542084 0.195572406 0.175838098
0.224288344 0.201138347 0.180392101
0.246299624 0.207969740 0.185325742
0.268311054 0.211259097 0.188362062
0.301201493 0.217331097 0.196457669
0.330549985 0.222643986 0.204806805
0.357115477 0.229475290 0.210878998
0.386338025 0.237951085 0.212144151
0.416951120 0.244023100 0.221126050
0.450854093 0.248070836 0.226185724
0.485389084 0.252245098 0.230739728
0.521315277 0.260088325 0.241113082
0.560910881 0.268943667 0.247058600
0.601011932 0.276786894 0.254902005
0.641998827 0.285135984 0.266287118
0.685515702 0.292599648 0.277039737
0.725490212 0.302213967 0.287160039
0.762428939 0.317140639 0.302340329
0.802656472 0.329664767 0.319038719
0.842378318 0.343580276 0.331941903
0.876534045 0.358633965 0.346615672
0.912966132 0.370777994 0.367868096
0.061859488 0.187349513 0.168247521
0.061859496 0.196457893 0.171283916
0.068564273 0.196584225 0.171916500
0.079190493 0.198861197 0.173434660
0.091587551 0.206831053 0.175332457
0.106767945 0.209867448 0.175332457
0.124351494 0.210752994 0.175838500
0.146109939 0.212017760 0.177609265
0.169639587 0.215180099 0.181277499
0.190891981 0.218216479 0.187349498
0.217836872 0.227198362 0.196204886
0.236938745 0.232005209 0.199114501
0.255787492 0.235294133 0.200506151
0.280455053 0.238583505 0.203542471
0.310815811 0.244655490 0.206578076
0.341303080 0.248323709 0.212270498
0.368500948 0.253004402 0.218468994
0.395445645 0.259203494 0.224288166
0.431878537 0.265275538 0.230360955
0.468058228 0.271347523 0.239342138
0.502466738 0.275395244 0.242504492
0.535989583 0.281593770 0.247944131
0.570018470 0.293232471 0.262238979
0.612523317 0.296268076 0.265275389
0.648070872 0.306388021 0.275395513
0.686148286 0.316887677 0.286148161
0.728526592 0.326501995 0.296268433
0.771031320 0.338645995 0.311448008
0.807969451 0.350917161 0.331941336
0.846426070 0.364832669 0.344085932
0.882226527 0.380012870 0.352308959
0.909930468 0.395065993 0.364832491
0.077292867 0.226059616 0.188993871
0.083111867 0.220620126 0.186211258
0.089563645 0.229727969 0.184946090
0.096141711 0.228462756 0.185452163
0.104870096 0.229348421 0.188868001
0.127640799 0.237444818 0.193928003
0.142821193 0.240480542 0.193928003
0.162302434 0.242504701 0.197217003
0.184566975 0.245540828 0.201517969
0.205819368 0.248577222 0.205439746
0.227071747 0.251612872 0.208601862
0.250348121 0.258697003 0.211638004
0.270714849 0.262618512 0.212776631
0.295002908 0.265401870 0.215812951
0.320050687 0.266160876 0.218848586
0.348007649 0.277039856 0.224288613
0.379380196 0.281593919 0.230360731
0.409740388 0.286274850 0.237065151
0.443895996 0.292346865 0.245414063
0.474762738 0.298418880 0.245920122
0.510942400 0.304490864 0.256546468
0.546363115 0.309550732 0.261606604
0.581783712 0.317646980 0.268943518
0.618722558 0.323465943 0.277545929
0.652118742 0.331056148 0.282858968
0.687666059 0.339784741 0.293737978
0.728653133 0.347880870 0.305376202
0.771157861 0.360024869 0.320556402
0.811005771 0.374825686 0.333079845
0.849461973 0.383680969 0.351802409
0.889816284 0.396331310 0.365970969
0.927260995 0.413535744 0.382162988
0.094496988 0.255407989 0.206198245
0.102593243 0.257431984 0.205186367
0.110816017 0.251992494 0.204174474
0.121189244 0.259835243 0.202403247
0.127261043 0.258317322 0.204680532
0.143327117 0.265781432 0.209108248
0.160025567 0.267805427 0.214168251
0.176850244 0.270841032 0.210879251
0.196963996 0.273118258 0.213915259
0.216951236 0.274889469 0.215686485
0.238203600 0.281973630 0.218722135
0.263504505 0.285009265 0.221758246
0.287033886 0.291081250 0.222896889
0.311954528 0.295509011 0.226186246
0.334472060 0.300822228 0.230993092
0.359139770 0.304364502 0.240480602
0.387982368 0.310436517 0.245035186
0.420872778 0.312966645 0.249336243
0.454269260 0.317646980 0.254269540
0.484882981 0.323718995 0.261100262
0.515243292 0.331688732 0.262997985
0.550411105 0.335863262 0.272738993
0.585958481 0.340164244 0.277039766
0.624288559 0.350031257 0.286148161
0.666287482 0.356356800 0.297027260
0.695256174 0.365464807 0.304490894
0.732195020 0.372675329 0.316002518
0.773181558 0.383301497 0.329664677
0.811005771 0.394054323 0.344212502
0.846932113 0.407463461 0.356356472
0.885009229 0.416698098 0.373181581
0.925237000 0.433776259 0.390259266
0.118405923 0.285388917 0.220240280
0.125237018 0.290322274 0.221378639
0.133206770 0.292346269 0.223655641
0.143580273 0.289057285 0.222517282
0.154965281 0.294370264 0.222137734
0.163314566 0.298924863 0.223655939
0.177482963 0.301075637 0.228083640
0.195446268 0.302719921 0.230992988
0.214421362 0.305755734 0.228716075
0.233016923 0.306135267 0.229854628
0.253004134 0.313725501 0.232764035
0.277166098 0.317647010 0.234661534
0.302213997 0.320682913 0.236559272
0.329791427 0.326754928 0.239848629
0.353700370 0.334977686 0.245920628
0.380771637 0.339278817 0.252245635
0.405818999 0.340797007 0.260974199
0.436179757 0.342062145 0.263377994
0.469070286 0.345603943 0.263377994
0.499683738 0.352561265 0.271726936
0.530044258 0.358254015 0.277039737
0.562428534 0.366350263 0.282100141
0.596078634 0.366856277 0.288425118
0.634535193 0.376976281 0.297533274
0.675142229 0.384566575 0.307779998
0.714611292 0.390891939 0.319671005
0.742947698 0.400505751 0.329285473
0.781151056 0.410246700 0.341429621
0.817963243 0.421632111 0.356230438
0.852624774 0.433649600 0.373055220
0.885135829 0.447564840 0.386084646
0.921062648 0.462998271 0.401264995
0.151297033 0.324352026 0.233396992
0.153573677 0.327387631 0.235673651
0.159519032 0.332321048 0.240607053
0.167362317 0.335610032 0.243137196
0.179253995 0.335610032 0.240101486
0.185325995 0.335610032 0.237065092
0.199747354 0.338393390 0.239848316
0.216698661 0.341429353 0.241872340
0.238204077 0.344718128 0.246173128
0.259456486 0.347754508 0.255281538
0.278304994 0.353194028 0.259076834
0.300063074 0.355218023 0.259582967
0.323718697 0.356862664 0.260088950
0.345224142 0.359646022 0.260342002
0.375584871 0.365718007 0.266413987
0.408095807 0.369639277 0.267932028
0.436938405 0.371157080 0.270714998
0.462745130 0.372675180 0.276028007
0.493105978 0.378747970 0.276028007
0.523466110 0.387349725 0.284124315
0.553573489 0.392662793 0.289690256
0.585705280 0.396458000 0.294497162
0.622138023 0.402530015 0.303605497
0.658570826 0.408601999 0.312713116
0.695255995 0.414927065 0.321821302
0.729790926 0.421252102 0.332068026
0.763441086 0.428083122 0.344212115
0.796837449 0.440227896 0.356356889
0.832131565 0.454522818 0.371157825
0.867046118 0.469449759 0.389627129
0.899051189 0.485262185 0.410626471
0.929412007 0.503479004 0.425806105
0.178621382 0.357748389 0.257684976
0.172549397 0.360783994 0.251612991
0.183428049 0.363820165 0.253890157
0.191650569 0.364958644 0.256293833
0.197722971 0.362934411 0.255281836
0.209613979 0.362934411 0.252245456
0.230866611 0.367995054 0.261859417
0.241745666 0.371790111 0.260594696
0.253889740 0.375584811 0.257811815
0.277672499 0.381150872 0.264389902
0.301833987 0.381277382 0.273497522
0.320809484 0.382542402 0.271220565
0.343706459 0.385958046 0.270967573
0.369512856 0.393042386 0.275521576
0.393801630 0.393042386 0.278557986
0.424161792 0.399114400 0.282226801
0.452118784 0.401517808 0.284630209
0.478304952 0.403415382 0.288930982
0.511322021 0.412144303 0.294243962
0.541682720 0.418216377 0.299809963
0.570145547 0.423023552 0.306514561
0.600126505 0.426059693 0.311954230
0.634281993 0.429854393 0.318785876
0.670714796 0.435926378 0.327893496
0.709424198 0.444275677 0.337001681
0.742694020 0.452751458 0.346110046
0.772801638 0.461227149 0.356356800
0.808981419 0.470587850 0.368500888
0.837064743 0.480075777 0.383301795
0.871599913 0.492219955 0.400252938
0.903858185 0.505882025 0.423529387
0.929412007 0.521694958 0.453131229
0.201138794 0.391144782 0.267551988
0.204680771 0.394181013 0.275901586
0.207210779 0.390765399 0.271979809
0.219101757 0.396837562 0.271979809
0.224794596 0.398734868 0.270461738
0.232890606 0.392662585 0.267425865
0.245540634 0.404933423 0.274636596
0.264895707 0.404427767 0.281846881
0.274762601 0.405186504 0.278051972
0.295761973 0.409613788 0.280835003
0.317646801 0.412270606 0.285009712
0.341935307 0.414294869 0.286021322
0.363187760 0.415812761 0.284882784
0.389247090 0.421631783 0.290701807
0.415686578 0.421631783 0.293738216
0.442378581 0.426438779 0.294370800
0.472738594 0.432510763 0.300442785
0.498165548 0.434914380 0.305249572
0.524478018 0.440480739 0.309550792
0.557495534 0.446805775 0.318026602
0.585958540 0.452877790 0.320303619
0.615306914 0.456420124 0.326375484
0.648703277 0.459456086 0.333839208
0.682858825 0.463250756 0.340670705
0.714737535 0.471600056 0.349778295
0.751043439 0.480708420 0.360278308
0.780897915 0.490322769 0.371916801
0.813535631 0.501328170 0.387855768
0.846805573 0.505629420 0.393042594
0.877671897 0.521821797 0.417077690
0.911701143 0.534092367 0.439594984
0.939025998 0.544718623 0.468437999
0.228463188 0.424541175 0.282732397
0.237571180 0.426059395 0.290322602
0.237571165 0.425679982 0.291714400
0.246173173 0.424668312 0.295003176
0.255914092 0.434788376 0.293611377
0.264263362 0.429095626 0.291714102
0.270841181 0.434155524 0.289690137
0.286148071 0.442378372 0.293991268
0.302087396 0.437824368 0.296267986
0.320303380 0.440101087 0.296267986
0.338393241 0.443137050 0.299177855
0.360151678 0.446173459 0.304238111
0.384440184 0.446932524 0.302340388
0.408475220 0.449462205 0.306894362
0.433270037 0.451992184 0.307400405
0.459076762 0.456799567 0.312587202
0.487919360 0.461353362 0.315623194
0.517014384 0.466792971 0.323465794
0.539152205 0.469829351 0.326501966
0.571536899 0.474130183 0.330550164
0.604174912 0.480202198 0.340038180
0.632511199 0.486274183 0.342062175
0.665022016 0.489942998 0.350537390
0.694244087 0.494370669 0.356609792
0.725363731 0.500442624 0.367995083
0.755724132 0.508159339 0.375711381
0.788488150 0.517647147 0.388109058
0.818848848 0.529791176 0.405313164
0.848829746 0.537002027 0.416319013
0.879190087 0.547628343 0.426186085
0.914357781 0.565338552 0.458317339
0.946616173 0.572043002 0.485136181
0.260594547 0.457937717 0.302593440
0.273371130 0.457937717 0.308791757
0.273244530 0.458570123 0.306894332
0.273497522 0.459835321 0.307020992
0.285262078 0.465528518 0.319164991
0.297153860 0.465781540 0.320176989
0.303605199 0.467678815 0.313851833
0.313598931 0.470082253 0.309677154
0.331815541 0.473624527 0.310309559
0.350031525 0.473624527 0.310309559
0.365338415 0.476533651 0.313851833
0.384566784 0.479569793 0.319671214
0.406957716 0.480961472 0.325996548
0.430992752 0.478431135 0.326249510
0.452245086 0.484123707 0.323972136
0.475901127 0.490196139 0.328652769
0.502593338 0.493485332 0.334977984
0.531689107 0.495888531 0.340417564
0.555977225 0.498924941 0.343453199
0.587349534 0.503225744 0.345603555
0.619481206 0.507526577 0.351929039
0.650601149 0.513598740 0.363314539
0.680961132 0.519797146 0.369513065
0.706261814 0.526375771 0.376091123
0.734471917 0.532447934 0.387096822
0.765465081 0.537887514 0.397469968
0.794813156 0.543959558 0.404554129
0.824920833 0.555850565 0.419607997
0.851992369 0.565338373 0.434788227
0.879316688 0.577356160 0.450727493
0.907020628 0.591397941 0.465528160
0.946489871 0.600505531 0.501960993
0.287919015 0.491334975 0.305629104
0.303099394 0.491334975 0.323845863
0.305123210 0.493485212 0.323592961
0.305629045 0.495002985 0.319038868
0.312586546 0.495888591 0.319165051
0.321694940 0.498924971 0.331309021
0.333586067 0.499178022 0.329791367
0.344971448 0.499430984 0.327893972
0.359140009 0.501202047 0.328652859
0.377355993 0.507021010 0.331561983
0.392662883 0.509930134 0.337381005
0.411891282 0.512966275 0.341176301
0.434282303 0.514864028 0.344718665
0.458317965 0.514864028 0.347501963
0.479570299 0.517900407 0.350537568
0.503225923 0.523592949 0.350664020
0.529032230 0.525110781 0.351423025
0.555977225 0.523213029 0.352561623
0.580266058 0.523213029 0.355598003
0.607337356 0.531815410 0.364199638
0.635167718 0.536622286 0.370651484
0.661986291 0.540923297 0.379253983
0.687034011 0.547122419 0.390765488
0.717393994 0.556230068 0.399873883
0.744971275 0.562808096 0.406451970
0.775332034 0.567488730 0.411891341
0.806957901 0.571284056 0.416698188
0.831245899 0.577356040 0.428842962
0.856040657 0.586590827 0.443896145
0.882353127 0.597469985 0.464389443
0.908791959 0.609867036 0.485009581
0.934345067 0.621758044 0.501961052
0.337508082 0.544212759 0.344844729
0.338773131 0.544212759 0.346362799
0.349651992 0.539911747 0.351676017
0.352941096 0.539785087 0.350664169
0.359013468 0.539785087 0.351043761
0.365718037 0.540417731 0.353573740
0.379886419 0.540923774 0.360657722
0.388994455 0.542568028 0.358380675
0.399620831 0.543706357 0.358760208
0.415813088 0.545730352 0.363820612
0.433902591 0.548893273 0.364200085
0.451106727 0.549905121 0.368247807
0.470461667 0.553320706 0.371284008
0.490955383 0.556609750 0.374067366
0.509677410 0.557115793 0.374573290
0.530929863 0.560152173 0.377608925
0.556356549 0.564326525 0.379506558
0.582415938 0.565085351 0.380771726
0.604554057 0.567236066 0.381657332
0.634408712 0.572802126 0.387476385
0.659835815 0.576217771 0.396584481
0.686274886 0.577356100 0.402530253
0.712587357 0.579886436 0.409234524
0.742947340 0.586337864 0.418342918
0.768753886 0.593168736 0.429728001
0.794180691 0.599240720 0.439595342
0.821884751 0.604680479 0.448830009
0.846173346 0.613029718 0.463250935
0.867805123 0.621758521 0.475395679
0.895509303 0.632637680 0.492220044
0.924731374 0.643896282 0.512713373
0.952814341 0.654143095 0.529791057
0.379633456 0.579885960 0.368374467
0.379633456 0.577988744 0.374066740
0.380392432 0.577482760 0.377861708
0.390765190 0.577735901 0.379126877
0.397723168 0.578874350 0.381404161
0.402276993 0.575837970 0.379885972
0.410247058 0.575837970 0.386843711
0.427071720 0.579127371 0.387982428
0.435673714 0.581657171 0.386464119
0.449715465 0.581657171 0.391397953
0.465907693 0.580771625 0.391650975
0.486021459 0.587476492 0.395572484
0.501960456 0.585199475 0.395192713
0.519165039 0.588235438 0.396205008
0.540670455 0.591524482 0.399493992
0.555597544 0.592030525 0.398102671
0.578368127 0.596584678 0.404174268
0.604680479 0.599367440 0.407336980
0.627197742 0.601138711 0.407336980
0.649209440 0.606957734 0.411005735
0.677672446 0.611132443 0.420872718
0.702973127 0.611132443 0.427957118
0.730170965 0.611385465 0.431372464
0.756989002 0.617457449 0.442251623
0.784693241 0.621631742 0.449841738
