Assets/Shaders/EldamarStudio/100 Sci-Fi LUTs Pack/LUTs/cube/Leah LUT.cube
LUT_3D_SIZE 5
DOMAIN_MIN 0.000000 0.000000 0.000000
DOMAIN_MAX 0.903226 0.903226 0.903226
0.000000000 0.000000000 0.078431003
0.085388690 0.013409289 0.089563996
0.250474393 0.068690568 0.133332998
0.475901127 0.144212127 0.200126261
0.777102768 0.221125811 0.285262793
0.021631991 0.138013989 0.138646409
0.127893686 0.155977100 0.153953284
0.293358684 0.194560692 0.185704991
0.516761661 0.240354106 0.232763991
0.803162396 0.307400554 0.309677690
0.178621382 0.357748389 0.257684976
0.241745666 0.371790111 0.260594696
0.393801630 0.393042386 0.278557986
0.600126505 0.426059693 0.311954230
0.837064743 0.480075777 0.383301795
0.417078108 0.605186343 0.386591017
0.452372104 0.609487355 0.413282841
0.568753958 0.621632159 0.424541235
0.715117097 0.642505109 0.452245116
0.889563620 0.679822922 0.526248932
0.714357734 0.829221785 0.638456762
0.730170667 0.833396554 0.642378449
0.774193764 0.840354204 0.652751625
0.850600839 0.850727618 0.673118591
0.927007794 0.873624623 0.712966442
0.002277292 0.007843000 0.130423695
0.072991692 0.022264414 0.158886999
0.257685393 0.096521117 0.202403277
0.482353121 0.168374121 0.258949995
0.778367639 0.234155655 0.330296814
0.040607408 0.146489412 0.189626977
0.132447690 0.167109683 0.206957698
0.291714400 0.201771110 0.233776107
0.511828125 0.250095129 0.280455410
0.792662621 0.313345790 0.348639816
0.189373687 0.355724394 0.297153711
0.243010700 0.367868513 0.300821960
0.394434184 0.392409801 0.316129118
0.603035808 0.423782408 0.352434963
0.838077068 0.482732624 0.418975085
0.422643811 0.599747241 0.424162120
0.462618798 0.611764908 0.431372553
0.568753958 0.618342698 0.450980514
0.719671130 0.635294020 0.475142121
0.880708575 0.680834830 0.543326914
0.720050752 0.826186061 0.644655526
0.733080208 0.827577472 0.646932602
0.776217222 0.836306214 0.665148318
0.848324120 0.848703623 0.684756339
0.935610235 0.865780950 0.712966621
0.000000000 0.034028992 0.251106977
0.080835111 0.056925990 0.263503969
0.253131241 0.107273988 0.304743797
0.486401111 0.166097417 0.352308542
0.779000223 0.230993211 0.419228405
0.069070533 0.172675401 0.288424969
0.139658257 0.179506704 0.299177676
0.293991089 0.206325114 0.330170810
0.517394125 0.251106977 0.376344085
0.795952022 0.306388527 0.435294062
0.217836395 0.355091393 0.364199400
0.268817365 0.368880391 0.382542372
0.402909815 0.397596806 0.400252789
0.605312943 0.428083658 0.433270127
0.842378616 0.477419615 0.491840780
0.444276065 0.594433844 0.496774107
0.484503537 0.601011872 0.509171546
0.573940337 0.615686119 0.517267227
0.716002285 0.636938632 0.537887096
0.882100046 0.679190099 0.595825255
0.716761589 0.821252584 0.668310940
0.727134347 0.830486953 0.680455506
0.772928596 0.834408641 0.693231821
0.847691238 0.845540762 0.710942626
0.932447553 0.867045760 0.744971156
0.000000000 0.090322994 0.403289109
0.113851830 0.108918123 0.413409233
0.290828675 0.134724572 0.447438419
0.505376339 0.174572989 0.487666130
0.780391872 0.233270094 0.548134208
0.095762283 0.202403262 0.438836247
0.170777977 0.211890981 0.441872120
0.327767253 0.226944983 0.467678666
0.539658725 0.251739591 0.505882084
0.801264763 0.313978523 0.564452827
0.254395992 0.384819508 0.493485540
0.309677511 0.392409831 0.505502820
0.427450925 0.407084286 0.525490522
0.617457271 0.426692098 0.553573549
0.834788084 0.474130392 0.599999726
0.474889249 0.597343087 0.586590946
0.518026292 0.597090721 0.593421698
0.596204758 0.613030136 0.607843161
0.722960055 0.634661317 0.640481114
0.890955091 0.668311238 0.667172790
0.729285002 0.819987476 0.745857120
0.740796745 0.821378767 0.741429269
0.776849985 0.834408641 0.751423180
0.840480506 0.848829746 0.766476572
0.927134633 0.872738838 0.794054389
0.085262790 0.155723974 0.654142737
0.205186501 0.156989142 0.660973847
0.382795364 0.175964400 0.677545786
0.607336938 0.182795852 0.701707602
0.832004726 0.244655117 0.728652716
0.148260519 0.245540857 0.664895713
0.240227640 0.248829693 0.674003720
0.407842904 0.259329677 0.688424885
0.617457032 0.269829363 0.713598728
0.838456810 0.318911910 0.733206809
0.279190570 0.420493394 0.689943194
0.337507814 0.424415231 0.696268320
0.475522012 0.432890803 0.708286226
0.660594702 0.438835949 0.732826948
0.865275204 0.467552394 0.753446877
0.534345448 0.640227795 0.735736787
0.557115912 0.640860260 0.745224357
0.623908758 0.639848530 0.748387098
0.731688976 0.643137276 0.767362475
0.892346442 0.672991753 0.796457767
0.742820978 0.824035585 0.818722546
0.758127630 0.829854548 0.823782325
0.789247215 0.834408641 0.825933039
0.852878153 0.845793784 0.845540822
0.938899696 0.878937542 0.876280844
