Assets/Shaders/EldamarStudio/100 Sci-Fi LUTs Pack/LUTs/cube/Leofburh LUT.cube
LUT_3D_SIZE 5
DOMAIN_MIN 0.000000 0.000000 0.000000
DOMAIN_MAX 0.903226 0.903226 0.903226
0.050980002 0.086274996 0.082353003
0.122959986 0.089184299 0.091840707
0.281847388 0.086274996 0.083618008
0.519038379 0.102972873 0.085389130
0.870082378 0.087539844 0.099304169
0.029728293 0.162808403 0.088551708
0.131435990 0.163440987 0.095129706
0.281214803 0.176850125 0.091208287
0.523972273 0.208601832 0.098039001
0.865401447 0.231751859 0.094750166
0.026185993 0.308032393 0.096773997
0.139025688 0.316888094 0.098672003
0.288425386 0.319797397 0.101328418
0.539784670 0.368247658 0.092094004
0.886906743 0.427703977 0.060721427
0.024794120 0.577988386 0.048576754
0.204806820 0.585072517 0.034914754
0.405692816 0.590639234 0.023909174
0.629095376 0.599494100 0.008728874
0.921568573 0.650727272 0.000000000
0.261985749 0.898544908 0.000000000
0.360278308 0.900569201 0.009614108
0.542315185 0.901201606 0.031119360
0.755091786 0.903858542 0.051865820
0.957241774 0.902466595 0.084883012
0.024794588 0.100316294 0.154332399
0.119038403 0.090195999 0.154964983
0.261606395 0.105249994 0.166729987
0.481087714 0.112713128 0.191777438
0.850727439 0.027451340 0.201011702
0.054269418 0.153953284 0.145477697
0.121947698 0.161163688 0.161796272
0.253763378 0.180139109 0.170018986
0.482479364 0.200379699 0.183048576
0.854395747 0.206577823 0.196837395
0.041745592 0.295888662 0.178494409
0.139278978 0.305123091 0.169006705
0.274383545 0.308032393 0.177861989
0.525363684 0.358127683 0.183428273
0.878810883 0.416318685 0.186084688
0.012144133 0.569386542 0.159772277
0.181024686 0.573434412 0.157621831
0.391650915 0.577355981 0.159519568
0.614673972 0.586463988 0.153573573
0.917267263 0.641872406 0.170018822
0.274003565 0.895635664 0.188361645
0.358760178 0.894623578 0.180139020
0.543327093 0.895003080 0.191271603
0.759013236 0.897533059 0.202909306
0.967235565 0.900822461 0.229728043
0.013788572 0.094750419 0.298165828
0.138646409 0.097406581 0.291587412
0.273370981 0.115749411 0.285768390
0.493990839 0.112713285 0.319164991
0.849082708 0.000000000 0.367488801
0.057179291 0.181783825 0.282859087
0.141935408 0.180771708 0.278557986
0.266160429 0.182415992 0.280202687
0.489057511 0.191524416 0.313345850
0.851992309 0.154585704 0.356736243
0.053510174 0.306767374 0.281214803
0.144845113 0.305755675 0.278557986
0.313346207 0.327640355 0.300189435
0.533206701 0.346616387 0.314864099
0.878557861 0.393169045 0.356609374
0.001897590 0.558633685 0.311827987
0.141302839 0.563567519 0.317773819
0.377862364 0.569765866 0.317141414
0.619607687 0.580265701 0.325363517
0.918658853 0.639342129 0.359771967
0.320429981 0.885515451 0.387349635
0.390891552 0.887792528 0.381277502
0.560025454 0.883491158 0.384060353
0.760278344 0.893991172 0.398861498
0.961163819 0.901201546 0.412903190
0.120809123 0.104996867 0.522074282
0.226059526 0.109424293 0.523213267
0.398102105 0.101581290 0.512207270
0.587855339 0.065274887 0.500442982
0.880581677 0.000000000 0.547121942
0.082100131 0.208222270 0.506894410
0.205819115 0.208475560 0.503226101
0.383048505 0.201391563 0.498798132
0.581403971 0.186590865 0.492978930
0.882605731 0.158001274 0.541555762
0.001897590 0.369259536 0.492219955
0.172422543 0.367235690 0.493990809
0.376217812 0.364326388 0.493611366
0.591777503 0.359772235 0.493864655
0.899683714 0.399114192 0.547248483
0.010879126 0.574067116 0.492473274
0.197343543 0.577229381 0.497407109
0.419354647 0.588994503 0.511448383
0.673118293 0.622011244 0.534725130
0.921695054 0.658317566 0.571031094
0.421505272 0.883870900 0.593674958
0.480581939 0.884882569 0.599240780
0.616318583 0.882226646 0.602909327
0.781024754 0.885515451 0.609234631
0.954332590 0.897280335 0.621125937
0.193547994 0.150410995 0.833269596
0.300822407 0.147880971 0.831625342
0.500948787 0.129664794 0.832004726
0.725616813 0.082858607 0.823908746
0.952181697 0.041113589 0.822896600
0.175964653 0.258064538 0.827197850
0.293991089 0.254522532 0.831119418
0.494117528 0.248323917 0.826818407
0.720809460 0.239595205 0.826438785
0.949651718 0.235041112 0.818089664
0.205312997 0.466540158 0.821631551
0.318279594 0.461227208 0.825173736
0.512966573 0.463250756 0.818975389
0.730296910 0.464262903 0.820999146
0.954206049 0.470588148 0.820366561
0.339531988 0.684503615 0.821758211
0.416445017 0.687160194 0.825679958
0.575838029 0.690702260 0.820619762
0.761669934 0.688804626 0.817330837
0.946615756 0.695382774 0.822011232
0.479316384 0.891966760 0.841113627
0.524604440 0.893990934 0.836685598
0.645667195 0.895382345 0.835420847
0.802403629 0.897279739 0.846426606
0.955850840 0.909044743 0.855660558
