Assets/Shaders/EldamarStudio/100 Sci-Fi LUTs Pack/LUTs/cube/Leofburh LUT.cube
LUT_3D_SIZE 8
DOMAIN_MIN 0.000000 0.000000 0.000000
DOMAIN_MAX 0.903226 0.903226 0.903226
0.050980002 0.086274996 0.082353003
0.072485544 0.086654447 0.083112001
0.144971102 0.082353003 0.093358904
0.239342630 0.080708288 0.090195999
0.340670377 0.085388996 0.087792799
0.479569733 0.099936739 0.088425264
0.656040549 0.105881996 0.098039001
0.870082378 0.087539844 0.099304169
0.048703004 0.111701541 0.096141458
0.072485551 0.115243092 0.082732551
0.152814895 0.122707449 0.089437097
0.236179724 0.124225348 0.091840811
0.340670377 0.133206889 0.083997712
0.474130005 0.148893192 0.093738452
0.659455955 0.155977100 0.098039001
0.866919637 0.155977100 0.100948691
0.028210096 0.181024998 0.087033898
0.084629998 0.180645451 0.084250547
0.148134008 0.178621188 0.098925002
0.225173727 0.192789197 0.087413348
0.330423564 0.202909291 0.095635802
0.478684098 0.222770348 0.097280100
0.665401697 0.245920196 0.094876707
0.866160631 0.258570194 0.094750084
0.025174001 0.261732996 0.095761999
0.070841543 0.262492090 0.093232095
0.153194457 0.261226922 0.099556997
0.233775929 0.265148640 0.100822359
0.341808736 0.284376979 0.101581454
0.485388964 0.310056895 0.096141741
0.674636543 0.342567921 0.082353003
0.876913369 0.369639277 0.071853168
0.006957998 0.369639188 0.094117999
0.082605734 0.375964373 0.104490809
0.169892192 0.376723468 0.098039001
0.257558465 0.381404191 0.101581454
0.360025167 0.381404191 0.095635809
0.511954486 0.416951120 0.091208011
0.701328337 0.458950371 0.060088526
0.899051309 0.485894799 0.048830006
0.011637996 0.530423701 0.068817265
0.107147284 0.536875010 0.066034272
0.217963532 0.541303098 0.062491920
0.326755017 0.546110213 0.057558279
0.447691560 0.547121942 0.046552889
0.573434174 0.551929474 0.032005019
0.739531755 0.582922220 0.007716556
0.914231479 0.619101763 0.000000000
0.113598973 0.724351823 0.000000000
0.181024373 0.723972261 0.000379548
0.283871084 0.723592520 0.003922000
0.405439556 0.728273273 0.002276998
0.526881576 0.732194841 0.000000000
0.658064306 0.729917526 0.000379548
0.789373517 0.737760544 0.000000000
0.935610175 0.749905109 0.000000000
0.261985749 0.898544908 0.000000000
0.309171468 0.902340531 0.012144260
0.381024748 0.898038805 0.011385071
0.484883070 0.901327968 0.022011437
0.599114120 0.902466595 0.031372618
0.722960353 0.904364347 0.046299573
0.844149053 0.903352201 0.071346894
0.957241774 0.902466595 0.084883012
0.049841553 0.087413445 0.107779540
0.069323540 0.086654447 0.103858545
0.153194442 0.090195999 0.112080991
0.220872998 0.100315996 0.119924091
0.312839806 0.107020542 0.125743449
0.454396099 0.112080805 0.132068545
0.636432528 0.104870453 0.143832549
0.853383839 0.077672482 0.143832549
0.043895997 0.108159088 0.108538538
0.072485544 0.111701541 0.115622543
0.137128189 0.120303541 0.116002090
0.211512089 0.128905639 0.123845898
0.310436606 0.144212201 0.131309539
0.450094461 0.150410995 0.134345546
0.636685550 0.154838547 0.142947555
0.843263566 0.145097718 0.142314553
0.053763550 0.169260010 0.120683089
0.080328643 0.170398563 0.110056639
0.131182641 0.173560649 0.116761088
0.211512089 0.185325652 0.127387539
0.315116704 0.198987901 0.128526092
0.454775363 0.218216345 0.137128100
0.650221586 0.237318099 0.139025554
0.858949661 0.250601083 0.143706530
0.039595451 0.249462634 0.123719089
0.086274803 0.254649103 0.131688997
0.144465551 0.250601053 0.129285082
0.219607621 0.254522294 0.130929992
0.331309289 0.278811008 0.135610089
0.468437791 0.303858191 0.136116445
0.664136529 0.333586305 0.132447705
0.865907490 0.360151559 0.123339728
0.017077653 0.365338653 0.139532000
0.073624097 0.366856545 0.128653005
0.162428647 0.366856635 0.135610089
0.255660832 0.372422516 0.142821014
0.353953183 0.373561174 0.132447898
0.498418570 0.407969475 0.127514347
0.693485022 0.452119112 0.114231549
0.891207576 0.481973529 0.116761379
0.005819256 0.525237441 0.118658811
0.093358539 0.524857938 0.118153267
0.203921542 0.526755214 0.109803997
0.315622926 0.531182826 0.112333812
0.437444478 0.537760675 0.104490906
0.560404539 0.542567730 0.097407006
0.735483825 0.577103436 0.087412916
0.914357781 0.614421248 0.089690052
0.086780526 0.713219285 0.038583081
0.162428662 0.714863539 0.044908080
0.265528113 0.716887832 0.036053073
0.394433856 0.719291806 0.034408461
0.518026650 0.720430195 0.023023620
0.652245522 0.722960114 0.019987529
0.780392289 0.726122558 0.016318653
0.927514315 0.739531815 0.046046592
0.264136434 0.895509183 0.076407596
0.300315827 0.893738210 0.080202401
0.371410728 0.892346323 0.078557774
0.475521803 0.895382583 0.083997577
0.591777384 0.897279739 0.093105324
0.719418049 0.898924470 0.109930389
0.848703086 0.900822163 0.133839235
0.965211630 0.900189340 0.142061964
0.014927097 0.098039001 0.176344097
0.068564542 0.094117999 0.176723540
0.142568097 0.090955094 0.172422096
0.218975544 0.100315996 0.172801644
0.313346088 0.112839997 0.188108906
0.441872209 0.119038358 0.203921631
0.619860530 0.083491623 0.206704572
0.847691238 0.009487775 0.215180367
0.050980002 0.129791453 0.166603550
0.084630094 0.123466447 0.161796555
0.133966088 0.124225445 0.166983098
0.209614441 0.138772994 0.178368449
0.313346207 0.145477459 0.185325637
0.434914708 0.150537997 0.194307283
0.622643948 0.139025807 0.210752800
0.844781518 0.109550744 0.216445342
0.057305809 0.166097090 0.164453000
0.091334544 0.172042653 0.168121547
0.138646096 0.177862093 0.173940092
0.209108084 0.188109100 0.177482545
0.306894183 0.203036010 0.187982202
0.448576450 0.213535845 0.196204841
0.636179745 0.225679800 0.204427481
0.858190596 0.229601189 0.220873088
0.058064900 0.251106650 0.175964534
0.093738444 0.251106650 0.180266008
0.146489099 0.255028635 0.184187099
0.215686545 0.254648983 0.184187099
0.323845714 0.271347523 0.188868091
0.462112725 0.297153741 0.197849452
0.655787528 0.324984163 0.199746802
0.867805302 0.347375005 0.209993809
0.024541715 0.361923099 0.194307193
0.081087738 0.360657692 0.185579076
0.165970996 0.361037254 0.193548098
0.250474274 0.361796379 0.190765455
0.345224559 0.368880272 0.188994080
0.492725998 0.402909726 0.194307104
0.688045740 0.439215660 0.192030102
0.886906922 0.476660341 0.202150196
0.000000000 0.525110722 0.188614741
0.071853280 0.523845613 0.197343275
0.197976187 0.521315455 0.183175266
0.309171259 0.528779209 0.188108996
0.434535205 0.532321215 0.186717197
0.559266210 0.536622167 0.179886356
0.728779495 0.575079203 0.180391923
0.914231181 0.607716560 0.201644450
0.044275738 0.714104652 0.165212095
0.147754535 0.712713540 0.166350439
0.261353552 0.717394233 0.169386104
0.390132934 0.720177054 0.172548816
0.516635180 0.721315444 0.170018911
0.648197651 0.722833633 0.172675446
0.783048809 0.726122558 0.167742014
0.929917574 0.744212568 0.190006062
0.280581564 0.898418546 0.216192037
0.320303291 0.896774232 0.219227985
0.391397864 0.894623578 0.218089640
0.491461426 0.893485069 0.221379071
0.604300916 0.898545086 0.224667788
0.727387607 0.894497156 0.230233908
0.848450541 0.898165464 0.241998807
0.967994750 0.899557173 0.258823574
0.001138644 0.095256351 0.253383636
0.077925444 0.086274996 0.256546527
0.156736091 0.098418549 0.249462634
0.219228297 0.103099354 0.240480989
0.313978195 0.116381831 0.254649103
0.442884356 0.113978520 0.273624539
0.629222155 0.066919789 0.295508921
0.846426189 0.000000000 0.317646831
0.052245356 0.126122892 0.239722088
0.080961540 0.137634546 0.238077268
0.146868736 0.135610089 0.236938626
0.214547977 0.137507543 0.234661624
0.307780206 0.148893103 0.249968290
0.440733582 0.149399355 0.267046273
0.624794364 0.121568464 0.292599648
0.836938679 0.037571382 0.312333822
0.054522451 0.185705200 0.241239980
0.086021185 0.191144988 0.231752172
0.151549637 0.189627096 0.239722088
0.208981380 0.189627007 0.230993271
0.309171289 0.202909276 0.254649103
0.438203543 0.211132362 0.268943727
0.632257819 0.205819175 0.283870935
0.847565114 0.191018373 0.309044927
0.063883647 0.245540649 0.238203987
0.093738355 0.246679276 0.236559272
0.164199650 0.258444279 0.242125273
0.237191275 0.270208985 0.248323992
0.323972285 0.283618003 0.253763199
0.463124454 0.294497371 0.265022099
0.648324192 0.310056984 0.280328989
0.861479998 0.328905463 0.303099453
0.028842459 0.357874572 0.261353463
0.083111905 0.356989294 0.258570164
0.170398459 0.359772027 0.259708732
0.248830274 0.367236197 0.259962082
0.347501576 0.366856545 0.258064657
0.497786254 0.396078557 0.272612363
0.687539339 0.433523118 0.285262287
0.881087720 0.467425555 0.302087486
0.003415642 0.511574805 0.277672648
0.030360553 0.509550571 0.267298937
0.179633006 0.516255617 0.267931879
0.302466631 0.522201359 0.273118645
0.426438630 0.525237262 0.272739083
0.554079473 0.529158592 0.275521725
0.732321143 0.567236006 0.279570103
0.912839711 0.605313361 0.305755824
0.010246927 0.707020819 0.271853268
0.105755821 0.704617441 0.281846970
0.244528562 0.703858316 0.276786804
0.375838190 0.709297538 0.277545899
0.508665442 0.712080896 0.280455261
0.645034850 0.713092864 0.278304726
0.781024516 0.721568882 0.283744365
0.925110400 0.738266945 0.302087247
0.304237872 0.892220140 0.323465914
0.335610390 0.886653781 0.324984103
0.401771009 0.890828431 0.332827091
0.500063062 0.890701950 0.331309289
0.608854830 0.889689803 0.335989892
0.733586311 0.893990874 0.348387182
0.849715412 0.895256221 0.353700280
0.964073300 0.902593434 0.367615223
0.036558993 0.099557191 0.359646201
0.097153999 0.100695543 0.359646201
0.173814192 0.105881996 0.350917190
0.261100620 0.109803997 0.341935545
0.343706369 0.116128810 0.340038180
0.455155104 0.114231460 0.347374737
0.639468551 0.054901734 0.380645275
0.860721231 0.000000000 0.413156211
0.055154737 0.139784738 0.337001741
0.098671891 0.145477355 0.335989982
0.177355841 0.145856902 0.343200266
0.248576611 0.147375092 0.336495817
0.338772744 0.149399355 0.333206743
0.449335575 0.151802644 0.347121984
0.642504513 0.114358075 0.385452181
0.850727141 0.025933295 0.408475727
0.058949906 0.206072196 0.331309408
0.106261641 0.208096460 0.334598392
0.169133097 0.202909291 0.329032302
0.250600994 0.202529728 0.327007830
0.327893466 0.208476007 0.328273207
0.460721105 0.207590103 0.347754180
0.647944570 0.205439627 0.379000336
0.857811332 0.190638825 0.406325072
0.047944002 0.278937310 0.336622655
0.090828903 0.282100081 0.331056625
0.172296003 0.280834764 0.327008009
0.250474274 0.283997446 0.328525931
0.340037823 0.281973273 0.326502264
0.476913273 0.297659993 0.347628176
0.669702828 0.304996938 0.379506648
0.869829178 0.321062714 0.405186623
0.047944002 0.360278368 0.329791397
0.095635898 0.366097540 0.329411745
0.175458282 0.368880302 0.332954079
0.275142610 0.382163405 0.341555983
0.396837384 0.401012182 0.359646201
0.524351716 0.404427618 0.359646201
0.697533488 0.429854661 0.377482384
0.889689744 0.461100370 0.410373151
0.000758999 0.517140985 0.360278249
0.046300001 0.516888082 0.361037195
0.184693187 0.521821797 0.357748181
0.305629432 0.529664814 0.363061637
0.437064916 0.533965647 0.365844399
0.567995012 0.535862982 0.365464926
0.744465530 0.568880022 0.387981921
0.916634977 0.605313361 0.414927363
0.055660825 0.705629408 0.379253566
0.139658540 0.705629230 0.389120460
0.253130823 0.704743862 0.387602657
0.379000902 0.705123127 0.383048683
0.512713313 0.710436463 0.386970282
0.645414054 0.711575031 0.384819716
0.781530619 0.716635168 0.390638471
0.927387595 0.741808653 0.422138095
0.353573561 0.888045371 0.453636825
0.379000604 0.885515094 0.439469010
0.435040951 0.887918890 0.447438002
0.527261198 0.886274219 0.451612622
0.633902609 0.889184177 0.455787361
0.736622095 0.893358767 0.458697140
0.858064413 0.891334534 0.466540188
0.964705765 0.896268368 0.477545768
0.099557243 0.103984743 0.485641986
0.151043475 0.107779734 0.485515475
0.231119737 0.110942356 0.483238220
0.324731290 0.105881996 0.472485840
0.421758652 0.104111262 0.470588475
0.528146446 0.088551268 0.464010209
0.660215020 0.038456734 0.477292746
0.872991681 0.001265167 0.519038737
0.097280435 0.149778813 0.470841169
0.146362990 0.151297003 0.479442984
0.222517744 0.152055815 0.470461667
0.318026721 0.148134097 0.467678815
0.413535714 0.141935289 0.464389563
0.520050943 0.136242554 0.456040710
0.659203291 0.107147537 0.473750561
0.867552102 0.015686296 0.506767988
0.065401733 0.226691827 0.465401828
0.124984078 0.222517282 0.457684755
0.213409454 0.225173831 0.460974365
0.307906419 0.218595996 0.455281615
0.414041579 0.216319010 0.455028385
0.518912435 0.212397203 0.449462384
0.672232568 0.203921810 0.471726716
0.882352650 0.189373985 0.515496492
0.017331002 0.310815990 0.452751309
0.099177547 0.308918536 0.455661148
0.191271350 0.305376291 0.450094461
0.298798263 0.306135386 0.451359808
0.407210737 0.306261867 0.455281734
0.520683229 0.300316632 0.449335575
0.682985485 0.301454991 0.473497570
0.877039433 0.325490087 0.509171247
0.001518192 0.411764443 0.451486647
0.079569742 0.413788915 0.453510284
0.192156732 0.414168268 0.459709167
0.301707834 0.413409173 0.459203094
0.427577108 0.414547920 0.456546366
0.551675737 0.417709917 0.461100459
0.722453713 0.433017194 0.489563465
0.901454628 0.468437910 0.520935893
0.003794996 0.524478436 0.454016447
0.082479544 0.528779030 0.456166714
0.206198826 0.531435549 0.460721105
0.324983984 0.535357356 0.467425555
0.464769363 0.551170468 0.476786464
0.616445184 0.577482641 0.495256215
0.766097248 0.586464167 0.509298027
0.916381717 0.618848622 0.536116540
0.099936366 0.701834321 0.491967171
0.179253608 0.706641138 0.493105739
0.282226413 0.705882192 0.499051303
0.408728540 0.708159268 0.497786343
0.538646340 0.714231312 0.507653236
0.662112713 0.717393994 0.509677470
0.786084533 0.720683277 0.514611006
0.931309283 0.749778688 0.545477688
0.412144035 0.885894716 0.567868292
0.434029132 0.883617938 0.561922789
0.486906886 0.879569650 0.564832330
0.571283996 0.885009527 0.572801948
0.646426558 0.886274099 0.570145607
0.749905050 0.885515451 0.578621268
0.858949780 0.891334534 0.582921803
0.955597878 0.901075184 0.587982476
0.162048995 0.122200996 0.655407548
0.207590103 0.117267452 0.646046817
0.295003057 0.111321807 0.645920277
0.395825624 0.099177644 0.640860200
0.513472676 0.077166624 0.641113460
0.621631563 0.026565535 0.632384539
0.760278225 0.000000000 0.632511139
0.892093420 0.000000000 0.635167539
0.144338816 0.166856095 0.644528806
0.200126737 0.161163852 0.635800600
0.284250379 0.158886552 0.639974952
0.393927991 0.149272740 0.634535074
0.503605127 0.136116460 0.632131279
0.630360663 0.110689297 0.629980803
0.754838526 0.061606526 0.629348755
0.888804615 0.011258936 0.630992889
0.113472380 0.240607291 0.634155452
0.179759741 0.236179829 0.634282231
0.269323111 0.238077193 0.636559248
0.382415891 0.230993286 0.631372511
0.504996419 0.229601383 0.631878555
0.626818299 0.213409364 0.627577186
0.754459083 0.198102474 0.626185775
0.892725766 0.193295375 0.632511020
0.031119626 0.343073994 0.621252179
0.129917800 0.339278907 0.625426590
0.244149178 0.338519812 0.621505499
0.371283919 0.339152247 0.625173926
0.498291999 0.334218562 0.623149872
0.623149753 0.327640742 0.618849039
0.748007476 0.322454274 0.620113850
0.899304032 0.331688821 0.629981101
0.031878550 0.461859643 0.621505260
0.127008080 0.466034263 0.623276532
0.247944266 0.463504374 0.623908639
0.368753910 0.459202915 0.619607866
0.497659743 0.455661386 0.623023450
0.628969014 0.454902261 0.626438737
0.761922538 0.450094640 0.617836833
0.906894386 0.478684187 0.633649349
0.104996830 0.590891719 0.627956510
0.175078809 0.594307244 0.627577066
0.278684288 0.592409968 0.621378899
0.400885403 0.593168736 0.625553370
0.531815171 0.594686866 0.624035418
0.654016256 0.595066309 0.628210008
0.790765285 0.600252986 0.636053085
0.921062291 0.631499171 0.654269338
0.189626828 0.716508269 0.619481564
0.232764274 0.720050693 0.617710114
0.322707385 0.716635108 0.625806391
0.438077271 0.715876222 0.625173867
0.557242513 0.721441984 0.627956569
0.692093730 0.730550289 0.639089584
0.820746541 0.746616304 0.657684863
0.936116338 0.765338480 0.690448940
0.435420394 0.879063606 0.687159598
0.453637123 0.886147916 0.677798629
0.506514847 0.879696608 0.685515225
0.585705042 0.882605910 0.689310372
0.674256921 0.885135889 0.694497108
0.771410227 0.885894835 0.706767619
0.860973954 0.889436781 0.712966204
0.961416900 0.888171732 0.723086536
0.193547994 0.150410995 0.833269596
0.243769705 0.148260519 0.834534764
0.326375842 0.147374898 0.830107450
0.439089298 0.135104150 0.829601228
0.562807977 0.117773436 0.830739558
0.691461384 0.093484953 0.824414611
0.815053701 0.057684824 0.826185703
0.952181697 0.041113589 0.822896600
0.189879522 0.194686964 0.833649814
0.235547155 0.196964249 0.826691747
0.320430100 0.190385610 0.826818466
0.437950462 0.183048651 0.825932741
0.561163962 0.174699798 0.824414790
0.687792420 0.156862631 0.822137713
0.816571951 0.138899446 0.817710400
0.947880864 0.122706831 0.815053582
0.170904711 0.280076057 0.827450812
0.218342975 0.287666202 0.824541330
0.317520350 0.277545929 0.830107331
0.431878537 0.274256825 0.822770357
0.558760107 0.273750544 0.823655725
0.689943135 0.266666651 0.821631730
0.821252108 0.263756961 0.824541330
0.952687979 0.268184751 0.817077816
0.177482396 0.397216678 0.819228172
0.230360329 0.397216797 0.824668050
0.326375782 0.395572096 0.824794412
0.437444627 0.395825446 0.820113957
0.562049389 0.394180715 0.819481254
0.690702260 0.392915845 0.816951275
0.819607973 0.394180715 0.814547658
0.949651718 0.392915845 0.814927042
0.234534904 0.527767360 0.815559745
0.285388678 0.526376009 0.825553417
0.364073306 0.527514279 0.818848729
0.465781063 0.529032111 0.819481015
0.581910133 0.527893782 0.814800918
0.704617381 0.528399765 0.819101691
0.826944649 0.527008176 0.818469167
0.946995616 0.526628613 0.814041793
0.317267478 0.655155003 0.826312304
0.350790620 0.658823252 0.820240259
0.418722153 0.655787289 0.818342626
0.513472140 0.655028164 0.820872843
0.617836893 0.661100209 0.821505129
0.727008164 0.660468161 0.816571534
0.843137383 0.662365377 0.822896600
0.946109831 0.662998021 0.823529482
0.382921934 0.771031082 0.822137654
0.424667746 0.773434341 0.828716099
0.474003613 0.774826050 0.827830136
0.554965019 0.777862370 0.826312184
0.651865721 0.776849866 0.824541330
0.748513818 0.781151354 0.819987118
0.843643248 0.779253483 0.821885049
0.947880924 0.783807576 0.828209579
0.479316384 0.891966760 0.841113627
0.497027248 0.892725766 0.826818585
0.538519919 0.897279739 0.837191582
0.608475208 0.893611372 0.837571084
0.689689994 0.893358767 0.835040987
0.779633343 0.893231809 0.843137205
0.867172897 0.899177611 0.850094855
0.955850840 0.909044743 0.855660558
