Assets/Shaders/EldamarStudio/100 Sci-Fi LUTs Pack/LUTs/cube/Leofburh LUT.cube
DOMAIN_MIN 0 0 0
DOMAIN_MAX 1 1 1
LUT_3D_SIZE 32
0.050980002 0.086274996 0.082353003
0.050980002 0.086274996 0.082353003
0.055281550 0.084124222 0.082353003
0.062618837 0.083618164 0.082353003
0.072485544 0.086654447 0.083112001
0.087665930 0.089690059 0.089184001
0.102846317 0.092726320 0.090195999
0.122959986 0.089184299 0.091840707
0.144971102 0.082353003 0.093358904
0.160151511 0.082352996 0.090322517
0.186969876 0.076534003 0.093105868
0.214294761 0.076533742 0.092093743
0.239342630 0.080708288 0.090195999
0.260595024 0.086274996 0.089690000
0.281847388 0.086274996 0.083618008
0.310309976 0.083871193 0.084756806
0.340670377 0.085388996 0.087792799
0.372296125 0.091460988 0.090828575
0.408728987 0.097533002 0.093864970
0.442378372 0.098039001 0.094117999
0.479569733 0.099936739 0.088425264
0.519038379 0.102972873 0.085389130
0.558887005 0.105881996 0.094244480
0.607463837 0.105881996 0.097280100
0.656040549 0.105881996 0.098039001
0.706008971 0.104490682 0.098039001
0.758128107 0.100442939 0.098545067
0.812776804 0.091334559 0.101581447
0.870082378 0.087539844 0.099304169
0.918912351 0.086274996 0.099810220
0.959645987 0.088045985 0.102846384
0.996078014 0.094117999 0.105881996
0.047944386 0.086274996 0.082353003
0.047944386 0.092346996 0.085389383
0.056546383 0.083744451 0.087539613
0.068184771 0.081846938 0.092220157
0.080455385 0.086654447 0.095635846
0.087665930 0.089690059 0.083112001
0.112966314 0.092726320 0.091714323
0.126881704 0.092473291 0.091587678
0.144212380 0.088424996 0.092599608
0.166223496 0.088424996 0.096394517
0.190132737 0.085515864 0.093358867
0.211258382 0.085642129 0.090070002
0.234408513 0.087539390 0.089437388
0.257811666 0.089310609 0.092726387
0.281847388 0.089310609 0.086654387
0.307906777 0.091714412 0.082985580
0.340670377 0.096015185 0.083238617
0.374699324 0.102972575 0.084756583
0.408729017 0.106641389 0.087792978
0.447944403 0.109930031 0.096394651
0.481846750 0.108285740 0.095256351
0.519038379 0.109044865 0.090449259
0.558887005 0.112207018 0.091208123
0.607463837 0.118026771 0.094244488
0.658317804 0.115749486 0.097280100
0.709044993 0.113598712 0.096647680
0.760151744 0.110056616 0.095003389
0.809740424 0.103478558 0.095509447
0.859076202 0.102339998 0.101201989
0.913852036 0.101454608 0.099304169
0.958760560 0.102340214 0.101581216
0.993042350 0.106261998 0.108918384
0.047059000 0.090576001 0.088804774
0.047059000 0.088045992 0.083238617
0.055660997 0.094117999 0.094877005
0.065274999 0.087033547 0.091587774
0.077798769 0.090955451 0.094117999
0.089184001 0.093991064 0.091334842
0.108665317 0.099177547 0.085642315
0.129411697 0.097280234 0.093105994
0.144086093 0.095256098 0.093864769
0.169765785 0.096647777 0.099936776
0.191903740 0.098039091 0.097280100
0.214168251 0.097027220 0.096268229
0.234788045 0.098797999 0.091587871
0.259329796 0.098797999 0.093864970
0.285515785 0.098797999 0.089690231
0.310057014 0.103352025 0.083871193
0.338899612 0.103352420 0.083871193
0.373434305 0.110562749 0.084503770
0.406831175 0.118152969 0.086021975
0.441492617 0.119038418 0.092473425
0.479063690 0.122074507 0.093991034
0.516761363 0.119544640 0.091967225
0.559139967 0.120303281 0.090575501
0.611764848 0.124351807 0.097659908
0.660468042 0.125743493 0.096394710
0.712081194 0.124098770 0.098039001
0.762681842 0.122833475 0.096774295
0.809613824 0.121694773 0.098419003
0.862492144 0.116634771 0.092979208
0.912839651 0.118405990 0.104364403
0.960910857 0.119670928 0.102719784
0.994307220 0.122706994 0.105503000
0.048323840 0.099177994 0.095382839
0.045793839 0.093106002 0.087539621
0.051865838 0.095635995 0.086780623
0.065274999 0.100442834 0.095635839
0.073244549 0.099683836 0.085389383
0.090195931 0.100063063 0.090576001
0.106641158 0.106894158 0.089057997
0.129664868 0.110183328 0.088298835
0.144845054 0.104870230 0.092093937
0.170145333 0.106894478 0.096648000
0.190385878 0.108665287 0.096521132
0.214168251 0.110942319 0.096774161
0.236559272 0.112080671 0.095635518
0.260847986 0.111954182 0.092599869
0.287160218 0.110942319 0.089563742
0.313345969 0.115749314 0.086654164
0.340670377 0.119797193 0.081340872
0.371663541 0.118658982 0.085642241
0.405059993 0.129538000 0.087539844
0.438456386 0.131815150 0.091841005
0.473750472 0.133712888 0.093485422
0.512207270 0.135737151 0.091461159
0.557748318 0.133206800 0.091587640
0.611258864 0.136242896 0.098418750
0.663883507 0.137001991 0.099683717
0.712586761 0.137001991 0.096774161
0.763693929 0.137001991 0.096774161
0.809993386 0.139278695 0.099051446
0.866034210 0.136875167 0.099051178
0.913852096 0.134851202 0.097786017
0.961922586 0.138772979 0.110309824
0.996078014 0.142188162 0.105755836
0.048703004 0.111701541 0.096141458
0.045666996 0.106388547 0.091587551
0.047058549 0.108159542 0.087033547
0.058443710 0.112207383 0.083491549
0.072485551 0.115243092 0.082732551
0.093737938 0.109171093 0.085768931
0.108918093 0.114990316 0.086654447
0.127767026 0.120430157 0.087539837
0.152814895 0.122707449 0.089437097
0.167994529 0.119671062 0.086401477
0.187223300 0.119923994 0.089184128
0.210373238 0.121568702 0.091081709
0.236179724 0.124225348 0.091840811
0.260468513 0.127261028 0.089310482
0.284756541 0.124478415 0.086527869
0.312207341 0.128273532 0.086274996
0.340670377 0.133206889 0.083997712
0.370904535 0.136495531 0.079949118
0.404300988 0.142567545 0.089057527
0.438456386 0.145856902 0.093358807
0.474130005 0.148893192 0.093738452
0.512207270 0.151676551 0.093738452
0.554965019 0.151676551 0.093991444
0.606325150 0.154459193 0.097280100
0.659455955 0.155977100 0.098039001
0.711321712 0.155977100 0.097786129
0.760657668 0.155977100 0.094497450
0.809234381 0.155977100 0.094497450
0.866919637 0.155977100 0.100948691
0.916761518 0.155597553 0.105502546
0.956230104 0.158127531 0.106514536
0.995698571 0.164199546 0.112586550
0.030487003 0.126881927 0.080961071
0.048703000 0.126881927 0.087033838
0.047817774 0.125869930 0.091081940
0.058950096 0.125616774 0.092599936
0.081593938 0.124351479 0.091840938
0.087665930 0.127387866 0.085768931
0.111448646 0.128905550 0.088804677
0.128779158 0.131309003 0.088045768
0.147501230 0.132574156 0.086780936
0.167994529 0.134851456 0.086401477
0.194813609 0.137634069 0.089184128
0.214547917 0.138139993 0.086148009
0.235420644 0.138646066 0.082732424
0.257432133 0.139405042 0.080202095
0.281720877 0.142441422 0.083238482
0.313219726 0.144465804 0.085262872
0.342568129 0.149525926 0.086274996
0.370398551 0.154459298 0.085262865
0.398229033 0.157747939 0.086021915
0.437191397 0.161037296 0.095129587
0.475648195 0.164073184 0.093738064
0.514611065 0.168121323 0.090702064
0.554965019 0.172928929 0.090955056
0.603541851 0.172928929 0.097027071
0.652624547 0.177988872 0.098039001
0.702213347 0.180265874 0.100821987
0.751802325 0.180265874 0.103352062
0.806198776 0.180265874 0.097533062
0.854775488 0.180265874 0.094876908
0.907147169 0.178494662 0.099177919
0.953193843 0.180391908 0.102466933
0.992662907 0.191523939 0.103478938
0.029981323 0.144592002 0.086021319
0.040606998 0.147122324 0.084503770
0.056672771 0.147122324 0.090576001
0.060974158 0.147122324 0.092852838
0.079190545 0.144971639 0.090828680
0.091714323 0.141556263 0.084756680
0.110436641 0.147122324 0.088804677
0.133080706 0.146868929 0.090195999
0.152308643 0.146742418 0.089563772
0.175331816 0.149778813 0.091334991
0.189752966 0.155344769 0.086654447
0.213029608 0.156356648 0.089690059
0.234028965 0.157494992 0.086274646
0.256926060 0.158633351 0.083491646
0.281214803 0.157115743 0.084250733
0.312713802 0.160151511 0.087286510
0.343074203 0.164706051 0.088804677
0.371663541 0.170778304 0.088172264
0.402783006 0.175711691 0.086275004
0.438709706 0.181277677 0.089563653
0.480075777 0.184313580 0.096773997
0.520177126 0.188361585 0.096268132
0.560024977 0.194181323 0.097533330
0.608601868 0.194181323 0.093991324
0.659455836 0.196458027 0.095509320
0.709677219 0.200885683 0.094117649
0.759898722 0.203036323 0.096268065
0.812523484 0.207084313 0.096268326
0.864389598 0.204553992 0.092852525
0.909424305 0.208095968 0.095129661
0.956103504 0.208222315 0.102087282
0.997217000 0.213788316 0.107020997
0.029728293 0.162808403 0.088551708
0.038836326 0.164200097 0.085515678
0.050600775 0.168374702 0.083997592
0.068311162 0.165844709 0.088804752
0.078557998 0.165085703 0.087286554
0.089943223 0.161543697 0.085009709
0.111828320 0.165591702 0.084124006
0.131435990 0.163440987 0.095129706
0.150411293 0.163440794 0.091334611
0.171157315 0.168248191 0.089057773
0.190385714 0.170904696 0.088298999
0.206957251 0.174572989 0.086654447
0.230486631 0.174572989 0.089690059
0.255534410 0.177102730 0.088425286
0.281214803 0.176850125 0.091208287
0.306135386 0.178620890 0.090322897
0.339532167 0.181656882 0.093358509
0.369007111 0.187602982 0.094117574
0.403415740 0.193674996 0.093105964
0.439595044 0.198102713 0.092346646
0.481467456 0.205565959 0.093990996
0.523972273 0.208601832 0.098039001
0.564452708 0.214041978 0.100189812
0.613029540 0.217077985 0.095635995
0.663883567 0.220999405 0.095762290
0.715496302 0.224035382 0.095762290
0.767109454 0.227071643 0.092473000
0.818722129 0.232004970 0.092093736
0.865401447 0.231751859 0.094750166
0.918279290 0.230739668 0.095382690
0.958127558 0.237697288 0.099683709
0.998355269 0.239974394 0.106515005
0.028210096 0.181024998 0.087033898
0.038077384 0.182542995 0.083238617
0.045540906 0.184567094 0.081720419
0.063757159 0.185578912 0.080455258
0.084629998 0.180645451 0.084250547
0.092219993 0.181024998 0.088045835
0.111195542 0.183807909 0.086021774
0.129158899 0.183934301 0.086780608
0.148134008 0.178621188 0.098925002
0.160278022 0.187729582 0.083744615
0.184060737 0.188109100 0.086021766
0.204300985 0.190891936 0.087793000
0.225173727 0.192789197 0.087413348
0.252498120 0.193042159 0.090701997
0.279823124 0.196078420 0.096773997
0.304617375 0.200632393 0.095635809
0.330423564 0.202909291 0.095635802
0.365718096 0.205945686 0.098039001
0.402404010 0.211891204 0.100948870
0.438077122 0.216698363 0.099936739
0.478684098 0.222770348 0.097280100
0.523972273 0.231372222 0.098039001
0.566603482 0.234408602 0.097912520
0.614547789 0.239848197 0.094876900
0.665401697 0.245920196 0.094876707
0.718532741 0.251359761 0.096521005
0.769133151 0.254396170 0.096521005
0.820240200 0.257431835 0.090955004
0.866160631 0.258570194 0.094750084
0.916508377 0.258570194 0.099810220
0.961922705 0.261985689 0.101961002
0.995319128 0.271094084 0.101961002
0.031246489 0.199241012 0.090069510
0.043390483 0.205313012 0.083997525
0.044655230 0.204680800 0.084503777
0.056166835 0.200759172 0.086021975
0.084629990 0.195825085 0.087286934
0.102845989 0.198861480 0.096394546
0.118026316 0.196710691 0.095129840
0.128652513 0.195698529 0.088804781
0.139025629 0.196837202 0.083744623
0.160278022 0.202909976 0.086780995
0.184060737 0.203289509 0.089057609
0.204300985 0.207337499 0.092093781
0.224794284 0.211005986 0.092726365
0.249462500 0.211258948 0.090702005
0.276786894 0.214294553 0.096773997
0.306515098 0.222137809 0.095635809
0.334978163 0.226438984 0.095635802
0.365718096 0.227198079 0.098039001
0.408222973 0.230234474 0.098039009
0.442125380 0.238962635 0.100948878
0.479443222 0.245920017 0.098039486
0.521188915 0.253130615 0.095256351
0.566603482 0.261732996 0.097912513
0.612143934 0.264769405 0.094876893
0.662365377 0.270208985 0.091840707
0.716761470 0.276280969 0.090448990
0.772169530 0.281720579 0.090448998
0.817709863 0.284756958 0.090448998
0.868816972 0.287792653 0.092852823
0.923592508 0.288931012 0.097786456
0.970525086 0.292472959 0.101960994
0.992283463 0.304490507 0.101960994
0.034282129 0.214547873 0.081467129
0.037698001 0.217709988 0.089942992
0.051992774 0.223782539 0.094623774
0.058570579 0.223023698 0.095382996
0.076280683 0.219734281 0.092473447
0.097027004 0.222770676 0.096521065
0.115243644 0.220746413 0.098039001
0.134092569 0.217710018 0.097027130
0.148766637 0.217203960 0.093990996
0.165717497 0.221125960 0.094876610
0.181150869 0.221378997 0.092093997
0.207463369 0.221378997 0.097153865
0.229474634 0.225679994 0.098798357
0.252245218 0.229222000 0.096014999
0.279570282 0.229601443 0.096773997
0.306894660 0.235040858 0.098039001
0.339784980 0.246679187 0.098545320
0.371916264 0.253636867 0.100316294
0.405313104 0.254395962 0.098039001
0.442251861 0.260215014 0.098039001
0.481467456 0.269196600 0.099051133
0.523971975 0.275268853 0.095003136
0.569639146 0.280582219 0.092093520
0.617963672 0.289183915 0.089057900
0.668058038 0.292220294 0.086021714
0.718279243 0.297659844 0.085768670
0.769892216 0.304743856 0.087286867
0.817836404 0.314990431 0.087286867
0.863377452 0.318026841 0.081973210
0.919797301 0.319291741 0.086021692
0.970651329 0.319291741 0.091208383
0.997976005 0.323339760 0.093232125
0.031246003 0.237824246 0.088551253
0.034282394 0.238836125 0.087539390
0.045920260 0.237950265 0.090575524
0.059835806 0.242757887 0.095888749
0.071220808 0.241619244 0.092852741
0.092473194 0.243010938 0.097533062
0.115243375 0.240986660 0.098039001
0.133460149 0.239594981 0.098039001
0.152814895 0.238456339 0.098798096
0.167994529 0.241492733 0.100063257
0.187222868 0.241619244 0.099177867
0.206451237 0.241619244 0.098165996
0.230360284 0.241619244 0.100822359
0.250980258 0.245667294 0.098292030
0.276533693 0.247438505 0.100063257
0.309930503 0.256293505 0.100063257
0.338773102 0.262365520 0.098545067
0.373560816 0.273497850 0.100569323
0.405312985 0.274889499 0.100316286
0.443264008 0.280455500 0.098039001
0.483491212 0.288424790 0.096141741
0.525995970 0.296521008 0.093991265
0.570650995 0.300822228 0.088045746
0.619228601 0.309930354 0.085009642
0.668058574 0.318532526 0.083997712
0.723845541 0.322960258 0.082353003
0.774446428 0.329032242 0.083238743
0.821505368 0.338140249 0.080202743
0.867425442 0.344338834 0.076913342
0.912966549 0.347375214 0.076154225
0.964452803 0.349399269 0.084630333
0.995952010 0.351676255 0.092220254
0.025174001 0.261732996 0.095761999
0.030487388 0.261732996 0.093105644
0.042125225 0.261859506 0.091334641
0.058317319 0.260214806 0.093611643
0.070841543 0.262492090 0.093232095
0.090575933 0.261732996 0.097027004
0.112080999 0.261479944 0.099177644
0.134218767 0.261226922 0.098039001
0.153194457 0.261226922 0.099556997
0.169133171 0.263883770 0.102972835
0.190132514 0.264010280 0.101961002
0.212523535 0.262871653 0.101961002
0.233775929 0.265148640 0.100822359
0.252751678 0.265148640 0.098292030
0.277925253 0.267299414 0.101328418
0.308412254 0.275268972 0.103099354
0.341808736 0.284376979 0.101581454
0.372169495 0.291714132 0.098545067
0.405060023 0.296268612 0.100569323
0.446300089 0.302087635 0.100316286
0.485388964 0.310056895 0.096141741
0.530929387 0.320176899 0.094117999
0.574319601 0.326628387 0.088299006
0.624920964 0.335736543 0.084250741
0.674636543 0.342567921 0.082353003
0.725363910 0.350284636 0.081214361
0.784060717 0.356862694 0.079696424
0.830234289 0.363567263 0.072992004
0.876913369 0.369639277 0.071853168
0.921315551 0.375078827 0.075774863
0.961543560 0.378115237 0.079696633
0.994433999 0.383934289 0.094117999
0.020113999 0.280708015 0.090701997
0.028463356 0.280961066 0.094244383
0.041872259 0.282858789 0.094117999
0.058823287 0.284630030 0.095636003
0.076660514 0.284756541 0.102593452
0.091840900 0.281720161 0.099557064
0.109803997 0.283744365 0.100063324
0.130170703 0.286274731 0.100569323
0.150917098 0.288045973 0.099556997
0.172169492 0.288045973 0.105628997
0.193421870 0.288552016 0.102972873
0.216698498 0.286780804 0.101961002
0.239595592 0.286654055 0.100822359
0.261101007 0.292473018 0.098292030
0.288425386 0.292473018 0.101328418
0.315496773 0.297027051 0.103605218
0.344845027 0.303351998 0.104111165
0.375711173 0.310183167 0.101834424
0.406072021 0.322327971 0.098798037
0.450095117 0.329412013 0.099810362
0.490195990 0.336875290 0.098166004
0.531435370 0.346995294 0.093612000
0.583048463 0.359140009 0.093612000
0.637570858 0.368374169 0.087792993
0.689436793 0.373434365 0.083491713
0.741555929 0.378115028 0.080202363
0.792410076 0.384440124 0.076660037
0.840986848 0.393548489 0.067552432
0.889310539 0.399747014 0.068564184
0.934092343 0.405566037 0.076407380
0.972675562 0.411511630 0.087286957
1.000000000 0.414548039 0.093358971
0.026185993 0.308032393 0.096773997
0.026185993 0.311068803 0.105882376
0.038836360 0.311321825 0.098671988
0.057811420 0.311954409 0.091587998
0.079696126 0.312333941 0.091461465
0.094876513 0.315117300 0.111701056
0.115116894 0.317140907 0.098545313
0.139025688 0.316888094 0.098672003
0.162049085 0.314358205 0.102087319
0.178241491 0.309297562 0.105628997
0.199493870 0.315117300 0.102972873
0.222770497 0.315876395 0.101961002
0.244781986 0.315243810 0.100822359
0.264136612 0.316761762 0.098292030
0.288425386 0.319797397 0.101328418
0.313345969 0.322201222 0.097154006
0.344338953 0.328905612 0.097533226
0.379506528 0.336748570 0.099936575
0.415180385 0.343580365 0.104870006
0.456673145 0.355724394 0.090702340
0.497912705 0.360910654 0.092600010
0.539784670 0.368247658 0.092094004
0.589120507 0.380392373 0.087540001
0.640733719 0.392536402 0.087540001
0.688424647 0.401771098 0.079443716
0.740796506 0.409614116 0.072992012
0.795192778 0.417583495 0.068058364
0.840986848 0.423909247 0.064516045
0.886906743 0.427703977 0.060721427
0.929538131 0.431372613 0.064263411
0.967868567 0.437697768 0.073371574
1.000000000 0.447944373 0.084250592
0.013030014 0.337760597 0.095635809
0.022644004 0.343200177 0.097533390
0.039848004 0.344085783 0.104491010
0.058317352 0.344085783 0.101454996
0.081087545 0.342947334 0.099177986
0.100315928 0.337887704 0.098165877
0.118153118 0.345730454 0.105882317
0.141049802 0.347121775 0.097280286
0.166856200 0.344845057 0.099557199
0.186970308 0.340417415 0.100948520
0.205565870 0.343579710 0.100569069
0.226818234 0.347628236 0.101581454
0.250727475 0.346869141 0.103099354
0.271726817 0.345603973 0.102339998
0.293864787 0.346489340 0.098924614
0.320556760 0.349525601 0.097154006
0.349398971 0.352561593 0.098671801
0.385578692 0.360530913 0.100948595
0.423782766 0.370145738 0.098165810
0.463377744 0.379379988 0.099177524
0.505882442 0.389626741 0.089690186
0.548893034 0.397722721 0.090702325
0.597343326 0.411132306 0.085895494
0.644402564 0.420999587 0.079064198
0.698292375 0.428589582 0.072232910
0.748386860 0.437571436 0.064516209
0.803035975 0.445667326 0.059456199
0.848577082 0.449841887 0.058317557
0.891713738 0.458064765 0.057685040
0.935483277 0.462871581 0.058191411
0.971157372 0.468311399 0.066287369
1.000000000 0.478937596 0.079949200
0.006957998 0.369639188 0.094117999
0.020620190 0.372675180 0.100189991
0.036812000 0.374446183 0.096900813
0.061100323 0.375711352 0.100442812
0.082605734 0.375964373 0.104490809
0.103858121 0.370272100 0.094623812
0.124098636 0.371790051 0.094623812
0.147122175 0.375964373 0.100316294
0.169892192 0.376723468 0.098039001
0.192662790 0.375205845 0.098039001
0.215686381 0.376470685 0.096521199
0.237444431 0.379506439 0.098545067
0.257558465 0.381404191 0.101581454
0.281088173 0.379000366 0.103858195
0.303605378 0.379000366 0.097786203
0.331182957 0.379886001 0.095635809
0.360025167 0.381404191 0.095635809
0.393421680 0.384439975 0.102213584
0.431119949 0.393928140 0.094876967
0.469070584 0.403288841 0.089310467
0.511954486 0.416951120 0.091208011
0.556483269 0.426059514 0.084123880
0.604933500 0.440227866 0.079949625
0.650474727 0.452118903 0.072232902
0.701328337 0.458950371 0.060088526
0.753194094 0.465022385 0.056546483
0.807084024 0.474004120 0.051866002
0.854649067 0.479063749 0.051866002
0.899051309 0.485894799 0.048830006
0.938519299 0.493232369 0.050600834
0.973940194 0.499304354 0.058064818
0.996963978 0.507780194 0.073877200
0.011764999 0.403668106 0.095382988
0.026945390 0.404300690 0.102467023
0.043390378 0.405565679 0.102719806
0.061100326 0.404933274 0.096774012
0.086148098 0.408349127 0.097533010
0.108159497 0.408855110 0.092472985
0.130044296 0.408222526 0.090195999
0.152688280 0.408855110 0.092852578
0.179000571 0.408981621 0.096774004
0.197216585 0.412018001 0.096774004
0.224162012 0.412144512 0.093864881
0.250094950 0.413535833 0.094876744
0.274003685 0.416065693 0.096647657
0.293232471 0.416065693 0.099431016
0.318279535 0.416065693 0.094118007
0.345477551 0.416065693 0.091587856
0.375205547 0.416698098 0.092473239
0.405565679 0.416698098 0.095509008
0.438962936 0.419734508 0.092473380
0.474510163 0.427071363 0.082985274
0.516002715 0.439974427 0.077798754
0.561922848 0.455787688 0.076786891
0.610752523 0.464896023 0.067552030
0.657811701 0.479063630 0.060468018
0.707906425 0.487412959 0.050094727
0.756862462 0.496015519 0.039468542
0.804933250 0.501581490 0.041492935
0.856293261 0.510436118 0.041366458
0.901960850 0.517520130 0.036685884
0.944086015 0.523592353 0.039089359
0.975205183 0.528399944 0.047185209
0.993421972 0.534471929 0.065402009
0.011764997 0.440100968 0.101454973
0.026945388 0.443137407 0.089310989
0.046426773 0.448070943 0.092093989
0.065907940 0.448576957 0.093105793
0.086148113 0.444782019 0.091460988
0.116508871 0.450854003 0.097532988
0.141049981 0.448829681 0.092472985
0.161796436 0.449335724 0.091840692
0.182289988 0.451359987 0.093611859
0.206324995 0.451486498 0.090701982
0.233269855 0.451613009 0.087792858
0.260594308 0.451613009 0.088804722
0.287665665 0.453004658 0.089563631
0.314484119 0.455534965 0.087286979
0.344844878 0.455534965 0.087286979
0.367488801 0.455534965 0.081973374
0.392536193 0.457052767 0.079443052
0.420746148 0.459203005 0.080328591
0.451106966 0.459203005 0.083364971
0.484503418 0.462239385 0.080328651
0.523845553 0.469576210 0.072738722
0.567615449 0.480455309 0.064642854
0.613788962 0.492220491 0.055407997
0.668437839 0.501328170 0.043263976
0.720050812 0.508665025 0.038456690
0.767489195 0.520303428 0.028842328
0.811006010 0.534977973 0.017204111
0.856546342 0.538013577 0.014168506
0.899936557 0.546868861 0.011385191
0.944465578 0.553952932 0.020493457
0.981277943 0.558254063 0.038330548
0.999494016 0.558760047 0.059330001
0.008981643 0.484883100 0.082479626
0.026945388 0.490702152 0.087033644
0.044275999 0.491587758 0.083491646
0.069955803 0.495129585 0.085768640
0.096141554 0.493990928 0.084629998
0.119291507 0.492852747 0.085894994
0.147121981 0.491334438 0.081846990
0.176597118 0.491587460 0.080708280
0.200506374 0.493864745 0.082985282
0.220746383 0.493864745 0.081973158
0.253510237 0.496647358 0.081720158
0.280834645 0.498671651 0.080708288
0.309297651 0.499430776 0.080708288
0.338266730 0.500316381 0.077672608
0.366097182 0.497786015 0.075142279
0.396457970 0.497786015 0.072739087
0.420366734 0.499304235 0.068564154
0.448956072 0.502340376 0.065401427
0.485768706 0.504491091 0.059835244
0.516128778 0.504491150 0.060088273
0.549525619 0.509424746 0.058949631
0.589374006 0.517646968 0.051486284
0.633270383 0.527893543 0.040354136
0.682606220 0.537001848 0.025553273
0.728146970 0.548386753 0.020240569
0.776850224 0.555471122 0.014421323
0.821632087 0.567109704 0.004553991
0.862618387 0.576976657 0.003795093
0.908159435 0.585325897 0.003415639
0.950790703 0.590891838 0.014674157
0.984693408 0.595951676 0.036559213
0.997216642 0.599746764 0.061606646
0.011637996 0.530423701 0.068817265
0.035547026 0.532700658 0.061606534
0.055660989 0.542062163 0.069070272
0.076407313 0.537001848 0.066540271
0.107147284 0.536875010 0.066034272
0.131435663 0.536875427 0.069070272
0.161543056 0.537634134 0.064010270
0.185578436 0.539531887 0.061227269
0.217963532 0.541303098 0.062491920
0.241872475 0.540164471 0.061353274
0.268943578 0.541176319 0.061353274
0.298291981 0.544212461 0.057558279
0.326755017 0.546110213 0.057558279
0.357115805 0.546110213 0.055281565
0.386084855 0.544718504 0.052245602
0.415812582 0.544085920 0.051107086
0.447691560 0.547121942 0.046552889
0.475015730 0.549272597 0.043769531
0.511954665 0.549778700 0.038456302
0.541176558 0.551929474 0.035800014
0.573434174 0.551929474 0.032005019
0.607843220 0.556989372 0.028968893
0.648450494 0.564325988 0.018216275
0.691714108 0.573434412 0.011891101
0.739531755 0.582922220 0.007716556
