Assets/Shaders/EldamarStudio/100 Sci-Fi LUTs Pack/LUTs/cube/Lexie LUT.cube
LUT_3D_SIZE 8
DOMAIN_MIN 0.000000 0.000000 0.000000
DOMAIN_MAX 0.903226 0.903226 0.903226
0.082353003 0.043136999 0.047059000
0.114484094 0.059582997 0.059582997
0.158381000 0.078431003 0.083112098
0.206830993 0.100315996 0.097533353
0.274889380 0.130044192 0.122201189
0.356482983 0.162555248 0.150917262
0.458064556 0.205186576 0.183301702
0.584819615 0.248576805 0.232890800
0.102340452 0.108159088 0.075268999
0.122707449 0.112080991 0.090575546
0.163440645 0.120303541 0.095635995
0.214294747 0.136748552 0.112839997
0.277798831 0.162555352 0.135989740
0.357242078 0.189626992 0.164958552
0.461733013 0.226059541 0.198229000
0.588614881 0.274889082 0.241113245
0.107400000 0.173940092 0.121442094
0.138014004 0.181784093 0.132574007
0.174826086 0.186464190 0.131688893
0.226439089 0.202529743 0.143453091
0.289816290 0.221758187 0.162934989
0.373560965 0.250347823 0.192409828
0.476154357 0.281973302 0.216192275
0.608601928 0.324225068 0.264769018
0.130550355 0.271853268 0.170904279
0.149272650 0.272612184 0.167994633
0.187982202 0.280834734 0.175458178
0.244908631 0.289816290 0.190006644
0.313345969 0.306261957 0.209993795
0.395951748 0.325743377 0.223655730
0.500062883 0.355471283 0.248956278
0.626438797 0.398861408 0.297659785
0.162302196 0.372042984 0.216318801
0.179506794 0.375205278 0.224921197
0.216951191 0.381404400 0.227957085
0.275775075 0.391651005 0.236558989
0.343074173 0.407337368 0.257052362
0.426059455 0.425300181 0.275016189
0.528652787 0.453510195 0.306262165
0.648070991 0.492220014 0.350664169
0.201644734 0.501328468 0.285894990
0.220999092 0.503225744 0.293738008
0.262744844 0.506009042 0.292979002
0.319164842 0.516129076 0.305376470
0.390765190 0.527893484 0.322580278
0.475648195 0.534598172 0.338646710
0.566982567 0.558886766 0.369513005
0.679316878 0.602909565 0.427830726
0.298924267 0.643010557 0.385831833
0.319291264 0.644908249 0.398102582
0.348893374 0.645414352 0.398482263
0.399367481 0.653636932 0.409361273
0.462492257 0.660341263 0.420240253
0.540037751 0.669956028 0.439974755
0.619481564 0.683491588 0.464263260
0.725490093 0.708286107 0.519670963
0.453004420 0.796584606 0.539152622
0.482858717 0.789121032 0.534471631
0.493737906 0.797849476 0.545097888
0.538646221 0.798987806 0.555724204
0.593927622 0.804427564 0.560404599
0.655787528 0.814674377 0.587855458
0.726628423 0.825932801 0.608728886
0.801897585 0.841113567 0.635926425
0.089816548 0.051359549 0.087413445
0.107020542 0.063503996 0.095635995
0.156736091 0.087413445 0.112460539
0.206451535 0.116002284 0.128905550
0.272232831 0.141049996 0.152814895
0.358001202 0.176596925 0.183428183
0.456166834 0.209867001 0.206451550
0.589121044 0.253763646 0.250980526
0.098039001 0.108159088 0.105755992
0.119544543 0.112460539 0.116002090
0.159898996 0.124984443 0.127008006
0.211132541 0.145350724 0.144591644
0.277419388 0.166097090 0.161037356
0.360657901 0.197343469 0.187223285
0.469450027 0.232890815 0.217457548
0.600759208 0.281088263 0.261226892
0.111701548 0.184187099 0.138646096
0.139152542 0.185325652 0.151296884
0.175584987 0.190386087 0.159519553
0.222896636 0.206072107 0.168501005
0.286654085 0.226438880 0.182542890
0.369259924 0.251486182 0.208349288
0.478431463 0.283997536 0.233775824
0.605186582 0.327387661 0.281467736
0.136748642 0.269829541 0.182163551
0.154838651 0.271473646 0.182163551
0.190006435 0.276913524 0.197090551
0.243263632 0.292599648 0.209234998
0.308538973 0.311068982 0.224414840
0.395446181 0.329411745 0.240986645
0.504111409 0.361923069 0.274509728
0.624415040 0.406072170 0.312966526
0.159772083 0.377609074 0.235167995
0.177482635 0.373561174 0.238583535
0.211891457 0.383428037 0.236938730
0.271347523 0.394433707 0.255408198
0.344212532 0.405313015 0.267172873
0.429727912 0.424415112 0.286274612
0.531309068 0.453763634 0.317899972
0.650221467 0.498798162 0.366223842
0.203921527 0.500189722 0.300063103
0.221505478 0.500063181 0.304743797
0.256799370 0.509045064 0.307400554
0.318026185 0.515370190 0.320683002
0.390765190 0.524351895 0.334345281
0.470967740 0.536116004 0.356609911
0.566223562 0.561164021 0.381910473
0.682352781 0.599493802 0.430613458
0.298924983 0.639469028 0.401897728
0.314990729 0.639469028 0.405818820
0.345477790 0.643769622 0.407084286
0.397216976 0.648829877 0.420366734
0.463757187 0.661100447 0.436432749
0.542441428 0.669955969 0.450853646
0.633396745 0.686401010 0.481847018
0.725490093 0.715369940 0.526249230
0.459076285 0.788488328 0.553700030
0.474257022 0.795698881 0.544465363
0.496521145 0.793042183 0.545351088
0.535610259 0.800505579 0.556103647
0.591397822 0.808222353 0.569006860
0.652119040 0.812650144 0.591903746
0.724731147 0.824035466 0.614674211
0.806831002 0.838203669 0.643516660
0.089310996 0.060341999 0.133207098
0.111321993 0.068564445 0.133966103
0.159139901 0.092473097 0.157495186
0.206451640 0.117140643 0.166097194
0.275016099 0.147248387 0.191145077
0.349778712 0.181404352 0.214674190
0.455028564 0.217836991 0.248323783
0.590006471 0.259708911 0.289310813
0.109424450 0.111701541 0.152435452
0.126628548 0.116002090 0.150917456
0.157495186 0.129664630 0.161037549
0.213156089 0.152435452 0.181783915
0.278937399 0.177482650 0.195825085
0.358254015 0.205692545 0.224035084
0.468690813 0.240860254 0.261226922
0.593295336 0.284756750 0.298165649
0.123971999 0.177862093 0.180139184
0.139152542 0.182922542 0.188108996
0.172422081 0.198229000 0.197470084
0.225300536 0.211512089 0.206072196
0.289816290 0.230360284 0.226438880
0.373560995 0.256167084 0.244781822
0.472106487 0.285895288 0.271853209
0.605186462 0.330929935 0.317900091
0.146363363 0.270208985 0.213788986
0.152814895 0.278557777 0.219734550
0.193927631 0.283618093 0.230360270
0.244402289 0.293358743 0.236179635
0.315369815 0.309424162 0.254649013
0.395572484 0.331688821 0.271347433
0.503225744 0.366223752 0.304364443
0.624541283 0.406451732 0.341808617
0.162935004 0.379127294 0.271094263
0.176976189 0.379886389 0.273877561
0.219354987 0.384566486 0.274889171
0.271347404 0.392030537 0.284756541
0.340797096 0.408096284 0.297659874
0.424035490 0.424794644 0.317520738
0.529285371 0.457305491 0.349272490
0.646300018 0.500189841 0.391776979
0.212650344 0.503352702 0.338140458
0.229727730 0.504743934 0.338646531
0.262618810 0.509044945 0.338772833
0.319544286 0.515370011 0.350917101
0.386843562 0.526375651 0.363441169
0.469449759 0.538140535 0.381530464
0.562681735 0.561922908 0.410626113
0.679316878 0.603415668 0.462238908
0.305123389 0.638203502 0.423655987
0.319418311 0.641113281 0.423402816
0.349019468 0.643769622 0.431372464
0.398102641 0.648070931 0.442378283
0.464895666 0.660974264 0.456420273
0.541429281 0.669955850 0.472106457
0.629474699 0.686907113 0.500316143
0.731056333 0.716255426 0.546742439
0.456672549 0.791397750 0.561669528
0.468437850 0.791777253 0.555091739
0.490701854 0.795319438 0.564326525
0.534724951 0.799620330 0.572295785
0.587349772 0.807969689 0.580898225
0.655534327 0.812776685 0.600379348
0.725869536 0.826565385 0.628842235
0.807210565 0.837950647 0.663124323
0.094117999 0.070082352 0.196204633
0.113725193 0.082226194 0.199746996
0.155218095 0.099936545 0.207210630
0.205692634 0.126628637 0.219734639
0.270714760 0.154332995 0.242504820
0.352561474 0.182163253 0.264768988
0.456925899 0.218595996 0.298798352
0.587223411 0.264010191 0.341808617
0.110183448 0.123845898 0.205565825
0.122201093 0.127261534 0.208349183
0.158254191 0.137507647 0.218216538
0.206831202 0.153573915 0.226818532
0.277293086 0.175458282 0.256293178
0.359392673 0.204427376 0.273750752
0.470588475 0.243643284 0.311321914
0.599114358 0.281214476 0.352941096
0.121189356 0.191650748 0.229095727
0.138772994 0.190765455 0.239721984
0.172042638 0.202909291 0.242884174
0.226059541 0.215433091 0.258949757
0.288677752 0.235800073 0.271853268
0.370018929 0.261226922 0.295762360
0.477292836 0.293105721 0.326502353
0.606325150 0.332068056 0.366476864
0.128905639 0.275774986 0.271220982
0.152814895 0.277293086 0.272739083
0.196331546 0.288298190 0.278937310
0.245540649 0.304364651 0.292599618
0.315622985 0.316508204 0.301075429
0.399873734 0.338013738 0.325490117
0.507906616 0.367741913 0.359898925
0.628842592 0.409614265 0.395066619
0.165844545 0.381910026 0.322959989
0.181404442 0.381404191 0.315243512
0.217457458 0.389626831 0.323086828
0.272991806 0.399493992 0.333713055
0.349019736 0.409993798 0.339531809
0.429601520 0.431245923 0.366603345
0.531688750 0.463251024 0.398228824
0.646932364 0.503984988 0.434029102
0.205692738 0.505629659 0.383048385
0.227830365 0.506768167 0.383681357
0.269323170 0.511574984 0.386337698
0.320177287 0.520177126 0.395951629
0.389626831 0.528399944 0.400632530
0.475774735 0.539278865 0.421758741
0.566982567 0.564832509 0.445161194
0.683744431 0.602656543 0.489563465
0.304111570 0.644655526 0.456420273
0.322959930 0.640227914 0.471979618
0.346995622 0.643769622 0.467931718
0.402656913 0.650853574 0.477672249
0.468437821 0.659835577 0.485641897
0.543706119 0.670335591 0.506135106
0.630233824 0.685641885 0.531562209
0.731815279 0.714610875 0.568374574
0.461100757 0.791144848 0.574067175
0.460088313 0.791397750 0.576849759
0.486653924 0.795319438 0.578114986
0.530929804 0.800505579 0.592156947
0.586084604 0.804300785 0.606198430
0.653889954 0.813662589 0.622517467
0.728652656 0.827450931 0.646046877
0.807463586 0.839974999 0.675142467
0.092599809 0.090195999 0.267046392
0.114863545 0.094750188 0.272232831
0.155218095 0.112080894 0.280581981
0.205945373 0.134092197 0.287792623
0.273371160 0.161416799 0.307780176
0.353320479 0.191524446 0.327513993
0.459709078 0.223276377 0.359519273
0.588867843 0.266793132 0.407716632
0.109803997 0.137887090 0.283238620
0.129158542 0.139532000 0.270968199
0.162176087 0.145350739 0.284629822
0.213030100 0.164579093 0.297280431
0.277672619 0.188488543 0.315749377
0.360657930 0.209487736 0.335230976
0.471473843 0.249588624 0.372928470
0.600126266 0.287413150 0.414294660
0.119291715 0.202024087 0.297659874
0.139911547 0.205692738 0.300822079
0.170777991 0.213156104 0.306262195
0.228083283 0.223276287 0.313725621
0.293738097 0.237318277 0.330550075
0.376723379 0.260847449 0.354458928
0.483112186 0.291461021 0.382922202
0.606451631 0.332953990 0.424921006
0.136116445 0.282352835 0.328652650
0.151676461 0.288298190 0.330423355
0.187223196 0.296141982 0.340417653
0.246806085 0.305882424 0.349778622
0.309677601 0.317141265 0.361543655
0.398228914 0.342694461 0.381024629
0.507020831 0.373307616 0.412650466
0.629474759 0.409740448 0.450727522
0.155976996 0.387097180 0.368121386
0.180645451 0.386211395 0.378114820
0.218596101 0.392410100 0.380518585
0.279190451 0.407337368 0.395572364
0.353320390 0.420620173 0.415180385
0.437444925 0.440607131 0.421379179
0.538013518 0.462871373 0.450474381
0.661606789 0.500063002 0.486401200
0.210119933 0.509171426 0.431878924
0.229095638 0.510309815 0.434661478
0.265780926 0.512586892 0.440480709
0.319418162 0.522833705 0.446046710
0.395066649 0.532194912 0.458317250
0.475774735 0.542821229 0.470714658
0.570777595 0.568627477 0.496521354
0.690575421 0.606957734 0.535736740
0.306009173 0.643010557 0.509804070
0.315116942 0.641492844 0.510689437
0.343580067 0.647058666 0.513219357
0.393295288 0.652371764 0.516761243
0.465654731 0.663377643 0.533206582
0.541808724 0.673877120 0.545857072
0.632637680 0.692220151 0.566856265
0.737001956 0.722453952 0.605945766
0.439342052 0.794054627 0.602909803
0.452877879 0.794180810 0.609361231
0.475015789 0.797343493 0.611005843
0.521189094 0.800505579 0.622770131
0.579127014 0.807463586 0.634155810
0.648070693 0.817710400 0.647944093
0.725996315 0.828969002 0.671979904
0.811638236 0.843769729 0.694117785
0.088172257 0.105755992 0.358254224
0.109550744 0.114484094 0.363061756
0.156862915 0.128146634 0.372042984
0.218595996 0.146995738 0.379000366
0.284376979 0.167994931 0.391524464
0.370018721 0.193801731 0.405439734
0.465148568 0.229980826 0.433522731
0.593168855 0.269449979 0.477545708
0.091208011 0.146489471 0.366856098
0.112839803 0.149399266 0.363946468
0.162681833 0.161543190 0.374699712
0.220114097 0.176723644 0.385705113
0.293738186 0.195445940 0.400632739
0.373307914 0.220493540 0.415812463
0.473877460 0.251486391 0.451613009
0.605439544 0.293738067 0.492726088
0.105250008 0.215433091 0.389120579
0.124225251 0.214674294 0.388361663
0.169259995 0.218089744 0.396837741
0.227198079 0.233902723 0.399746835
0.301960826 0.249968097 0.411132246
0.383427918 0.273118436 0.432637721
0.487033576 0.299304157 0.455660969
0.614294827 0.339152157 0.500316441
0.114484094 0.296521634 0.418342710
0.135357544 0.302467078 0.417710185
0.182668999 0.306008607 0.420493245
0.248829648 0.314990282 0.427577466
0.321568459 0.327387452 0.448829979
0.407210469 0.349019647 0.456293732
0.508665502 0.374446273 0.477672458
0.641745865 0.414294541 0.530297458
0.149778724 0.394939929 0.452498734
0.164453194 0.399873555 0.453384161
0.210752904 0.406578273 0.461480170
0.274636537 0.413662195 0.466034144
0.356483370 0.424541175 0.479696542
0.435800135 0.440986663 0.494623721
0.543453276 0.464136928 0.518406153
0.659329534 0.498165667 0.549905062
0.207717001 0.509044945 0.495382726
0.220872998 0.510942698 0.500442445
0.264769107 0.518911719 0.506388605
0.321062356 0.523972392 0.511068702
0.394687176 0.538140237 0.526502192
0.483491689 0.552308500 0.546362758
0.580518723 0.572675467 0.557242036
0.693737984 0.598861694 0.589753568
0.295129269 0.652118802 0.573307991
0.305503041 0.644149065 0.566603124
0.341303259 0.648956299 0.569765925
0.394687027 0.656420290 0.578621209
0.459076911 0.667678833 0.583934188
0.546868980 0.678178549 0.601391435
0.641619265 0.694623590 0.623782277
0.749904811 0.725490272 0.650221348
0.430107504 0.794054627 0.667931557
0.449082911 0.792156875 0.656166732
0.465021968 0.795319438 0.662112832
0.506261587 0.802403331 0.665401578
0.563060999 0.809867144 0.674256682
0.638709486 0.817330778 0.688425064
0.727514029 0.832131088 0.706388235
0.816951334 0.848450363 0.729411840
0.047438718 0.126122996 0.487792283
0.088930815 0.133965999 0.490069568
0.152941003 0.141049892 0.494876564
0.233270273 0.154712349 0.501328170
0.314737380 0.179506987 0.513725281
0.400885463 0.205945268 0.528526425
0.495635271 0.236558989 0.541049540
0.605059624 0.277292997 0.569259644
0.052498460 0.162681550 0.502214015
0.098039456 0.163314566 0.500062823
0.153574005 0.175964728 0.508032799
0.233396366 0.187223196 0.511322141
0.321315646 0.206451729 0.519797444
0.408728480 0.234155267 0.534724891
0.502973020 0.263503820 0.553826988
0.611764729 0.299430519 0.576976359
0.044528630 0.228842080 0.518026471
0.092473269 0.228210032 0.511448383
0.160531372 0.235800281 0.515116990
0.239721984 0.246299729 0.523213029
0.325743109 0.266287267 0.529917777
0.416445374 0.283238471 0.544212341
0.512713313 0.309297979 0.559013426
0.619987547 0.346110165 0.580139041
0.054649010 0.317267269 0.537001908
0.093232073 0.313725442 0.534092367
0.164199859 0.319544256 0.537507951
0.250600994 0.329032302 0.542694271
0.335610449 0.342315078 0.554079890
0.434155732 0.361543655 0.566603124
0.535989881 0.386843562 0.581910312
0.647058964 0.420999408 0.606324971
0.111448295 0.423529476 0.563567460
0.143453285 0.419734180 0.559519112
0.196711004 0.423529267 0.565970659
0.267931998 0.426059186 0.571790218
0.361037433 0.437065095 0.573308170
0.452245623 0.455661237 0.592409790
0.554206252 0.477672189 0.606957674
0.670588076 0.503984809 0.631625652
0.191144988 0.534851193 0.595319569
0.219228372 0.530676961 0.597596347
0.255787611 0.536369383 0.600632250
0.317394108 0.542314827 0.603795171
0.398102641 0.546995699 0.615433216
0.488171697 0.558507144 0.621884525
0.587223470 0.578747749 0.636306286
0.703099191 0.605692863 0.666540444
0.302846283 0.658696949 0.648576856
0.311068833 0.653510273 0.635926545
0.341176450 0.657811403 0.638962686
0.396964282 0.666034162 0.655913830
0.468184650 0.672106266 0.658697009
0.548134208 0.688425303 0.671600282
0.654395819 0.706388593 0.692346275
0.760531306 0.726122499 0.715370059
0.438203692 0.793421566 0.718912244
0.448197156 0.796584427 0.722454071
0.468311131 0.800505579 0.726375759
0.514737368 0.803162396 0.729285240
0.570904374 0.813788772 0.735104144
0.637824118 0.822770357 0.747627795
0.728146732 0.835420489 0.763693810
0.821884871 0.855534375 0.788488448
0.002656833 0.150410995 0.662112594
0.019607905 0.152814716 0.654522300
0.146616101 0.162175998 0.661606491
0.243137449 0.173814178 0.659708798
0.343200326 0.196584374 0.671220720
0.451233387 0.224667981 0.684250593
0.559645653 0.264136791 0.694370270
0.664769411 0.303604960 0.702593446
0.004553989 0.182416365 0.667425752
0.020493299 0.184946388 0.665907741
0.145730481 0.193168834 0.665781140
0.248450413 0.204301372 0.670082450
0.354332745 0.224288523 0.677166343
0.453889519 0.255534619 0.689057410
0.563947082 0.289183825 0.700316191
0.675142467 0.332194507 0.710562587
0.000000000 0.245161191 0.667172372
0.014168486 0.245288089 0.665907562
0.138266832 0.255660802 0.677798569
0.250221550 0.265907645 0.677039862
0.353447199 0.281847060 0.681846738
0.462871671 0.303352416 0.693738043
0.568500996 0.337001711 0.702972770
0.681973457 0.373940706 0.715749383
0.003795180 0.333586454 0.688930571
0.000379548 0.332574546 0.686780334
0.136622354 0.339279085 0.692093492
0.252118796 0.354332805 0.692978919
0.360151857 0.367741823 0.696520925
0.473497748 0.388867736 0.707779825
0.582669139 0.416318834 0.716634989
0.694749713 0.443896443 0.730170965
0.003415631 0.446552992 0.694623590
0.047311869 0.443643212 0.702972591
0.143200576 0.443516910 0.702972531
0.257305652 0.445667177 0.708159268
0.375331998 0.458570689 0.713219404
0.486780345 0.477925211 0.723466158
0.597722948 0.497153521 0.732194662
0.703099072 0.526502132 0.744971216
0.171410635 0.570018530 0.731688440
0.192283273 0.567741811 0.726628661
0.244149461 0.568121254 0.725363672
0.310942620 0.567362368 0.729664564
0.393928081 0.568500519 0.730676770
0.503352523 0.576344311 0.742314637
0.622011364 0.596837580 0.757115602
0.733080268 0.616698265 0.767488599
0.322707236 0.703984678 0.764958739
0.329538375 0.700316072 0.764326334
0.360657871 0.697153986 0.758760393
0.412650108 0.702340245 0.767868221
0.476154208 0.702340245 0.772422373
0.561543286 0.705123305 0.778115153
0.660341680 0.714990556 0.787603080
0.778874159 0.736748576 0.803415298
0.454395682 0.818975568 0.811258435
0.459582567 0.817963183 0.810246706
0.475521594 0.821505547 0.806577682
0.521189034 0.823023379 0.805692375
0.576597035 0.821505606 0.816065788
0.649082601 0.832510710 0.824794352
0.741935194 0.844655216 0.842125177
0.839974582 0.864642560 0.850221395
