Assets/Shaders/EldamarStudio/100 Sci-Fi LUTs Pack/LUTs/cube/Lexie LUT.cube
LUT_3D_SIZE 5
DOMAIN_MIN 0.000000 0.000000 0.000000
DOMAIN_MAX 0.903226 0.903226 0.903226
0.082353003 0.043136999 0.047059000
0.150031701 0.073876999 0.080075711
0.239974409 0.109171413 0.105881996
0.378747255 0.171663120 0.158001125
0.584819615 0.248576805 0.232890800
0.108159289 0.157242283 0.110815704
0.158886999 0.166729987 0.115749404
0.251739413 0.193548411 0.147121996
0.391777247 0.239974990 0.191903710
0.602782786 0.307779849 0.256419957
0.143200412 0.323719412 0.192915559
0.191271693 0.327008396 0.199114278
0.288425386 0.347248405 0.220366567
0.430360258 0.379633099 0.253763407
0.632511079 0.445414364 0.321189225
0.218849123 0.534725130 0.303099126
0.269829541 0.539911509 0.319544554
0.362428784 0.553320289 0.337255120
0.510056973 0.570019126 0.365971118
0.688425064 0.629475117 0.445540637
0.453004420 0.796584606 0.539152622
0.489689708 0.796331286 0.541302919
0.564705789 0.802529991 0.560025394
0.673244596 0.817204475 0.591144741
0.801897585 0.841113567 0.635926425
0.086274996 0.061100710 0.122580700
0.143200412 0.085642003 0.134724990
0.236685827 0.129791290 0.166729987
0.373813689 0.192536280 0.217457548
0.588994384 0.257684976 0.277672678
0.116381988 0.158886984 0.156609699
0.161796287 0.173940405 0.178494409
0.252751678 0.203036100 0.200126395
0.393042415 0.246552840 0.239974976
0.602150321 0.314231515 0.298924655
0.151675999 0.321442097 0.237697691
0.192915976 0.324984401 0.237697691
0.294623673 0.348893106 0.260594666
0.434282243 0.385198981 0.292346388
0.637823999 0.447691351 0.357495099
0.231878534 0.537001848 0.348260134
0.272486120 0.544465363 0.349652112
0.366982818 0.552687883 0.365591407
0.504617572 0.571283996 0.396711111
0.691461146 0.629222095 0.468057930
0.459708720 0.793674707 0.552055776
0.484882772 0.796331286 0.556230426
0.562428653 0.802782893 0.572422326
0.670208752 0.818595767 0.604174316
0.808475375 0.840733707 0.660847604
0.090828583 0.081720419 0.225553408
0.139911413 0.102972701 0.237697691
0.239341974 0.142567992 0.258949965
0.378114820 0.193548411 0.304490536
0.590639055 0.261606663 0.372801960
0.117647000 0.178873688 0.257684976
0.157242268 0.181783408 0.259582818
0.252371997 0.209234402 0.280834705
0.392789304 0.253383696 0.327387691
0.602782905 0.318152845 0.386590809
0.140543580 0.327640384 0.311954379
0.193548411 0.332194388 0.323718935
0.296900809 0.359013408 0.347248405
0.437571377 0.390132934 0.380645394
0.639721572 0.449336201 0.444781780
0.225427121 0.539278924 0.425806224
0.272485703 0.545730352 0.426059276
0.370524704 0.553320289 0.441492647
0.512460530 0.575205564 0.466034532
0.700569212 0.634788394 0.529158592
0.441745996 0.795952022 0.599114656
0.477039993 0.797216773 0.600252688
0.550284326 0.803162396 0.608348787
0.669575870 0.818849027 0.640733719
0.810499787 0.838456750 0.690322101
0.086148001 0.112840123 0.385579139
0.139658689 0.127134711 0.397090673
0.256040692 0.156609863 0.412397534
0.398355246 0.205945998 0.431752235
0.594939888 0.272738814 0.496774107
0.097406581 0.199746698 0.413156122
0.153574005 0.204933271 0.410752833
0.267805099 0.223655820 0.425806403
0.407210350 0.264516145 0.456166953
0.609740615 0.325742811 0.513472438
0.116255574 0.350158274 0.460341811
0.176217690 0.352814674 0.462492079
0.297659785 0.366856366 0.473877549
0.444149256 0.398608536 0.492220104
0.646552920 0.451613098 0.551676333
0.220873117 0.544465363 0.534851432
0.271094143 0.552308381 0.537254751
0.370904237 0.561163962 0.547754526
0.523972273 0.586717248 0.580771267
0.707147181 0.628463089 0.620367110
0.431119561 0.794054627 0.680581748
0.461732715 0.796331286 0.676533937
0.531309187 0.805818558 0.683870912
0.659456074 0.821884871 0.706134915
0.816698253 0.848956585 0.739531755
0.002656833 0.150410995 0.662112594
0.117267713 0.159898713 0.659835279
0.293738216 0.184439987 0.664010048
0.477292955 0.234534949 0.684250593
0.664769411 0.303604960 0.702593446
0.000000000 0.225679815 0.664642394
0.113725416 0.234155402 0.675774574
0.297026932 0.256672829 0.676786900
0.486400932 0.295003086 0.692725718
0.678431392 0.355977207 0.714990616
0.000000000 0.385325372 0.688804150
0.089689896 0.384187251 0.690701783
0.313346207 0.402277052 0.705249727
0.507020652 0.436938375 0.717014432
0.700063407 0.478810787 0.737254977
0.211132124 0.603668272 0.741808712
0.256040454 0.601517975 0.739279032
0.367994964 0.601771235 0.738140285
0.538014114 0.612523794 0.751170039
0.743200600 0.644528925 0.774825871
0.454395682 0.818975568 0.811258435
0.468943715 0.817963481 0.800252676
0.547754109 0.819481194 0.811765015
0.670588017 0.835546851 0.830360472
0.839974582 0.864642560 0.850221395
