Assets/Shaders/EldamarStudio/100 Sci-Fi LUTs Pack/LUTs/cube/Lexie LUT.cube
DOMAIN_MIN 0 0 0
DOMAIN_MAX 1 1 1
LUT_3D_SIZE 32
0.082353003 0.043136999 0.047059000
0.088424996 0.043136999 0.050094616
0.094497003 0.047437999 0.055281550
0.103098996 0.053510323 0.058823999
0.114484094 0.059582997 0.059582997
0.120556869 0.065655001 0.065655001
0.136748999 0.069196679 0.074256673
0.150031701 0.073876999 0.080075711
0.158381000 0.078431003 0.083112098
0.164453015 0.078431010 0.086148478
0.179253876 0.087159872 0.089184128
0.192409992 0.094243996 0.092220254
0.206830993 0.100315996 0.097533353
0.224794030 0.106135026 0.105881996
0.239974409 0.109171413 0.105881996
0.255154788 0.119417988 0.113092795
0.274889380 0.130044192 0.122201189
0.297912955 0.138519987 0.130044416
0.316129029 0.144592017 0.133080050
0.337128371 0.153447360 0.144465715
0.356482983 0.162555248 0.150917262
0.378747255 0.171663120 0.158001125
0.408728480 0.180897981 0.172675505
0.429980904 0.193042010 0.175711900
0.458064556 0.205186576 0.183301702
0.489816636 0.215939313 0.193801329
0.522201061 0.225047067 0.205945998
0.549525440 0.234155446 0.218089983
0.584819615 0.248576805 0.232890800
0.621252358 0.263757169 0.248071179
0.659456193 0.278051972 0.263251364
0.701960981 0.290196002 0.278430998
0.085389383 0.061353773 0.053130999
0.091461383 0.058317386 0.053130999
0.099683613 0.064769156 0.058317386
0.106640995 0.067931615 0.061859611
0.114863545 0.069070160 0.062998161
0.123592481 0.077799007 0.071727000
0.134724602 0.076280683 0.075268678
0.148640022 0.079949416 0.078431003
0.158381000 0.086021774 0.080834806
0.164453015 0.090575784 0.086148486
0.179253876 0.096394777 0.095003128
0.196457997 0.101328120 0.098292254
0.210625991 0.106388003 0.100189999
0.224794030 0.112460062 0.103605360
0.239974409 0.118279800 0.111953996
0.257558614 0.126122579 0.119164795
0.276407570 0.133080184 0.125237182
0.299177945 0.139784977 0.131309405
0.322201014 0.150664017 0.139152050
0.337634355 0.162302002 0.144971713
0.356482983 0.169766083 0.152814999
0.377735376 0.177735642 0.159013256
0.405819356 0.186970010 0.169892102
0.429980904 0.199114785 0.178747520
0.460341275 0.208981469 0.186337903
0.491460949 0.220366940 0.196837381
0.522707164 0.231625766 0.209487692
0.552561820 0.243263841 0.224161983
0.587855995 0.252372205 0.236305967
0.622517526 0.265022337 0.249336034
0.658570588 0.279822975 0.263251364
0.698924601 0.296267986 0.278430998
0.090576001 0.073118225 0.061353773
0.094497226 0.076534159 0.061353773
0.098419003 0.073497780 0.063504003
0.111321770 0.080076165 0.069576003
0.120176770 0.079190545 0.071726546
0.123971932 0.082985714 0.077292942
0.137760773 0.086274453 0.077039681
0.148260474 0.088171773 0.081720419
0.159898996 0.093485318 0.084250547
0.168754011 0.098166011 0.090322971
0.181404099 0.106388226 0.095003128
0.198608726 0.110436484 0.100063257
0.213409126 0.114610769 0.104237996
0.224794030 0.120682769 0.106767997
0.239974409 0.126755059 0.113978341
0.257558614 0.135230958 0.125236794
0.277293175 0.139784768 0.129790992
0.297280401 0.144085974 0.132827207
0.317014247 0.156230018 0.140417039
0.341556132 0.166223779 0.148892939
0.360531509 0.176470503 0.156862959
0.380012691 0.183807865 0.163187996
0.405186951 0.193042010 0.171283752
0.433522999 0.205186814 0.182415903
0.460341275 0.215053692 0.191524282
0.490954608 0.224161655 0.200632662
0.521568358 0.235547215 0.212523848
0.555218101 0.247691214 0.227704212
0.584440053 0.257179052 0.233775973
0.626186013 0.273371398 0.254775137
0.662871540 0.285768598 0.267931849
0.702340007 0.300189763 0.280581772
0.096648000 0.087286159 0.069196999
0.098418772 0.089563772 0.067931838
0.103984609 0.094244219 0.072612390
0.108286157 0.091208160 0.076913163
0.125363603 0.094244443 0.082226165
0.128019989 0.095129833 0.084376939
0.139405489 0.096394673 0.082353003
0.151296541 0.099810153 0.084250420
0.161164030 0.105882153 0.090322994
0.173308179 0.109424487 0.096395001
0.185452163 0.114484288 0.097027130
0.199114338 0.120809250 0.102593258
0.217331126 0.124983996 0.106768005
0.227577314 0.130803034 0.113093026
0.243769571 0.135863155 0.120177157
0.258823454 0.144338965 0.127260983
0.274763167 0.152687997 0.134598166
0.297280520 0.153953150 0.135863155
0.314990401 0.164832339 0.141935185
0.337507904 0.172928527 0.152055353
0.359772414 0.180771723 0.159898579
0.384060919 0.188867986 0.167995110
0.406325310 0.197975665 0.174320146
0.435546994 0.211258814 0.186464176
0.462365419 0.219860867 0.195066288
0.492219776 0.228968829 0.205439508
0.519544184 0.239595160 0.214547917
0.553699851 0.253257126 0.228210270
0.587223113 0.264009804 0.237824321
0.623908699 0.276407331 0.249968320
0.665022075 0.295003146 0.274636149
0.703352034 0.304491013 0.284883022
0.102340452 0.108159088 0.075268999
0.102340452 0.105502926 0.073371157
0.108791776 0.109171323 0.077798776
0.117014319 0.114357702 0.085642003
0.122707449 0.112080991 0.090575546
0.131815061 0.115116604 0.090575546
0.143453643 0.116002090 0.089184314
0.154332832 0.117267251 0.089943446
0.163440645 0.120303541 0.095635995
0.175585434 0.126375541 0.101708002
0.187349990 0.127387539 0.100189678
0.199873537 0.131056100 0.104490705
0.214294747 0.136748552 0.112839997
0.232258484 0.142567590 0.118405998
0.250347972 0.145603970 0.127134860
0.265275002 0.153826803 0.132194743
0.277798831 0.162555352 0.135989740
0.292346984 0.171410143 0.139658540
0.319671452 0.177482948 0.145730570
0.338646561 0.183554992 0.156609565
0.357242078 0.189626992 0.164958552
0.378367811 0.196078539 0.171030715
0.408855021 0.202403530 0.177356437
0.436685473 0.217330903 0.189500466
0.461733013 0.226059541 0.198229000
0.490196168 0.233902663 0.205565974
0.523339629 0.243390545 0.217583612
0.550664008 0.261606514 0.226691991
0.588614881 0.274889082 0.241113245
0.628716350 0.287412852 0.256673187
0.668817520 0.299557507 0.272359520
0.699177563 0.311701536 0.290575534
0.105376065 0.126375869 0.081340998
0.105376065 0.126375869 0.087412998
0.111827843 0.121568933 0.087665930
0.120936096 0.123086870 0.091714002
0.128779441 0.127261385 0.096647546
0.131815061 0.130296990 0.093611933
0.143453643 0.133333251 0.098671935
0.155598000 0.134218872 0.098292291
0.165717945 0.134724930 0.098292157
0.172549039 0.135483921 0.101708010
0.181783944 0.141555935 0.107780002
0.195446253 0.144592196 0.110309675
0.211258933 0.148134232 0.116634704
0.229222089 0.151675969 0.124477997
0.244402468 0.154712349 0.124477997
0.267298996 0.164958924 0.133206859
0.285009176 0.173560992 0.141303137
0.300948620 0.180771500 0.148766920
0.322707087 0.189626962 0.154838949
0.341682792 0.195699006 0.160910934
0.361796677 0.201770991 0.167994946
0.382543027 0.208855122 0.174066931
0.405819386 0.217583910 0.180392042
0.439215839 0.229727939 0.192536071
0.464768916 0.240101278 0.206957340
0.493232042 0.250094891 0.213661999
0.526629031 0.261227071 0.217710122
0.559772372 0.270714909 0.229728386
0.597722709 0.286274731 0.244149059
0.633649647 0.300948620 0.261100441
0.670335591 0.314737260 0.277925581
0.708285928 0.326881945 0.293611914
0.108412318 0.142062321 0.097532995
0.108412318 0.142062321 0.098544993
0.114864096 0.144212544 0.098165773
0.122707322 0.141809002 0.099051163
0.130171001 0.144212544 0.103098996
0.135357380 0.142947704 0.102213614
0.143453643 0.148513645 0.101707675
0.157242283 0.151549608 0.107779674
0.169512764 0.153194100 0.109677196
0.177356005 0.154965326 0.114484809
0.191397876 0.155724332 0.120430313
0.204554245 0.159772053 0.124478057
0.218595996 0.165085316 0.127513960
0.233776033 0.170904353 0.133586317
0.248956412 0.173940733 0.138140321
0.266539961 0.179380313 0.140544131
0.289057195 0.188235313 0.147881314
0.306261569 0.194307312 0.155344993
0.323718995 0.201517984 0.161417022
0.344718397 0.210373312 0.172548994
0.364832401 0.218343049 0.178620994
0.389120907 0.224035501 0.184692994
0.415053964 0.230107501 0.190765023
0.441239595 0.239848331 0.198102653
0.470082521 0.249715596 0.205692649
0.500189602 0.260215312 0.218722299
0.533712745 0.271853387 0.224794388
0.563061118 0.280961752 0.234914884
0.596711099 0.295382500 0.247185454
0.634408653 0.307020873 0.264136255
0.670335591 0.321568310 0.280581892
0.709803998 0.337001681 0.294117987
0.108159289 0.157242283 0.110815704
0.116381988 0.158886984 0.110815704
0.117900059 0.161037624 0.107020766
0.127008438 0.162808403 0.112839989
0.132700995 0.162049308 0.116634697
0.136243001 0.157748222 0.114104696
0.148134321 0.163946986 0.117393695
0.158886999 0.166729987 0.115749404
0.172548801 0.170524701 0.121062309
0.181657210 0.174446478 0.126249254
0.194939867 0.176217705 0.132321283
0.210120246 0.178241432 0.134724736
0.224161997 0.181277335 0.136621997
0.236559033 0.189120695 0.139658317
0.251739413 0.193548411 0.147121996
0.269322991 0.198987976 0.150790811
0.289057195 0.203542173 0.155344993
0.310309559 0.210120276 0.161416993
0.327513993 0.217204422 0.167489022
0.346616089 0.226059362 0.179127008
0.369512737 0.231878728 0.185831711
0.391777247 0.239974990 0.191903710
0.420746475 0.244022682 0.197975710
0.446552724 0.254648894 0.204048097
0.473118126 0.263757288 0.211764991
0.504617572 0.272865653 0.220619977
0.539531767 0.284756690 0.231751993
0.566856146 0.295003414 0.239721730
0.602782786 0.307779849 0.256419957
0.634661615 0.321062177 0.268817365
0.671979845 0.332827181 0.285262406
0.711448252 0.351043403 0.297407001
0.107400000 0.173940092 0.121442094
0.119544387 0.176976487 0.119165003
0.127007991 0.179253772 0.116381995
0.127767161 0.181784093 0.115875997
0.138014004 0.181784093 0.132574007
0.140290990 0.176470414 0.128019989
0.149905324 0.180012420 0.131309092
0.163440987 0.185705096 0.133965611
0.174826086 0.186464190 0.131688893
0.183934495 0.192536190 0.134724513
0.197469994 0.196457967 0.141429082
0.211638242 0.199493840 0.143453091
0.226439089 0.202529743 0.143453091
0.238330126 0.205566138 0.143959090
0.252498507 0.211132199 0.152561411
0.271600097 0.217204198 0.158380806
0.289816290 0.221758187 0.162934989
0.309803665 0.226059556 0.169006988
0.330803096 0.235167965 0.175079003
0.351549715 0.243516743 0.185199007
0.373560965 0.250347823 0.192409828
0.396331251 0.254396081 0.195698991
0.420872986 0.260468096 0.202023983
0.448830009 0.271347106 0.209361002
0.476154357 0.281973302 0.216192275
0.506894290 0.290322572 0.225933075
0.542315125 0.299937040 0.238583148
0.569892466 0.312081069 0.245414183
0.608601928 0.324225068 0.264769018
0.642757356 0.336369038 0.280708402
0.675774753 0.349525183 0.292093873
0.715243161 0.367742002 0.304237902
0.113472007 0.195192501 0.136622503
0.116508394 0.198228896 0.127514109
0.126502007 0.199114501 0.125237003
0.131815165 0.200506181 0.124984011
0.131942004 0.203036502 0.126502007
0.150157988 0.203036502 0.132574022
0.154965326 0.200253144 0.135610312
0.163440987 0.202656507 0.138772786
0.174826086 0.207716599 0.140796527
0.183934495 0.210752979 0.140796512
0.201771006 0.216824979 0.149651870
0.217710242 0.220746234 0.152561486
0.232890636 0.223782137 0.152561486
0.247438520 0.226818532 0.153067499
0.256546885 0.229854912 0.159139499
0.277925462 0.235420972 0.167741790
0.297406673 0.239974782 0.175079003
0.312840044 0.244275570 0.181151003
0.328020483 0.253383964 0.187223017
0.354585856 0.259709001 0.193295017
0.379632980 0.267805219 0.199620470
0.401897252 0.275648504 0.204554364
0.420872986 0.281720489 0.208095998
0.451233804 0.287792504 0.220239997
0.479190767 0.298671484 0.225300282
0.509298086 0.307905972 0.231372654
0.542315125 0.315116644 0.241619557
0.572675824 0.327261418 0.256799906
0.613536060 0.339405447 0.276913762
0.648829877 0.351549417 0.292852908
0.681846797 0.364579052 0.304111362
0.721315980 0.379885972 0.313345522
0.119544744 0.219354734 0.148892999
0.125490248 0.219481260 0.148513481
0.126375869 0.216065869 0.143706635
0.136749029 0.219607875 0.144212574
0.143959865 0.227198005 0.145856872
0.146995872 0.227198005 0.146868870
0.160151884 0.227198005 0.145351186
0.170904696 0.229474872 0.150917158
0.183554783 0.234028876 0.156482965
0.192662627 0.234914482 0.158633739
0.204680875 0.237950876 0.158633754
0.218848854 0.239974871 0.159645617
0.233143643 0.243263751 0.162175655
0.248324037 0.248070911 0.167741910
0.262745440 0.251107275 0.171157733
0.279064000 0.256546885 0.174825937
0.302340388 0.261100680 0.184439987
0.322327822 0.264768869 0.192662567
0.339784980 0.271599948 0.196457878
0.360531390 0.277925700 0.199747235
0.383807749 0.283997744 0.205692738
0.407084107 0.292093724 0.212776870
0.429348826 0.300062984 0.219480991
0.454142928 0.306134969 0.220493004
0.484503686 0.314484268 0.230360284
0.515243590 0.325995833 0.240227640
0.549146116 0.335609943 0.252878010
0.584313869 0.345350891 0.265654564
0.609360993 0.357494980 0.275521964
0.645034790 0.371410161 0.292220294
0.677419484 0.384693086 0.305502981
0.712840140 0.397849739 0.316634864
0.125616997 0.245667234 0.161036998
0.133712724 0.243643492 0.159013256
0.135483727 0.243390501 0.154838771
0.136748895 0.241113335 0.154332846
0.148134291 0.249841794 0.157747984
0.153068006 0.251486510 0.161036998
0.161163732 0.253510237 0.162555307
0.171663433 0.253510237 0.159519270
0.186084837 0.257305264 0.166350186
0.197722793 0.257305264 0.170651749
0.209740475 0.262238860 0.170778260
0.225933254 0.263250977 0.174826249
0.239215881 0.263250977 0.174066871
0.253890216 0.267552078 0.181150988
0.265528142 0.272359669 0.185958147
0.287160248 0.277799219 0.191018701
0.305376232 0.283871233 0.194054306
0.328020275 0.287412912 0.202782825
0.347628027 0.292093277 0.205819219
0.368627369 0.296141684 0.208855093
0.389879733 0.304111719 0.215686470
0.411132127 0.310310245 0.218848854
0.434788197 0.318279505 0.223908499
0.464769006 0.324351490 0.229601249
0.491587281 0.332700789 0.238456279
0.521948040 0.343200475 0.251739323
0.554712057 0.354838580 0.266540319
0.589626551 0.363946944 0.277166516
0.621505499 0.377735227 0.286653817
0.649335444 0.391650438 0.297532946
0.685135901 0.406830847 0.314231306
0.721947968 0.420113981 0.329791009
0.130550355 0.271853268 0.170904279
0.138519615 0.269956023 0.170145378
0.144591644 0.269070625 0.168374643
0.145856813 0.270335466 0.166097477
0.149272650 0.272612184 0.167994633
0.157621935 0.274130553 0.171030641
0.166729957 0.276027977 0.174572960
0.178114697 0.278557628 0.175458565
0.187982202 0.280834734 0.175458178
0.202783138 0.281973273 0.181910306
0.215053648 0.284376651 0.182163343
0.227830499 0.288677633 0.186211631
0.244908631 0.289816290 0.190006644
0.260342002 0.289816290 0.192789286
0.272106230 0.294117838 0.197090283
0.292093575 0.300190002 0.205439597
0.313345969 0.306261957 0.209993795
0.331562132 0.311701566 0.212396994
0.352308631 0.314737320 0.214927316
0.373561025 0.320050657 0.220240295
0.395951748 0.325743377 0.223655730
0.420240253 0.333839625 0.231751993
0.441998631 0.339911640 0.229601145
0.472359180 0.345983624 0.238709554
0.500062883 0.355471283 0.248956278
0.528778911 0.363693953 0.260467678
0.559139669 0.375838131 0.277672470
0.591903389 0.385579079 0.287413418
0.626438797 0.398861408 0.297659785
0.659203231 0.414041460 0.310815573
0.691334248 0.428336263 0.322959840
0.733332992 0.443263650 0.343453288
0.134092033 0.296395034 0.177735955
0.140164033 0.296141982 0.180518612
0.147627771 0.296141982 0.182795733
0.154459134 0.297659844 0.186084837
0.158634007 0.300442576 0.188741028
0.164706007 0.297406942 0.182669029
0.172802314 0.296395034 0.183681279
0.185199335 0.298292339 0.185831994
0.199367166 0.302087128 0.187096953
0.211511955 0.311195523 0.196204573
0.223656043 0.308918178 0.196837038
0.234282210 0.311954051 0.200632513
0.245667607 0.316634685 0.204934001
0.261101037 0.319924027 0.205186963
0.279317021 0.319924027 0.205186963
0.299936831 0.324731022 0.214041993
0.319417983 0.330297023 0.221884832
0.337887108 0.336242586 0.225047052
0.356103927 0.339278996 0.225047067
0.377103359 0.347375393 0.232890353
0.399999976 0.354333013 0.236559033
0.425806254 0.360658020 0.238583028
0.456166983 0.366856545 0.244908020
0.480708808 0.373055041 0.254142910
0.504996955 0.383175075 0.262998313
0.532068312 0.393042028 0.272359371
0.562682033 0.399873167 0.281720072
0.593041956 0.412017941 0.293864846
0.628209591 0.424162030 0.306008995
0.663124561 0.438077211 0.321188956
0.697406948 0.452625036 0.338393211
0.733838975 0.464769065 0.350538015
0.143200412 0.323719412 0.192915559
0.149272412 0.320683002 0.192915559
0.151043415 0.320429981 0.189246997
0.155470997 0.322959989 0.190132573
0.162049130 0.328019947 0.195192546
0.176849991 0.330803305 0.197849408
0.180392310 0.325237393 0.194307089
0.191271693 0.327008396 0.199114278
0.204933733 0.330929816 0.203289092
0.214547560 0.332447886 0.202277347
0.226692319 0.332827389 0.205565959
0.240860149 0.336242795 0.207969680
0.254775196 0.340037793 0.212776989
0.270208657 0.341176391 0.217330948
0.288425386 0.347248405 0.220366567
0.309045196 0.352055401 0.222770378
0.327261180 0.355091393 0.229221985
0.344338536 0.358253956 0.235293984
0.365211546 0.366603374 0.243263826
0.386210948 0.369639754 0.246046469
0.407463312 0.373940647 0.250347733
0.430360258 0.379633099 0.253763407
0.456166983 0.388108879 0.260088384
0.486527801 0.397217274 0.272232413
0.511069000 0.403415799 0.279190540
0.538140297 0.413535804 0.288678378
0.569007099 0.423908889 0.299683750
0.602150381 0.433270276 0.309044451
0.632511079 0.445414364 0.321189225
0.667678773 0.459329575 0.333333373
0.703478992 0.474509984 0.349398971
0.739911020 0.489057809 0.368753970
0.154711992 0.346236795 0.205692604
0.148766801 0.350411206 0.205692604
0.163440794 0.345224589 0.207842827
0.166223958 0.345983416 0.206324950
0.170778066 0.350916773 0.210499600
0.177861929 0.355976909 0.211511731
0.190132514 0.356229991 0.216698274
0.196457893 0.351802707 0.212017596
0.209361196 0.355597794 0.215053797
0.220113516 0.358886778 0.213662475
0.234534934 0.361290604 0.221252725
0.250727683 0.361290604 0.220240340
0.265148610 0.364326596 0.223655999
0.279316813 0.364832610 0.229475021
0.297533005 0.370904565 0.232511178
0.315749764 0.376976579 0.240353793
0.335483968 0.380012572 0.243390188
0.352181941 0.381277561 0.246679232
0.371663630 0.388614744 0.248703167
0.395319164 0.394560337 0.259456247
0.418469250 0.399493992 0.264389604
0.439215600 0.404047787 0.268943787
0.461100459 0.411764473 0.275142312
0.493737996 0.420872867 0.285009593
0.519544721 0.427703977 0.292599589
0.548007429 0.433775991 0.300063282
0.579380155 0.444402069 0.311195344
0.610879183 0.457305402 0.322201163
0.639215648 0.466666758 0.333965659
0.673118353 0.485894680 0.351423144
0.708665609 0.501201570 0.365464747
0.743579805 0.513345957 0.382162988
0.162302196 0.372042984 0.216318801
0.160784379 0.378115386 0.219355196
0.163441181 0.377103180 0.223023608
0.175332025 0.372296005 0.222264379
0.179506794 0.375205278 0.224921197
0.185958058 0.381277561 0.227198184
0.193548381 0.382289559 0.227703989
0.205565885 0.382163107 0.231752187
0.216951191 0.381404400 0.227957085
0.230613202 0.387476385 0.228715986
0.242631063 0.386085033 0.232890680
0.259835303 0.391651005 0.238456726
0.275775075 0.391651005 0.236558989
0.288678229 0.391904026 0.241619021
0.308159351 0.396711200 0.244655415
0.321821421 0.401264995 0.249462560
0.343074173 0.407337368 0.257052362
0.361922741 0.407969773 0.260088593
0.381024957 0.413156182 0.258823216
0.401771009 0.419228196 0.266666532
0.426059455 0.425300181 0.275016189
0.450347960 0.431372464 0.283112168
0.469955474 0.437444568 0.290196180
0.500568926 0.445161283 0.297912896
0.528652787 0.453510195 0.306262165
0.554332852 0.462365508 0.313725471
0.587476254 0.468690574 0.322327167
0.618848860 0.480834812 0.332447708
0.648070991 0.492220014 0.350664169
0.679190338 0.505629301 0.365085334
0.714737594 0.529031932 0.387223125
0.748134017 0.540670395 0.401897192
0.166603580 0.402403116 0.228589132
0.172042981 0.407843322 0.232764170
0.175332189 0.408096343 0.237571403
0.179633409 0.405692548 0.241745979
0.184187114 0.403415143 0.236432970
0.196584150 0.409234822 0.241998985
0.203036055 0.410246938 0.239848241
0.212397560 0.409614533 0.240101278
0.225426987 0.410499960 0.242505044
0.243642986 0.416571975 0.245540664
0.253763437 0.412903517 0.246932149
0.268311143 0.415686280 0.250347555
0.285515249 0.422643721 0.254775137
0.297912985 0.422643721 0.255281150
0.318406373 0.425300539 0.258696973
0.331309348 0.428336322 0.259835780
0.347374946 0.432257921 0.265022546
0.371031135 0.437697947 0.271094561
0.392283559 0.440733582 0.274130195
0.411385179 0.445920140 0.280581564
0.433396459 0.452624679 0.286653876
0.458317548 0.458064228 0.294750541
0.482732028 0.464136958 0.306641549
0.510056436 0.470208943 0.312713563
0.536748827 0.479190230 0.321062833
0.563441038 0.489689857 0.329538435
0.591271520 0.501834571 0.339152128
0.624541402 0.508159518 0.345477134
0.654649019 0.518912137 0.365591198
0.688045681 0.532827318 0.384566724
0.720809579 0.547248542 0.401138514
0.754206002 0.568500996 0.425426573
0.175711975 0.432763994 0.252877980
0.178747594 0.435800374 0.249841571
0.179886028 0.436939001 0.249715045
0.183934212 0.436685979 0.254016221
0.193295538 0.436812371 0.260721028
0.208475918 0.439848006 0.260721028
0.213282615 0.440607011 0.256167024
0.221505463 0.438962728 0.255281687
0.234408870 0.437697917 0.257559001
0.249714985 0.440860063 0.257685483
0.262112737 0.444022924 0.263630956
0.276028246 0.446299762 0.267172724
0.292599946 0.450980306 0.270461619
0.310057044 0.456040949 0.273497969
0.325237453 0.456040949 0.279569954
0.340923816 0.458697170 0.275775015
0.358634174 0.461733162 0.278052211
0.380139560 0.465022385 0.286274999
0.401391983 0.468058050 0.292346984
0.422644377 0.471094370 0.300948620
0.445540965 0.478178710 0.307906002
0.470841169 0.485009789 0.316002309
0.497912467 0.488425016 0.327893972
0.525236905 0.494497031 0.333965987
0.550284505 0.505123019 0.342315257
0.574825943 0.517014325 0.350031972
0.600379169 0.529159009 0.357368946
0.630739927 0.541302979 0.369512945
0.658696830 0.550284863 0.383807778
0.693358600 0.563188195 0.399747193
0.729664922 0.576597333 0.415812969
0.760277987 0.586717069 0.434534997
0.187603012 0.468690753 0.268817365
0.193421990 0.471727133 0.271346986
0.200759143 0.472612739 0.272612154
0.203921571 0.471347570 0.273244739
0.209614009 0.470208913 0.276280820
0.217583582 0.473245144 0.273877025
0.227703974 0.473751068 0.276407361
0.236179352 0.473751068 0.274383396
0.247564733 0.473371655 0.277040005
0.258696854 0.476407260 0.281088024
0.276534081 0.479443610 0.281341016
0.290702105 0.480455756 0.283365011
0.305882305 0.482732445 0.286780357
0.322454095 0.486654013 0.291207999
0.340164781 0.486654013 0.292219996
0.357748359 0.491461009 0.298292011
0.374825984 0.493358403 0.299810022
0.394813210 0.495129615 0.306388229
0.416065663 0.498165786 0.310310006
0.437318057 0.501201332 0.313599378
0.458570391 0.508032739 0.320809722
0.482985139 0.514105022 0.327893615
0.510056496 0.515622854 0.338013679
0.532067895 0.524351716 0.344086349
0.557115555 0.530423701 0.354712367
0.584187329 0.541555762 0.367109656
0.611764789 0.553194046 0.378874451
0.639848232 0.563061357 0.393295705
0.670208991 0.577862203 0.405439705
0.701201856 0.587223589 0.422264308
0.736875534 0.600379705 0.441998571
0.769133329 0.613282382 0.465907365
0.201644734 0.501328468 0.285894990
0.209613979 0.506262124 0.288931072
0.210246772 0.507147729 0.295761734
0.216824830 0.505882561 0.295002967
0.220999092 0.503225744 0.293738008
0.230107471 0.504743874 0.292219818
0.242504790 0.507147729 0.298039049
0.251612753 0.505502999 0.291208029
0.262744844 0.506009042 0.292979002
0.271853238 0.509044945 0.301328003
0.285894990 0.513978601 0.301580995
0.303985208 0.514990747 0.305376470
0.319164842 0.516129076 0.305376470
0.334092051 0.518911719 0.309930474
0.349019825 0.518911719 0.313219458
0.371030986 0.521821439 0.318026453
0.390765190 0.527893484 0.322580278
0.408728302 0.528652489 0.328272879
0.427450746 0.530423701 0.332574457
0.456293106 0.533459902 0.333713114
0.475648195 0.534598172 0.338646710
0.495888442 0.542694449 0.343706608
0.520176709 0.544844985 0.351169735
0.539658368 0.553953350 0.360784560
0.566982567 0.558886766 0.369513005
