Assets/Shaders/EldamarStudio/100 Sci-Fi LUTs Pack/LUTs/cube/Liakyo LUT.cube
DOMAIN_MIN 0 0 0
DOMAIN_MAX 1 1 1
LUT_3D_SIZE 32
0.000000000 0.000000000 0.000000000
0.027324386 0.000000000 0.003036387
0.058949776 0.000000000 0.003922000
0.093611322 0.000000000 0.003922000
0.129285082 0.000000000 0.004301451
0.159645870 0.000000000 0.007337064
0.197596312 0.000000000 0.010373322
0.238709390 0.000000000 0.011765000
0.278937101 0.000759096 0.012523903
0.312333524 0.003795482 0.015559514
0.357368588 0.001012129 0.012776872
0.392789513 0.002024256 0.009740744
0.427704275 0.002783356 0.010119998
0.469702989 0.000000000 0.016698064
0.506134927 0.000000000 0.028842827
0.547374547 0.000000000 0.028969197
0.585325599 0.001518192 0.030486997
0.619355142 0.003922000 0.036558993
0.655788004 0.003921997 0.042631015
0.695003390 0.001138643 0.054269716
0.736369491 0.000000000 0.060721256
0.775838137 0.001012128 0.064769000
0.809487522 0.003795488 0.071094014
0.848956764 0.000759096 0.083238810
0.888425231 0.000000000 0.095382988
0.925110638 0.000000000 0.103352316
0.958507061 0.000506064 0.107400060
0.991903424 0.003542448 0.116508439
0.998734832 0.001265167 0.128272980
0.998228788 0.000000000 0.136874974
0.996078014 0.000000000 0.143832594
0.996078014 0.000000000 0.152941003
0.021252386 0.006072000 0.018215999
0.036432773 0.015180387 0.000000000
0.061606385 0.019481385 0.003036387
0.092346482 0.022517549 0.005186839
0.127767473 0.023150228 0.007337160
0.168754250 0.015180387 0.010373452
0.199114382 0.012650064 0.010879387
0.241998389 0.008855002 0.015053997
0.285009295 0.004554001 0.017077904
0.318406314 0.000759097 0.015559514
0.354711801 0.000885613 0.012776872
0.395825356 0.002024256 0.015812997
0.429222286 0.002783356 0.018089741
0.463884056 0.000253032 0.021758001
0.503099322 0.003036387 0.022770053
0.534724951 0.003036387 0.030107837
0.576217532 0.003036387 0.035041187
0.616318703 0.003289424 0.041998576
0.652751565 0.000885613 0.045667399
0.694750369 0.000885612 0.054522749
0.732574463 0.000000000 0.062618993
0.771790147 0.000000000 0.068817250
0.809614003 0.000885613 0.077292494
0.851992369 0.000759096 0.092346430
0.889184177 0.000000000 0.097659901
0.925110638 0.000000000 0.104743987
0.958507061 0.000506064 0.110942379
0.991903424 0.003542448 0.122580439
0.998734832 0.006578155 0.126375824
1.000000000 0.002530018 0.135610133
0.999114394 0.001770991 0.143832594
0.999114394 0.006072000 0.152941003
0.044655547 0.027197771 0.032131549
0.051233385 0.027704161 0.026818549
0.070714772 0.034661774 0.012902999
0.098797932 0.040733773 0.013409387
0.132953852 0.044275999 0.014294773
0.173687860 0.040480837 0.015559935
0.208222762 0.040733997 0.018216226
0.243516460 0.034408614 0.014927229
0.286021203 0.027830549 0.017457228
0.318026692 0.021758543 0.015812518
0.360784560 0.017204547 0.021378871
0.397216529 0.007084298 0.020366998
0.433143526 0.005946002 0.023908999
0.464010298 0.001897742 0.025932807
0.501581371 0.001138642 0.027830549
0.542441607 0.001771226 0.032637611
0.575838387 0.001771226 0.040227804
0.616951287 0.002403802 0.048703153
0.651865959 0.002403806 0.053257748
0.689563751 0.002150774 0.059709359
0.732068479 0.000253034 0.063124999
0.770019114 0.000000000 0.070714995
0.809487522 0.000126512 0.081087761
0.849968553 0.002150774 0.094243906
0.885768592 0.000000000 0.100316286
0.922201335 0.000000000 0.103352316
0.956356823 0.000000000 0.109677352
0.989753187 0.001391674 0.121821761
0.998734832 0.004427929 0.136748835
0.998228788 0.011005521 0.141555980
0.998734832 0.021884769 0.151169747
1.000000000 0.044402316 0.161542997
0.071474001 0.054522160 0.046805996
0.074509934 0.050221384 0.045541160
0.087919086 0.053636998 0.040733773
0.111701481 0.057178997 0.027324161
0.143959314 0.062491998 0.024667999
0.179000646 0.062491998 0.024667999
0.215939477 0.068817481 0.024668001
0.250094861 0.070335455 0.026565164
0.288045257 0.062745251 0.021252256
0.318911999 0.057179313 0.020746324
0.357495487 0.049842164 0.024414869
0.399494141 0.042757906 0.031246159
0.437064797 0.032131802 0.032384515
0.468058050 0.025933286 0.032511000
0.503478646 0.020872902 0.034535255
0.542188406 0.016445158 0.039974835
0.580392420 0.011385159 0.045034964
0.618090153 0.010752742 0.054775145
0.653384209 0.012524124 0.062112778
0.690828681 0.008981999 0.065654844
0.729791284 0.004554260 0.074256994
0.771284223 0.001518129 0.075269125
0.810499668 0.001391641 0.086401157
0.847691596 0.004427742 0.096268162
0.881341338 0.006704711 0.102846287
0.916128993 0.007589999 0.108412638
0.952561796 0.009614126 0.111448251
0.986717224 0.012650320 0.121315733
0.997469962 0.024161989 0.133712798
0.999493957 0.037065387 0.147375137
0.997343183 0.047944229 0.157874748
1.000000000 0.089690320 0.171157315
0.102213547 0.081846550 0.064642541
0.105629481 0.076154098 0.063883930
0.117267773 0.077925101 0.060088769
0.135610715 0.082226098 0.052751385
0.162935093 0.082226098 0.036812000
0.187223092 0.082226098 0.036812000
0.221884966 0.090828635 0.034661774
0.257305712 0.098039381 0.033776287
0.290702105 0.100695647 0.035294101
0.324098527 0.097660020 0.032258485
0.356103718 0.090702221 0.031119674
0.393421948 0.085262388 0.035041254
0.434788197 0.082226194 0.042251900
0.474003613 0.079190575 0.045034546
0.507526517 0.070335224 0.045034546
0.542947114 0.063124388 0.049082540
0.577482581 0.052877642 0.054775190
0.612777114 0.042631127 0.059709076
0.655282021 0.039595503 0.071853094
0.695382833 0.032131728 0.072865091
0.734092236 0.023782447 0.080455281
0.772422314 0.016698217 0.092346579
0.812017918 0.014042079 0.095382959
0.846173406 0.017330732 0.101202004
0.878051996 0.021884631 0.106894448
0.911954522 0.027577177 0.115117110
0.947248101 0.034661215 0.123213477
0.983680844 0.046805978 0.126249090
0.996204793 0.067678586 0.131182536
0.999620438 0.090828471 0.140796870
1.000000000 0.111701682 0.154839039
1.000000000 0.126882091 0.176091447
0.135609925 0.109170929 0.079822935
0.141682714 0.106135316 0.095003322
0.153700083 0.104743868 0.089943156
0.167615309 0.108285867 0.081846774
0.184187472 0.112586871 0.070208386
0.211511850 0.112586871 0.048955999
0.233270198 0.112586871 0.048955999
0.260847688 0.116255701 0.045161068
0.290702105 0.120050862 0.041366097
0.324098527 0.124984406 0.038330492
0.366223723 0.130676925 0.049841996
0.400632232 0.126122862 0.051359929
0.437824011 0.121695153 0.055154994
0.477039993 0.118658960 0.060214929
0.513472736 0.115623355 0.060214929
0.546995640 0.118785799 0.060214929
0.579380333 0.114737540 0.067298926
0.612777114 0.106388211 0.077925146
0.655282021 0.103351891 0.090069868
0.697786033 0.103098929 0.091081865
0.734092295 0.099683605 0.091081865
0.767488897 0.095635593 0.096647799
0.799873114 0.092978850 0.104490571
0.842377901 0.099050865 0.107526965
0.878810585 0.100062795 0.111068711
0.917014360 0.102466464 0.120176710
0.955976963 0.107526734 0.132321119
0.983680844 0.119670749 0.135357469
0.996204793 0.129158676 0.135736927
0.998228788 0.144338995 0.143832907
0.997469664 0.159266472 0.156862646
1.000000000 0.169386864 0.173055053
0.176596642 0.144085646 0.110183313
0.182669416 0.138519704 0.110183708
0.197343633 0.139785096 0.125363544
0.210373119 0.142694637 0.123086318
0.221252635 0.147628099 0.117014192
0.237824261 0.145477325 0.100063346
0.262618959 0.148007646 0.073750958
0.285515606 0.143073931 0.062239263
0.312713504 0.143326998 0.055534542
0.344339162 0.149398997 0.059582487
0.373814046 0.158001304 0.068564318
0.410246551 0.162049577 0.068564326
0.445920229 0.163187981 0.073244959
0.484630316 0.165464640 0.082479641
0.516508520 0.160151735 0.077925637
0.557748258 0.159519315 0.080328830
0.596078396 0.163820505 0.085009508
0.631119549 0.160025388 0.094244055
0.667931676 0.156988993 0.100695610
0.710436344 0.161795959 0.106767677
0.754838467 0.159898698 0.106767677
0.787729263 0.157874957 0.107779808
0.815053344 0.156483278 0.113472320
0.847944081 0.157748282 0.114104904
0.885894835 0.163820267 0.121695280
0.922327578 0.167109281 0.128019944
0.960531354 0.171284020 0.139405131
0.989879429 0.177356273 0.144465774
0.993674457 0.184313789 0.152435005
0.999240875 0.196964145 0.163061395
0.996837378 0.211258933 0.174952626
0.994939983 0.222011641 0.185199320
0.214168116 0.180518404 0.141935408
0.228463173 0.172801703 0.147122070
0.233270407 0.171536759 0.148766622
0.248956412 0.174573153 0.160151392
0.258064717 0.179506704 0.159771949
0.267678708 0.177735463 0.147122338
0.286653906 0.183048725 0.123466365
0.306008995 0.182795703 0.099430986
0.329538107 0.173687309 0.079696596
0.357242286 0.175331697 0.081720218
0.387982577 0.182669282 0.085894860
0.419354945 0.187729254 0.088171996
0.452751338 0.193042636 0.086653985
0.491208315 0.202150434 0.099304311
0.525743008 0.203036115 0.097406991
0.559139550 0.201771110 0.098545179
0.601644397 0.200252920 0.100062989
0.644149125 0.204301268 0.108791851
0.680581689 0.205313146 0.113851734
0.715749502 0.207337111 0.114737421
0.758507192 0.209361136 0.118658699
0.800000131 0.208349258 0.118658699
0.826691747 0.209234685 0.121315494
0.860088527 0.212270677 0.125869706
0.893358529 0.213535681 0.132700980
0.929791272 0.218216360 0.137634695
0.964706004 0.223529458 0.146489412
0.993927717 0.226565853 0.154838890
0.997722745 0.232258394 0.165211841
0.996204495 0.241998881 0.173054680
0.999240875 0.255408287 0.187729269
0.995445967 0.266793400 0.193801284
0.249842182 0.215433195 0.171537101
0.268817484 0.208601892 0.178368002
0.277293205 0.205186188 0.184187099
0.283112079 0.207210258 0.188994184
0.294117630 0.210246637 0.195445746
0.299810201 0.210626185 0.188615113
0.313725293 0.215180323 0.168374553
0.328778803 0.219987571 0.144971594
0.346236259 0.216192096 0.125996083
0.367488682 0.207083702 0.110815704
0.396584511 0.208728835 0.102593198
0.429222226 0.212017938 0.102593191
0.463377714 0.217330649 0.102593094
0.496774107 0.226692066 0.109424129
0.535230458 0.236306503 0.114484504
0.568247557 0.241240099 0.118279375
0.601644397 0.240481004 0.119797193
0.644149125 0.239342183 0.119164616
0.686653972 0.248324051 0.127766967
0.720303655 0.249842182 0.128020450
0.757495463 0.250601083 0.128020450
0.796205163 0.250095159 0.130803093
0.829601526 0.253130764 0.131182596
0.865401804 0.258570194 0.140291005
0.898039281 0.261606187 0.147122279
0.932827294 0.263756752 0.152814895
0.967742026 0.266287088 0.154332966
0.995066404 0.269070417 0.166223988
1.000000000 0.274004102 0.176849976
0.998987854 0.283618063 0.186970159
0.996963620 0.293358684 0.193801075
1.000000000 0.302467078 0.199873090
0.292346984 0.245793998 0.198861510
0.304490983 0.245793998 0.189753115
0.314864278 0.243263707 0.194433793
0.326122820 0.244148999 0.205692679
0.339658052 0.249715060 0.219734535
0.342694432 0.252751440 0.228842929
0.350917310 0.250600666 0.214421362
0.360404760 0.253004432 0.192663014
0.373560727 0.255661279 0.171537295
0.397849500 0.249588504 0.159392506
0.416191995 0.240480870 0.129665002
0.443137050 0.238077521 0.120809987
0.475901306 0.241619349 0.119671345
0.511954546 0.250980079 0.118532531
0.545350909 0.263124853 0.133712903
0.579000294 0.275142521 0.141176492
0.610752404 0.280708522 0.144085974
0.644149125 0.281847000 0.143453404
0.686653972 0.287918985 0.140417024
0.726375401 0.291334867 0.146236733
0.765464723 0.294244230 0.148134500
0.802024245 0.295129657 0.149272844
0.832637906 0.292599946 0.152435005
0.866034329 0.295635581 0.161543399
0.895003259 0.301074982 0.163820490
0.926755309 0.306893975 0.165591314
0.961670041 0.311827511 0.169512585
0.988994420 0.311827511 0.178620964
0.997723043 0.314610869 0.185198992
1.000000000 0.323086470 0.195066422
0.999873459 0.332574099 0.206072345
1.000000000 0.335863531 0.215053499
0.331941843 0.287792742 0.223276734
0.338266850 0.287792742 0.228716224
0.350410879 0.285641968 0.232510835
0.362808168 0.285135895 0.240354180
0.377608836 0.289184064 0.250601172
0.388235509 0.292219788 0.264768928
0.393801630 0.292725861 0.256166995
0.409108430 0.295002729 0.245287746
0.423276365 0.299557000 0.229348645
0.436811835 0.297785759 0.210752621
0.449462593 0.291713744 0.181150883
0.469702870 0.278558135 0.152814627
0.492852747 0.272992104 0.141429350
0.518659115 0.275268734 0.135863036
0.554712296 0.287412822 0.145730406
0.588108659 0.299556971 0.151296809
0.621505022 0.313219190 0.156862870
0.654522121 0.321441859 0.160278291
0.692472994 0.327513844 0.161795899
0.726628423 0.330803216 0.158760220
0.762049198 0.333839595 0.162555248
0.798482239 0.336875498 0.163567126
0.832637966 0.337760866 0.164452523
0.863251030 0.338013828 0.162428916
0.894370675 0.338772744 0.169259995
0.925110638 0.342188418 0.170524999
0.958507180 0.347248524 0.174066931
0.985831559 0.354458749 0.187982321
0.997217000 0.357115567 0.199746847
1.000000000 0.356609523 0.206324846
1.000000000 0.363946468 0.216192335
1.000000000 0.375078857 0.227324739
0.377482474 0.330297500 0.257685244
0.381530762 0.336369246 0.267805219
0.389879495 0.332194716 0.271979988
0.400758654 0.331688643 0.282352746
0.414800614 0.335104495 0.290322781
0.430234343 0.339784831 0.302213818
0.447438747 0.342315018 0.304743469
0.450221747 0.340670317 0.292599469
0.466540486 0.344844848 0.282732487
0.476913273 0.346110016 0.262745231
0.484882981 0.338266760 0.230739743
0.503099501 0.338266492 0.210499749
0.517520607 0.319671214 0.179759711
0.532321036 0.310436487 0.162681714
0.565211833 0.313725233 0.161163658
0.603289306 0.323845476 0.161416546
0.632131457 0.334471673 0.162934735
0.663377404 0.348640054 0.167362303
0.697027206 0.358886778 0.170398295
0.728652418 0.368247867 0.169892341
0.762049198 0.371283740 0.172548994
0.795446098 0.373307973 0.176723242
0.830866754 0.375458270 0.179000244
0.865022242 0.379253745 0.181656897
0.899430811 0.381277502 0.185452506
0.927008212 0.384060502 0.187349826
0.958001137 0.388235241 0.188741237
0.986843646 0.395825058 0.202403411
0.996204793 0.397596061 0.216951221
1.000000000 0.400632441 0.225553229
1.000000000 0.399873376 0.230739847
1.000000000 0.410499752 0.239468992
0.430613548 0.386464536 0.301707923
0.435926676 0.392156810 0.312713265
0.443263799 0.393927544 0.319544405
0.452371716 0.390512079 0.322960258
0.461480021 0.392789483 0.335483819
0.477419496 0.396584570 0.346110195
0.495888948 0.401265234 0.354712218
0.511322260 0.402150869 0.350663900
0.512081325 0.399873555 0.338519931
0.523086905 0.402530402 0.321062863
0.531688929 0.396205068 0.286021292
0.543327212 0.391777277 0.261353523
0.560025275 0.391397566 0.242757991
0.563313901 0.367109507 0.206072241
0.586590469 0.357874483 0.188108861
0.618469357 0.355344415 0.176976472
0.654902220 0.363314450 0.177735284
0.679190218 0.373687685 0.178367853
0.708539009 0.388867974 0.181404248
0.738899291 0.402403653 0.180518627
0.767741859 0.409993529 0.186590627
0.801138759 0.415053427 0.192662627
0.834661663 0.415685892 0.198355153
0.871094465 0.421758443 0.201391295
0.905249894 0.424414992 0.207463562
0.936116576 0.426565260 0.211638600
0.960910678 0.432637274 0.211132273
0.990638852 0.438709259 0.223276272
0.997469962 0.441745549 0.234661445
1.000000000 0.443516463 0.244528607
1.000000000 0.447438270 0.254142851
1.000000000 0.450727642 0.258444279
0.489058018 0.462113053 0.351297021
0.497659624 0.462366015 0.360404611
0.507020831 0.464769334 0.367615074
0.516635180 0.466540098 0.372928232
0.526502550 0.466413617 0.377229571
0.535610139 0.463377982 0.392409950
0.549019396 0.468438059 0.407084346
0.565464795 0.471221060 0.412397414
0.576344073 0.471221060 0.400759041
0.579380453 0.471221060 0.388615012
0.591145098 0.468311191 0.352055490
0.601265311 0.463251054 0.321948081
0.610373437 0.457179070 0.297659814
0.620240092 0.450601071 0.272359014
0.626312137 0.426312327 0.232890680
0.645034611 0.408222318 0.206578240
0.673624337 0.402150363 0.196710989
0.708285987 0.409108460 0.202150568
0.732574105 0.424288124 0.205186963
0.761669695 0.438962430 0.202403679
0.789247453 0.448956043 0.208602041
0.815813124 0.456293166 0.218469024
0.848829985 0.465401530 0.224541023
0.884756804 0.471600085 0.221884891
0.916382015 0.473877102 0.225679994
0.944465280 0.474383086 0.230613708
0.969007015 0.474889100 0.234914988
0.996331394 0.480961084 0.247058988
1.000000000 0.486780643 0.253637016
1.000000000 0.491081804 0.259962052
0.999746978 0.495003045 0.270335197
0.999746978 0.501075089 0.288552016
0.522454381 0.501581371 0.378621399
0.525489986 0.504616976 0.387728989
0.536242962 0.509171546 0.396837175
0.549019635 0.512081206 0.405312955
0.563314021 0.512081206 0.413535804
0.581151247 0.511954725 0.425806314
0.587729216 0.521568775 0.435926706
0.608855247 0.525869787 0.457811803
0.625427008 0.525869787 0.464010328
0.615812421 0.525869787 0.434155375
0.627577662 0.522959888 0.416192383
0.637697577 0.517899752 0.383428365
0.646805584 0.511827767 0.355344951
0.656672895 0.505249798 0.330044150
0.674889624 0.493105799 0.293611407
0.678557813 0.466413826 0.256546199
0.692093551 0.449209243 0.230866179
0.715496540 0.444022536 0.220366552
0.747754455 0.448576868 0.223402932
0.769259810 0.458191156 0.218089968
0.801897466 0.470461816 0.222138137
0.831752241 0.481340796 0.229854688
0.857938409 0.492725909 0.233649403
0.882226467 0.501834273 0.239721417
0.911321878 0.510310113 0.243895978
0.940670311 0.516129196 0.249968320
0.968753994 0.519924164 0.255914330
0.993295014 0.520430207 0.265274972
0.999367416 0.523845375 0.269449800
1.000000000 0.527514160 0.276660591
0.999114394 0.531435788 0.290449381
0.996710598 0.537507832 0.315876395
0.558254540 0.555471361 0.417963564
0.563694000 0.556103826 0.422264189
0.575332165 0.556989193 0.437824130
0.588994384 0.560025573 0.447691232
0.603415132 0.560405016 0.457178861
0.615559638 0.562428772 0.469323397
0.630866587 0.567741752 0.478937119
0.643516600 0.573307753 0.492979199
0.665528059 0.574825943 0.511195779
0.664895415 0.578115404 0.492599756
0.661606491 0.572801709 0.476154387
0.667679012 0.569765866 0.447818130
0.678304791 0.562934756 0.415560097
0.689942777 0.556103587 0.387476265
0.701707780 0.552561581 0.348892778
0.717520773 0.538013756 0.322074562
0.720556378 0.512207568 0.287159979
0.733459532 0.493991047 0.257305503
0.759771943 0.481087774 0.232004955
0.782036364 0.484883130 0.231498986
0.805186450 0.493991017 0.229221985
0.835547268 0.505629241 0.236812323
0.860215485 0.517520547 0.243010789
0.891334832 0.524351716 0.253636807
0.917900085 0.535736799 0.261986077
0.943832755 0.546362996 0.269576252
0.970651269 0.554459095 0.276660770
0.993041992 0.558254540 0.283871114
0.998734832 0.560910702 0.299683630
0.998228788 0.563946784 0.300948799
0.998481810 0.567868531 0.309930563
0.998481810 0.573940575 0.331182986
0.599241138 0.602530360 0.466540366
0.602277160 0.611638367 0.463503957
0.613282740 0.610120177 0.475774705
0.627198279 0.608855367 0.487666339
0.642125130 0.608981788 0.496647567
0.653510511 0.612017453 0.508792043
0.663124740 0.614547372 0.524478257
0.678431153 0.618848562 0.535483599
0.695888221 0.619607687 0.551423252
0.706514657 0.624921381 0.549146414
0.704111159 0.620872855 0.529791296
0.707147419 0.616824448 0.511574924
0.709045172 0.614927173 0.483871192
0.721821368 0.607210398 0.454522491
0.730929792 0.604680359 0.416318536
0.741808772 0.594180763 0.382795393
0.756989181 0.582036376 0.346362978
0.760657370 0.557115793 0.314231604
0.777482152 0.531941593 0.274003625
0.789626539 0.519038737 0.248956189
0.814294517 0.522833645 0.248956189
0.840607285 0.530929387 0.249968320
0.865781486 0.541935444 0.258064687
0.893611908 0.549399137 0.268817395
0.922454298 0.556989193 0.277166456
0.948386967 0.567741871 0.284883171
0.971663117 0.579759359 0.293864906
0.991903603 0.587855816 0.300948799
0.997216642 0.594307482 0.314611137
0.996710956 0.600379586 0.325237185
0.993674576 0.605186760 0.330550164
0.995445788 0.611891150 0.346362978
0.641619146 0.640860498 0.516761541
0.644149125 0.655914128 0.512080729
0.653383672 0.660341322 0.517014325
0.664262831 0.657937706 0.528399706
0.676028073 0.656420112 0.532195091
0.690702438 0.659961760 0.544086099
0.697659969 0.659835100 0.560025275
0.708665431 0.661479831 0.578241527
0.722580194 0.664516032 0.591524184
0.737760603 0.667552412 0.600632608
0.740923107 0.665401638 0.583427906
0.745097816 0.662365437 0.563946426
0.751423120 0.660467684 0.545097709
0.751929104 0.660214663 0.525869668
0.760657966 0.654522061 0.490195870
0.769765913 0.643643081 0.456925631
0.780012310 0.633649468 0.416950852
0.793927550 0.624541104 0.368374109
0.799999595 0.597216606 0.341049641
0.805186510 0.571410656 0.300442517
0.820872903 0.557874799 0.278178126
0.846046686 0.559392571 0.274762690
0.876154423 0.565844059 0.277925551
0.897912920 0.575964451 0.286527872
0.921821713 0.582795560 0.292726427
0.949019551 0.590891778 0.301328540
0.972801626 0.599494159 0.308412552
0.991144836 0.611385107 0.317646682
0.995445728 0.620872736 0.328146636
0.994939625 0.630613744 0.339911520
0.993168950 0.639089525 0.348893106
0.990132570 0.648197114 0.367109120
0.671980023 0.686401010 0.550158024
0.684123993 0.689437449 0.562301993
0.697406769 0.693738222 0.564072967
0.708538949 0.695002973 0.569133162
0.715496600 0.695888579 0.577735603
0.724604964 0.704996943 0.586843967
0.729158700 0.703478634 0.591144681
0.739025772 0.703984737 0.605565786
0.752688050 0.707020879 0.625300229
0.762049496 0.710056484 0.643137515
0.774320006 0.710183024 0.646426141
0.777355969 0.707906306 0.630992711
0.779253662 0.706008971 0.606831014
0.782289982 0.705755949 0.577482998
0.788362026 0.702719569 0.547122240
0.797090828 0.692220032 0.523466229
0.804681003 0.683112025 0.493358642
0.812144399 0.676154435 0.453383893
0.821252048 0.667046010 0.404807001
0.832890749 0.636938989 0.366350621
0.846173763 0.608981788 0.332321525
0.862365842 0.591271043 0.308539033
0.879190087 0.587096572 0.293106019
0.903478861 0.602276921 0.299178004
0.922959983 0.610120058 0.303225756
0.947501302 0.618975401 0.313472420
0.975838065 0.629855037 0.329665005
0.997090399 0.635927022 0.341808975
0.999494016 0.645161152 0.348386973
0.997975767 0.656040490 0.363820195
0.996710658 0.666161001 0.382036567
0.999240994 0.672486007 0.397469968
0.738520145 0.745856762 0.616951108
0.739532113 0.754459143 0.623529077
0.745224357 0.757495522 0.629221857
0.756609678 0.758001268 0.632384419
0.766097546 0.755724072 0.639595091
0.775205374 0.752814651 0.646299720
0.781784058 0.756863058 0.650348067
0.786717415 0.757621706 0.658317447
0.795445979 0.760657787 0.673118174
0.800505877 0.763693929 0.685262740
0.815306783 0.763820410 0.700063586
0.823402762 0.759772420 0.692978919
0.824920774 0.758254468 0.677419066
0.825553417 0.759139717 0.656926095
0.821505427 0.751043320 0.626565337
0.827577412 0.748007536 0.601012170
0.834788024 0.741555929 0.577862084
0.841492593 0.735483766 0.546489358
0.850600779 0.724225104 0.506514490
0.870841146 0.715116739 0.469070464
0.877293169 0.688551784 0.423909396
0.885895371 0.662112713 0.385199457
0.896015227 0.643390417 0.354206264
0.917647183 0.634661317 0.331056386
0.941935360 0.643010974 0.337128371
0.959771991 0.650474429 0.342061728
0.979633093 0.660721123 0.354206085
0.991777420 0.669070423 0.368627340
0.997090220 0.675142407 0.383428186
0.998987854 0.682352722 0.393421710
0.996204793 0.694244266 0.409866959
0.991650641 0.707906723 0.425047368
0.779886007 0.783807456 0.660214722
0.779886007 0.785325348 0.670082211
0.787729502 0.793927789 0.674003482
0.785705090 0.794434130 0.670714676
0.794180989 0.792156935 0.674130261
0.807842791 0.790638745 0.684756458
0.810625911 0.794054270 0.693991065
0.821631968 0.793801725 0.703605413
0.829981208 0.794813395 0.714484453
0.836432695 0.795572460 0.722454190
0.845414340 0.799493968 0.729791582
0.850727439 0.801138699 0.738140702
0.853383839 0.796205103 0.729411602
0.853383720 0.796963751 0.719038427
0.855534434 0.789500058 0.695256114
0.853383720 0.785199225 0.664010227
0.857937932 0.783681452 0.639721811
0.864263058 0.781657219 0.614800632
0.873371482 0.774573147 0.582162976
0.884124100 0.767109096 0.547628105
0.901581049 0.756103456 0.516887963
0.905629516 0.730803311 0.468311191
0.912460685 0.703352451 0.426185697
0.935483873 0.680581689 0.391777277
0.949525774 0.672612309 0.368627459
