Assets/Shaders/EldamarStudio/100 Sci-Fi LUTs Pack/LUTs/cube/Liakyo LUT.cube
LUT_3D_SIZE 5
DOMAIN_MIN 0.000000 0.000000 0.000000
DOMAIN_MAX 0.903226 0.903226 0.903226
0.000000000 0.000000000 0.000000000
0.238709390 0.000000000 0.011765000
0.506134927 0.000000000 0.028842827
0.775838137 0.001012128 0.064769000
0.998734832 0.001265167 0.128272980
0.214168116 0.180518404 0.141935408
0.306008995 0.182795703 0.099430986
0.525743008 0.203036115 0.097406991
0.800000131 0.208349258 0.118658699
0.997722745 0.232258394 0.165211841
0.522454381 0.501581371 0.378621399
0.608855247 0.525869787 0.457811803
0.674889624 0.493105799 0.293611407
0.831752241 0.481340796 0.229854688
0.999367416 0.523845375 0.269449800
0.803162158 0.809108138 0.691587389
0.837823927 0.823149860 0.734977841
0.878684402 0.818216145 0.749399304
0.919797242 0.790512204 0.552308381
1.000000000 0.722833335 0.426438987
0.928272963 0.955724001 0.916887760
0.939405441 0.960657895 0.949019492
0.951676190 0.963566959 0.974066794
0.962428689 0.958001316 0.931941509
0.996078014 0.955850840 0.805818617
0.004554003 0.028462704 0.296900392
0.270082414 0.001644708 0.264516115
0.513978839 0.002277292 0.271726668
0.775458276 0.001644708 0.299810290
0.994939983 0.000000000 0.286400825
0.000000000 0.239974394 0.298545092
0.260594696 0.181783393 0.282479405
0.528399348 0.146489397 0.280202240
0.779380262 0.043896224 0.283744574
0.998734832 0.093991183 0.305376410
0.337001711 0.461986095 0.336369276
0.488678098 0.472865224 0.394939810
0.625427067 0.465654790 0.389753371
0.806831241 0.474130213 0.356989235
0.998734832 0.497026980 0.375331789
0.749399185 0.792789102 0.663124263
0.801265121 0.800000131 0.696141660
0.876280725 0.816951573 0.781150937
0.905376434 0.777735353 0.604807258
1.000000000 0.730676711 0.510056853
0.921062708 0.955470920 0.927134812
0.931435823 0.959266067 0.942820966
0.950664103 0.961543143 0.974066973
0.962175727 0.963187873 0.951296628
0.997469962 0.951169968 0.833143651
0.000000000 0.115749411 0.660594583
0.102972709 0.000000000 0.635926485
0.551928759 0.000000000 0.563061178
0.773308098 0.001012128 0.546362996
0.993042350 0.000000000 0.556989014
0.001265006 0.339405388 0.671220958
0.002277292 0.229221687 0.656546772
0.555471122 0.065022290 0.583934247
0.779759347 0.006831284 0.552182078
0.993927658 0.001644708 0.556736052
0.003922000 0.586590409 0.669575810
0.201771095 0.569892466 0.660721123
0.538772881 0.447311819 0.618595839
0.789879978 0.388487965 0.556103647
0.993042409 0.410246372 0.561796248
0.315496355 0.711574852 0.593042314
0.459202945 0.728273153 0.611384988
0.723972201 0.738646388 0.666160345
0.857811391 0.741555810 0.695256352
0.977355778 0.758633673 0.671347499
0.872738421 0.950537682 0.893991172
0.902593136 0.955471098 0.917141080
0.930044413 0.957621574 0.963567197
0.962808430 0.970778227 0.990385592
0.997469962 0.957115650 0.894496977
0.001012128 0.180518985 0.920936108
0.001012128 0.052751713 0.916634977
0.453763187 0.001265006 0.879823089
0.766982973 0.000000000 0.807210386
0.989120781 0.000000000 0.807842970
0.000000000 0.360910416 0.928652525
0.002277127 0.283491284 0.918659270
0.443263501 0.171410397 0.892093718
0.773181140 0.000632580 0.816065729
0.991144776 0.000000000 0.813662529
0.150157839 0.648956537 0.936242998
0.358760208 0.635926485 0.933965683
0.491334200 0.511068940 0.909171104
0.769892573 0.395445913 0.834028959
0.993674994 0.344844759 0.816192269
0.410499513 0.821884990 0.931562304
0.499051243 0.823149979 0.916255534
0.659076393 0.821252406 0.913093150
0.808096230 0.741682231 0.865148246
0.984313488 0.688678265 0.798734963
0.461226910 0.927134633 0.811385095
0.530803382 0.929158747 0.823782444
0.745730519 0.932700634 0.858443737
0.932320774 0.955597639 0.965338469
0.974320114 0.956736147 0.969892442
0.000000000 0.240606993 0.994687021
0.001644708 0.160910994 0.998734832
0.073750600 0.086653784 0.998735011
0.638709486 0.000000000 0.998987854
0.910056949 0.001265167 1.000000000
0.002909876 0.372675419 1.000000000
0.000000000 0.330929816 0.996711016
0.153447106 0.260341793 1.000000000
0.641745567 0.204933345 0.997722685
0.908159196 0.026312394 0.996711016
0.380265355 0.652498841 0.993421972
0.392789245 0.627071381 0.994433701
0.463504225 0.557241917 0.996710658
0.684376895 0.507906020 1.000000000
0.919797421 0.403668344 0.997343183
0.692979097 0.875268996 0.998987854
0.718406141 0.874762952 1.000000000
0.777862072 0.866666973 1.000000000
0.811258912 0.803289115 0.998734832
0.929790735 0.710563004 0.998987854
0.745730460 0.956989169 0.992030203
0.758001208 0.962555051 0.996331275
0.819987655 0.962302148 0.994054437
0.906514943 0.969133615 0.997722685
0.966223836 0.958506942 0.998734832
