Assets/Shaders/EldamarStudio/100 Sci-Fi LUTs Pack/LUTs/cube/Liakyo LUT.cube
LUT_3D_SIZE 8
DOMAIN_MIN 0.000000 0.000000 0.000000
DOMAIN_MAX 0.903226 0.903226 0.903226
0.000000000 0.000000000 0.000000000
0.129285082 0.000000000 0.004301451
0.278937101 0.000759096 0.012523903
0.427704275 0.002783356 0.010119998
0.585325599 0.001518192 0.030486997
0.736369491 0.000000000 0.060721256
0.888425231 0.000000000 0.095382988
0.998734832 0.001265167 0.128272980
0.102213547 0.081846550 0.064642541
0.162935093 0.082226098 0.036812000
0.290702105 0.100695647 0.035294101
0.434788197 0.082226194 0.042251900
0.577482581 0.052877642 0.054775190
0.734092236 0.023782447 0.080455281
0.878051996 0.021884631 0.106894448
0.996204793 0.067678586 0.131182536
0.249842182 0.215433195 0.171537101
0.294117630 0.210246637 0.195445746
0.346236259 0.216192096 0.125996083
0.463377714 0.217330649 0.102593094
0.601644397 0.240481004 0.119797193
0.757495463 0.250601083 0.128020450
0.898039281 0.261606187 0.147122279
1.000000000 0.274004102 0.176849976
0.430613548 0.386464536 0.301707923
0.461480021 0.392789483 0.335483819
0.512081325 0.399873555 0.338519931
0.560025275 0.391397566 0.242757991
0.654902220 0.363314450 0.177735284
0.767741859 0.409993529 0.186590627
0.905249894 0.424414992 0.207463562
0.997469962 0.441745549 0.234661445
0.599241138 0.602530360 0.466540366
0.642125130 0.608981788 0.496647567
0.695888221 0.619607687 0.551423252
0.709045172 0.614927173 0.483871192
0.756989181 0.582036376 0.346362978
0.814294517 0.522833645 0.248956189
0.922454298 0.556989193 0.277166456
0.997216642 0.594307482 0.314611137
0.779886007 0.783807456 0.660214722
0.794180989 0.792156935 0.674130261
0.829981208 0.794813395 0.714484453
0.853383839 0.796205103 0.729411602
0.857937932 0.783681452 0.639721811
0.901581049 0.756103456 0.516887963
0.949525774 0.672612309 0.368627459
0.996710896 0.699050963 0.406957567
0.876407564 0.886527240 0.799241006
0.878431678 0.888551533 0.809866846
0.895509124 0.893611372 0.835294127
0.922327638 0.893864632 0.865401924
0.923592269 0.893611610 0.837571144
0.935104251 0.883997262 0.772422314
0.971157610 0.869196534 0.659329534
1.000000000 0.796710670 0.526502430
0.928272963 0.955724001 0.916887760
0.935483694 0.960151792 0.936495900
0.941429377 0.956862807 0.948260546
0.955850780 0.962555170 0.961290479
0.953573823 0.962049186 0.975205481
0.961669743 0.959013045 0.939785063
0.979380310 0.958380818 0.886527359
0.996078014 0.955850840 0.805818617
0.000379548 0.008601999 0.162555546
0.142568097 0.003542452 0.146489099
0.292220205 0.000000000 0.153953537
0.430486917 0.000379548 0.166097194
0.571536958 0.001138644 0.169260100
0.732574463 0.000000000 0.170651287
0.876407266 0.002277288 0.178494379
0.990132689 0.001265167 0.198608249
0.000000000 0.125363991 0.154712558
0.150031537 0.096774548 0.164199561
0.289436758 0.069323540 0.161416993
0.430486947 0.021126095 0.157495186
0.578620911 0.002403808 0.166097283
0.731056392 0.000000000 0.176597014
0.882858515 0.000000000 0.192663103
0.998734832 0.001138547 0.217457250
0.171537101 0.216951191 0.182542995
0.249083191 0.219734550 0.195445746
0.339531720 0.212650552 0.202529654
0.451612830 0.219228283 0.199367538
0.596584737 0.220746294 0.206831187
0.744212449 0.217710197 0.206451729
0.882605851 0.225047454 0.216192380
0.995825231 0.245287910 0.238456815
0.375584722 0.373687923 0.297533274
0.420113921 0.374446809 0.307527184
0.500695884 0.388614804 0.368754268
0.536369503 0.372928917 0.277925193
0.634788096 0.364452899 0.241619542
0.764199913 0.401391596 0.259582520
0.906641483 0.418343097 0.266413987
0.996837080 0.434661269 0.284756422
0.556862354 0.580771804 0.448576748
0.592156589 0.588235259 0.470208734
0.665527880 0.603668809 0.532574475
0.703225791 0.605186760 0.518911958
0.741303146 0.569892824 0.383554518
0.804301023 0.515749633 0.292093366
0.910942614 0.557115853 0.322960019
0.995951772 0.595825315 0.362681985
0.748386979 0.765717983 0.641366243
0.773561060 0.775331914 0.659076929
0.805692375 0.781151295 0.691714227
0.847058833 0.793421924 0.735357106
0.854016542 0.779379845 0.659076571
0.889689982 0.744718492 0.529158711
0.945730686 0.667425573 0.395698994
0.998481810 0.699177861 0.435800016
0.862998247 0.883997262 0.781151056
0.871600270 0.885009587 0.800632536
0.887159884 0.890828729 0.824794531
0.910183251 0.891081512 0.857558846
0.921189070 0.893611372 0.855787516
0.933459520 0.887160182 0.781783462
0.964452803 0.878810823 0.691714108
0.999620438 0.808854997 0.559392691
0.922707260 0.955977261 0.918659210
0.936369300 0.958380818 0.927767336
0.934345126 0.956989169 0.944212854
0.951043665 0.958507359 0.960657716
0.958001375 0.960531175 0.979380190
0.959772170 0.958507359 0.949905097
0.969639599 0.956483126 0.889943063
1.000000000 0.944718659 0.813915312
0.000000001 0.039089095 0.343959183
0.062618896 0.000000000 0.328273207
0.310310096 0.003162904 0.303225994
0.439468384 0.000759096 0.303605556
0.581404209 0.000759096 0.307906270
0.735736549 0.003162904 0.329918087
0.874383569 0.000000000 0.331309378
0.994939983 0.000000000 0.320556194
0.006325001 0.167235643 0.335610628
0.007590087 0.111322001 0.319544286
0.299683630 0.036053091 0.311069101
0.443137556 0.003415641 0.296900988
0.584186912 0.000000000 0.317393988
0.724225104 0.000000000 0.324351281
0.879822552 0.000000000 0.330550492
0.995825291 0.001265167 0.327893674
0.000759096 0.274130285 0.348640084
0.121821538 0.280075759 0.348640174
0.300822198 0.209867105 0.322707266
0.464262843 0.184820086 0.317773551
0.599367440 0.169260010 0.321315169
0.742441714 0.129664630 0.322960228
0.883871078 0.096647762 0.320430011
0.996204793 0.141808838 0.338013828
0.170525074 0.360151589 0.325743288
0.237950385 0.359012932 0.319038749
0.377861798 0.360151559 0.333586395
0.508032799 0.349146277 0.358001173
0.613282502 0.364200085 0.349019647
0.758380473 0.367615610 0.352814645
0.897533000 0.375584900 0.363946736
0.995445728 0.403541803 0.374067038
0.395572186 0.548387289 0.407084376
0.444276094 0.547375321 0.424541265
0.565591514 0.561669707 0.477040172
0.689183891 0.585199296 0.557748377
0.710816145 0.548387289 0.446553200
0.788108587 0.521315813 0.391271442
0.901201546 0.565464735 0.423656195
0.994180858 0.586970389 0.445793629
0.679063559 0.743200660 0.617836595
0.708665431 0.750664294 0.631246209
0.765085161 0.757242084 0.664769113
0.825300395 0.776976645 0.720177114
0.848197401 0.773054779 0.706008852
0.877040088 0.735989809 0.586084962
0.931436002 0.668943524 0.472991765
0.995951831 0.710689425 0.512081027
0.835167587 0.876786530 0.766729772
0.847944438 0.879822969 0.785452068
0.877293110 0.879443347 0.812650263
0.900948822 0.885262489 0.850094676
0.921821415 0.896647334 0.876660466
0.935483932 0.890701950 0.818216264
0.962555468 0.872865379 0.719671309
0.998102248 0.815306783 0.606578231
0.917267561 0.956989169 0.920303702
0.921568513 0.957368672 0.930170298
0.934724987 0.956989169 0.942820966
0.945730329 0.961922705 0.964073122
0.958507240 0.962934852 0.989373922
0.960657835 0.962175965 0.969006956
0.966729999 0.956989169 0.918152809
1.000000000 0.952181935 0.841745853
0.002783356 0.091967344 0.557621658
0.000000000 0.000379548 0.547121882
0.287539214 0.000000000 0.520050347
0.472485989 0.000000000 0.474763006
0.598861814 0.000000000 0.463883281
0.733080089 0.002024260 0.471979737
0.880455673 0.000000000 0.483111918
0.996204793 0.001138644 0.488931090
0.001517999 0.202909276 0.545857310
0.000759096 0.135863438 0.550410807
0.255787551 0.040354449 0.520556808
0.463377714 0.000000000 0.472738802
0.593801379 0.000759096 0.452498466
0.735230923 0.000000000 0.464389354
0.879696608 0.001138644 0.478810817
0.995951772 0.002277285 0.486654103
0.006704646 0.364200205 0.574320197
0.000000000 0.339152366 0.569133699
0.208476007 0.238456637 0.546362758
0.470461637 0.168374285 0.497533292
0.614673913 0.134345457 0.470714569
0.747248650 0.108159199 0.479569912
0.883871198 0.054775197 0.485895276
0.995572448 0.023909019 0.483238459
0.001138644 0.487160265 0.559518933
0.002656546 0.480835170 0.563061357
0.276913673 0.460468173 0.560404956
0.458570629 0.360530913 0.516888261
0.618595719 0.317520738 0.476154268
0.751676083 0.312839925 0.480961412
0.889437318 0.311701566 0.480328977
0.993168831 0.324984103 0.488298506
0.186464354 0.526881635 0.500316441
0.241113544 0.527640879 0.509044826
0.363061190 0.519797742 0.499936968
0.483365119 0.505250156 0.486147732
0.655914128 0.507147551 0.515876055
0.760025442 0.513852119 0.517646790
0.892978966 0.528905869 0.525616467
0.991144776 0.557115555 0.542947471
0.435420394 0.704996824 0.566477060
0.478431404 0.711195588 0.576723456
0.577103257 0.716888249 0.591903925
0.712586761 0.722706854 0.638076842
0.834281802 0.755471051 0.731815457
0.844149530 0.718532443 0.643643081
0.911195457 0.685009420 0.581404388
0.987349808 0.726249218 0.614041507
0.749019146 0.859709263 0.730550528
0.772675335 0.863250971 0.737760842
0.810246468 0.864389420 0.767741621
0.868058205 0.877672613 0.819481552
0.915623128 0.891714275 0.876027882
0.930170536 0.890955150 0.866287172
0.952055633 0.870461822 0.767488837
0.993421793 0.824667871 0.668690503
0.908918321 0.953320444 0.917394102
0.910815537 0.955471456 0.917267621
0.922074497 0.961669683 0.935989797
0.937887311 0.960910797 0.962302446
0.958127797 0.963946521 0.986211002
0.967235804 0.965970755 0.988614857
0.968121409 0.963187516 0.950537264
0.994939625 0.955850780 0.877419412
0.003922000 0.136368990 0.750031590
0.002403808 0.036685899 0.745983362
0.109804004 0.000759096 0.724098325
0.459203064 0.002656546 0.696268022
0.629981399 0.000000000 0.649588943
0.753953159 0.000379548 0.632384598
0.877419412 0.001644712 0.632258117
0.994939983 0.000000000 0.628209829
0.002403808 0.229854539 0.742314994
0.000000000 0.177355930 0.746489763
0.030360468 0.080202535 0.722706974
0.445035100 0.002783356 0.693864822
0.621125758 0.003542452 0.640606999
0.744339108 0.003922000 0.623782516
0.885009646 0.000379548 0.634661674
0.992662966 0.002530012 0.638962746
0.006325001 0.393295258 0.756356418
0.000758999 0.369892180 0.755850732
0.014421294 0.270209074 0.745351076
0.430613607 0.195825294 0.714231730
0.627704084 0.098545283 0.660594463
0.756989360 0.018216377 0.632637680
0.883871317 0.011385290 0.633143663
0.992536187 0.012144193 0.637065291
0.000379548 0.573434293 0.780897975
0.003921904 0.559772015 0.774699748
0.257811636 0.506768167 0.749272823
0.397596568 0.395446271 0.721315742
0.616571367 0.320936084 0.676281035
0.759645879 0.280329078 0.641619146
0.901707888 0.278052092 0.637571037
0.993801355 0.293991119 0.629474938
0.003035997 0.667678535 0.736748993
0.058950268 0.664642572 0.747628152
0.315370351 0.651107132 0.743833125
0.495382637 0.638203800 0.735990167
0.618848562 0.528020382 0.685515583
0.770145476 0.467931807 0.647185326
0.886401236 0.473624468 0.627703905
0.991397798 0.501707494 0.629981399
0.195319742 0.724984348 0.693358839
0.264010310 0.718153000 0.692726314
0.374066830 0.715749741 0.684124053
0.510689378 0.689816773 0.672485948
0.646805882 0.669070303 0.649968684
0.784819782 0.669070542 0.674636483
0.884124219 0.681467295 0.671220720
0.980645180 0.707653344 0.680708289
0.487286448 0.824288368 0.676027656
0.524984419 0.830992997 0.689057529
0.613788724 0.836938500 0.706641376
0.732321560 0.840607584 0.741049588
0.849335790 0.855534434 0.799620509
0.923972011 0.884250760 0.898672044
0.935230970 0.862618566 0.808475614
0.989247024 0.832510829 0.747121751
0.829854250 0.950537801 0.861733198
0.841998816 0.952055573 0.868690610
0.874509454 0.951296568 0.890575469
0.912839949 0.955724001 0.934724629
0.944212675 0.961416841 0.970651805
0.963946521 0.973434508 0.995193005
0.969259858 0.969386756 0.986463904
0.992663026 0.956989169 0.910436332
0.002024260 0.174446732 0.887539685
0.006072264 0.107526727 0.887286305
0.002024268 0.007969638 0.871600211
0.347754538 0.002276998 0.859076500
0.597216845 0.003035997 0.829095304
0.742694736 0.002024260 0.775838017
0.869955540 0.000000000 0.771537006
0.993674815 0.000000000 0.779759467
0.002403808 0.254649103 0.885009289
0.000000000 0.215433285 0.880075991
0.000379549 0.129917800 0.872738838
0.335104465 0.020620082 0.861353517
0.589753509 0.001138644 0.829222262
0.754458725 0.000000000 0.782542706
0.876913249 0.001644712 0.773181498
0.995825231 0.001265167 0.784313619
0.000000000 0.398861200 0.899557233
0.003162904 0.374825746 0.895129323
0.002277008 0.300442815 0.886021614
0.296394646 0.228083536 0.865022421
0.582795680 0.161416724 0.836938381
0.744338751 0.023149922 0.778874218
0.871473610 0.000759110 0.770777881
0.992915750 0.000759108 0.784313560
0.018595917 0.572043180 0.902593613
0.069702551 0.558254123 0.896394610
0.229348555 0.519797623 0.887033343
0.347121924 0.426818371 0.877040088
0.576470613 0.369259834 0.848830104
0.746869028 0.301581174 0.802909732
0.883491337 0.255281568 0.783048451
0.996204793 0.262871534 0.791271567
0.166476578 0.721947968 0.911448479
0.278431445 0.717773557 0.912839830
0.415053844 0.708286166 0.904491127
0.535610557 0.671979785 0.877925336
0.615306795 0.576470613 0.855281591
0.742821217 0.499430567 0.817836940
0.887412965 0.446679085 0.782416224
0.994939983 0.464642525 0.775078893
0.347754449 0.799620450 0.897153497
0.400000185 0.797469735 0.889816523
0.484629810 0.803415477 0.885641992
0.584946275 0.787602484 0.881720483
0.696394444 0.786084652 0.875015736
0.777735770 0.697153389 0.830739975
0.889436960 0.631372452 0.774320185
0.988614798 0.654016554 0.763567328
0.359392554 0.862745464 0.840101182
0.390259445 0.856293619 0.839974642
0.455534458 0.853384197 0.832890749
0.559139729 0.837318122 0.819354594
0.660594642 0.823276639 0.800885439
0.781024337 0.797976077 0.782036722
0.909298062 0.825806558 0.831119299
0.966097534 0.845034778 0.825553238
0.577103138 0.929411769 0.796963751
0.606704533 0.933459640 0.812650084
0.672991931 0.935736775 0.821505249
0.765970647 0.941682816 0.854522467
0.864263356 0.948766530 0.900821924
0.935104132 0.961669505 0.970398486
0.976470709 0.972043037 0.999240994
0.979379952 0.955217898 0.962808490
0.000000000 0.209107995 0.995066285
0.000000000 0.166982993 0.993422031
0.001517998 0.090702280 0.995066285
0.066666901 0.005692640 0.981783628
0.483870804 0.000000000 0.969639361
0.688425183 0.001897740 0.948892951
0.847944260 0.000000000 0.907400250
0.962555051 0.001265167 0.896773815
0.000000000 0.276913255 0.993168592
0.000000000 0.249968082 0.989499986
0.001644712 0.173560828 0.987097025
0.051233467 0.128526017 0.985325515
0.486274749 0.028210171 0.976344228
0.693358421 0.000000000 0.949905097
0.844528854 0.000000000 0.917899966
0.966856480 0.000379548 0.911448300
0.000000000 0.405186176 0.992662907
0.002024260 0.381910235 0.993042469
0.005439806 0.329158992 0.990386009
0.058444012 0.274130166 0.985072613
0.478052109 0.237191379 0.978115141
0.681973279 0.170777932 0.950916946
0.840101063 0.025806565 0.912840128
0.965211749 0.006578272 0.904617012
0.068184458 0.575078964 0.996711016
0.070714809 0.558633566 0.995066285
0.163440630 0.528399646 0.996711016
0.287919194 0.462365568 0.991777301
0.501075447 0.418595672 0.982415915
0.694749892 0.374193490 0.965464711
0.848956287 0.305629641 0.933586299
0.970145524 0.262365729 0.920176864
0.419607937 0.735863388 0.996963978
0.453257173 0.726755083 0.997722745
0.516128957 0.720050454 0.992662907
0.570018649 0.685515344 0.985958278
0.600000083 0.614041746 0.984566450
0.719291687 0.563061416 0.972675264
0.848070979 0.496268243 0.942694306
0.973560750 0.448450267 0.919924140
0.535104275 0.838456750 0.998861432
0.558886766 0.841113269 0.999620438
0.604427516 0.844402254 0.998355269
0.670967638 0.842631221 0.997596323
0.743959665 0.816824973 0.988108695
0.764073431 0.749398947 0.970398307
0.857937872 0.682479262 0.944212556
0.974319994 0.624541044 0.921315551
0.578874111 0.906135261 0.988488257
0.592410028 0.897027016 0.993422031
0.631119668 0.896774054 0.983807504
0.693485200 0.901075304 0.985199273
0.760784268 0.903731883 0.990132987
0.841745734 0.904491007 0.990132987
0.888171971 0.860974193 0.967236042
0.965844035 0.804807067 0.916255713
0.535989821 0.959266305 0.975585222
0.553700268 0.960531235 0.970398188
0.592030585 0.953194261 0.971536875
0.646679163 0.951549411 0.963567138
0.717646897 0.940796971 0.939911604
0.781530499 0.935230970 0.928652644
0.901707292 0.932953477 0.947627902
0.966982722 0.947501600 0.985705197
0.000000000 0.240606993 0.994687021
0.001265167 0.212650433 1.000000000
0.004174830 0.149525568 0.998734832
0.002530012 0.114611134 1.000000000
0.326248944 0.051992379 1.000000000
0.593168676 0.000000000 1.000000000
0.761290252 0.006198708 0.996584237
0.910056949 0.001265167 1.000000000
0.002277285 0.297280222 1.000000000
0.000000000 0.275648087 0.998734832
0.000379548 0.212144077 1.000000000
0.001518189 0.190512508 0.998102367
0.346742779 0.158254191 0.996457815
0.596837521 0.102213576 1.000000000
0.763061821 0.014800981 0.998355269
0.917520583 0.000000000 1.000000000
0.001897736 0.406578183 0.997216821
0.003794989 0.394939929 0.998355329
0.000759096 0.355218023 0.994180739
0.000379562 0.305882335 0.998481870
0.368500769 0.288678169 0.997975707
0.594433725 0.265148550 0.997722924
0.767235994 0.217077717 0.997975886
0.909677207 0.069323048 0.992409825
0.068311095 0.566603303 0.997469962
0.075142279 0.551928818 0.998734832
0.160024911 0.531941772 0.996078014
0.274635971 0.487412781 1.000000000
0.455787390 0.451992273 0.997216642
0.629348516 0.431751996 0.998102188
0.773055136 0.395572275 0.997722983
0.914737582 0.319797635 1.000000000
0.561922550 0.743580163 1.000000000
0.564705729 0.736875176 0.997596204
0.562428892 0.720050454 0.999240935
0.567235827 0.686274290 0.996331334
0.597722948 0.635167539 1.000000000
0.691461265 0.602150559 0.997216642
0.804301083 0.565085113 0.999620438
0.923465967 0.496394545 1.000000000
0.665148616 0.850474477 0.997975767
0.671726584 0.850474477 1.000000000
0.697659612 0.848450720 1.000000000
0.732194722 0.843769789 0.997216642
0.764199853 0.821631730 0.998102367
0.776344359 0.770651639 0.996710896
0.844781816 0.728905737 1.000000000
0.931561887 0.667046368 0.999240935
0.736622095 0.921948254 0.998734832
0.731941938 0.919164836 0.998481870
0.761037290 0.921189308 0.999620438
0.805692673 0.926628470 0.998481870
0.848576665 0.934092343 0.999240875
0.889816523 0.929664254 1.000000000
0.899430454 0.885641932 0.997343183
0.950537682 0.825047314 0.998734832
0.745730460 0.956989169 0.992030203
0.743326902 0.959645987 0.995192707
0.764326572 0.960784137 0.997343183
0.799746990 0.963946819 0.998734891
0.840480983 0.963187814 0.996963978
0.889057577 0.969892502 0.997975767
0.941935718 0.972675800 0.999620438
0.966223836 0.958506942 0.998734832
