Assets/Shaders/EldamarStudio/100 Sci-Fi LUTs Pack/LUTs/cube/Libby LUT.cube
LUT_3D_SIZE 5
DOMAIN_MIN 0.000000 0.000000 0.000000
DOMAIN_MAX 0.903226 0.903226 0.903226
0.003922000 0.035294000 0.043136999
0.059202701 0.054901998 0.061100710
0.195572406 0.088298410 0.085009828
0.406325251 0.145224258 0.149145991
0.714357734 0.223782644 0.231498823
0.000000000 0.127513990 0.081720419
0.070967697 0.137001693 0.091208287
0.206704378 0.167742118 0.125237122
0.430486828 0.220746279 0.182795867
0.717267275 0.296015084 0.252118856
0.013788572 0.311321825 0.181783825
0.123086803 0.318532825 0.196584523
0.277419776 0.335483402 0.209234834
0.487665951 0.374446690 0.238962859
0.744338572 0.455914050 0.293738216
0.267172247 0.560152113 0.269702882
0.337001830 0.569007277 0.284756571
0.452751637 0.571916342 0.300189555
0.598482251 0.583681107 0.313852012
0.795319438 0.642884076 0.374193817
0.607210577 0.805692732 0.476533741
0.634661555 0.816192567 0.495255768
0.687413037 0.816824973 0.499177337
0.777608931 0.824035585 0.515243471
0.888045788 0.835799873 0.560025454
0.002277292 0.049335711 0.117393695
0.059835706 0.055913705 0.117393695
0.184819683 0.103984565 0.158254415
0.393168986 0.166730002 0.221378699
0.689816415 0.235167518 0.277925581
0.000000000 0.129791290 0.147501677
0.070335701 0.148133695 0.165464982
0.198229223 0.178873688 0.190638691
0.409866929 0.226944834 0.231751695
0.706514716 0.300316364 0.289057821
0.033396829 0.309045076 0.225932688
0.126249403 0.318532377 0.230487123
0.272485644 0.332194388 0.244528994
0.478178412 0.373434842 0.276913553
0.736875236 0.455281615 0.325363517
0.277293116 0.548387110 0.310942531
0.340923220 0.558254123 0.314863712
0.449462205 0.564705729 0.321821421
0.594560683 0.579126954 0.339405388
0.791397870 0.639342070 0.397470117
0.608222663 0.804680467 0.486147761
0.631372452 0.808601916 0.497027040
0.688171744 0.810878932 0.513219416
0.774699509 0.818722308 0.532827199
0.882985473 0.834155619 0.568627417
0.000000000 0.051612586 0.254396379
0.053004414 0.073876999 0.259962112
0.191017970 0.111827575 0.262871832
0.400379628 0.169006705 0.303478390
0.691461027 0.237444386 0.355723977
0.000000000 0.162555531 0.259582818
0.066160813 0.167741701 0.268817395
0.213282391 0.190639108 0.275269002
0.416065812 0.233522996 0.309930235
0.701581299 0.305123687 0.367868513
0.066287220 0.311954409 0.301454395
0.150158107 0.329285085 0.303984553
0.328399777 0.368880808 0.340037793
0.499430895 0.385198981 0.350790501
0.740417600 0.459202796 0.402909636
0.310183227 0.548007667 0.380392551
0.360783964 0.559898794 0.379633129
0.465022236 0.564073145 0.385199249
0.596458197 0.578494549 0.404554129
0.793674767 0.640607357 0.467425525
0.597849488 0.801770747 0.523845375
0.626944840 0.806071997 0.542821169
0.688804150 0.809613764 0.556103528
0.777988493 0.816192210 0.570398390
0.882226169 0.833143592 0.609867394
0.005060124 0.093232125 0.416065991
0.131688401 0.113472544 0.416318715
0.288931251 0.142567843 0.420873135
0.463251233 0.182415992 0.420873135
0.706514716 0.244402081 0.468311250
0.037444830 0.200126410 0.410752833
0.145730674 0.211258829 0.415053517
0.306261808 0.224035278 0.419228405
0.478557944 0.249209404 0.432637364
0.714357853 0.314737380 0.480075985
0.152561814 0.365591258 0.431372553
0.229601547 0.365970552 0.434535146
0.371284097 0.381277800 0.442504525
0.535736680 0.397975951 0.451992244
0.744591892 0.454901934 0.509550989
0.340544134 0.556230128 0.473877132
0.385957837 0.565717876 0.486907125
0.491461098 0.575838149 0.499304116
0.643516958 0.615054131 0.541429222
0.805312932 0.646805942 0.561417103
0.604427457 0.798481762 0.610626101
0.626185954 0.802529812 0.612144232
0.681846917 0.808348954 0.625933170
0.777609050 0.817836761 0.638456762
0.889816225 0.839721620 0.662998080
0.196457788 0.155723974 0.685515404
0.284756452 0.164832145 0.677672446
0.447564751 0.186464384 0.676280737
0.628969073 0.230992794 0.673750758
0.788867772 0.303731799 0.671094596
0.210499495 0.250221670 0.677292883
0.291207790 0.261606395 0.673371315
0.454016328 0.277672231 0.670461595
0.631878614 0.306894392 0.674762726
0.795698822 0.360910654 0.671726763
0.279443204 0.428463042 0.669070244
0.342188358 0.432005107 0.672865272
0.482100189 0.441492379 0.672359467
0.641998470 0.458823502 0.677672148
0.798608124 0.492599189 0.675015748
0.434155941 0.632384419 0.677039564
0.473750621 0.631751835 0.685894728
0.555344582 0.630866528 0.691460788
0.677166104 0.630107343 0.690322459
0.832004905 0.657305419 0.707779586
0.629474699 0.805692732 0.728652775
0.641113579 0.813029528 0.738899291
0.688045621 0.816192448 0.744465470
0.784439921 0.826312363 0.755471230
0.903731763 0.855407596 0.796710670
