Assets/Shaders/EldamarStudio/100 Sci-Fi LUTs Pack/LUTs/cube/Libby LUT.cube
LUT_3D_SIZE 8
DOMAIN_MIN 0.000000 0.000000 0.000000
DOMAIN_MAX 0.903226 0.903226 0.903226
0.003922000 0.035294000 0.043136999
0.020746548 0.039974999 0.051739097
0.074383095 0.054901998 0.060341999
0.153067634 0.070082352 0.072865002
0.248956189 0.098671801 0.100189991
0.367868453 0.133079991 0.137001991
0.529917598 0.173181564 0.177735567
0.714357734 0.223782644 0.231498823
0.007463549 0.065781094 0.062744997
0.025426546 0.072865091 0.056040544
0.086148098 0.088551894 0.068564445
0.157748535 0.108538635 0.092093639
0.249335736 0.132700548 0.115496635
0.368880481 0.166097105 0.151170194
0.525617003 0.198861569 0.190259084
0.695255876 0.244528502 0.231878370
0.000759096 0.147248194 0.088551901
0.018722093 0.141302735 0.090449445
0.086148098 0.159013197 0.103352092
0.160025537 0.170651391 0.124098644
0.262239158 0.202024087 0.148007289
0.393295199 0.229854733 0.177735463
0.553447545 0.266287297 0.212270692
0.720303476 0.314484328 0.255154967
0.009488002 0.242251635 0.157494992
0.029854637 0.249335825 0.153067634
0.107780084 0.257178932 0.162808284
0.192410275 0.266919285 0.173813999
0.297659636 0.286527455 0.195066199
0.422138005 0.312460363 0.211891636
0.571916521 0.349905282 0.237697646
0.725616395 0.399367273 0.275268823
0.068564177 0.371157378 0.208475798
0.111701369 0.379506737 0.217836991
0.182289377 0.382163286 0.222517282
0.262871474 0.384186924 0.222517371
0.360910565 0.397976190 0.238077179
0.474762708 0.416318923 0.249968380
0.609234512 0.454269260 0.270334989
0.751549542 0.508159339 0.307147384
0.238835976 0.528779447 0.262618989
0.264010012 0.533839226 0.270462006
0.317267835 0.534598231 0.271600336
0.384692997 0.536495447 0.274636537
0.468943626 0.543959498 0.291461170
0.555977464 0.546236694 0.299683750
0.661733449 0.570904255 0.322327524
0.790512323 0.619101763 0.361290395
0.408981562 0.666540563 0.327640831
0.432637542 0.672106266 0.342694551
0.465654552 0.672865391 0.335104287
0.514737606 0.677166224 0.346489638
0.576976538 0.676027834 0.354585558
0.648956001 0.681594014 0.368754268
0.719797254 0.686147988 0.382921994
0.815054059 0.710816085 0.419734359
0.607210577 0.805692732 0.476533741
0.622770429 0.813535750 0.475015581
0.642504752 0.817963541 0.490701735
0.673371613 0.818975210 0.494623601
0.712586820 0.820240438 0.497153610
0.764958560 0.825300455 0.512460470
0.823023379 0.831499040 0.535357237
0.888045788 0.835799873 0.560025454
0.007084001 0.050980002 0.068564542
0.020746548 0.047059000 0.072485544
0.075142190 0.059962451 0.090069897
0.142061651 0.085389100 0.113598995
0.234534726 0.114737637 0.137381643
0.357368916 0.146868736 0.177230000
0.509424269 0.177862003 0.208222285
0.697406590 0.227324501 0.250094801
0.017710453 0.068564542 0.070841543
0.021505548 0.077166542 0.087792993
0.071600541 0.089690447 0.101075090
0.141682297 0.113978542 0.121442191
0.231625378 0.141049907 0.149272740
0.351423293 0.171916738 0.178621098
0.502846062 0.198861569 0.212523833
0.670588434 0.239974514 0.245414212
0.000000000 0.150411099 0.120682999
0.028209999 0.146489099 0.127767086
0.093232095 0.155471548 0.133965984
0.154965177 0.172296107 0.147248194
0.256799400 0.200885639 0.169892281
0.377988636 0.230613619 0.197216988
0.533333302 0.262744904 0.233776018
0.700316191 0.311954290 0.270082086
0.001897643 0.239088923 0.168627635
0.035420537 0.242251828 0.176217183
0.109803833 0.256419837 0.182163432
0.182922274 0.262239188 0.188361734
0.285894841 0.282226622 0.205565825
0.403668553 0.308791935 0.224794373
0.550031424 0.342061967 0.250094801
0.704364419 0.389626741 0.281973273
0.073624626 0.366097629 0.229854733
0.108918533 0.370904624 0.226059645
0.175964296 0.372802079 0.228716075
0.257811815 0.385452390 0.245034650
0.353826553 0.389626712 0.247944534
0.461986363 0.408349007 0.259456009
0.592789471 0.447185278 0.277039826
0.744085789 0.496900707 0.321694970
0.229222074 0.520177305 0.274003744
0.262239188 0.522074580 0.277798742
0.308538914 0.522327542 0.280834734
0.378747553 0.530170560 0.289563745
0.464263380 0.532447577 0.295129746
0.552435040 0.540796936 0.304364353
0.653889656 0.565591514 0.324730784
0.781024575 0.611638546 0.363946736
0.399493814 0.647817552 0.334345281
0.419481367 0.662365556 0.338519812
0.458823174 0.664642870 0.343580186
0.503605127 0.666920006 0.350284725
0.565970659 0.670588553 0.353067577
0.639215827 0.674257040 0.367868572
0.710436583 0.680961251 0.384440094
0.805565894 0.698924780 0.427956820
0.608475447 0.809234321 0.474130183
0.616571605 0.808981776 0.487286299
0.636179864 0.807716608 0.492852598
0.668310940 0.812017560 0.498671651
0.712460339 0.817457438 0.507526815
0.766223848 0.820366919 0.519417882
0.821252346 0.824920893 0.543706656
0.887792110 0.832258046 0.569133401
0.000000000 0.047817901 0.137128100
0.016445095 0.047817905 0.126502544
0.071980089 0.065022089 0.138646096
0.140923291 0.086906999 0.156230435
0.234914273 0.122200988 0.183302090
0.352182478 0.159898907 0.220619738
0.507147253 0.190385804 0.249209374
0.683491528 0.234155655 0.285515815
0.000000001 0.084250547 0.131562188
0.027450999 0.082605638 0.144971088
0.070841543 0.101075090 0.146868646
0.138520092 0.121821538 0.166856095
0.223782271 0.149272546 0.191145092
0.352688015 0.182542801 0.221632078
0.501834273 0.208349288 0.248324096
0.674383044 0.248576611 0.287918806
0.000000000 0.148007274 0.173308089
0.014800997 0.154712558 0.169639647
0.093106091 0.175458282 0.192030102
0.160405084 0.186843738 0.195445642
0.257558256 0.209993988 0.215433180
0.377229452 0.239848182 0.245414093
0.529158771 0.266287267 0.268690914
0.700948715 0.318279803 0.300442725
0.005692640 0.247817636 0.215433195
0.044402283 0.255281389 0.212650552
0.117646828 0.263503850 0.226818532
0.193169177 0.269323200 0.229095727
0.289816856 0.288551629 0.240480989
0.412650079 0.310057074 0.261227012
0.552055299 0.344085813 0.285388947
0.708791792 0.396458089 0.310942262
0.094497189 0.364199996 0.256293267
0.120682828 0.371663541 0.259076566
0.188488275 0.376723468 0.265654892
0.260468185 0.383807570 0.268817186
0.356989384 0.391651213 0.275901109
0.463883817 0.413915128 0.287159830
0.596710682 0.447944283 0.307020903
0.743326604 0.500063121 0.344465554
0.250221550 0.519797623 0.309677005
0.271093994 0.520303786 0.305503011
0.316381812 0.521568537 0.306262076
0.382289708 0.525490344 0.310689449
0.464263290 0.531435788 0.322074383
0.546995759 0.538393199 0.330043942
0.653510094 0.563567102 0.348133922
0.779759705 0.612523675 0.390891999
0.410752535 0.644655466 0.354206175
0.424035370 0.656546295 0.363440901
0.459329367 0.660341263 0.368880481
0.505249918 0.663504183 0.374699622
0.566856265 0.665781319 0.379000396
0.635800242 0.671979725 0.395319253
0.709424317 0.677672565 0.407969356
0.803921282 0.701580942 0.444022983
0.607210577 0.799873531 0.489184022
0.612776577 0.806198120 0.500822365
0.634914398 0.808348954 0.504616857
0.668690503 0.810372829 0.508285880
0.711321950 0.815053940 0.520935774
0.762555599 0.815433502 0.533333302
0.821505308 0.824161828 0.555597782
0.881720543 0.835167527 0.569133401
0.000000000 0.052118644 0.220240280
0.001897643 0.058444452 0.209867179
0.076280639 0.072106004 0.217836991
0.142441288 0.093611643 0.223655641
0.233270183 0.126502350 0.242504820
0.352814525 0.162681744 0.264768988
0.513092875 0.191144705 0.298798651
0.689689815 0.239595160 0.335989773
0.000000000 0.096268088 0.212017536
0.002276998 0.107020646 0.209108278
0.072738990 0.115622640 0.221758291
0.143959180 0.123719089 0.219607726
0.234534726 0.155471548 0.242125183
0.355850726 0.182795539 0.269449979
0.509930253 0.213915288 0.301201731
0.676280856 0.260721266 0.330803275
0.000000000 0.167615205 0.222390994
0.017204097 0.177482545 0.229475081
0.094750196 0.182922453 0.238962993
0.169386640 0.195825100 0.241998985
0.265021920 0.215812743 0.267298996
0.385958493 0.242504731 0.281973213
0.540164471 0.278557658 0.312586904
0.703984857 0.323845536 0.344971359
0.006830993 0.251739651 0.253383636
0.047817826 0.260341734 0.258823663
0.130802915 0.273750722 0.278052092
0.229474917 0.293231934 0.288677633
0.315623015 0.304617286 0.292219996
0.423276365 0.324225157 0.309803605
0.559139907 0.352687925 0.330170929
0.709171355 0.402277052 0.357874662
0.108412176 0.367362201 0.294623822
0.147248730 0.375205278 0.296015263
0.212017477 0.387349814 0.304743975
0.287919283 0.396331161 0.313346088
0.370525032 0.406198740 0.314990401
0.481973618 0.426186204 0.331941634
0.601897717 0.453510493 0.349904746
0.739658237 0.504364192 0.381783605
0.272738755 0.519670844 0.344465643
0.295762181 0.522959769 0.343200386
0.342441708 0.526375592 0.349904835
0.404300988 0.529917836 0.352561384
0.478431374 0.535357237 0.362808406
0.555218339 0.543580055 0.370651484
0.655534267 0.566730022 0.384566575
0.781277657 0.612903297 0.430613458
0.416065902 0.652498543 0.397976011
0.434408635 0.661986291 0.401644468
0.467805088 0.656799734 0.406071842
0.513598979 0.661985993 0.409234643
0.570018768 0.668184817 0.422517538
0.645793855 0.674130261 0.434661448
0.715369940 0.682732642 0.445161223
0.810879171 0.708918214 0.483871073
0.610246956 0.801770747 0.521821558
0.613282740 0.808475614 0.518279374
0.636811852 0.805692732 0.529791176
0.670335174 0.811131954 0.533206463
0.709044635 0.812270582 0.541303039
0.763820171 0.816192567 0.553826690
0.818975091 0.822264194 0.571916521
0.883112013 0.837318122 0.601770818
0.003035997 0.064263187 0.307147384
0.003921806 0.073624000 0.300442636
0.085135989 0.090828992 0.298418999
0.171789646 0.110056639 0.306008756
0.259835571 0.135483980 0.311069012
0.366982460 0.164579004 0.319797397
0.519671142 0.195825383 0.351676255
0.698671758 0.242251605 0.390765160
0.000379548 0.118279383 0.290069550
0.003415545 0.123086900 0.302340388
0.086780287 0.131941527 0.301960856
0.172928199 0.149272546 0.299683630
0.258191168 0.166097194 0.307526827
0.361669481 0.187982082 0.320935935
0.524478376 0.213029891 0.347374916
0.681846797 0.262998164 0.385199159
0.000000002 0.191018194 0.308665186
0.030613637 0.187982291 0.302340209
0.106261991 0.197217286 0.313472182
0.193295285 0.211512104 0.313472182
0.284124076 0.226438880 0.321315169
0.396837473 0.244781822 0.339278996
0.548007309 0.280455291 0.365085393
0.709424555 0.328020066 0.403162539
0.035799917 0.273244977 0.321948260
0.079443268 0.283111751 0.315623194
0.155471385 0.285009384 0.323466182
0.242757708 0.299936980 0.336875170
0.330929458 0.309677601 0.341176629
0.431878328 0.332068384 0.350158185
0.574952424 0.359772205 0.377482235
0.719165087 0.402530074 0.409234822
0.138267174 0.375964373 0.351802200
0.169639274 0.383807361 0.352308601
0.233902365 0.391651005 0.355724186
0.320936173 0.406578273 0.363946825
0.427577585 0.433902383 0.381404161
0.511068940 0.444528729 0.385958433
0.618722498 0.465275198 0.398734897
0.751043379 0.506008923 0.443643212
0.292599469 0.520556569 0.392030448
0.309930354 0.520936072 0.389373958
0.358507186 0.527514160 0.405945241
0.423150122 0.535356939 0.405060083
0.492599666 0.544465482 0.411638111
0.573813677 0.552688003 0.418089926
0.674383223 0.580012977 0.445160985
0.785578787 0.618089616 0.480075866
0.425047278 0.653257370 0.449588984
0.445920110 0.661100388 0.451486528
0.476913452 0.663630486 0.457431972
0.520303607 0.665527999 0.462491781
0.581783772 0.672106266 0.470714569
0.646173477 0.675268710 0.478178710
0.723592699 0.684630215 0.490954995
0.817710400 0.710309923 0.523719192
0.611131966 0.801644206 0.553573608
0.614294887 0.804933608 0.557621539
0.632637501 0.805186510 0.561416626
0.670335233 0.809234321 0.564958990
0.707399905 0.811131954 0.575964808
0.763567388 0.815939248 0.582669199
0.822011232 0.825553417 0.599999964
0.889816582 0.834282160 0.627197802
0.000000000 0.088172257 0.391777456
0.035926729 0.094749995 0.388488472
0.131182477 0.111701258 0.390512645
0.223656163 0.128399894 0.394307643
0.322327435 0.146868736 0.393928200
0.418722451 0.170271739 0.395572454
0.529284954 0.196964025 0.409993738
0.702972472 0.244655117 0.445540637
0.002024260 0.135104537 0.375205278
0.043137267 0.137507737 0.378620803
0.132447824 0.149145827 0.385705113
0.220746100 0.162934899 0.383681267
0.312081158 0.176596925 0.382922381
0.410752445 0.200506002 0.395572484
0.526375711 0.218089551 0.400632501
0.681593597 0.260341734 0.442378372
0.021252370 0.214294747 0.382922381
0.082606271 0.221758083 0.385325491
0.156609729 0.221632004 0.387476444
0.243137255 0.226691827 0.391144723
0.335989833 0.238836199 0.397090435
0.436306208 0.257305741 0.401264727
0.552182198 0.278051883 0.416698396
0.713598728 0.327640831 0.462112576
0.086527616 0.300063103 0.392915547
0.129790902 0.300062925 0.395825624
0.195951536 0.304491073 0.399367362
0.274383247 0.314231634 0.399746716
0.368753999 0.322833717 0.400379837
0.461100161 0.335483640 0.412270844
0.572928548 0.354459375 0.432511032
0.717141092 0.400759071 0.470082194
0.189626843 0.397343516 0.411005646
0.213788822 0.405186921 0.417204529
0.265528113 0.412650287 0.415812552
0.342315018 0.418595940 0.423656166
0.432131559 0.432258189 0.435547173
0.519544899 0.440480739 0.444908351
0.626565278 0.464010000 0.459076464
0.758381009 0.503225684 0.499683559
0.303099215 0.524857461 0.440480739
0.327261269 0.526628733 0.452498466
0.369006932 0.530550241 0.458823562
0.432511121 0.537634075 0.462365717
0.510183394 0.551802933 0.478304923
0.605060220 0.581657171 0.507020712
0.684503555 0.590259373 0.509803951
0.792915642 0.617963433 0.533586442
0.430107534 0.646426082 0.502213717
0.447944105 0.655281723 0.507147253
0.477039844 0.658317506 0.514864028
0.519797444 0.665401936 0.517647088
0.585831642 0.673244953 0.521568418
0.658950269 0.679443240 0.534472048
0.731435835 0.685768545 0.546615958
0.823403001 0.713472247 0.573687494
0.604933500 0.795951724 0.600759029
0.614674389 0.802150369 0.601138711
0.629221678 0.804300904 0.596204817
0.664389610 0.806831121 0.605692685
0.707020521 0.812270582 0.614421248
0.757621646 0.813535750 0.620999455
0.822517514 0.826565385 0.638330102
0.888551295 0.839215815 0.650600672
0.069196567 0.120556280 0.518152952
0.120556824 0.122327998 0.519417822
0.201012373 0.135610089 0.515116990
0.302339911 0.144086003 0.520935893
0.406072468 0.162302196 0.519797266
0.509171247 0.184060991 0.515622795
0.602782845 0.209107980 0.517520547
0.706514716 0.247691497 0.527261078
0.070841298 0.159519553 0.502846301
0.123592377 0.161037251 0.501707554
0.201391831 0.169259802 0.508665502
0.296394467 0.180645242 0.507400334
0.393042326 0.194686830 0.510436475
0.497786224 0.211132258 0.510436356
0.597216547 0.233396575 0.506135046
0.693737805 0.262745112 0.517773628
0.095888279 0.236686081 0.512333989
0.146110088 0.238456845 0.513219476
0.215686470 0.245161101 0.513598979
0.311195284 0.253383636 0.514231563
0.416192353 0.260088354 0.512840033
0.519038498 0.273371279 0.516002417
0.611258805 0.297533363 0.521315455
0.722327590 0.329158783 0.532953918
0.145477623 0.328652561 0.509297848
0.179506660 0.330803216 0.513598979
0.250600725 0.334724933 0.511195481
0.337128282 0.340923607 0.513092935
0.432637542 0.349525720 0.521821797
0.525743365 0.358507156 0.522454143
0.624035597 0.372928619 0.524857938
0.725743413 0.397216797 0.543832839
0.232890651 0.434408486 0.524351656
0.264895827 0.441366225 0.532447755
0.311448574 0.441492558 0.526881754
0.382795542 0.444908291 0.529411554
0.464263469 0.450348079 0.535736680
0.557242036 0.456925929 0.535990059
0.649335742 0.469070494 0.545224309
0.757368803 0.498165667 0.562175870
0.352561712 0.556103706 0.550537288
0.367868274 0.559139729 0.558759987
0.403542101 0.561543465 0.558001220
0.458570808 0.564326167 0.562555432
0.525490165 0.568121016 0.562681854
0.606831193 0.575837970 0.570145309
0.693105519 0.585072517 0.578114986
0.802656591 0.615559876 0.604680598
0.445287824 0.654775500 0.571410298
0.452625096 0.657052279 0.574067235
0.479063839 0.662618518 0.575838089
0.531562209 0.665401876 0.585831821
0.585831463 0.673624456 0.587476552
0.663251042 0.685515523 0.602530003
0.754459262 0.703478813 0.628969312
0.839089274 0.725237250 0.639089048
0.601011872 0.789500594 0.648070633
0.607336640 0.794686913 0.649968505
0.632004976 0.798608363 0.655534029
0.661986291 0.803921223 0.658317387
0.702466547 0.810752511 0.664010286
0.761543274 0.814421058 0.675774813
0.823402882 0.827577233 0.689437032
0.895635486 0.840101242 0.715116739
0.196457788 0.155723974 0.685515404
0.234028876 0.155092001 0.679317057
0.305502802 0.164832145 0.676407576
0.393927604 0.175205454 0.676280737
0.502593338 0.196710795 0.678937614
0.602909565 0.222137973 0.675015569
0.697913051 0.255787641 0.669829428
0.788867772 0.303731799 0.671094596
0.188235238 0.193168834 0.667552173
0.228083611 0.193548381 0.673624635
0.297912717 0.200126544 0.673877120
0.397343516 0.210626274 0.669196844
0.497659624 0.225553364 0.665274978
0.597469807 0.246046796 0.664516151
0.693864346 0.271600068 0.665654421
0.780897915 0.314863801 0.665780902
0.209993601 0.270714939 0.671473563
0.245919868 0.278684169 0.676280677
0.317520350 0.281340897 0.672359467
0.409108341 0.292473018 0.674889445
0.506894171 0.297406733 0.668057978
0.604807079 0.317773551 0.667931676
0.700189769 0.343453348 0.669196844
0.793674767 0.375331879 0.672991872
0.239595219 0.366350263 0.670461416
0.271726787 0.371916264 0.667805374
0.339278847 0.374193549 0.670208693
0.416192263 0.382416099 0.669449627
0.518279433 0.391777307 0.669829130
0.605439365 0.401518136 0.666287303
0.698038995 0.417710096 0.666413665
0.789500415 0.440227598 0.669070065
0.308665514 0.482099622 0.669955969
0.339025974 0.487160176 0.671600282
0.374573082 0.482732445 0.671979725
0.446173131 0.482479364 0.670335174
0.535103917 0.492220014 0.672232985
0.618089557 0.499177694 0.673624635
0.711448133 0.512966394 0.670714974
0.800758898 0.529917777 0.675774574
0.415686429 0.605565906 0.679063559
0.431245953 0.607337117 0.685262501
0.461100459 0.606198430 0.684882820
0.507653236 0.603036106 0.687918961
0.570524693 0.601517916 0.682858586
0.645287693 0.607589781 0.686527789
0.736495793 0.614421189 0.696015239
0.824414849 0.629727960 0.703478754
0.509930372 0.707906544 0.689690053
0.521568358 0.706514597 0.698924482
0.545097947 0.703352511 0.699683726
0.583428264 0.709297955 0.701707482
0.625427067 0.707653165 0.702466607
0.690828204 0.709171355 0.707906187
0.763693810 0.716255724 0.718912244
0.851739168 0.733080208 0.724225223
0.629474699 0.805692732 0.728652775
0.630866289 0.810372829 0.731562257
0.643896461 0.816065550 0.735357404
0.674256623 0.813409209 0.741429567
0.713725448 0.816571772 0.744338751
0.765970647 0.824035585 0.748892784
0.826438665 0.832764208 0.764073551
0.903731763 0.855407596 0.796710670
