Assets/Shaders/EldamarStudio/100 Sci-Fi LUTs Pack/LUTs/cube/Libby LUT.cube
DOMAIN_MIN 0 0 0
DOMAIN_MAX 1 1 1
LUT_3D_SIZE 32
0.003922000 0.035294000 0.043136999
0.006957613 0.038330387 0.046173386
0.009993774 0.041366227 0.049209226
0.014295000 0.041872162 0.050980002
0.020746548 0.039974999 0.051739097
0.029854935 0.046046998 0.057811871
0.044022676 0.052118998 0.061353676
0.059202701 0.054901998 0.061100710
0.074383095 0.054901998 0.060341999
0.089563496 0.054902006 0.066413999
0.113472737 0.063630871 0.066666998
0.133712992 0.066666998 0.068690740
0.153067634 0.070082352 0.072865002
0.174320027 0.079190031 0.078937069
0.195572406 0.088298410 0.085009828
0.221631780 0.092599802 0.091081992
0.248956189 0.098671801 0.100189991
0.277545542 0.109044552 0.112333976
0.310941994 0.124224961 0.124477997
0.335989714 0.125489995 0.128273353
0.367868453 0.133079991 0.137001991
0.406325251 0.145224258 0.149145991
0.448703468 0.157242477 0.161036998
0.488171935 0.166350096 0.167108998
0.529917598 0.173181564 0.177735567
0.575205266 0.180645302 0.192662969
0.623276174 0.190765068 0.209867001
0.668817282 0.205945432 0.222010985
0.714357734 0.223782644 0.231498823
0.758127332 0.241998941 0.244149178
0.798861206 0.262871563 0.258443981
0.835294008 0.290196002 0.270588011
0.006957613 0.044402387 0.049209002
0.016066000 0.038330387 0.052245386
0.012650387 0.041366227 0.050980225
0.014295000 0.045667000 0.053510323
0.021125998 0.047944166 0.058570772
0.032890547 0.046046998 0.069955871
0.039468613 0.054649319 0.058317676
0.064642400 0.056293678 0.061606705
0.086527489 0.056419998 0.062618904
0.092599884 0.060974006 0.057305619
0.116508380 0.066793002 0.069196612
0.136749119 0.073750608 0.073750608
0.154965386 0.079190262 0.078937285
0.174573064 0.087792411 0.084756739
0.198608801 0.091334797 0.088045441
0.217457384 0.100442573 0.094117604
0.245920196 0.106261611 0.103225604
0.275648147 0.113219149 0.114104763
0.301834404 0.121189363 0.121442400
0.338014126 0.133586392 0.133586392
0.369007111 0.140291125 0.143073991
0.404301226 0.149272770 0.153193995
0.442757964 0.157368988 0.161416501
0.485136330 0.169386491 0.176217392
0.533712626 0.178494677 0.184566677
0.578494310 0.188108981 0.195951983
0.622770131 0.199367389 0.209361061
0.665780902 0.212017417 0.218975365
0.706009030 0.227197796 0.236432344
0.750790477 0.246805772 0.246679202
0.797216773 0.267172575 0.259329587
0.844402373 0.290196002 0.273624390
0.007843000 0.049209226 0.055281550
0.014800612 0.045288000 0.056167159
0.021758227 0.049968775 0.054901998
0.016951388 0.049209226 0.054395936
0.021125998 0.051359549 0.059582997
0.033269998 0.051865935 0.068184994
0.046805773 0.056799546 0.064010456
0.057811476 0.064263225 0.058697060
0.086147994 0.065021999 0.065275319
0.096141726 0.071094006 0.061733294
0.115243770 0.075015776 0.068690769
0.137508020 0.079064034 0.078811027
0.156989634 0.086147904 0.085009553
0.176217765 0.094497003 0.090576001
0.196711034 0.095635645 0.091714352
0.222643986 0.105629191 0.099303991
0.245414183 0.113219388 0.106894188
0.276280552 0.119923957 0.116508350
0.302087218 0.127514169 0.121062949
0.333206981 0.137002006 0.130550236
0.369639695 0.147248730 0.144591957
0.404301226 0.155344993 0.155977130
0.440860450 0.161543503 0.163187772
0.481341034 0.171663776 0.172295913
0.526376009 0.181530505 0.187223285
0.576597035 0.192030549 0.197722986
0.620619893 0.204174772 0.209361061
0.663124621 0.216318756 0.218469441
0.705123425 0.233269796 0.233396739
0.749905288 0.250221401 0.246299520
0.794939935 0.271094352 0.256293446
0.842758000 0.292346776 0.270209014
0.007843000 0.054775160 0.060088836
0.012650161 0.055534385 0.058823999
0.013662163 0.056040771 0.056673225
0.023529001 0.062618837 0.054901998
0.022390934 0.057684708 0.058317836
0.034535158 0.060721092 0.064389840
0.049209479 0.067552321 0.061606999
0.065654702 0.071094319 0.061733447
0.080835097 0.076407224 0.064769059
0.098545179 0.081973165 0.067805327
0.115496740 0.083870873 0.073750839
0.135737240 0.090702094 0.081847094
0.158127993 0.093738474 0.088678479
0.178747833 0.102087133 0.094117999
0.194939822 0.103098996 0.094117999
0.221631780 0.111448154 0.102593347
0.248956189 0.123086222 0.111701347
0.276280552 0.128526419 0.120177150
0.303605020 0.136369213 0.123845980
0.336242735 0.146742359 0.133712813
0.365338445 0.154585570 0.144085899
0.404807091 0.162682101 0.156230167
0.442125320 0.168880641 0.165211990
0.481594086 0.177988738 0.173560992
0.524351835 0.188362032 0.185199112
0.568754315 0.198861331 0.200252980
0.616319180 0.209994003 0.211384997
0.658823848 0.220619977 0.219734281
0.701328278 0.238076955 0.231625631
0.748640120 0.258823395 0.245793909
0.793675005 0.277039975 0.257558137
0.835420847 0.297912836 0.270461857
0.007463549 0.065781094 0.062744997
0.010120388 0.070335090 0.060468383
0.008602451 0.070714764 0.058570772
0.010626385 0.070208929 0.055660997
0.025426546 0.072865091 0.056040544
0.037571318 0.075901479 0.062112544
0.051866319 0.083618313 0.061353773
0.068690993 0.087792993 0.063251443
0.086148098 0.088551894 0.068564445
0.101328492 0.091587514 0.071600072
0.116129324 0.092852548 0.077166095
0.135737240 0.099810086 0.085262254
0.157748535 0.108538635 0.092093639
0.181783572 0.112081029 0.095382996
0.194307089 0.115369670 0.095635995
0.220493138 0.123212896 0.104490988
0.249335736 0.132700548 0.115496635
0.276660085 0.143706128 0.123972438
0.303984553 0.146742523 0.130044460
0.338899314 0.158127561 0.141303018
0.368880481 0.166097105 0.151170194
0.398735106 0.172548711 0.160025552
0.444275469 0.178747952 0.166097552
0.484250724 0.187855646 0.177735552
0.525617003 0.198861569 0.190259084
0.568501294 0.210626528 0.202276647
0.610626578 0.222896993 0.217457086
0.653131306 0.228968993 0.223529086
0.695255876 0.244528502 0.231878370
0.742693961 0.265527904 0.244149178
0.789879620 0.288424999 0.260214984
0.826312423 0.306641012 0.278430998
0.004427936 0.090069868 0.062744997
0.004427936 0.083997861 0.065781385
0.011385227 0.086401097 0.069955997
0.017963223 0.088425159 0.068184771
0.028462932 0.091081865 0.062112544
0.040606931 0.091081865 0.065148935
0.052751705 0.096647933 0.068690613
0.068690993 0.099936999 0.072359063
0.086148098 0.100695901 0.077672161
0.101328492 0.103731520 0.080708459
0.113599002 0.112586863 0.083744802
0.134345561 0.116129190 0.091334604
0.156989634 0.120683223 0.098165646
0.178747967 0.124225028 0.101455003
0.200000331 0.133333415 0.107526988
0.224541649 0.141429663 0.112586990
0.252372116 0.147501677 0.122706994
0.279696465 0.153320506 0.133080065
0.307020903 0.161922917 0.139152080
0.337128669 0.173307940 0.148007423
0.370398641 0.179759666 0.155724004
0.402277112 0.185325742 0.164326325
0.438203484 0.193927571 0.175205916
0.483744711 0.203035980 0.181277931
0.523719251 0.212144211 0.195193216
0.566477001 0.221758664 0.204301193
0.610500038 0.232384861 0.211891130
0.650094867 0.247184977 0.229601860
0.689942777 0.255913824 0.235673860
0.735230267 0.271853328 0.245793909
0.780771255 0.291967273 0.260214984
0.817204058 0.312712997 0.278430998
0.001391678 0.109297998 0.072865002
0.001391678 0.108285993 0.073371060
0.007843452 0.106514990 0.076407447
0.018216321 0.107906319 0.078304842
0.028968997 0.109677546 0.073624097
0.041112997 0.111828320 0.078811251
0.055787321 0.114357993 0.079317316
0.071221083 0.117140993 0.082352929
0.089437313 0.118658990 0.086780414
0.106388487 0.123465836 0.089816809
0.118658997 0.127261192 0.095382869
0.136875257 0.132321060 0.098418735
0.159519315 0.137634322 0.105375998
0.180771708 0.143453360 0.110056743
0.202024072 0.148007736 0.116129316
0.225680277 0.157115504 0.122201316
0.257432371 0.166223869 0.131309316
0.287792861 0.173181295 0.142188311
0.315117329 0.184186980 0.148260340
0.345224410 0.191018656 0.157115683
0.383175135 0.197469905 0.166224062
0.418469399 0.203541994 0.174952626
0.451992601 0.214041337 0.186843991
0.490322411 0.220746547 0.192916006
0.538140237 0.229854345 0.201265290
0.581150949 0.240354329 0.214547977
0.625680029 0.251107305 0.222011387
0.665148377 0.264263153 0.234155878
0.707147062 0.279190451 0.244275659
0.750157893 0.293611586 0.257432073
0.797090173 0.314484566 0.271979898
0.838456273 0.339025646 0.288551629
0.000000000 0.127513990 0.081720419
0.000000000 0.125869706 0.080075711
0.004807066 0.130803406 0.088804476
0.012650291 0.125743091 0.085515700
0.024794389 0.125743091 0.082479417
0.039468709 0.132574633 0.088551864
0.055787317 0.133966088 0.092852995
0.070967697 0.137001693 0.091208287
0.088425383 0.137001693 0.096520998
0.105756015 0.141302690 0.102213770
0.123086698 0.146109864 0.106514990
0.138013959 0.147501439 0.108918443
0.161543354 0.153952986 0.114231348
0.184060708 0.163314402 0.120556377
0.206704378 0.167742118 0.125237122
0.230360597 0.173940599 0.131309271
0.256167173 0.184566408 0.138899475
0.290955424 0.192536280 0.150284573
0.319292009 0.201644436 0.157368720
0.352688015 0.208222702 0.162934646
0.388994157 0.215686664 0.173687741
0.430486828 0.220746279 0.182795867
0.465401769 0.232131198 0.194054306
0.503352404 0.239721805 0.200126722
0.545603931 0.248071119 0.208475575
0.590006053 0.257178724 0.216192275
0.634535134 0.270082414 0.227830410
0.675142109 0.284503698 0.238077447
0.717267275 0.296015084 0.252118856
0.761542857 0.316255629 0.259961694
0.803542078 0.333586276 0.279063880
0.846046686 0.357874721 0.295762271
0.000759096 0.147248194 0.088551901
0.000759096 0.144971475 0.087792613
0.002783001 0.147501677 0.090828687
0.011890998 0.152308956 0.100695901
0.018722093 0.141302735 0.090449445
0.036179870 0.151549876 0.096142001
0.054395996 0.153574005 0.101454906
0.070967704 0.155218482 0.104870483
0.086148098 0.159013197 0.103352092
0.101328500 0.159013197 0.115496092
0.123086765 0.164073110 0.118911959
0.141809151 0.166856200 0.120682999
0.160025537 0.170651391 0.124098644
0.186843932 0.182290092 0.132194951
0.210625976 0.188362092 0.134218574
0.236432597 0.194434091 0.140417084
0.262239158 0.202024087 0.148007289
0.290828526 0.214168072 0.157748073
0.321315885 0.217583984 0.166982964
0.355724126 0.223403007 0.169765741
0.393295199 0.229854733 0.177735463
0.432005197 0.238963068 0.188108966
0.471726537 0.248070672 0.197216600
0.512460589 0.257178903 0.203921810
0.553447545 0.266287297 0.212270692
0.595319688 0.276154399 0.220746070
0.635294199 0.285768211 0.228336155
0.677798927 0.303478986 0.240733877
0.720303476 0.314484328 0.255154967
0.763820112 0.332447380 0.269323170
0.807336807 0.356356651 0.276786596
0.840734005 0.371537089 0.298038989
0.003795482 0.171536982 0.097659528
0.003795482 0.171536982 0.103731528
0.001644709 0.169259727 0.096521012
0.007842999 0.170524850 0.095635526
0.024794096 0.174699917 0.105629072
0.036938868 0.171663523 0.108665451
0.054396000 0.171790004 0.111827686
0.070967712 0.173434719 0.116634950
0.086148106 0.177229971 0.121568874
0.101328500 0.183301985 0.124604478
0.125236988 0.186211109 0.128020346
0.147374764 0.189373761 0.131056234
0.168374151 0.194560632 0.136242643
0.189879552 0.203542501 0.144338965
0.211131915 0.209614500 0.141302586
0.239721596 0.215686485 0.148133799
0.268311173 0.221758485 0.157115683
0.296900541 0.229348481 0.166856468
0.330296993 0.241492525 0.179000482
0.360784262 0.247691005 0.179885998
0.395192951 0.251865745 0.185705230
0.431752235 0.257179141 0.193928003
0.468690932 0.266287446 0.200252995
0.514231384 0.275395066 0.209361404
0.554965317 0.284503281 0.218342692
0.595952272 0.295002967 0.227450654
0.638330579 0.307020605 0.237444550
0.680835307 0.319165379 0.252624929
0.723339379 0.331562459 0.259708971
0.765843868 0.350663900 0.273371398
0.807589829 0.374952197 0.288425326
0.846805990 0.398861498 0.298038989
0.001012129 0.184186995 0.118405864
0.001012129 0.192915872 0.115749747
0.001012129 0.190765098 0.117520742
0.007589999 0.188993871 0.118532732
0.025047095 0.191777229 0.128020197
0.037191868 0.196331799 0.120935932
0.059455998 0.195825741 0.129032314
0.080075696 0.199114740 0.132827029
0.097786099 0.203415766 0.136116132
0.112966493 0.207336992 0.137001514
0.125236988 0.207589984 0.137127995
0.153573498 0.212649852 0.144212380
0.175205514 0.216571629 0.147880867
0.192915902 0.221632034 0.150664032
0.214168265 0.225047871 0.147628322
0.240227655 0.233523071 0.159012914
0.271600187 0.241619200 0.167615384
0.302340120 0.249715447 0.175332278
0.333459884 0.259582758 0.185198992
0.369639605 0.266160756 0.188994348
0.402150601 0.272232741 0.196710870
0.438583136 0.277292877 0.204807132
0.476913095 0.284376979 0.208981872
0.514104903 0.290701956 0.215306908
0.555091798 0.299810141 0.222138003
0.595952272 0.313092828 0.232004851
0.636939049 0.327766925 0.242125005
0.672232985 0.337507874 0.250094563
0.720050693 0.354964942 0.262618810
0.763061225 0.367615402 0.274510026
0.804680467 0.387349695 0.288046002
0.844149172 0.411638021 0.295129865
0.006072253 0.208475500 0.139658242
0.002024256 0.213535890 0.128526121
0.002024256 0.216065988 0.133712992
0.007084255 0.215559602 0.133712992
0.024161806 0.216318503 0.140923440
0.041239865 0.219101846 0.135104060
0.059455998 0.224161983 0.141176313
0.080455408 0.224161983 0.145350993
0.101328358 0.228716075 0.148007348
0.119038753 0.231752023 0.149272516
0.137381509 0.231878504 0.151296258
0.155597761 0.233902231 0.153320506
0.183681250 0.238835886 0.157874614
0.201771051 0.242125243 0.157748044
0.221252650 0.246932387 0.161796406
0.251360029 0.252751440 0.171157435
0.280202240 0.261859447 0.183301449
0.312460124 0.270335257 0.188614994
0.342820972 0.278051972 0.193548292
0.374699742 0.284376979 0.197090611
0.409234732 0.288551748 0.198229253
0.444655389 0.295509130 0.208855122
0.484250456 0.302846014 0.214168236
0.524477839 0.312713534 0.222137988
0.559139788 0.323086530 0.228210002
0.597217262 0.333586216 0.235673666
0.637951076 0.348513246 0.247185260
0.674383402 0.356103420 0.256293237
0.719038308 0.373181462 0.265654653
0.762302279 0.389626712 0.276028186
0.802783191 0.403795242 0.290702373
0.841113269 0.425806254 0.300189734
0.009488002 0.242251635 0.157494992
0.006831354 0.246426672 0.148007244
0.010752993 0.247312278 0.148893043
0.016951635 0.246300116 0.153067634
0.029854637 0.249335825 0.153067634
0.050347928 0.250094920 0.150790334
0.067931637 0.251739293 0.153320313
0.087286398 0.255660921 0.159772292
0.107780084 0.257178932 0.162808284
0.129791498 0.260594755 0.166983128
0.149905503 0.260721266 0.166603416
0.171157897 0.263883650 0.169639260
0.192410275 0.266919285 0.173813999
0.216192290 0.269702643 0.170524642
0.234408811 0.274003625 0.175205410
0.265781432 0.280075610 0.185578629
0.297659636 0.286527455 0.195066199
0.328019768 0.294370681 0.202909589
0.358380586 0.299936652 0.203415647
0.388741374 0.307147294 0.208475709
0.422138005 0.312460363 0.211891636
0.455534399 0.317520767 0.212903500
0.494750440 0.326628387 0.221631631
0.536242604 0.337760806 0.229727909
0.571916521 0.349905282 0.237697646
0.608981967 0.362049252 0.245161310
0.645414650 0.374193281 0.253257573
0.684250414 0.381530285 0.263503999
0.725616395 0.399367273 0.275268823
0.768753588 0.415812820 0.287792534
0.809108198 0.431878835 0.299557537
0.846046984 0.450094908 0.314990282
0.004680967 0.280961066 0.169639051
0.007969612 0.286274761 0.169639051
0.019354803 0.288298994 0.173434541
0.035294160 0.287286848 0.176723823
0.051107027 0.285009563 0.173814029
0.069323033 0.288045943 0.173814029
0.085262381 0.286274761 0.172042742
0.102972731 0.286780745 0.173687443
0.125237122 0.289816976 0.179506987
0.152561545 0.295888990 0.191651002
0.171410739 0.296395034 0.187350005
0.191651240 0.300443023 0.187349796
0.212903634 0.305376381 0.191271037
0.234915063 0.308159024 0.197090074
0.253131032 0.308159024 0.191018075
0.284503579 0.312460035 0.195951805
0.317900032 0.318785369 0.203795031
0.348513126 0.324478418 0.209740624
0.378873944 0.327514052 0.212777019
0.409487754 0.335863352 0.220366687
0.443137437 0.343074054 0.227830470
0.478558153 0.350158125 0.232890859
0.512080967 0.359393001 0.236179501
0.551422894 0.368627220 0.242378041
0.586843848 0.379759580 0.250474274
0.623656273 0.391904026 0.259582639
0.665401995 0.404301018 0.267931968
0.701833963 0.416445017 0.270967603
0.738266587 0.435799867 0.284629852
0.778494358 0.453763217 0.300568968
0.820999205 0.470082194 0.319544196
0.863503993 0.488298982 0.337760985
0.013788572 0.311321825 0.181783825
0.019860571 0.308285415 0.181783825
0.029601537 0.311448336 0.181783825
0.047438409 0.312586993 0.186843827
0.069449529 0.312333941 0.191903532
0.090575397 0.315370321 0.188994408
0.108792037 0.315876395 0.194054410
0.123086803 0.318532825 0.196584523
0.139405504 0.321695298 0.197217315
0.161669925 0.320176989 0.191651002
0.183175281 0.323339850 0.197975993
0.203795239 0.327767402 0.199494258
0.225047633 0.332700759 0.202530190
0.247059062 0.335483402 0.206198454
0.277419776 0.335483402 0.209234834
0.298038989 0.335483402 0.205566019
0.327007949 0.341302574 0.211132184
0.358000934 0.349145979 0.219607979
0.391017944 0.354838431 0.227957368
0.424162060 0.360657394 0.225427046
0.455028385 0.367362469 0.232511148
0.487665951 0.374446690 0.238962859
0.521189392 0.383680999 0.242251500
0.557621419 0.395825773 0.251359910
0.596963823 0.405059934 0.257558405
0.632384658 0.416192323 0.265654624
0.668690622 0.428842753 0.274257004
0.707905948 0.443769395 0.280075967
0.744338572 0.455914050 0.293738216
0.786084533 0.473497748 0.303605378
0.830107570 0.491966963 0.318405986
0.872612417 0.512587011 0.343832970
0.039721586 0.339278787 0.196331799
0.040986594 0.343453199 0.198734984
0.053510368 0.340417355 0.200885758
0.068437785 0.344212592 0.201138794
0.088171788 0.345730603 0.205692604
0.099303931 0.342694700 0.204680741
0.127640635 0.348007798 0.204427809
0.145856977 0.348007798 0.208855093
0.160278082 0.351802707 0.211132184
0.178241491 0.352055311 0.206957504
0.197090670 0.354838639 0.207589984
0.220366791 0.353826523 0.209613994
0.241998613 0.357621610 0.212270826
0.263757020 0.360657603 0.215559795
0.291967005 0.362808406 0.220746413
0.319923967 0.367615402 0.221378982
0.339658171 0.367615402 0.219860792
0.366476923 0.372801989 0.226312563
0.398102611 0.377102792 0.235420957
0.431499064 0.385578573 0.238203630
0.468690693 0.393548340 0.240859985
0.500569046 0.401138663 0.248450443
0.532574475 0.410246283 0.252878070
0.566729784 0.420113772 0.257431895
0.598608315 0.429981261 0.264263004
0.637697577 0.441872239 0.271726638
0.674130201 0.455028772 0.281340986
0.713599026 0.468311131 0.291207969
0.752814353 0.480834633 0.293231994
0.787475884 0.503605366 0.315496325
0.826059341 0.519038558 0.328652561
0.862492204 0.529664814 0.349904984
0.068564177 0.371157378 0.208475798
0.073118374 0.372675180 0.214547813
0.082352951 0.375331938 0.209993780
0.095003337 0.373561174 0.216825008
0.111701369 0.379506737 0.217836991
0.120050371 0.379127353 0.217836991
0.138772830 0.378621191 0.216318801
0.162555173 0.381404191 0.219481677
0.182289377 0.382163286 0.222517282
0.199746862 0.385199100 0.223276183
0.217836723 0.386717260 0.223276183
0.238583162 0.387223303 0.224794373
0.262871474 0.384186924 0.222517371
0.284503430 0.386717200 0.224415153
0.309297800 0.391018420 0.229221985
0.336622179 0.393422008 0.233522996
0.360910565 0.397976190 0.238077179
0.381024718 0.398608595 0.237444595
0.410499960 0.401644230 0.243010759
0.439089566 0.407210559 0.243516833
0.474762708 0.416318923 0.249968380
0.514231384 0.425427049 0.256040365
0.545857131 0.434534699 0.261986464
0.575078964 0.443643093 0.265022069
0.609234512 0.454269260 0.270334989
0.639595270 0.464769304 0.280581653
0.678178310 0.479823112 0.289943069
0.716635287 0.492978960 0.301075161
0.751549542 0.508159339 0.307147384
0.790512323 0.520303547 0.317014128
0.825679779 0.548007786 0.344338775
0.857937992 0.552435338 0.362049401
0.095888555 0.406325132 0.218216136
0.106261931 0.405186296 0.227324367
0.118153125 0.404553890 0.222643986
0.129032284 0.407590121 0.218089998
0.138140559 0.407969564 0.229474992
0.150031552 0.416571915 0.229980975
0.164073452 0.416192204 0.228083238
0.180265546 0.414168119 0.228083402
0.199999750 0.414927065 0.233396888
0.224288538 0.417963475 0.236432508
0.242757559 0.418089986 0.236558989
0.262365401 0.418722540 0.238583252
0.285388827 0.418216467 0.240101397
0.308918566 0.415939122 0.235294431
0.329411954 0.422011107 0.239089131
0.354206353 0.422011137 0.241365984
0.380392164 0.424161732 0.248323783
0.401012093 0.427198112 0.254902005
0.428336561 0.430233747 0.251865596
0.453510702 0.433269888 0.250727326
0.484124154 0.438836277 0.254649162
0.519038379 0.448576987 0.262745380
0.558254480 0.457684636 0.268943906
0.584060609 0.466793031 0.272991657
0.616192162 0.476913124 0.278937161
0.651106894 0.489057273 0.286653638
0.681467593 0.501201987 0.301328093
0.717647254 0.516255081 0.310562998
0.748133898 0.532827199 0.319038808
0.783807576 0.547628164 0.331056297
0.821379006 0.558380961 0.347880661
0.860847414 0.579633355 0.375205874
0.123213068 0.436685979 0.230360955
0.138393447 0.442757994 0.239468560
0.153067827 0.439468950 0.237824023
0.165465176 0.439215988 0.233776033
0.174573436 0.444402456 0.235547036
0.183681071 0.447438061 0.241619021
0.195572674 0.448450059 0.242125019
0.209614277 0.446552753 0.240227699
0.227324232 0.445287913 0.239468932
0.251612991 0.448323548 0.242504552
0.270082027 0.448450059 0.242631018
0.288298517 0.450474322 0.244655281
0.310183644 0.452119023 0.247691378
0.336243033 0.452372015 0.250474095
0.351423413 0.458443999 0.259582430
0.371916801 0.454901993 0.253763199
0.398229003 0.455407977 0.253510386
0.425300211 0.460594624 0.257938415
0.443517029 0.463631004 0.254902035
0.470841408 0.466666609 0.260215014
0.499810517 0.469702780 0.265528023
0.529665112 0.476281017 0.271853060
0.558254540 0.488045484 0.278051555
0.591651022 0.497153878 0.287159950
0.622011542 0.503984988 0.295762300
0.655661345 0.513345957 0.301834285
0.690576017 0.525490046 0.307400137
0.720935941 0.537634015 0.319544911
0.749145806 0.550031722 0.326122999
0.783807635 0.566223979 0.335989982
0.820620000 0.581910074 0.350157976
0.851739049 0.594813049 0.369133115
0.197849482 0.489310741 0.250854373
0.201897860 0.492599368 0.254395962
0.210626468 0.494370371 0.259203136
0.218848944 0.492093384 0.257558733
0.225300491 0.494370371 0.257179201
0.236812517 0.495002806 0.256040365
0.245920137 0.495508730 0.254522681
0.261100799 0.495508730 0.257558703
0.277419358 0.495129466 0.258697391
0.295635343 0.498165637 0.259709239
0.316887736 0.498292118 0.257052362
0.333079994 0.496267825 0.259076625
0.351676047 0.496647358 0.260974377
0.374446452 0.496900380 0.262112737
0.387097150 0.500442743 0.263630778
0.414294720 0.504111588 0.275142342
0.439721584 0.502214134 0.274762928
0.466286868 0.505123496 0.277672797
0.484503686 0.508159339 0.274636418
0.505503058 0.505629718 0.279949397
0.527134717 0.510563076 0.280329138
0.553953290 0.515496731 0.284756601
0.583175361 0.523845732 0.292725861
0.613915622 0.530297279 0.301834255
0.645034730 0.539405704 0.310942650
0.675395370 0.547375023 0.317267686
0.708539069 0.559139550 0.321821362
0.741176307 0.575838089 0.333965570
0.776849926 0.585325897 0.346110314
0.808095872 0.599114478 0.361290544
0.843769789 0.616318643 0.376470715
0.876028061 0.632258117 0.390891731
0.238835976 0.528779447 0.262618989
0.247565120 0.529917836 0.275142342
0.252751708 0.530803204 0.262998015
0.258823723 0.533333182 0.268564403
0.264010012 0.533839226 0.270462006
0.277672619 0.530803204 0.268943816
0.289184153 0.534598231 0.271600306
0.301581174 0.534598231 0.268564284
0.317267835 0.534598231 0.271600336
0.330170721 0.536495924 0.270462006
0.349272341 0.536622465 0.269449890
0.368373960 0.538393199 0.270461500
0.384692997 0.536495447 0.274636537
0.405186504 0.536495447 0.276913702
0.422264546 0.537887156 0.281846970
0.443137437 0.540923536 0.283870995
0.468943626 0.543959498 0.291461170
0.494244009 0.543706596 0.293864995
0.513725638 0.544212520 0.292093754
0.530930102 0.545477331 0.295509011
0.555977464 0.546236694 0.299683750
0.575205624 0.551296830 0.298671871
0.602656722 0.556483448 0.305882007
0.629475057 0.562555432 0.313219637
0.661733449 0.570904255 0.322327524
