Assets/Shaders/EldamarStudio/100 Sci-Fi LUTs Pack/LUTs/cube/Louise LUT.cube
DOMAIN_MIN 0 0 0
DOMAIN_MAX 1 1 1
LUT_3D_SIZE 32
0.000000000 0.000000000 0.000000000
0.000000000 0.000000000 0.000000000
0.000000000 0.000000000 0.000000000
0.000000000 0.000000000 0.000000000
0.001138547 0.000758999 0.000000000
0.010246934 0.006830999 0.000000000
0.021884996 0.010373322 0.005059999
0.034028992 0.010120292 0.009487708
0.046173193 0.010120095 0.014041902
0.058317978 0.019228484 0.023149516
0.076280996 0.019608000 0.023529001
0.090448990 0.021631740 0.027577514
0.102592997 0.024667645 0.032511353
0.115243062 0.027956998 0.036053032
0.133459821 0.034028992 0.045161411
0.149272799 0.037697803 0.047059000
0.167489186 0.043769803 0.050094996
0.188741550 0.052245155 0.057431981
0.209993988 0.058317944 0.069576010
0.222897008 0.067172654 0.073371358
0.236938730 0.076280735 0.080202736
0.257179260 0.086401001 0.089310862
0.287160456 0.098544985 0.098418504
0.308412105 0.110688999 0.107526906
0.331941545 0.120556280 0.116635285
0.361796290 0.131055981 0.128526300
0.397723049 0.142694071 0.143200129
0.431119412 0.151802450 0.155344889
0.472485572 0.168880641 0.167488977
0.514990330 0.187096938 0.183174938
0.556609571 0.207084194 0.199620217
0.596077979 0.231372997 0.211765006
0.006072000 0.003036387 0.000000000
0.000000000 0.000000000 0.000000000
0.000000000 0.000000000 0.000000000
0.000000000 0.000000000 0.002529999
0.001517999 0.001138547 0.005692549
0.013282547 0.009867387 0.003036387
0.024921257 0.008349065 0.005566064
0.037065379 0.010373321 0.011131996
0.049209386 0.011638290 0.014800614
0.061353587 0.016192101 0.017077519
0.073497608 0.022390611 0.023275999
0.091461122 0.026692126 0.027577514
0.104490742 0.030740129 0.033650000
0.115243062 0.033776034 0.039089356
0.133459821 0.037065379 0.048197027
0.151675984 0.043137383 0.052498419
0.167488813 0.048323996 0.054649193
0.185072750 0.055281378 0.059835792
0.203922004 0.061353561 0.069576010
0.227957025 0.072991617 0.076154009
0.244908467 0.080455475 0.083238348
0.264263362 0.089437380 0.092346735
0.290196091 0.101581372 0.101454861
0.311448514 0.113725387 0.110562518
0.337254673 0.121315382 0.117394187
0.366476625 0.132447645 0.127134979
0.400252730 0.146236390 0.140164375
0.431119412 0.157874450 0.152308494
0.472485572 0.174952641 0.169766247
0.514990330 0.189626962 0.182669356
0.557495177 0.207084194 0.200126350
0.599114418 0.231372997 0.220872611
0.005692774 0.001771226 0.000000000
0.001771000 0.000885613 0.000000000
0.000000000 0.000000000 0.004300999
0.002529999 0.002529999 0.004300999
0.004680547 0.003921548 0.007843000
0.011511773 0.005945934 0.006578161
0.023655867 0.011385452 0.006451677
0.037444931 0.011638062 0.007843000
0.050094999 0.015433225 0.013662097
0.062239006 0.019860519 0.017836779
0.074382998 0.025806548 0.025806548
0.088551253 0.029854288 0.031878546
0.105502866 0.036938868 0.037951000
0.116887771 0.041998740 0.043517001
0.131309047 0.045034643 0.046932347
0.149525762 0.048323996 0.051233031
0.167741776 0.054395996 0.057305411
0.183554560 0.061732985 0.062239219
0.200253189 0.070841014 0.069829039
0.224035800 0.076027781 0.076154009
0.244528770 0.086274512 0.082226478
0.263757348 0.093611866 0.090069763
0.287160009 0.104617238 0.098418973
0.314484686 0.116761774 0.113598876
0.335990041 0.126501992 0.118279576
0.363314390 0.136748642 0.127134979
0.395192832 0.151929066 0.139785066
0.427197903 0.165717766 0.153573766
0.466033787 0.176723644 0.162428871
0.517393708 0.194939941 0.185958371
0.558254182 0.210499585 0.203542188
0.595699012 0.233523220 0.227830544
0.005186839 0.005059999 0.001265161
0.002150774 0.003795161 0.002529999
0.005059999 0.005059999 0.006830999
0.005059999 0.005059999 0.010372999
0.010752548 0.009993549 0.010372999
0.013788935 0.006957936 0.010372999
0.025680158 0.012776837 0.011638161
0.038203698 0.019734450 0.012902999
0.053384092 0.022011161 0.014421192
0.066034168 0.027071163 0.023023650
0.075648159 0.030613581 0.029601710
0.089816414 0.037191901 0.036685836
0.106135152 0.041366160 0.041619480
0.121188998 0.050094996 0.047818031
0.133332983 0.054142736 0.050854161
0.149019435 0.057178967 0.051992513
0.168500990 0.060467996 0.055534188
0.185452133 0.067172572 0.064009994
0.200000167 0.078684174 0.070082009
0.222264722 0.085009523 0.078684330
0.244023144 0.090575740 0.084756479
0.263251305 0.099683866 0.090828992
0.284630150 0.108918011 0.097027473
0.312713653 0.121062808 0.111827843
0.338773102 0.132194862 0.122454286
0.362808466 0.142820641 0.129664972
0.391650975 0.156482995 0.141303062
0.425806433 0.169386268 0.154965430
0.467046082 0.181783661 0.164705992
0.509550512 0.196205109 0.178115159
0.561922610 0.217077747 0.206325188
0.593421817 0.239089161 0.231372997
0.007843000 0.016824547 0.004681000
0.005566387 0.014547934 0.007716612
0.009993774 0.015433322 0.012143999
0.016824547 0.017204095 0.015306548
0.017204095 0.017583545 0.015686000
0.020240482 0.014547935 0.015686000
0.032637771 0.020872772 0.018595774
0.046173543 0.029221704 0.022011386
0.057938095 0.036432549 0.025047194
0.073118493 0.036432549 0.031119972
0.081087999 0.036812000 0.035041127
0.092852704 0.042884253 0.040480539
0.108412541 0.050094996 0.044655092
0.126375496 0.056166995 0.048197482
0.138645992 0.062238991 0.057305858
0.153573349 0.067046344 0.058823999
0.171789736 0.069323346 0.060721353
0.191144586 0.073624119 0.064009994
0.203289405 0.082732528 0.070082016
0.223023817 0.091840811 0.081720717
0.245035186 0.099051446 0.090828992
0.265908122 0.106135413 0.096900992
0.287286967 0.115369529 0.103099503
0.311575025 0.127514258 0.112207197
0.338140279 0.139278993 0.123592563
0.365844160 0.151422977 0.134598434
0.394307137 0.163693547 0.146995530
0.430739880 0.169765532 0.156103909
0.473624319 0.183048353 0.167868525
0.516002536 0.199999854 0.181783631
0.555850565 0.219355032 0.200632632
0.595318973 0.246679455 0.230993450
0.007843000 0.025932934 0.010753000
0.010879387 0.028969321 0.013788613
0.010753000 0.028842937 0.014673999
0.017330935 0.029348871 0.014421161
0.026312482 0.029728321 0.012650387
0.029348869 0.032763936 0.015686000
0.037444610 0.034788318 0.020746000
0.049209476 0.038836159 0.026312482
0.059835933 0.042884097 0.030360874
0.067046493 0.045540936 0.031119976
0.085135996 0.048450064 0.040101130
0.097279988 0.055028249 0.048197251
0.109930351 0.060720995 0.052245289
0.123339891 0.062238995 0.051233098
0.138519496 0.068310991 0.060341474
0.155597597 0.079190597 0.059835874
0.174826130 0.082226738 0.061859995
0.194180921 0.082732506 0.066793352
0.206325009 0.091840915 0.070082016
0.221252427 0.100948587 0.081720717
0.245034784 0.108159058 0.093864992
0.268311322 0.115243189 0.102972999
0.287286967 0.124477915 0.109171502
0.311575025 0.136621937 0.118279912
0.338140279 0.146489352 0.129664868
0.366856307 0.157494977 0.137634322
0.397216976 0.170145065 0.144212127
0.430739880 0.184945926 0.159139514
0.464515746 0.193674758 0.170904711
0.505249441 0.209107876 0.184819669
0.547248244 0.226438656 0.202656254
0.589246988 0.243643060 0.227957055
0.017963000 0.040101320 0.024415322
0.018469064 0.040607385 0.024921257
0.021505449 0.041492999 0.025806643
0.023150157 0.042757839 0.027071483
0.031119773 0.044022676 0.026565546
0.038456611 0.044908062 0.025300708
0.046552997 0.050474640 0.030866643
0.054016314 0.051866319 0.035293929
0.064389676 0.054775640 0.039721772
0.074003689 0.059582807 0.041492999
0.089184001 0.062618449 0.042631447
0.101328254 0.065654576 0.045667320
0.115243308 0.072612323 0.053257640
0.130676731 0.075901322 0.056293610
0.148134217 0.081973314 0.060847409
0.158506826 0.085642122 0.067551993
0.176344052 0.094370998 0.069449678
0.196584553 0.096900731 0.075521827
0.214421332 0.106008656 0.080455683
0.229348689 0.115116969 0.091840722
0.246426299 0.122327313 0.098292254
0.270841241 0.128399312 0.106514670
0.292473465 0.135989502 0.112966172
0.319165349 0.145730332 0.126881570
0.343453318 0.157874316 0.133712664
0.374699295 0.167235658 0.148134008
0.407337129 0.178747386 0.156356648
0.438709736 0.193927765 0.161416754
0.474636406 0.206324816 0.181530654
0.515116692 0.222517163 0.197216943
0.561922431 0.241492525 0.215812504
0.611005306 0.258317649 0.240101323
0.025173709 0.056925990 0.034661997
0.025173709 0.058570698 0.033017289
0.030613480 0.056925990 0.029728293
0.033649541 0.056925990 0.034788292
0.037065282 0.059202701 0.038582996
0.044908062 0.059202701 0.036812223
0.052372027 0.065907635 0.038077287
0.061479993 0.065401994 0.040860288
0.068311095 0.066919990 0.044654999
0.079569720 0.072991997 0.048576776
0.092978872 0.076154537 0.051992703
0.107400253 0.079190247 0.051992703
0.117646992 0.083364993 0.055408057
0.134851068 0.089436993 0.064010315
0.153067827 0.095508985 0.067046277
0.164073184 0.100822084 0.070840992
0.177735373 0.105376668 0.075395189
0.196584553 0.111448690 0.082605697
0.217836976 0.119544454 0.090702228
0.235167652 0.127008066 0.097407006
0.252245694 0.135863408 0.105502963
0.270461679 0.142947286 0.111574702
0.293611765 0.149904713 0.119164683
0.320936233 0.160531312 0.132826909
0.350917011 0.168627411 0.142820701
0.377988309 0.180771396 0.151675671
0.413409054 0.190638691 0.167362422
0.444908172 0.204680428 0.169639707
0.485515594 0.218848675 0.188235492
0.525616825 0.234661579 0.204427660
0.571157277 0.255914003 0.220872685
0.623529017 0.274889708 0.242125303
0.028968999 0.075901091 0.042251997
0.030486999 0.076660387 0.037697613
0.036179673 0.076913416 0.031752098
0.042757932 0.075142190 0.034029000
0.046173092 0.075142190 0.044654999
0.052245095 0.075142190 0.044654999
0.058317546 0.080455422 0.045414094
0.066034384 0.082859099 0.044654999
0.075142197 0.079823092 0.046173193
0.084250592 0.085895099 0.052245200
0.095508993 0.089057766 0.058317740
0.109677248 0.092093833 0.060341999
0.123718992 0.096268095 0.062239353
0.136116028 0.102087125 0.071347028
0.153826728 0.107653186 0.075395413
0.167109370 0.113725185 0.078431383
0.179253370 0.119797386 0.080708288
0.196837559 0.125237420 0.086274497
0.217836991 0.131182909 0.098545007
0.238583103 0.137255087 0.103099257
0.256040454 0.145983741 0.108033091
0.275016099 0.155092061 0.115369990
0.293611586 0.164199665 0.127387494
0.320936024 0.175711721 0.138899103
0.351296365 0.184061006 0.148766384
0.383301407 0.192915976 0.159266070
0.415180147 0.205566064 0.171916157
0.449082524 0.217963085 0.178747877
0.491587311 0.232004791 0.197343692
0.532321274 0.249715298 0.214801043
0.580265641 0.268817484 0.228463054
0.625806093 0.290069908 0.240607083
0.035041008 0.097153492 0.054396003
0.041113008 0.091081493 0.045287620
0.046932008 0.091840781 0.036432788
0.051865682 0.093358979 0.037571333
0.055281490 0.093358979 0.050727006
0.061353490 0.093358979 0.050727006
0.067425489 0.093358979 0.053257328
0.075142227 0.093738496 0.052877784
0.084250592 0.095003493 0.052245203
0.093358979 0.101075493 0.058317974
0.102466613 0.104237616 0.064389974
0.115749247 0.107273772 0.066414006
0.129790992 0.111448489 0.067552358
0.142188028 0.117267519 0.071347035
0.157368407 0.120303907 0.080455415
0.175079122 0.125869960 0.084503807
0.189879969 0.131941974 0.086021975
0.202909559 0.137381434 0.089310884
0.218089983 0.140417054 0.104490519
0.244655371 0.146363243 0.111195005
0.264010221 0.156230494 0.117141001
0.281341136 0.167236149 0.124225356
0.302719980 0.176344439 0.133459494
0.330044419 0.185452089 0.142567903
0.357368767 0.194686815 0.151802778
0.386337787 0.205059990 0.162302464
0.418216556 0.217710078 0.174952552
0.457684904 0.232890442 0.190132931
0.496900260 0.245287448 0.207589954
0.531308889 0.262871146 0.225932911
0.571916282 0.283997089 0.243896455
0.634914517 0.305249512 0.261859477
0.044022869 0.106767870 0.057811871
0.055913866 0.106514871 0.054522481
0.055534638 0.106894098 0.056166869
0.059329737 0.108665124 0.053384155
0.064769320 0.109424219 0.056799740
0.073371001 0.114484869 0.056799740
0.079443641 0.111954547 0.061859738
0.087160029 0.113219708 0.066919871
0.095508993 0.114484869 0.066919744
0.102466613 0.116255872 0.064389974
0.111574993 0.119417995 0.070461996
0.122706860 0.120429866 0.074509740
0.135863274 0.123718992 0.077672414
0.148007736 0.129284993 0.081973709
0.160531282 0.129664540 0.080455415
0.178114861 0.135104120 0.089563802
0.196331501 0.144212514 0.096647799
0.211258858 0.153067857 0.102087110
0.224161983 0.158380806 0.110436037
0.239342377 0.164199740 0.114484355
0.264263004 0.174066991 0.124224856
0.284503251 0.182163000 0.133333251
0.305882126 0.185705140 0.142441377
0.330423921 0.197596848 0.151549786
0.357748270 0.206704438 0.160657570
0.387855619 0.218595654 0.171157449
0.420240313 0.233269989 0.182289869
0.454902291 0.250854164 0.190259427
0.497026771 0.260720879 0.210752785
0.542061746 0.276154250 0.227451041
0.581024706 0.296268314 0.243643582
0.626565158 0.317520738 0.259835869
0.059202988 0.121947989 0.070967987
0.061227255 0.121947989 0.063883603
0.066666506 0.124098733 0.065275252
0.067425735 0.124604344 0.071347252
0.073118284 0.124224797 0.069829442
0.078937322 0.128652856 0.064895734
0.087539643 0.133206919 0.069955736
0.091967285 0.130170539 0.072738737
0.101834096 0.131688729 0.078051932
0.111701258 0.131688729 0.077040248
0.122706860 0.136622638 0.080581993
0.131815240 0.137634501 0.084630251
0.143959254 0.138772860 0.086527511
0.156356767 0.143706292 0.090828992
0.170271993 0.145477504 0.093105838
0.181151256 0.152308241 0.103732049
0.197849452 0.156862438 0.109804049
0.214927569 0.165591568 0.116002247
0.228463277 0.170272276 0.119291261
0.247438625 0.178368002 0.124604344
0.266413987 0.186337724 0.133333474
0.289563388 0.197343379 0.142441377
0.310941994 0.200632498 0.149398983
0.335230798 0.208981812 0.156609654
0.363820523 0.222897202 0.167742208
0.392536193 0.232004806 0.181024477
0.424794137 0.245920062 0.193928063
0.456673056 0.262618631 0.201518252
0.498039186 0.278937638 0.214800775
0.538772345 0.291587234 0.230739951
0.584819615 0.311321914 0.248323932
0.623529017 0.333712995 0.266919971
0.076280639 0.142441288 0.084629998
0.074383378 0.142441288 0.078937255
0.075648509 0.144591764 0.078431413
0.078810640 0.145098120 0.080455646
0.084123641 0.142441288 0.085768647
0.086400934 0.144718587 0.078937344
0.094497316 0.149145991 0.080202289
0.102593571 0.150284573 0.084123641
0.106388286 0.149525285 0.085641637
0.120430134 0.150284275 0.091714315
0.132700637 0.153826728 0.094876766
0.142820895 0.155850992 0.097912602
0.151928991 0.158127993 0.099810347
0.164326042 0.160910636 0.100316413
0.179506406 0.163061410 0.106388636
0.192156807 0.172042817 0.116255790
0.205439821 0.179253474 0.127640799
0.220620036 0.181657284 0.130043998
0.235800341 0.184187621 0.130044013
0.254269719 0.193927929 0.136748657
0.276660740 0.201897368 0.146615818
0.299937129 0.209993631 0.156736612
0.321315259 0.218975499 0.159772292
0.343579799 0.226059645 0.163820297
0.371283889 0.238962919 0.174446583
0.401644588 0.253637224 0.185958609
0.433016777 0.263756871 0.203668579
0.464642495 0.278937072 0.214041799
0.504490614 0.296774268 0.226944983
0.545224369 0.315496653 0.242504597
0.587349415 0.333332866 0.258190840
0.630360305 0.357621640 0.282479644
0.090701997 0.166224003 0.091461033
0.091713995 0.166224003 0.091713995
0.093611740 0.168121263 0.093358770
0.096141867 0.169133186 0.095635995
0.099810034 0.166477039 0.095635995
0.099810034 0.166477039 0.095635995
0.106894352 0.168500707 0.095382966
0.115749702 0.169006705 0.097280353
0.124099001 0.167741999 0.100316033
0.130171001 0.173813984 0.106388032
0.141555995 0.174320027 0.109550901
0.152182251 0.174320027 0.112839803
0.161543384 0.176344067 0.115243062
0.170651063 0.182416067 0.115243062
0.185831442 0.182416067 0.121315829
0.201011837 0.191271022 0.127387986
0.217710346 0.200126380 0.134977862
0.235041454 0.205693036 0.142441034
0.250221103 0.205693051 0.142441049
0.266160399 0.216319039 0.150284395
0.286527455 0.224668026 0.160530984
0.310816109 0.231246024 0.170651257
0.338013977 0.237571016 0.176850468
0.356483012 0.246805906 0.177229956
0.382289320 0.259962291 0.186590984
0.411005288 0.275648654 0.197343662
0.442125171 0.290323019 0.207210973
0.478557914 0.305502594 0.222390562
0.517899871 0.323339671 0.238076836
0.557368577 0.343327165 0.256799191
0.599494100 0.365211964 0.278937221
0.648071051 0.389500022 0.303226024
0.096773997 0.184439987 0.106641397
0.108917996 0.184439987 0.109677017
0.109929979 0.184439987 0.107779749
0.109297723 0.186337575 0.109803990
0.109424405 0.187729403 0.113851979
0.121062398 0.187729403 0.113851979
0.123592719 0.185199082 0.111321658
0.129538402 0.188361406 0.113851979
0.136242986 0.191017985 0.117014721
0.142314985 0.192029983 0.115496412
0.148387000 0.195192844 0.118659280
0.161796242 0.195572406 0.123719409
0.174572989 0.196711034 0.129158825
0.185831442 0.200632825 0.133459821
0.194939822 0.206704825 0.133459821
0.210120201 0.209107995 0.139531985
0.226818398 0.214041591 0.147122189
0.243769720 0.218975559 0.154965252
0.256293893 0.226945415 0.157621413
0.279822856 0.232511401 0.160404772
0.298418403 0.239848405 0.164705664
0.316887707 0.247944400 0.170651257
0.334977567 0.258823365 0.176850468
0.359266400 0.270967394 0.185958102
0.391397983 0.280202240 0.197722852
0.423149765 0.296141624 0.209487662
0.454016179 0.314105064 0.219101980
0.487666279 0.323719352 0.231498942
0.529412031 0.341555804 0.251992196
0.569512963 0.361543119 0.271979570
0.611638129 0.382795542 0.294117600
0.660215020 0.404680401 0.318406403
0.114863783 0.207463592 0.124224983
0.114990607 0.205059782 0.122454211
0.120682828 0.207210556 0.121188827
0.124730960 0.208728433 0.124477990
0.125869796 0.211384982 0.130929530
0.125869796 0.211384982 0.124857798
0.140038118 0.208855271 0.127134472
0.143074080 0.209107876 0.127387494
0.149146080 0.212902784 0.131941885
0.156862795 0.212902784 0.132194504
0.162934780 0.215812653 0.130170852
0.171031043 0.218849048 0.135230988
0.184313804 0.219228595 0.140164629
0.196457803 0.220999748 0.144971803
0.207716405 0.224920988 0.149272799
0.219228595 0.228589788 0.149272799
0.234408602 0.230107591 0.155344799
0.251739144 0.234155774 0.162302420
0.267425954 0.245034963 0.165338039
0.283491820 0.251359999 0.173181355
0.305882543 0.259329706 0.174319997
0.325616747 0.268943906 0.178873926
0.344086081 0.282353044 0.186590970
0.370651603 0.292219788 0.197975904
0.397217065 0.302087069 0.207084075
0.431878626 0.315369755 0.219228461
0.463756859 0.334598064 0.229854792
0.497153521 0.347501427 0.245793790
0.536116600 0.359772593 0.261100590
0.578621328 0.383301765 0.280581713
0.617837012 0.405819178 0.302972555
0.660341799 0.427071571 0.328779191
0.133080184 0.228715986 0.142441377
0.130044192 0.230233774 0.142441377
0.128273413 0.228462949 0.136369601
0.133839354 0.231499016 0.133333221
0.142568201 0.234155178 0.143073738
0.141050175 0.234155178 0.138520122
0.146616131 0.234661505 0.139531866
0.155218482 0.233396649 0.141049713
0.160531193 0.236432463 0.143326998
0.170398474 0.237191558 0.145603716
0.175079197 0.237065047 0.144338876
0.186211437 0.243137449 0.148893192
0.193042547 0.243896544 0.152688190
0.204554051 0.244022980 0.155598000
0.219228372 0.248323768 0.161669984
0.229854405 0.251359999 0.165970996
0.243516997 0.254395992 0.169006988
0.258696735 0.255028576 0.173813999
0.276027948 0.264516205 0.175964236
0.292979181 0.271094203 0.181530550
0.311954528 0.280581743 0.189500377
0.333206922 0.289690137 0.190512240
0.354712278 0.303605497 0.198608503
0.382036716 0.312713504 0.209361196
0.412397444 0.323339462 0.220746279
0.438330144 0.335230827 0.231245965
0.471347064 0.353826463 0.242504865
0.504743397 0.371030807 0.261732966
0.544971228 0.386590660 0.278811008
0.586211145 0.403036326 0.294244319
0.629601598 0.430360764 0.314231336
0.667932034 0.452878177 0.340923190
0.146995574 0.248197138 0.158127993
0.145856753 0.253636539 0.161163613
0.143453330 0.254522324 0.158127755
0.146110132 0.253383994 0.152814969
0.153700516 0.256799132 0.150537595
0.159013569 0.257305115 0.153573915
0.163187817 0.258570462 0.154712245
0.166223705 0.259962142 0.156103566
0.170904562 0.260721087 0.157368556
0.183048561 0.263757467 0.157368556
0.187096849 0.260974258 0.157368556
0.196964234 0.265401810 0.162175819
0.210120499 0.271853477 0.169765979
0.213662103 0.269576132 0.169765979
0.230740219 0.275648117 0.175078973
0.242378339 0.278051794 0.180518553
0.254522324 0.281087935 0.185325563
0.269070119 0.284123540 0.190132573
0.284250557 0.287159950 0.190132573
0.302213579 0.292979151 0.192915931
0.322327286 0.302213550 0.199747145
0.344212264 0.313978285 0.209361419
0.365591109 0.323086619 0.212650061
0.392409474 0.332194865 0.221758455
0.423023254 0.343580127 0.232511118
0.453510523 0.357748181 0.244655117
0.478810698 0.372422546 0.256799132
0.512080550 0.393295377 0.277671993
0.551549137 0.411258519 0.295635641
0.594053924 0.430739939 0.313978583
0.635546803 0.450348139 0.330550522
0.681088030 0.477672577 0.354838580
0.156103998 0.272486001 0.164200038
0.162175998 0.275521606 0.167235643
0.163187966 0.278810799 0.170271799
0.167994991 0.280076027 0.172296196
0.177988559 0.281088024 0.174826413
0.174952954 0.287159979 0.177862018
0.180265978 0.285136312 0.173308030
0.184440255 0.284251004 0.171283990
0.188994125 0.285009921 0.172801986
0.198229015 0.288045555 0.178620994
0.204554006 0.285262942 0.178620994
0.212397292 0.288298994 0.180645257
0.224288672 0.294624001 0.186464339
0.237950921 0.299936980 0.194054022
0.247058526 0.306008965 0.194054022
0.259329677 0.304870188 0.196963832
0.272739142 0.305376261 0.198734999
0.287286937 0.308412403 0.199240997
0.299430996 0.311448038 0.199241012
0.317394018 0.317267776 0.202024370
0.337507755 0.325237244 0.208855256
0.359772265 0.335610241 0.219987184
0.383807927 0.347375453 0.233902484
0.408095986 0.356483072 0.243010908
0.434914291 0.367868602 0.252119273
0.464136362 0.382795960 0.262871951
0.493991137 0.399747014 0.275015950
0.524351835 0.411890984 0.287159950
0.557621717 0.427450866 0.302719802
0.597090364 0.448197365 0.323465943
0.637824237 0.471094579 0.345224291
0.675016046 0.492853045 0.363947034
0.179127023 0.316255391 0.189753383
0.179633021 0.316508323 0.190006346
0.183554798 0.319544494 0.193042502
0.184187368 0.318785727 0.193548560
0.189120814 0.316129208 0.193548560
0.190891594 0.319797367 0.196584791
0.192915976 0.320809364 0.192030087
0.202023998 0.321315706 0.192536429
0.209234357 0.323213309 0.195572630
0.216318518 0.326248914 0.199620366
0.228083730 0.326248914 0.197090730
0.234155715 0.325237036 0.199114472
0.244782016 0.328652650 0.201012015
0.259456336 0.332574368 0.204680398
0.268563956 0.333586365 0.207210720
0.280075967 0.339658350 0.214420900
0.293738157 0.340796947 0.216698021
0.308918208 0.343833148 0.217330605
0.323213041 0.346868783 0.219481379
0.340923727 0.355471104 0.230613381
0.353446990 0.357748389 0.233649760
0.373181403 0.365211725 0.238962591
0.399494320 0.377229512 0.247185007
0.429095387 0.386337847 0.264263272
0.453383952 0.400000006 0.266540378
0.482985348 0.414042026 0.282479644
0.515243471 0.430360794 0.300063282
0.547880888 0.444782078 0.305375993
0.586211443 0.462239057 0.328146636
0.623402834 0.479316711 0.345477313
0.663124561 0.502466619 0.371283561
0.699557364 0.527514040 0.400885403
0.203415468 0.350410730 0.211384982
0.193927735 0.354206204 0.211384982
0.199873507 0.352561474 0.219228506
0.204174727 0.353067547 0.215939417
0.205060184 0.349525541 0.211384982
0.205059797 0.355597526 0.212903187
0.213788792 0.354206204 0.221631825
0.220113754 0.357495189 0.215559468
0.231245816 0.359266371 0.217583984
0.238456473 0.360024989 0.217204258
0.246552721 0.360151470 0.218216613
0.258443981 0.363946468 0.217331216
0.265654624 0.363946468 0.220366836
0.279064000 0.366223752 0.221378773
0.289816320 0.367868453 0.224415153
0.303225577 0.370777696 0.230360657
0.316888154 0.376850098 0.236432269
0.331435442 0.380265862 0.236811727
0.345350742 0.383301497 0.238582969
0.363314450 0.390006095 0.251865745
0.377735734 0.393421739 0.256419718
0.391903728 0.394433856 0.261480123
0.417963713 0.403794974 0.266413450
0.441239744 0.412903368 0.277545810
0.474636286 0.426565260 0.293484986
