Assets/Shaders/EldamarStudio/100 Sci-Fi LUTs Pack/LUTs/cube/Louise LUT.cube
LUT_3D_SIZE 5
DOMAIN_MIN 0.000000 0.000000 0.000000
DOMAIN_MAX 0.903226 0.903226 0.903226
0.000000000 0.000000000 0.000000000
0.034028992 0.010120292 0.009487708
0.133459821 0.034028992 0.045161411
0.257179260 0.086401001 0.089310862
0.472485572 0.168880641 0.167488977
0.025173709 0.056925990 0.034661997
0.061479993 0.065401994 0.040860288
0.153067827 0.095508985 0.067046277
0.270461679 0.142947286 0.111574702
0.485515594 0.218848675 0.188235492
0.096773997 0.184439987 0.106641397
0.129538402 0.188361406 0.113851979
0.194939822 0.206704825 0.133459821
0.316887707 0.247944400 0.170651257
0.529412031 0.341555804 0.251992196
0.224668115 0.381783396 0.227577254
0.244402528 0.389880002 0.246932119
0.312460124 0.405692667 0.248703405
0.415180385 0.428842366 0.280708283
0.615053713 0.521442115 0.376344055
0.480581582 0.699936628 0.502593458
0.509171546 0.705249548 0.504743516
0.561543405 0.713092566 0.520303190
0.646426439 0.730297446 0.555977225
0.754965425 0.757495463 0.611258447
0.004554003 0.011765000 0.034661997
0.038582996 0.015686000 0.042504996
0.130170822 0.052371986 0.074256703
0.248956129 0.109550707 0.125616997
0.460974038 0.179506704 0.202150658
0.033017289 0.056925990 0.049715411
0.068058409 0.072612412 0.070335694
0.144212276 0.101707697 0.099430986
0.261986136 0.146869123 0.139658689
0.476660281 0.223402679 0.222770676
0.111195408 0.186084688 0.135356992
0.135357410 0.192283407 0.136622012
0.196204990 0.210625976 0.155977115
0.311701119 0.253130823 0.196204990
0.530044198 0.344844788 0.279822886
0.218216121 0.380771250 0.248576820
0.249968395 0.388994575 0.261606395
0.314358115 0.403668642 0.272865236
0.414800823 0.431119651 0.301581264
0.610119879 0.522074699 0.393674761
0.486400723 0.698291898 0.509297550
0.508791685 0.702213883 0.518152833
0.562175989 0.711701632 0.536369205
0.645161033 0.730044246 0.566097558
0.750790298 0.754206061 0.608602226
0.003289416 0.023529001 0.134092405
0.058570277 0.029095709 0.134092405
0.140670389 0.057558831 0.138645992
0.253510565 0.117140830 0.182922110
0.461353153 0.183807552 0.269575953
0.051360119 0.086653702 0.130170822
0.082352996 0.090575710 0.133080274
0.150410995 0.112839691 0.151423126
0.264895856 0.158001274 0.199493989
0.471726745 0.232258230 0.284883082
0.122959986 0.194307387 0.181151405
0.150411412 0.207336992 0.196204990
0.232258230 0.241998821 0.236179382
0.327767223 0.268184423 0.261986256
0.527387619 0.346110195 0.337634623
0.234535128 0.389879823 0.307779700
0.259076834 0.396457821 0.320556223
0.324225098 0.413788944 0.327767432
0.427197844 0.438583136 0.358507246
0.617204368 0.529664516 0.444908202
0.474635988 0.698671639 0.543200552
0.496647775 0.700948834 0.546742260
0.559519172 0.707147121 0.570018828
0.649462342 0.728399873 0.598734617
0.745730579 0.757495463 0.645287395
0.018595872 0.041239999 0.275775135
0.089057408 0.055660836 0.268311232
0.181909978 0.088298410 0.271220684
0.281720132 0.131435990 0.279696137
0.471094579 0.195952103 0.366350383
0.075268835 0.117393695 0.266287416
0.114104696 0.126881570 0.263630837
0.198608264 0.144591987 0.274510115
0.292726129 0.172422290 0.294370830
0.487539589 0.243769765 0.378874063
0.138266712 0.225679830 0.299683809
0.172042981 0.241998821 0.302972823
0.246932104 0.257684976 0.323845804
0.344465107 0.284503818 0.348639995
0.540796876 0.350663781 0.432511061
0.231625244 0.400379270 0.391524106
0.273118556 0.403036267 0.396205127
0.344718277 0.432384670 0.422897130
0.479823142 0.487666130 0.470082104
0.631625772 0.543580055 0.533839166
0.478684425 0.695761859 0.606577992
0.501201630 0.706767857 0.615180492
0.557495415 0.715875924 0.625427008
0.642124891 0.732068419 0.650600731
0.755218089 0.762681544 0.694876432
0.028842665 0.099557124 0.561416745
0.139658526 0.107653111 0.560531139
0.280708224 0.128272980 0.559518993
0.429601908 0.167868271 0.553067386
0.577229559 0.227703974 0.564073563
0.050221179 0.169133529 0.557242095
0.147880822 0.178620815 0.551422715
0.287286371 0.192663103 0.552308559
0.430487067 0.226059258 0.557115734
0.582795501 0.273244649 0.570651412
0.093865037 0.302846223 0.558886409
0.165970847 0.308159232 0.557621837
0.304869950 0.323212773 0.570019007
0.447943926 0.341556042 0.576723337
0.602656186 0.386084616 0.594813228
0.256546229 0.503731787 0.603668749
0.301454931 0.505502760 0.615433335
0.373940527 0.505755782 0.615433216
0.500063241 0.514864206 0.621884882
0.665527999 0.560025096 0.657937706
0.493484586 0.711701632 0.696141362
0.506514728 0.718405604 0.703352392
0.562681556 0.725490153 0.718279600
0.655154765 0.744338691 0.733586311
0.784946382 0.790132642 0.773054659
