Assets/Shaders/EldamarStudio/100 Sci-Fi LUTs Pack/LUTs/cube/Louise LUT.cube
LUT_3D_SIZE 8
DOMAIN_MIN 0.000000 0.000000 0.000000
DOMAIN_MAX 0.903226 0.903226 0.903226
0.000000000 0.000000000 0.000000000
0.001138547 0.000758999 0.000000000
0.046173193 0.010120095 0.014041902
0.102592997 0.024667645 0.032511353
0.167489186 0.043769803 0.050094996
0.236938730 0.076280735 0.080202736
0.331941545 0.120556280 0.116635285
0.472485572 0.168880641 0.167488977
0.007843000 0.016824547 0.004681000
0.017204095 0.017583545 0.015686000
0.057938095 0.036432549 0.025047194
0.108412541 0.050094996 0.044655092
0.171789736 0.069323346 0.060721353
0.245035186 0.099051446 0.090828992
0.338140279 0.139278993 0.123592563
0.473624319 0.183048353 0.167868525
0.028968999 0.075901091 0.042251997
0.046173092 0.075142190 0.044654999
0.075142197 0.079823092 0.046173193
0.123718992 0.096268095 0.062239353
0.179253370 0.119797386 0.080708288
0.256040454 0.145983741 0.108033091
0.351296365 0.184061006 0.148766384
0.491587311 0.232004791 0.197343692
0.076280639 0.142441288 0.084629998
0.084123641 0.142441288 0.085768647
0.106388286 0.149525285 0.085641637
0.151928991 0.158127993 0.099810347
0.205439821 0.179253474 0.127640799
0.276660740 0.201897368 0.146615818
0.371283889 0.238962919 0.174446583
0.504490614 0.296774268 0.226944983
0.133080184 0.228715986 0.142441377
0.142568201 0.234155178 0.143073738
0.160531193 0.236432463 0.143326998
0.193042547 0.243896544 0.152688190
0.243516997 0.254395992 0.169006988
0.311954528 0.280581743 0.189500377
0.412397444 0.323339462 0.220746279
0.544971228 0.386590660 0.278811008
0.203415468 0.350410730 0.211384982
0.205060184 0.349525541 0.211384982
0.231245816 0.359266371 0.217583984
0.265654624 0.363946468 0.220366836
0.316888154 0.376850098 0.236432269
0.377735734 0.393421739 0.256419718
0.474636286 0.426565260 0.293484986
0.602909446 0.491840720 0.348260373
0.293738276 0.514863551 0.304490983
0.309298009 0.514863551 0.318152815
0.338772655 0.519671142 0.320683271
0.375838190 0.522707522 0.329791218
0.421758264 0.534471512 0.347374976
0.482479304 0.547501326 0.365717798
0.554079592 0.561290562 0.390385836
0.649968505 0.607337177 0.442757457
0.480581582 0.699936628 0.502593458
0.492473036 0.703858614 0.499936610
0.508159578 0.706514716 0.500948668
0.537634432 0.711701632 0.516887784
0.584313810 0.717267573 0.527893543
0.632258177 0.729285359 0.550917149
0.696141720 0.743327022 0.581024587
0.754965425 0.757495463 0.611258447
0.000379548 0.004301451 0.012144452
0.008602000 0.000758999 0.012523999
0.052498098 0.016445097 0.028589549
0.097786091 0.037191547 0.040227544
0.162428841 0.058317542 0.071600348
0.238076985 0.089310803 0.100189798
0.326122701 0.129032284 0.132827252
0.467805475 0.173434824 0.183048353
0.005060451 0.013662548 0.009740546
0.021126000 0.021125998 0.021125998
0.054775096 0.037950546 0.033649996
0.105629280 0.054775286 0.054775290
0.162934989 0.077545896 0.072485544
0.238835990 0.111195087 0.103352085
0.322074711 0.137381256 0.133839294
0.442378432 0.179886371 0.180392101
0.035547450 0.071220994 0.051233545
0.050853997 0.077925548 0.051612999
0.078305103 0.082985096 0.062239446
0.120176733 0.099810541 0.074383192
0.174193650 0.119038187 0.093231998
0.247311965 0.143959478 0.117646821
0.341176569 0.184313625 0.155217826
0.478810877 0.232637689 0.207210332
0.082226194 0.138899535 0.095129542
0.092852637 0.143706650 0.100315996
0.108285733 0.146363094 0.100569539
0.147501633 0.155344635 0.103605539
0.203542188 0.178494379 0.128020540
0.270461798 0.201138273 0.155091912
0.359139442 0.237824276 0.181404293
0.485262513 0.287033260 0.224794313
0.129664540 0.225047544 0.137381539
0.132954180 0.229474977 0.142568186
0.160910740 0.232511073 0.152688101
0.195699081 0.243517086 0.160910532
0.244655639 0.250474364 0.174193546
0.308032930 0.277545720 0.196584195
0.406198472 0.317014366 0.229348555
0.537507832 0.379253715 0.282100081
0.197217181 0.348387003 0.215559930
0.208096072 0.350664288 0.216824979
0.228968814 0.354838938 0.223023385
0.264895707 0.360025465 0.232257724
0.314990729 0.375331908 0.244655639
0.373687714 0.387349486 0.258950084
0.466034114 0.426565260 0.291840583
0.594813406 0.496900529 0.358254552
0.298924267 0.499430597 0.316508830
0.304870278 0.508791804 0.316635251
0.332827270 0.511321962 0.323339611
0.367615372 0.519544542 0.339025915
0.415433168 0.531056285 0.352435172
0.474636108 0.539784789 0.365338445
0.541429281 0.552688241 0.385452092
0.634788156 0.592789054 0.437950790
0.475774825 0.692852616 0.501201630
0.498798251 0.700695634 0.507273734
0.511574864 0.705629110 0.506261647
0.541809082 0.709551036 0.518026352
0.578241587 0.715496361 0.528399587
0.637444317 0.727640927 0.547627687
0.690701783 0.740164161 0.584440410
0.748766124 0.756230235 0.609740674
0.002277094 0.014041901 0.043011095
0.017204097 0.013282999 0.046552643
0.046173196 0.017963093 0.051612999
0.106514998 0.045413997 0.075521640
0.161290288 0.065780997 0.097153798
0.227197990 0.098924637 0.121821634
0.316255569 0.141682476 0.158886895
0.457431883 0.181277722 0.208981559
0.016445097 0.033270452 0.044275649
0.030107545 0.030107547 0.040227644
0.059076544 0.038709644 0.055534191
0.107653640 0.061100896 0.078304999
0.164579093 0.083744191 0.099936552
0.229727924 0.117899932 0.131182536
0.317014366 0.147121996 0.162428841
0.442504942 0.193295255 0.203415349
0.037571099 0.076660186 0.067931987
0.057938091 0.082605645 0.082226098
0.090829000 0.092346996 0.091587894
0.128400087 0.104111090 0.103352092
0.184819892 0.126881897 0.126122802
0.242757991 0.154712349 0.149272636
0.338013530 0.191018373 0.183934271
0.476407588 0.234788150 0.235420719
0.084882736 0.148766190 0.111069091
0.104617447 0.146363080 0.123339646
0.128020450 0.157368988 0.128020540
0.156989634 0.162428632 0.137381539
0.205186382 0.179253459 0.146742538
0.267931819 0.205439627 0.172043175
0.358760178 0.239342272 0.204174370
0.489183933 0.290828735 0.249588773
0.141682282 0.230107471 0.167489186
0.147248298 0.233775824 0.171916649
0.169133276 0.238836274 0.173813984
0.198481739 0.243896633 0.178494185
0.243516997 0.252119064 0.193421990
0.305629641 0.278684258 0.211764723
0.404807270 0.318659186 0.245920196
0.531182766 0.381530762 0.301834255
0.207083732 0.347628087 0.242757991
0.214800835 0.347248733 0.235673562
0.234029174 0.351043820 0.248450726
0.269196540 0.364705563 0.254396200
0.315749645 0.374067247 0.264516085
0.374572814 0.392156571 0.284629822
0.469576329 0.428463101 0.315370172
0.598734856 0.499051273 0.376723796
0.298039079 0.501075268 0.330423564
0.312966555 0.507020652 0.340796828
0.330803573 0.510309577 0.340417385
0.368121117 0.519291699 0.351676017
0.418595731 0.525869668 0.364579558
0.476660460 0.540037572 0.382163227
0.541049719 0.553447545 0.398987770
0.640734076 0.594307303 0.459076494
0.481087834 0.695002735 0.516381860
0.488172114 0.697659314 0.507526636
0.508791864 0.700948834 0.522959828
0.540164471 0.706514716 0.529917955
0.582289696 0.715116799 0.542820692
0.629727840 0.724478006 0.558760166
0.689942718 0.738519728 0.588108897
0.755344450 0.752940834 0.616192281
0.000000000 0.023529001 0.100948989
0.019101545 0.020366903 0.097406641
0.066919640 0.028968999 0.107653640
0.100948997 0.042631354 0.106008634
0.163187742 0.069323443 0.125616536
0.230992988 0.102466896 0.157115743
0.321315646 0.139658630 0.189500287
0.459329605 0.185958326 0.246552959
0.028716357 0.043010902 0.101454638
0.038709641 0.047438450 0.091460995
0.070841543 0.057178997 0.104111090
0.109171540 0.066160537 0.111195281
0.165591553 0.093611643 0.134724990
0.232890621 0.117014632 0.164073437
0.327261269 0.154585630 0.196457997
0.450853825 0.197343469 0.248197258
0.052498195 0.089690447 0.115622647
0.061733093 0.089563549 0.115749180
0.101834096 0.105376549 0.126881897
0.130803078 0.112713180 0.135863557
0.180771366 0.133080199 0.152561381
0.251360089 0.160910636 0.176850080
0.339152187 0.197343379 0.214800924
0.478178322 0.243516773 0.272738904
0.093105987 0.148007289 0.148007289
0.097406544 0.152308539 0.152308539
0.135863543 0.172296092 0.162808180
0.176596642 0.187855974 0.174952641
0.217204452 0.192915827 0.192156821
0.275901616 0.216824993 0.209867373
0.366223544 0.251865983 0.238962919
0.491587460 0.299177796 0.287413090
0.144085988 0.238077179 0.194307387
0.158128098 0.242631286 0.197217092
0.183301896 0.247438371 0.214294642
0.212144196 0.259962201 0.219607636
0.256799191 0.268943757 0.231752187
0.317900181 0.289690167 0.249715284
0.408981800 0.329285085 0.286654294
0.537001789 0.385072559 0.338393271
0.215053648 0.355471373 0.272612274
0.223149985 0.353446990 0.274889261
0.239595085 0.362428486 0.277166367
0.275901616 0.371031076 0.286527485
0.327640742 0.382036448 0.296774179
0.383934200 0.397596478 0.313978493
0.472738653 0.436053276 0.348766536
0.599493682 0.498798251 0.409487903
0.301834285 0.505755842 0.362302244
0.316129059 0.511068761 0.371157557
0.334092528 0.511954546 0.370904356
0.376849920 0.520936191 0.383554548
0.420240462 0.530297101 0.395951569
0.482226253 0.543706238 0.410499722
0.547375202 0.554585874 0.430739939
0.646173298 0.604047835 0.482226074
0.479063749 0.697912931 0.529538393
0.488931030 0.699051321 0.533206642
0.507400334 0.701328576 0.539531827
0.541808724 0.706514716 0.549651742
0.581656933 0.714357734 0.561290264
0.627956748 0.726881862 0.577355981
0.688551188 0.738646150 0.603162527
0.754838586 0.756230235 0.633522987
0.003035997 0.022011196 0.165970996
0.030487191 0.024288097 0.159646183
0.079823099 0.033649907 0.164453194
0.121315382 0.054775190 0.165970996
0.173813999 0.076660380 0.170525178
0.238076985 0.109171443 0.197596446
0.329411656 0.143959582 0.239468470
0.466287285 0.192536160 0.294243962
0.034788355 0.056419998 0.153699920
0.060467903 0.056167185 0.158001170
0.085768647 0.066919543 0.161290288
0.127261356 0.079443537 0.163567379
0.173560739 0.099051341 0.174699381
0.235673368 0.125237092 0.196837634
0.325616360 0.159772187 0.236053005
0.453004390 0.201138467 0.292726159
0.068184808 0.108032994 0.164579287
0.079443440 0.114484191 0.166476637
0.108033001 0.113598906 0.172169283
0.146489188 0.122833289 0.182922438
0.189500183 0.140923187 0.188741088
0.257178843 0.169260010 0.220493436
0.343453586 0.202783182 0.259076476
0.485262394 0.248450220 0.314104915
0.102972642 0.160025626 0.189879835
0.113472275 0.167109534 0.197722748
0.144086093 0.175332099 0.199240834
0.177988634 0.194560632 0.215559840
0.226186186 0.204680637 0.228968903
0.284756571 0.229348361 0.250348270
0.371663421 0.261100829 0.281720459
0.499430746 0.302213788 0.332827002
0.159646168 0.238709375 0.230866373
0.164199740 0.247058839 0.238456741
0.188741088 0.256799370 0.251360178
0.234914467 0.278304696 0.272485971
0.286653966 0.300569385 0.292093158
0.336116105 0.312080741 0.302213967
0.422770351 0.340670168 0.326502383
0.549904764 0.391018212 0.380771995
0.218848929 0.360151470 0.302214175
0.228589267 0.361669660 0.311068892
0.252878070 0.371031076 0.319418043
0.293611377 0.386337936 0.333965898
0.338646412 0.398102522 0.345983446
0.400253087 0.409487665 0.356483072
0.488298476 0.443769544 0.395572126
0.607590139 0.507147253 0.453383893
0.310816169 0.511954248 0.410246640
0.323465794 0.517014563 0.409740895
0.342821181 0.519671142 0.412650257
0.377735615 0.527134895 0.422390819
0.427324355 0.539405227 0.436812282
0.490069270 0.551043749 0.449588984
0.550284624 0.565211594 0.468943536
0.660974026 0.611638069 0.526502252
0.480834574 0.697406590 0.556103766
0.487033546 0.701328576 0.557748079
0.504996777 0.701075256 0.562808275
0.537001908 0.709930420 0.574573040
0.578747451 0.716002405 0.588108957
0.631625593 0.729285359 0.602276802
0.687159896 0.741429329 0.625173569
0.756103814 0.756103754 0.650980175
0.019608000 0.035167996 0.252498746
0.048576999 0.041872256 0.248450726
0.097912900 0.052371994 0.246046722
0.144718379 0.072359249 0.243896633
0.200379267 0.099051252 0.250474483
0.254395992 0.117267467 0.256419718
0.331941545 0.151802287 0.286527485
0.468564570 0.192156821 0.350157797
0.043516740 0.070841350 0.227577269
0.070208736 0.071853086 0.231625468
0.102466896 0.082985282 0.239089012
0.150663823 0.095762342 0.240227655
0.199494183 0.109930538 0.241745442
0.255155176 0.133839086 0.251992255
0.324351519 0.158127889 0.279443443
0.451612949 0.201897353 0.336495548
0.072739094 0.135104343 0.236685723
0.094497085 0.129159003 0.240860268
0.120429985 0.134977832 0.246932626
0.166350633 0.142947555 0.243769825
0.215939268 0.159392729 0.259961993
0.269196540 0.173434734 0.273877472
0.345857263 0.204806939 0.301960647
0.489310235 0.248070866 0.364705801
0.114231281 0.186211362 0.255408019
0.126755089 0.190891981 0.264262915
0.156483173 0.196837530 0.255281806
0.192030638 0.203795105 0.271979660
0.234281912 0.215180367 0.280076087
0.288298726 0.229601622 0.293738127
0.373054951 0.256546378 0.325490147
0.500189781 0.297533303 0.383934230
0.157242179 0.268058121 0.290575266
0.178114831 0.261480093 0.295003265
0.194940180 0.274763077 0.304870397
0.240101621 0.287286192 0.323339552
0.291587621 0.303732187 0.336116105
0.345857382 0.321315825 0.351043701
0.433270216 0.344844729 0.380138993
0.554585516 0.392156661 0.435546905
0.219480991 0.363946468 0.354079723
0.233143270 0.364705473 0.348007709
0.256419837 0.377735704 0.365338743
0.301454872 0.394180745 0.382416040
0.361669451 0.418469012 0.417710006
0.436306179 0.448197216 0.436685741
0.507652998 0.462998003 0.450980484
0.614674211 0.507906437 0.499430686
0.299177796 0.506135523 0.446679294
0.327514023 0.515243292 0.448576838
0.343580157 0.524857759 0.461859554
0.381783575 0.532068610 0.469576448
0.439341992 0.549146175 0.488045633
0.496141523 0.561669707 0.503479004
0.563440800 0.574952304 0.519165277
0.666540086 0.621758103 0.570272088
0.477166295 0.693990827 0.600505769
0.490322292 0.692725837 0.598355293
0.505502939 0.702719748 0.604554355
0.537381411 0.710183382 0.609487593
0.577609003 0.720303357 0.620493650
0.625173509 0.729285359 0.636938632
0.686907113 0.741429329 0.655028522
0.756230235 0.762175798 0.684250414
0.025173713 0.061100706 0.377988279
0.066540278 0.067298993 0.375332028
0.126628667 0.075901091 0.369892448
0.187349632 0.091967344 0.369639218
0.250348061 0.115117095 0.366223842
0.309424728 0.133838996 0.368248016
0.374699265 0.163693696 0.377988279
0.474762857 0.195698962 0.407716334
0.050600842 0.095888540 0.354079723
0.080581993 0.101454735 0.353446811
0.129158989 0.105755799 0.357115835
0.185452387 0.119797572 0.359645993
0.242504463 0.133080184 0.362428755
0.306767970 0.150411099 0.361796290
0.372043014 0.173813999 0.367868543
0.455281317 0.205186367 0.392409801
0.080708101 0.152561471 0.360657722
0.104111284 0.155471250 0.353573650
0.144844800 0.158001080 0.360657573
0.199114621 0.169892177 0.366982758
0.258317351 0.183301896 0.368500561
0.319164991 0.193801463 0.372422248
0.387855738 0.214547798 0.387982279
0.486907244 0.251233250 0.423402905
0.113851637 0.217583984 0.358507186
0.132700741 0.221505284 0.363947093
0.167109430 0.222264364 0.367741764
0.213155925 0.229348555 0.371916205
0.268311173 0.237065375 0.381404191
0.336115927 0.252878010 0.393168926
0.398861557 0.263630569 0.397722930
0.502340257 0.301960737 0.436052978
0.159012988 0.295888484 0.388108552
0.177102998 0.301328391 0.398861647
0.206831098 0.306009203 0.403036088
0.247058928 0.310436517 0.407463729
0.299810469 0.317141175 0.413282454
0.369892716 0.330803007 0.425300092
0.438962638 0.349272281 0.439848274
0.548513293 0.391903996 0.486274183
0.217836708 0.404680461 0.446426094
0.241366297 0.410879254 0.451106995
0.269323379 0.411891192 0.455787182
0.308412373 0.419228196 0.461353630
0.364705652 0.433270186 0.475142270
0.436053187 0.448703289 0.495635569
0.519038439 0.471220553 0.519418001
0.622643948 0.516128957 0.560784042
0.301201552 0.508665264 0.496900856
0.310183495 0.516508281 0.505123258
0.336495757 0.519797325 0.508032799
0.374067247 0.536116540 0.523213148
0.433396548 0.552688479 0.536116242
0.514863968 0.577482700 0.566097260
0.595572233 0.608349502 0.594939828
0.681087852 0.635294378 0.622896731
0.476154298 0.695129275 0.621125877
0.489310354 0.696394444 0.638203442
0.499177426 0.700695634 0.639848351
0.537001967 0.709550977 0.647438228
0.576343954 0.720682859 0.661606669
0.636938751 0.732827306 0.680708468
0.693484902 0.744971454 0.695129633
0.761416733 0.768880308 0.717520416
0.028842665 0.099557124 0.561416745
0.084250547 0.095888533 0.560151577
0.160910934 0.109930143 0.562808394
0.239721790 0.117393978 0.560404599
0.328526169 0.140417516 0.562681556
0.408349544 0.162048981 0.559139729
0.490828156 0.191271424 0.558886409
0.577229559 0.227703974 0.564073563
0.028968897 0.124098532 0.540923119
0.087286822 0.123592362 0.541429281
0.156989351 0.134598374 0.545983255
0.240101427 0.147122189 0.547880888
0.322201431 0.162808180 0.550284386
0.395825237 0.183428109 0.547754526
0.477672160 0.204174653 0.542188287
0.565591335 0.237570822 0.553573370
0.057305194 0.185831919 0.552941144
0.098798394 0.189879641 0.548513412
0.168121368 0.196837336 0.552434683
0.247944444 0.204301178 0.552055418
0.331688732 0.216698170 0.554206252
0.412017733 0.234408602 0.554585576
0.490448624 0.256040543 0.559392631
0.582542539 0.284883082 0.572675467
0.074762829 0.256926090 0.547880828
0.118658930 0.261859506 0.548133969
0.178114742 0.263630748 0.550917089
0.255154788 0.272738606 0.549019635
0.333712786 0.283238173 0.553699791
0.412017643 0.292346627 0.552055478
0.492979258 0.310562998 0.559645593
0.582668841 0.334977806 0.571283996
0.131941840 0.355091542 0.560657978
0.162555128 0.354585856 0.565464914
0.199114293 0.351676106 0.564579368
0.265022099 0.355218142 0.568753779
0.348260373 0.363567173 0.570777953
0.429221720 0.377988636 0.580644906
0.514231265 0.394054204 0.582036734
0.610372782 0.417583793 0.600252748
0.242378235 0.478178442 0.599620581
0.255534619 0.478557795 0.605818868
0.282479465 0.476660460 0.604553938
0.332194626 0.473750889 0.605818808
0.392156750 0.474636376 0.605818748
0.464895427 0.484503448 0.616065621
0.557621896 0.504743636 0.624414623
0.651865661 0.531688750 0.644528747
0.342061609 0.585199237 0.636938632
0.352814347 0.591018558 0.633017004
0.381277710 0.589753330 0.640733957
0.419734210 0.593421698 0.645161211
0.466413736 0.597975791 0.650094867
0.536116421 0.608981550 0.659076691
0.613662541 0.624415040 0.674130559
0.700695872 0.650980353 0.700695872
0.493484586 0.711701632 0.696141362
0.495888680 0.718279421 0.710309565
0.508791864 0.722200751 0.707147300
0.545350611 0.723339379 0.711574733
0.584186912 0.728779554 0.716761231
0.635420561 0.743073583 0.728526235
0.700316370 0.759645879 0.755091727
0.784946382 0.790132642 0.773054659
