Assets/Shaders/EldamarStudio/100 Sci-Fi LUTs Pack/LUTs/cube/Loxi LUT.cube
DOMAIN_MIN 0 0 0
DOMAIN_MAX 1 1 1
LUT_3D_SIZE 32
0.003922000 0.000000000 0.062744997
0.000885613 0.003036387 0.056672998
0.000000000 0.003922000 0.054901998
0.002529999 0.003922000 0.056167159
0.010120095 0.005060451 0.060341999
0.028336871 0.014168063 0.072485998
0.059203319 0.020746000 0.084629998
0.089310691 0.025173709 0.095129706
0.115117088 0.028210096 0.102719903
0.136369497 0.031246485 0.105755515
0.160530984 0.031373002 0.108791865
0.186843753 0.035420999 0.117899984
0.214168638 0.043769997 0.127766997
0.241239995 0.055407997 0.133838996
0.265527993 0.061479993 0.139910996
0.289816588 0.072358996 0.143579811
0.317140996 0.084503382 0.151170000
0.346868724 0.096015409 0.163314149
0.374193937 0.105123051 0.175458953
0.395952374 0.119797364 0.184819654
0.417204738 0.136875466 0.192029998
0.439468980 0.153068006 0.201138124
0.463883489 0.165338501 0.216318488
0.491207927 0.180518910 0.231498897
0.516255558 0.193421990 0.244401991
0.541935623 0.206957653 0.256546319
0.569766164 0.222138062 0.268691003
0.600126863 0.237318426 0.280835003
0.638456762 0.255154967 0.300948799
0.674383104 0.271600187 0.318659186
0.707779586 0.288551599 0.336495966
0.741176009 0.309803993 0.360783994
0.006957613 0.006072000 0.056672998
0.000885613 0.000000000 0.059709385
0.002150774 0.000885613 0.060088612
0.004301225 0.004680773 0.067299157
0.012017544 0.010373452 0.077799000
0.043516483 0.014168063 0.084629998
0.061733253 0.020746000 0.089184321
0.090954982 0.026818417 0.098165669
0.117393799 0.030487390 0.103478611
0.136369497 0.031246495 0.099683523
0.163440868 0.045920126 0.111447997
0.187855899 0.050601125 0.118911862
0.214168638 0.057811741 0.128905639
0.241239995 0.067805029 0.136875391
0.265527993 0.076660387 0.142947391
0.289816588 0.082732387 0.149019390
0.317140996 0.092093572 0.155724198
0.345603555 0.102719985 0.166350380
0.368121147 0.114231437 0.178494573
0.395446301 0.128905758 0.185072616
0.417204738 0.142188385 0.197722733
0.440481126 0.156103611 0.208222523
0.466793358 0.168500617 0.219481364
0.491207927 0.186590910 0.237570897
0.516255558 0.199493989 0.248197287
0.541935623 0.213029653 0.259582371
0.570778131 0.228210062 0.272232682
0.606198847 0.243390426 0.286906987
0.633902788 0.258570820 0.301707804
0.668311119 0.276407331 0.320429921
0.704364181 0.293737978 0.339531809
0.744212389 0.312839597 0.363820404
0.003542000 0.012143999 0.059202999
0.001771000 0.006072000 0.057938386
0.002150774 0.008601999 0.071727000
0.010246838 0.009867160 0.070967771
0.019860640 0.017204547 0.079949543
0.049715482 0.023782613 0.091334775
0.070461646 0.027197774 0.090575546
0.091966994 0.033269770 0.098545216
0.119797193 0.040101320 0.108159095
0.140796974 0.044276007 0.109044783
0.167741865 0.056672901 0.118279546
0.191018239 0.063757032 0.126375541
0.215180501 0.071979992 0.133080125
0.240987033 0.081593804 0.139658257
0.263377756 0.086907186 0.143832996
0.291966826 0.097912773 0.152055770
0.313219637 0.103984773 0.159645572
0.341049731 0.113092989 0.168753803
0.366856009 0.125237018 0.179380015
0.389373541 0.138014138 0.188108772
0.414800912 0.149399027 0.196078509
0.436306357 0.160278127 0.208728641
0.461480200 0.171536744 0.218342707
0.489816785 0.189753041 0.238582999
0.516255558 0.205565989 0.252119064
0.543326914 0.217710331 0.262618750
0.571410477 0.232131705 0.274762779
0.602909863 0.247311667 0.288298428
0.637824059 0.262492061 0.301328033
0.668690860 0.279443622 0.321821600
0.700316310 0.298545361 0.341682345
0.736496031 0.318026543 0.364706010
0.002529999 0.025806321 0.069070160
0.002529999 0.022264320 0.071094543
0.005945612 0.023529161 0.072992161
0.014041997 0.027071159 0.087412998
0.028842159 0.030866547 0.081340998
0.051739480 0.039974932 0.090322770
0.077799156 0.045287836 0.097912833
0.096774153 0.049968157 0.099303991
0.121062353 0.055281255 0.109930187
0.145351157 0.063377649 0.118532650
0.170019031 0.071600318 0.125110701
0.195825413 0.078937411 0.132194817
0.219354808 0.084250510 0.139405474
0.243517026 0.095509022 0.142694205
0.264769405 0.098545410 0.145730585
0.290701985 0.108791985 0.154838800
0.317520410 0.119165152 0.162681967
0.337001979 0.125869736 0.171789736
0.366097033 0.137381345 0.180898145
0.389373541 0.149525717 0.190006196
0.409993291 0.159772575 0.200379729
0.437318236 0.169892311 0.211512119
0.459456116 0.179380134 0.221378773
0.485262632 0.195319161 0.240353897
0.513346076 0.209993273 0.253510416
0.539532065 0.223782316 0.264389962
0.569892168 0.236433059 0.277040064
0.597975969 0.251612842 0.289943159
0.632005095 0.265527993 0.300821990
0.667931616 0.285009235 0.318785220
0.702214003 0.302340418 0.342188418
0.730676830 0.322833836 0.363440841
0.007843000 0.050474547 0.083871000
0.008222548 0.050474547 0.091840841
0.012523548 0.053004317 0.091714442
0.022390708 0.055154644 0.090828836
0.038709547 0.054775093 0.098418549
0.050853547 0.063883483 0.092346542
0.078810960 0.070461549 0.103225768
0.104364537 0.076154090 0.111827835
0.123719193 0.081467092 0.115243189
0.148007989 0.084503479 0.121315971
0.169766322 0.087919317 0.125616670
0.194687247 0.092979543 0.130676553
0.222011641 0.099430896 0.137128189
0.248830035 0.108538575 0.146236509
0.270082384 0.111827962 0.149525866
0.293737978 0.121315531 0.158254445
0.318026394 0.132321194 0.168501005
0.341935515 0.141429573 0.174826026
0.366223603 0.150537983 0.183934435
0.390891731 0.162049562 0.193801209
0.411764562 0.172296196 0.204427481
0.434281856 0.182036981 0.217584133
0.467299461 0.194054499 0.232511476
0.486021549 0.205945566 0.247185096
0.510689259 0.218469098 0.258190840
0.536242723 0.230233774 0.266919643
0.561923027 0.243264064 0.277419508
0.592282951 0.258444428 0.292599857
0.625300467 0.270967990 0.302846134
0.659709215 0.288677931 0.317899704
0.696141958 0.310689151 0.339531571
0.732573986 0.325869560 0.360783994
0.007843000 0.077798933 0.096014999
0.010879387 0.077798933 0.096014999
0.015559935 0.082099929 0.101834059
0.025427096 0.086401030 0.103352055
0.041745931 0.088172257 0.104490548
0.066033930 0.085135870 0.101454936
0.083238572 0.091713935 0.108032614
0.105629697 0.096141644 0.114863768
0.126376033 0.099683769 0.117900029
0.148007989 0.102719486 0.121315978
0.172295988 0.108664989 0.133206993
0.196078569 0.114231572 0.139784932
0.222011641 0.119165286 0.144718572
0.248830035 0.123718962 0.149272904
0.270082384 0.132827342 0.158380523
0.293737978 0.138519928 0.159266070
0.318026394 0.148639932 0.168880254
0.341682553 0.159645572 0.180644989
0.363187969 0.168753967 0.186970040
0.390259296 0.177862346 0.201644436
0.413282752 0.187476188 0.212017670
0.436053067 0.196584195 0.223656118
0.464263082 0.206198514 0.238583475
0.488551885 0.215306908 0.247691095
0.511827886 0.229475200 0.260088563
0.535230637 0.241366178 0.268943906
0.559013128 0.252498180 0.277545989
0.592282951 0.270588428 0.295635492
0.625300467 0.283111989 0.308159053
0.656925917 0.295255959 0.319797426
0.690069318 0.311195195 0.337001890
0.726502001 0.328905940 0.360783994
0.015433321 0.107653640 0.115749314
0.020999383 0.107653640 0.118279636
0.032637771 0.109803863 0.118279636
0.042378318 0.112966314 0.119797476
0.056293543 0.114737540 0.118911862
0.074130319 0.116002701 0.120177247
0.098418318 0.115496635 0.122200996
0.118279375 0.119923927 0.128020018
0.139531761 0.124478094 0.131815314
0.160784170 0.131056160 0.136622488
0.182415992 0.134471953 0.140797317
0.202656507 0.140543967 0.148893327
0.225932986 0.146616325 0.157242313
0.251865774 0.151043609 0.164453030
0.277672708 0.155597404 0.169007212
0.298924506 0.164705798 0.175711632
0.323086381 0.169386506 0.182036638
0.347375125 0.177862048 0.194307312
0.370525330 0.186969981 0.200379342
0.397343695 0.201138347 0.214800686
0.422770292 0.206451729 0.228083313
0.444655120 0.214294761 0.236811996
0.468816996 0.223529622 0.247185171
0.493105799 0.235041231 0.256293416
0.521948040 0.246426314 0.267678320
0.546742320 0.259961993 0.281214327
0.570651472 0.270714432 0.292220056
0.602024078 0.284883201 0.308412313
0.640480459 0.300315976 0.318785638
0.668564379 0.314231157 0.330929607
0.700948834 0.329790890 0.345730573
0.740670621 0.349651992 0.368374318
0.024541706 0.133080706 0.135357410
0.032257993 0.136369705 0.131815389
0.041492768 0.138519928 0.127767280
0.061733153 0.137760699 0.132827282
0.075395241 0.137760699 0.131308988
0.088045634 0.142061934 0.130550221
0.107526697 0.145856977 0.136875376
0.126881421 0.144212693 0.136621997
0.148133814 0.147248313 0.142694369
0.169386208 0.154585466 0.151422992
0.190638587 0.161163852 0.156230152
0.209866792 0.162934989 0.159645990
0.231499195 0.169006988 0.165717989
0.256293416 0.175078988 0.176343992
0.282226503 0.179506272 0.180771694
0.303099185 0.185705215 0.184566990
0.325869381 0.193295404 0.192157194
0.349525541 0.197723106 0.204174697
0.372802287 0.206830740 0.212270722
0.399873674 0.214927062 0.221758366
0.425300688 0.227450728 0.236685708
0.449588686 0.233523250 0.247817844
0.471726477 0.243264169 0.254648894
0.497533113 0.253890008 0.263756901
0.524730980 0.264389694 0.276786715
0.553699970 0.275142342 0.288930684
0.579759777 0.287539333 0.302340001
0.611258864 0.300822169 0.314104736
0.646299779 0.313978523 0.330550104
0.681846678 0.330802858 0.343073964
0.710563123 0.345983267 0.355218202
0.752308965 0.365717709 0.374193698
0.037444998 0.155851096 0.151296914
0.045034807 0.161923096 0.142188698
0.051865872 0.165085420 0.133839235
0.067046255 0.168121293 0.133586198
0.092852548 0.162049189 0.144591659
0.102719843 0.166603103 0.139658093
0.119418092 0.171157092 0.145477325
0.137507781 0.172295809 0.147248387
0.153447092 0.171537101 0.147248179
0.174699485 0.174572706 0.162428588
0.194433868 0.182668969 0.168121189
0.215180174 0.186464190 0.173687264
0.233775914 0.187982097 0.177103087
0.260847986 0.193801135 0.183428124
0.285135984 0.199367195 0.190006182
0.306135178 0.205439612 0.194433913
0.326628476 0.212271094 0.200506091
0.350917041 0.218343094 0.210247040
0.372295976 0.227324232 0.222391099
0.397596359 0.232384548 0.228969097
0.423782378 0.240354091 0.239215821
0.448071092 0.250980169 0.253131121
0.472232580 0.262998402 0.262112975
0.498291999 0.272106200 0.270588219
0.525616407 0.281214386 0.283491254
0.554458857 0.290322572 0.296521068
0.581783891 0.300949037 0.309171170
0.614674330 0.316381723 0.316002190
0.647311747 0.329664767 0.335357010
0.681467235 0.343833029 0.352308273
0.715875804 0.361163676 0.365085095
0.755344987 0.376344085 0.377229899
0.061733015 0.183175504 0.160404533
0.064769402 0.189247489 0.151296914
0.065907985 0.191018492 0.144338951
0.075142659 0.194940150 0.145730346
0.095888942 0.201518372 0.156736448
0.111068554 0.195445597 0.159772053
0.128526166 0.194939494 0.164958492
0.148387179 0.193548217 0.164579019
0.168627501 0.192789495 0.162428588
0.186843500 0.198861510 0.171536982
0.202276871 0.204806983 0.175079361
0.223782495 0.208981767 0.182289705
0.244402602 0.211891338 0.188867658
0.260847986 0.215053529 0.192536533
0.285135984 0.218089908 0.201644897
0.309424579 0.223655969 0.208222985
0.331942171 0.231246203 0.215686291
0.353953451 0.239595488 0.225426674
0.378241509 0.245667517 0.237571478
0.399620384 0.254649341 0.244149506
0.424920708 0.263504207 0.252119213
0.451106757 0.271726489 0.262492478
0.475268990 0.278178006 0.274256974
0.496521384 0.287286401 0.280328989
0.522580743 0.296394765 0.291081488
0.552688122 0.305502772 0.301960647
0.584819555 0.316128641 0.312207550
0.612143934 0.334345400 0.327387929
0.642378151 0.349778771 0.347501755
0.676407337 0.363061428 0.363440901
0.712713659 0.376344055 0.373940468
0.749273002 0.391524464 0.380265504
0.083111867 0.210499868 0.178241745
0.083238386 0.213661999 0.166223511
0.092726000 0.215433002 0.172169670
0.094497152 0.216698170 0.170651615
0.103352547 0.221758544 0.171790332
0.128652796 0.223276734 0.174825937
0.138773069 0.219734281 0.182922199
0.155850857 0.222643733 0.187729031
0.175079003 0.224161863 0.187728971
0.193295002 0.225932866 0.192536354
0.208601862 0.229095727 0.192915872
0.225806504 0.233143479 0.200000256
0.247185647 0.237317979 0.206831098
0.266161025 0.241871864 0.209613994
0.285135984 0.242251396 0.210752532
0.307020783 0.250094801 0.219860926
0.330803514 0.256672859 0.229474992
0.354079962 0.263124585 0.238709450
0.378368020 0.266919881 0.244022965
0.397090703 0.275775254 0.250600994
0.422011584 0.282985866 0.256672978
0.448323846 0.290069729 0.265781105
0.472485632 0.296268225 0.277798623
0.493738025 0.305375874 0.286653996
0.517267704 0.312207550 0.292726010
0.545350909 0.322074831 0.303604960
0.576723278 0.333206743 0.315749258
0.606451392 0.346615911 0.333333433
0.644402444 0.359519005 0.353826791
0.677293003 0.372675538 0.366223991
0.709930539 0.387476444 0.377861977
0.740291119 0.406704873 0.392030001
0.100316249 0.235799968 0.190385729
0.104364246 0.240860373 0.190385982
0.106894508 0.239721507 0.181277543
0.119038500 0.240986660 0.190891981
0.121695235 0.244022951 0.189374000
0.140796930 0.247058928 0.194054306
0.156989306 0.249083176 0.200126305
0.169386685 0.246046782 0.204300985
0.186464354 0.250221342 0.206198245
0.203415528 0.251486510 0.207969487
0.216698125 0.254395843 0.208095998
0.235926494 0.255407989 0.208095983
0.255281627 0.258443892 0.216065735
0.276534021 0.263883531 0.220240057
0.296521217 0.269196749 0.223782510
0.317141026 0.270335287 0.235040784
0.336875230 0.277925491 0.241113186
0.359519273 0.283364922 0.251106828
0.382416040 0.286400974 0.256926239
0.403162450 0.295003355 0.262745261
0.423276454 0.300316215 0.266919494
0.447311968 0.306261986 0.272865236
0.469702750 0.312460721 0.282858998
0.494750172 0.321568340 0.291966885
0.520303547 0.334471554 0.302845955
0.544591904 0.340543956 0.311701298
0.573687136 0.350410998 0.324351579
0.604047835 0.359519005 0.341050148
0.638329923 0.373687238 0.355850816
0.672485828 0.385831654 0.370019197
0.705629289 0.398861617 0.380771846
0.735230744 0.417836726 0.400126517
0.118911989 0.266919255 0.205186278
0.124984279 0.269576430 0.208981767
0.130044416 0.270335495 0.208855510
0.136875629 0.269829154 0.206072271
0.147881180 0.272485971 0.210626274
0.157748282 0.274762720 0.213662297
0.172422305 0.277798951 0.219734281
0.188741326 0.278684586 0.222517282
0.202403724 0.277166188 0.224035278
0.216825128 0.280202478 0.224794284
0.232511282 0.282099754 0.224794284
0.246173248 0.283111632 0.225932628
0.268564284 0.284250289 0.228209913
0.289563656 0.287033647 0.233775914
0.309930384 0.293485403 0.238077462
0.330044419 0.297659993 0.249082819
0.350917280 0.299557626 0.258190811
0.369765848 0.304997027 0.261227041
0.391018271 0.308032662 0.269323319
0.412270665 0.316634983 0.277925640
0.433523029 0.321948171 0.283238530
0.454775423 0.327007800 0.287286282
0.473371595 0.333206981 0.293358982
0.499683917 0.341302723 0.301454723
0.527008295 0.352687895 0.311701298
0.552941203 0.365970612 0.324983954
0.579253376 0.372548699 0.337128639
0.610879123 0.379253268 0.351676434
0.643896043 0.394433737 0.366476983
0.676660001 0.408981383 0.379127175
0.707020819 0.421126187 0.387349993
0.740164280 0.436052918 0.407337338
0.142947033 0.307400078 0.229475066
0.148513734 0.304870397 0.229222029
0.155092031 0.303985000 0.230866730
0.163694039 0.305249900 0.235168025
0.174446538 0.307906061 0.239721954
0.177482933 0.307906061 0.233649954
0.190132737 0.310436308 0.238204032
0.206451401 0.311322004 0.240481034
0.223150045 0.312586963 0.241493031
0.232258454 0.315622568 0.247565031
0.252498835 0.315749049 0.248324037
0.265907794 0.315749049 0.249841765
0.280455261 0.316887707 0.254269272
0.304238051 0.319924027 0.260595024
0.322454005 0.319924027 0.260595024
0.339911610 0.324225038 0.267299205
0.359899163 0.328779221 0.273371220
0.380645543 0.332068473 0.276913464
0.401897967 0.335104078 0.279949099
0.423403382 0.343200356 0.290322691
0.444402725 0.349019736 0.298671961
0.465908140 0.353573948 0.304996997
0.487286955 0.362555057 0.311068982
0.511575043 0.368627071 0.317140996
0.538393319 0.377229303 0.326249331
0.564579308 0.387476027 0.337634623
0.590892076 0.399367094 0.352309018
0.627324820 0.408475459 0.364453018
0.660594761 0.425300658 0.381657034
0.693991125 0.441745818 0.398102164
0.726249158 0.456293255 0.411132067
0.756609976 0.468438029 0.417204082
0.164199397 0.325616837 0.253763795
0.164199397 0.328652442 0.250727415
0.174067110 0.328272969 0.248323619
0.184946403 0.329538137 0.250347883
0.195572406 0.332194805 0.254902303
0.195698917 0.332194805 0.248829558
0.203795314 0.334724486 0.257938206
0.215812817 0.332826972 0.258950412
0.230739981 0.331815064 0.255661398
0.247438043 0.339911312 0.256673396
0.262365431 0.340037793 0.262745410
0.276787102 0.340037793 0.261480153
0.291714191 0.341176450 0.264263034
0.313345641 0.344212770 0.272739023
0.331562370 0.347248405 0.281847388
0.342568189 0.347248405 0.284250587
0.361163974 0.350031585 0.288551599
0.382922143 0.353700370 0.292852819
0.398861587 0.359392852 0.301201433
0.422897309 0.362428457 0.301454395
0.442757994 0.370524704 0.307779580
0.463630825 0.376344115 0.314863712
0.487286955 0.380771816 0.323212981
0.511575043 0.386843830 0.329284966
0.540417552 0.397469819 0.344465554
0.568754077 0.407590032 0.356609702
0.596964121 0.417836815 0.367488682
0.633396864 0.429727823 0.379633397
0.661859810 0.444149196 0.394434214
0.693991125 0.459962159 0.410246551
0.725616574 0.475142419 0.424541205
0.753573596 0.489690393 0.435420811
0.183048591 0.353446990 0.275648773
0.178241596 0.349272400 0.265401602
0.186843604 0.356609553 0.266666770
0.202783152 0.354838580 0.266666442
0.216065779 0.355218321 0.270461738
0.212017789 0.361290604 0.266413718
0.224415109 0.359013259 0.268310845
0.230234072 0.362049282 0.275521904
0.240101174 0.359013289 0.274004072
0.255028605 0.361543268 0.275648773
0.272738665 0.364326596 0.279064000
0.287919044 0.364326596 0.281087995
0.301581621 0.365464956 0.281846762
0.320050627 0.368247986 0.288930982
0.338266820 0.369133353 0.291587591
0.356482983 0.369765788 0.298292190
0.368627369 0.371283978 0.299809992
0.389626533 0.375585169 0.303225756
0.408348978 0.383427978 0.312333822
0.422264725 0.386717230 0.317899793
0.448450714 0.391650587 0.321694791
0.470208764 0.399240762 0.327766776
0.494497180 0.403794974 0.335610002
0.518785834 0.409866989 0.346236616
0.543073833 0.415939540 0.352308601
0.571789861 0.426438898 0.365844637
0.600632310 0.436559051 0.376976699
0.637065053 0.450600773 0.394813687
0.665527999 0.462997794 0.397596806
0.696394801 0.478178173 0.412776709
0.727134764 0.494244188 0.429727584
0.752941012 0.510942817 0.446426183
0.198229000 0.379253179 0.289310992
0.198228985 0.379253566 0.286274612
0.198987991 0.376343757 0.277292967
0.213662311 0.384187311 0.286654174
0.232764199 0.379886389 0.289816380
0.231246173 0.385579109 0.285642117
0.235294312 0.386085063 0.284629852
0.249968663 0.386337668 0.286147684
0.254522294 0.388614982 0.289184093
0.265907764 0.386337698 0.292220473
0.280835181 0.386085033 0.295256108
0.298545241 0.390133202 0.300822198
0.313725621 0.388994545 0.301960826
0.328652978 0.391018182 0.306894362
0.344338953 0.391018182 0.305629194
0.362555355 0.392536372 0.311954379
0.380771369 0.395572364 0.316508174
0.396584153 0.397976190 0.317140758
0.416951001 0.404427409 0.324478149
0.431372523 0.407969326 0.327767193
0.451486707 0.412903398 0.333839178
0.477798969 0.419987261 0.339911163
0.502086997 0.426565170 0.346236169
0.526375830 0.432637215 0.358380616
0.549146175 0.438709766 0.365971178
0.573434114 0.446173489 0.373434484
0.602150083 0.455281258 0.382036805
0.638582826 0.468437612 0.398229033
0.667045772 0.482479364 0.409993976
0.696394384 0.494876385 0.417330891
0.730677009 0.510942161 0.435167372
0.757495224 0.529158831 0.457052380
0.211638153 0.401138127 0.297280401
0.217710137 0.406578332 0.302719980
0.220746130 0.404680580 0.297786415
0.225806311 0.403668314 0.296394974
0.242125541 0.409740984 0.311574966
0.247944579 0.410246938 0.305502981
0.249588981 0.409614533 0.302593231
0.257179141 0.410626411 0.301834136
0.272106469 0.412903130 0.303225636
0.281214088 0.412903130 0.306262046
0.292599708 0.410626411 0.309297681
0.307526976 0.412397563 0.313851833
0.325869620 0.416318893 0.321948051
0.341049999 0.413535535 0.324731410
0.353573561 0.413535535 0.322074562
0.369892597 0.415939361 0.327387780
0.387476563 0.419860989 0.334092379
0.405060142 0.425300539 0.336495548
0.423276186 0.425300539 0.339531958
0.439341933 0.427450776 0.341049969
0.458949864 0.432384431 0.344212562
0.482605994 0.438204020 0.349651963
0.506767511 0.447311610 0.355724007
0.530550241 0.453889549 0.366856188
0.552561700 0.460594535 0.376343966
0.577735543 0.467425853 0.383175462
0.602529585 0.476533622 0.391777158
0.638582826 0.485641986 0.397849143
0.666413367 0.499430776 0.414547622
0.696141362 0.512839913 0.429221928
0.727008224 0.526122570 0.443010628
0.763441026 0.544338584 0.467299402
0.229854971 0.425427020 0.312460065
0.235926971 0.428463399 0.315496475
0.241998971 0.427451253 0.314484268
0.247564971 0.427957028 0.315749228
0.254269570 0.434029073 0.323719025
0.257305950 0.440101027 0.317647040
0.260594666 0.438077331 0.316635042
0.268310994 0.436939001 0.318026721
0.281467140 0.437191993 0.321568966
0.296394527 0.437191993 0.327514499
0.305502862 0.437191993 0.330550104
0.316888005 0.436939001 0.329538256
0.332953662 0.438583374 0.332068354
0.353194058 0.440860003 0.339911073
0.368374437 0.440860003 0.339911073
0.383301795 0.443263829 0.342061818
0.398735225 0.446299821 0.347122014
0.414168566 0.449588656 0.351675987
0.429348975 0.452625006 0.351676017
0.447564960 0.452625006 0.357495040
0.465527982 0.456672996 0.361163765
0.485262185 0.461733162 0.364452899
0.506767511 0.465528429 0.367868066
0.528019905 0.474636048 0.373940855
0.549525321 0.483491272 0.387349665
0.577735364 0.490955025 0.397596419
0.611638010 0.497786075 0.403921962
0.638962388 0.506894469 0.409993976
0.664389670 0.518658996 0.426691949
0.694244146 0.531055987 0.441365987
0.726502180 0.544085622 0.454395622
0.757368982 0.559518993 0.470335066
0.261986375 0.474763095 0.344339073
0.265275031 0.472232759 0.344592124
0.273497790 0.473118365 0.347627968
0.278937548 0.470714897 0.347121745
0.283491731 0.471474081 0.350537360
0.288931310 0.472739071 0.349272370
0.291967064 0.471220762 0.343200386
0.296647370 0.471474081 0.344339073
0.306514561 0.473371655 0.346616358
0.319671214 0.475395381 0.348640382
0.337381244 0.475395381 0.354585856
0.344465375 0.477419645 0.355597734
0.357368648 0.477040082 0.355597734
0.376217723 0.476786762 0.360657394
0.388867795 0.479317099 0.360657394
0.404048175 0.484124094 0.363061190
0.419228554 0.484503537 0.363061190
0.434408933 0.485009342 0.365338147
0.449589401 0.488045722 0.369639724
0.464769006 0.491081417 0.369639754
0.484882742 0.489184141 0.375711739
0.503984630 0.492599726 0.380645365
0.523592651 0.497533381 0.385578722
0.547501266 0.503984869 0.391650826
0.573307633 0.513092995 0.404554278
0.598355353 0.520809710 0.415559709
0.628083766 0.527893722 0.423150092
0.650854170 0.539278865 0.436053365
0.686147690 0.548387229 0.447438359
0.712713122 0.562175930 0.463630557
0.741429210 0.577103078 0.479443312
0.767995000 0.594180703 0.498418748
0.289689988 0.501707971 0.356862992
0.288931072 0.502466559 0.368247986
0.286780506 0.503478765 0.368500948
0.298418552 0.503478765 0.366476566
0.303984791 0.501834512 0.365717530
0.308539003 0.503352702 0.370271713
0.319671154 0.500822425 0.365211725
0.324351460 0.502719700 0.367362440
0.329664558 0.506009042 0.370145738
0.338393688 0.509044945 0.370145738
0.352561742 0.509171426 0.374067008
0.368374467 0.507400215 0.374193728
0.377862096 0.509297967 0.376470715
0.394813716 0.507273734 0.379759461
0.406957716 0.508665383 0.378114730
0.423402786 0.512207747 0.378620803
0.438583195 0.515243709 0.383174986
0.453130960 0.513851881 0.381909728
0.467046231 0.516887963 0.385452181
0.482226402 0.519924104 0.389753729
0.499304205 0.524857461 0.393548757
0.519544482 0.522833705 0.397596747
0.537887454 0.527134776 0.402150720
0.560404718 0.533206761 0.411764741
0.583175004 0.537761033 0.420872986
