Assets/Shaders/EldamarStudio/100 Sci-Fi LUTs Pack/LUTs/cube/Loxi LUT.cube
LUT_3D_SIZE 8
DOMAIN_MIN 0.000000 0.000000 0.000000
DOMAIN_MAX 0.903226 0.903226 0.903226
0.003922000 0.000000000 0.062744997
0.010120095 0.005060451 0.060341999
0.115117088 0.028210096 0.102719903
0.214168638 0.043769997 0.127766997
0.317140996 0.084503382 0.151170000
0.417204738 0.136875466 0.192029998
0.516255558 0.193421990 0.244401991
0.638456762 0.255154967 0.300948799
0.007843000 0.050474547 0.083871000
0.038709547 0.054775093 0.098418549
0.123719193 0.081467092 0.115243189
0.222011641 0.099430896 0.137128189
0.318026394 0.132321194 0.168501005
0.411764562 0.172296196 0.204427481
0.510689259 0.218469098 0.258190840
0.625300467 0.270967990 0.302846134
0.037444998 0.155851096 0.151296914
0.092852548 0.162049189 0.144591659
0.153447092 0.171537101 0.147248179
0.233775914 0.187982097 0.177103087
0.326628476 0.212271094 0.200506091
0.423782378 0.240354091 0.239215821
0.525616407 0.281214386 0.283491254
0.647311747 0.329664767 0.335357010
0.118911989 0.266919255 0.205186278
0.147881180 0.272485971 0.210626274
0.202403724 0.277166188 0.224035278
0.268564284 0.284250289 0.228209913
0.350917280 0.299557626 0.258190811
0.433523029 0.321948171 0.283238530
0.527008295 0.352687895 0.311701298
0.643896043 0.394433737 0.366476983
0.198229000 0.379253179 0.289310992
0.232764199 0.379886389 0.289816380
0.254522294 0.388614982 0.289184093
0.313725621 0.388994545 0.301960826
0.380771369 0.395572364 0.316508174
0.451486707 0.412903398 0.333839178
0.549146175 0.438709766 0.365971178
0.667045772 0.482479364 0.409993976
0.289689988 0.501707971 0.356862992
0.303984791 0.501834512 0.365717530
0.329664558 0.506009042 0.370145738
0.377862096 0.509297967 0.376470715
0.438583195 0.515243709 0.383174986
0.499304205 0.524857461 0.393548757
0.583175004 0.537761033 0.420872986
0.686906934 0.577988565 0.465274990
0.379000545 0.620113552 0.438836277
0.389626801 0.623402536 0.438962519
0.414168060 0.625806391 0.447185576
0.454143286 0.632257998 0.453004628
0.500442684 0.633649349 0.454396188
0.564326286 0.634914517 0.472738981
0.630233824 0.644655228 0.491081268
0.711068869 0.667046070 0.517140806
0.502466619 0.765211582 0.565211594
0.522074401 0.763187647 0.562555432
0.543959498 0.764579535 0.571157336
0.572802007 0.768880248 0.576723576
0.607969940 0.770398438 0.582542658
0.661479771 0.772928774 0.602276981
0.715875924 0.781530619 0.610626161
0.778241754 0.787349641 0.634661555
0.003922000 0.012523999 0.097153999
0.017583547 0.009740546 0.096774541
0.111954086 0.032891002 0.122580543
0.209108278 0.071220994 0.164958656
0.301201731 0.111574732 0.186970547
0.402276754 0.157748550 0.223909289
0.501581132 0.204301268 0.269450009
0.624035597 0.263756990 0.319038510
0.000000000 0.058317542 0.109677084
0.039089091 0.069702998 0.120303541
0.116635092 0.090069994 0.145350739
0.210626185 0.116761088 0.169639558
0.306767851 0.144465744 0.200506091
0.397469729 0.184440359 0.236559078
0.492599547 0.222391009 0.268691003
0.607589900 0.267046094 0.317014545
0.045288000 0.162176013 0.169639543
0.085641734 0.159772098 0.173560634
0.151549652 0.171537101 0.184566632
0.229854718 0.186337993 0.199367538
0.318026394 0.216571644 0.232637376
0.409740299 0.245540828 0.260847479
0.509171546 0.279949546 0.300822288
0.634029090 0.328526199 0.347374797
0.123971924 0.265401274 0.231878281
0.147122189 0.267805189 0.231119186
0.196837634 0.274889290 0.237318173
0.259582639 0.281088084 0.249842092
0.336369514 0.293990821 0.271094263
0.419354647 0.316761643 0.292599738
0.512840152 0.345224380 0.324984372
0.626944900 0.386211097 0.364073277
0.200506181 0.372169197 0.292346805
0.213409349 0.376849979 0.297153801
0.254901856 0.377988607 0.306135446
0.309424162 0.383554637 0.307906181
0.374825746 0.392030537 0.320809633
0.446426362 0.405059963 0.338013738
0.540923595 0.432511181 0.369512737
0.652119100 0.476660520 0.412776381
0.291334301 0.490449011 0.372548908
0.298545003 0.494623750 0.374825746
0.326122850 0.497786045 0.376217484
0.376343906 0.498924553 0.381909937
0.432510972 0.503225744 0.388615012
0.495382726 0.512966454 0.401391715
0.578494489 0.535863280 0.428083569
0.686400950 0.576470375 0.470841348
0.366097748 0.609866858 0.435800105
0.381909817 0.618975580 0.440733820
0.407210410 0.617963314 0.448323816
0.443896294 0.621884823 0.455407917
0.491714060 0.627071559 0.460847825
0.554965019 0.625806272 0.474763185
0.615686536 0.631372571 0.486274570
0.695888817 0.654395819 0.516002536
0.514484167 0.755091310 0.559771776
0.521568775 0.756736040 0.567235768
0.535610378 0.759013295 0.570272028
0.568880379 0.766097307 0.578114927
0.608475566 0.765970886 0.588361681
0.660467744 0.770398438 0.592662692
0.713472545 0.775964499 0.614294767
0.779632747 0.782921851 0.637571156
0.000000000 0.033649903 0.177862093
0.009740644 0.031752452 0.178241551
0.112713091 0.041492902 0.187223092
0.202403635 0.075521737 0.205565736
0.300063074 0.126122802 0.238962993
0.394054353 0.177355826 0.277419209
0.494876385 0.225553468 0.313346118
0.620493352 0.272865206 0.363820314
0.000759000 0.077166550 0.174319640
0.050853997 0.077925541 0.188488558
0.116635084 0.098671988 0.191904083
0.206324831 0.125743538 0.214294642
0.299683630 0.159392655 0.248956457
0.392536193 0.199367732 0.285262287
0.487665862 0.238456637 0.313978374
0.600252748 0.284629822 0.348892897
0.050854094 0.160531193 0.206704184
0.095888637 0.174319640 0.213030100
0.161290109 0.184820086 0.239722088
0.233396277 0.200506195 0.251106739
0.318026394 0.227197975 0.274257004
0.400758862 0.257305741 0.302466959
0.500568986 0.292093575 0.336875260
0.622770607 0.339531898 0.384186924
0.138519987 0.263503909 0.267931998
0.155724183 0.274130195 0.272991627
0.207463369 0.279569983 0.282858998
0.265021920 0.287033647 0.286274731
0.336748987 0.299937099 0.302719712
0.412270814 0.321062297 0.328525901
0.507906616 0.351170003 0.358380616
0.623908937 0.394687176 0.395066440
0.214674085 0.365844280 0.329158992
0.226312280 0.376470625 0.328399897
0.264769107 0.375964373 0.335357070
0.312207431 0.382289559 0.337761104
0.365844280 0.389374077 0.347122073
0.443010837 0.406198829 0.368627459
0.534977794 0.434788197 0.393295258
0.648576856 0.475775003 0.431752175
0.296141982 0.489690006 0.391144723
0.310436726 0.489563465 0.392156720
0.332954079 0.494370341 0.395319730
0.374320179 0.497533202 0.408728540
0.429222077 0.504111588 0.413282812
0.494244099 0.511195719 0.424541473
0.575331867 0.531815290 0.445794076
0.682605803 0.577608764 0.482099712
0.369006991 0.604680538 0.457811475
0.384187013 0.614041746 0.459456116
0.409614295 0.616445422 0.472612083
0.447311878 0.617584050 0.474763006
0.495003074 0.622643650 0.477925360
0.555724263 0.625426829 0.487919271
0.617204309 0.634535015 0.506768286
0.697532952 0.655914009 0.532574236
0.500948608 0.753952861 0.572042942
0.516129017 0.755724192 0.577862024
0.534724712 0.758633733 0.578747571
0.566729724 0.759898603 0.584819555
0.604554236 0.766097486 0.597469926
0.653636813 0.766856492 0.601770818
0.710183501 0.773181617 0.625426710
0.770651639 0.784060538 0.649082601
0.000000000 0.036432642 0.273497999
0.010499642 0.032511353 0.273877531
0.126502544 0.057179093 0.278557628
0.209108293 0.089690350 0.281340986
0.298798561 0.131561995 0.296268195
0.392536372 0.179253370 0.319670975
0.489310622 0.229854628 0.360910952
0.613535762 0.285515815 0.404933453
0.001897547 0.099177644 0.265275419
0.053510543 0.097533539 0.266414076
0.135104552 0.114737540 0.278178215
0.211385280 0.134724900 0.284882635
0.300442666 0.163314551 0.295382798
0.392915905 0.204047829 0.330676883
0.488804281 0.248703450 0.359266520
0.604933441 0.295762241 0.405565947
0.066793442 0.182922453 0.293105990
0.114357993 0.182036728 0.284756660
0.171537086 0.196204737 0.293738186
0.235673368 0.210753009 0.302846521
0.320430219 0.233396277 0.323971927
0.402276844 0.267931908 0.345477283
0.502087176 0.306767851 0.384187013
0.617204428 0.347501725 0.425173908
0.143579632 0.271347612 0.313345999
0.166350543 0.281214267 0.314864188
0.215812728 0.289436728 0.329791188
0.284250289 0.308918625 0.353699923
0.348134041 0.317646831 0.353194177
0.423782468 0.336495727 0.376723379
0.509044945 0.363314271 0.401391625
0.629601419 0.401264906 0.437571108
0.216825187 0.377735376 0.369512618
0.238456830 0.378494382 0.376976192
0.272486180 0.387476623 0.384060889
0.322833180 0.389374197 0.386211276
0.380771369 0.399114549 0.392915696
0.450094908 0.414800733 0.411511779
0.535357296 0.442757964 0.434661657
0.648829699 0.481341004 0.469702631
0.300948888 0.490828633 0.436052829
0.311701298 0.492852360 0.439595282
0.345097840 0.497532964 0.443137348
0.383554637 0.501328468 0.441872388
0.436306387 0.507273734 0.447058737
0.497406453 0.517140985 0.459962070
0.575332046 0.537381470 0.477040023
0.684503496 0.575711370 0.520556748
0.372801989 0.608222902 0.493611634
0.390512556 0.618595839 0.494623750
0.414294660 0.613409340 0.498798341
0.447944283 0.618848801 0.505629659
0.496900856 0.623656094 0.512839913
0.558507323 0.627197921 0.520682931
0.621125817 0.636812270 0.530802906
0.705502808 0.661479771 0.557621658
0.509804130 0.755218089 0.601518095
0.518532515 0.754711747 0.599240959
0.535990059 0.759392917 0.605565965
0.571663618 0.759898603 0.610878944
0.607969701 0.760657609 0.618975282
0.656419754 0.766476750 0.625679672
0.710689366 0.775079012 0.640227854
0.781277716 0.782162786 0.659329593
0.002403808 0.035041187 0.372296184
0.017583741 0.046552546 0.362302631
0.135483995 0.072738990 0.362808287
0.227198094 0.108412638 0.364705831
0.311701149 0.146363005 0.370525181
0.395951927 0.186717451 0.383048654
0.496774077 0.237318277 0.414294541
0.616192579 0.289057642 0.452371806
0.004174544 0.112966537 0.350031555
0.062871538 0.124225542 0.354459018
0.151170105 0.133459643 0.363567412
0.229095533 0.154712439 0.363187760
0.312207639 0.176217377 0.373055190
0.392156720 0.213029787 0.384693295
0.487539649 0.254649282 0.411005735
0.603162169 0.298039436 0.454522640
0.100822188 0.207590193 0.365212083
0.127893731 0.211891547 0.369765997
0.190385997 0.213788897 0.374699205
0.253383756 0.228336632 0.373687178
0.325110286 0.242884189 0.383934259
0.398608357 0.269449979 0.396331280
0.501201570 0.308665365 0.429222107
0.620999396 0.348640084 0.472359270
0.167109638 0.292220116 0.384313613
0.188235641 0.291714013 0.382668942
0.230993077 0.301960647 0.396078616
0.290069640 0.312080801 0.401012272
0.348007828 0.323086619 0.411637813
0.422138005 0.343833178 0.424920797
0.506261706 0.369259715 0.448323905
0.626818180 0.401264906 0.482859015
0.226312175 0.378368199 0.416951388
0.250853986 0.385072827 0.424035370
0.282859087 0.392536163 0.427830368
0.338140637 0.405945182 0.437697619
0.405186355 0.425427169 0.464009970
0.460973918 0.435673386 0.465781122
0.545351267 0.449842185 0.486021161
0.649842024 0.482479364 0.518658996
0.301580995 0.494876564 0.476154417
0.323719203 0.492852390 0.478304714
0.350663841 0.498292059 0.481088072
0.388488293 0.508918583 0.487792522
0.440606922 0.515875936 0.499051392
0.507147670 0.521441936 0.503099144
0.585831523 0.543200612 0.529285133
0.690069616 0.576090991 0.559645712
0.374446362 0.610373020 0.532194793
0.390512437 0.614547849 0.536622584
0.417584002 0.618089795 0.539026082
0.448450714 0.620113850 0.540543973
0.498924464 0.626818478 0.548260331
0.556230307 0.632637799 0.555850744
0.620366573 0.635294080 0.567109466
0.711701393 0.665527880 0.596078336
0.500442445 0.750916600 0.626692176
0.509550810 0.755850375 0.631119788
0.527134478 0.758633733 0.631625712
0.562428653 0.761037230 0.638076901
0.603415728 0.764199793 0.641239762
0.654775441 0.769259810 0.653510451
0.708285928 0.776723564 0.666540146
0.773054659 0.785072923 0.683744431
0.000000000 0.080075733 0.468184739
0.042884089 0.084882736 0.456673175
0.152181834 0.110310085 0.461353362
0.240354285 0.138519898 0.463377625
0.324984163 0.171916544 0.455154985
0.413029730 0.205439731 0.466160476
0.487539709 0.239974529 0.475142419
0.612270594 0.290954888 0.517393768
0.031245824 0.140038088 0.449462473
0.087413274 0.148134097 0.441113263
0.169512659 0.161290288 0.454016536
0.245287821 0.174446389 0.450600803
0.328146577 0.200379461 0.453889728
0.406451494 0.227830470 0.463757187
0.482732743 0.256926060 0.469196737
0.596457601 0.299557239 0.509297907
0.132195085 0.226818338 0.450727612
0.151802376 0.235294014 0.451866180
0.205439731 0.238077089 0.460973799
0.269323289 0.250221342 0.458190978
0.342567921 0.265528291 0.467299104
0.418216377 0.280834764 0.470841378
0.500442445 0.305882454 0.485642105
0.623276532 0.344212621 0.525489926
0.186211362 0.305629641 0.462112367
0.211764723 0.314863980 0.463124722
0.246552974 0.317900181 0.464769006
0.300695866 0.325743377 0.469196469
0.361669481 0.338393390 0.479822814
0.428210348 0.346363038 0.483238399
0.508918464 0.369639397 0.496900707
0.619734228 0.401518166 0.534345448
0.247058719 0.398228735 0.480328918
0.261100620 0.399494201 0.489563346
0.296141982 0.404553950 0.494749784
0.342820734 0.412523925 0.496647477
0.401771188 0.421758652 0.509550750
0.465275377 0.430107176 0.513978302
0.549398959 0.447438210 0.532320976
0.657179236 0.481087983 0.565464735
0.309551001 0.495382726 0.525237024
0.318152994 0.495129466 0.525110304
0.349399060 0.500189841 0.531562090
0.388615012 0.506009042 0.541935623
0.449589193 0.522580326 0.549651742
0.524604499 0.544465482 0.573940694
0.599620700 0.554965198 0.578115225
0.695002854 0.579253733 0.602909684
0.373940527 0.606198549 0.573561013
0.388614744 0.610879421 0.579000711
0.409866989 0.613282859 0.585705101
0.448703378 0.617710233 0.589879811
0.499810368 0.625553489 0.598608434
0.559645712 0.636053264 0.609867215
0.627577066 0.641871989 0.614041507
0.713851810 0.671474040 0.640354276
0.491840750 0.746742606 0.662112534
0.504111350 0.751549780 0.663124681
0.522074461 0.751928926 0.663377523
0.552434921 0.758633733 0.668564141
0.593169034 0.761796355 0.679190338
0.647691488 0.765211582 0.682985544
0.706135333 0.773940325 0.697153330
0.775837779 0.788741648 0.715749502
0.023782276 0.126754984 0.578621268
0.093231827 0.134977534 0.579632998
0.183934286 0.147880986 0.575838089
0.280328989 0.172675639 0.575711548
0.364832193 0.200506091 0.574067295
0.453384161 0.229854733 0.574067295
0.530929804 0.256799579 0.577988267
0.613156199 0.292978972 0.586717248
0.076027825 0.175331995 0.556356966
0.119923808 0.180898279 0.573307991
0.194940105 0.189500287 0.569513142
0.278684288 0.207210645 0.566350460
0.361669570 0.225932822 0.569133699
0.442884028 0.249842197 0.567488968
0.522706866 0.272612095 0.562681794
0.596331120 0.301580995 0.574066997
0.143833265 0.254648775 0.559898674
0.174446553 0.259835571 0.569765985
0.226312190 0.263124377 0.572422385
0.300442934 0.276154459 0.570271969
0.378241479 0.289057374 0.570777655
0.455787241 0.303478718 0.574193537
0.534092426 0.325869560 0.582795441
0.616065979 0.349019527 0.590892076
0.201264992 0.335863292 0.566223562
0.221884817 0.337887526 0.568880320
0.262365669 0.342567921 0.569006920
0.319544256 0.348133892 0.570145249
0.391144812 0.358001351 0.574067235
0.459835798 0.367362171 0.579886138
0.532194853 0.381150931 0.580265582
0.621252060 0.396204978 0.594813347
0.252119094 0.418342888 0.582542658
0.270461887 0.428462982 0.590512633
0.304870248 0.429348409 0.588994563
0.351422817 0.431372553 0.589373887
0.413535476 0.432384372 0.586717486
0.480455637 0.443010747 0.593421817
0.560151637 0.452877969 0.602530003
0.649968386 0.472359240 0.618469238
0.312713295 0.520556688 0.612270772
0.331435770 0.527261198 0.615053594
0.355597556 0.527893782 0.614927351
0.397596627 0.526881635 0.615939260
0.456419945 0.534598231 0.622391045
0.517773509 0.539658248 0.624161839
0.597723007 0.549145997 0.636938572
0.691081643 0.575205386 0.658443987
0.373813987 0.607716560 0.636432528
0.384313703 0.607463539 0.638330162
0.407336980 0.613282859 0.639974713
0.445667267 0.618848562 0.642378569
0.493358552 0.621252358 0.647691488
0.563567281 0.635799766 0.661226988
0.646932542 0.661985934 0.679949284
0.729031801 0.674763024 0.692093730
0.485895067 0.743959308 0.698039234
0.496521026 0.743959308 0.704111278
0.513346016 0.748260438 0.706514835
0.546236336 0.752181768 0.712586701
0.590765297 0.759013295 0.720683098
0.642504752 0.767741621 0.726754785
0.708412051 0.776597023 0.735483646
0.775078714 0.792536497 0.749272764
0.113978639 0.185831800 0.718152940
0.160278350 0.191397518 0.720682919
0.236053020 0.200379655 0.721441984
0.320682824 0.216824979 0.718026817
0.409487844 0.242251605 0.716761649
0.504237592 0.268057823 0.712333858
0.589626670 0.297153533 0.708539069
0.678937614 0.327007800 0.714231610
0.126755267 0.216824979 0.708539069
0.171157643 0.218722090 0.716382086
0.238203898 0.228210106 0.713472605
0.322074711 0.246299833 0.710815728
0.409740835 0.264009982 0.706008732
0.497153550 0.283111840 0.713093042
0.584566891 0.305502951 0.701075017
0.671220839 0.336242795 0.702087045
0.180265710 0.285009563 0.705249786
0.210246831 0.294623703 0.713851750
0.263377994 0.301581174 0.719671011
0.339531720 0.307779789 0.710816085
0.421252370 0.320682913 0.713092923
0.508285940 0.338520080 0.709550679
0.591144860 0.355724275 0.707147300
0.680581748 0.381024808 0.710815847
0.215180263 0.365970612 0.702213526
0.235041276 0.372422636 0.708286047
0.288172096 0.373181731 0.708665609
0.353953272 0.381404281 0.709677458
0.426692128 0.387349844 0.702340066
0.510183573 0.398355454 0.704870403
0.591524065 0.409993649 0.704111457
0.677039564 0.422770262 0.707147419
0.259582639 0.452498347 0.713598788
0.278811038 0.458317399 0.708032608
0.312713295 0.457811296 0.713219643
0.372169286 0.460720956 0.714990437
0.445793986 0.462618619 0.709803879
0.519544601 0.473118395 0.717520535
0.602023780 0.483871013 0.718152940
0.688298464 0.499810368 0.716381967
0.341176629 0.560404778 0.727387726
0.351929098 0.562428534 0.729917526
0.374952555 0.562808335 0.729285002
0.417330623 0.560404778 0.732447624
0.470841259 0.559266269 0.730929613
0.548639774 0.563693702 0.732321382
0.627956629 0.572169602 0.732953489
0.710815847 0.587855816 0.741429448
0.394054085 0.656799674 0.734724879
0.412270695 0.655660987 0.737380981
0.431878507 0.652877927 0.741682589
0.467046082 0.657179236 0.742315054
0.515370071 0.659203053 0.747374952
0.580265403 0.659203053 0.754079521
0.656166673 0.668564439 0.754458904
0.736875534 0.681846797 0.766223669
0.498544931 0.756103694 0.758506894
0.509424686 0.756609321 0.778114796
0.520303667 0.763946772 0.769765735
0.552940965 0.761290610 0.775458395
0.591903865 0.765591443 0.777355790
0.644022703 0.770398438 0.783933878
0.709424496 0.775584936 0.793927789
0.795319438 0.803035975 0.812143803
