Assets/Shaders/EldamarStudio/100 Sci-Fi LUTs Pack/LUTs/cube/Loxi LUT.cube
LUT_3D_SIZE 5
DOMAIN_MIN 0.000000 0.000000 0.000000
DOMAIN_MAX 0.903226 0.903226 0.903226
0.003922000 0.000000000 0.062744997
0.089310691 0.025173709 0.095129706
0.265527993 0.061479993 0.139910996
0.439468980 0.153068006 0.201138124
0.638456762 0.255154967 0.300948799
0.024541706 0.133080706 0.135357410
0.126881421 0.144212693 0.136621997
0.282226503 0.179506272 0.180771694
0.449588686 0.233523250 0.247817844
0.646299779 0.313978523 0.330550104
0.164199397 0.325616837 0.253763795
0.215812817 0.332826972 0.258950412
0.331562370 0.347248405 0.281847388
0.463630825 0.376344115 0.314863712
0.661859810 0.444149196 0.394434214
0.310942143 0.519924283 0.362934977
0.345604122 0.530044138 0.384566844
0.422138125 0.535610259 0.394939840
0.531688988 0.553194225 0.416825145
0.690955102 0.603036225 0.477419227
0.502466619 0.765211582 0.565211594
0.538393438 0.766097367 0.572422445
0.586084664 0.767741621 0.577482402
0.672359228 0.772928774 0.600758910
0.778241754 0.787349641 0.634661555
0.002277292 0.026818417 0.152055696
0.085388698 0.032384705 0.159898698
0.251486510 0.100063413 0.206325114
0.416572005 0.188994408 0.278937131
0.625047505 0.272106111 0.353193820
0.028842404 0.137001708 0.186969995
0.127893686 0.155977115 0.204048380
0.269449413 0.192283392 0.242251709
0.426059544 0.244908705 0.290322393
0.623023331 0.327640802 0.371789694
0.173940405 0.322707117 0.290322810
0.223908693 0.332194358 0.300442696
0.321062803 0.343959808 0.317141384
0.458064139 0.375711709 0.351802826
0.649462640 0.443769664 0.416951090
0.310310125 0.520556271 0.399493843
0.334218979 0.523212850 0.403921545
0.421505541 0.531688988 0.415939271
0.528399885 0.545098126 0.438710004
0.690955043 0.600379407 0.496521056
0.507273912 0.755976915 0.568753898
0.532447636 0.759645879 0.577229440
0.585072517 0.764453053 0.588994086
0.670082211 0.773940623 0.608349025
0.772928715 0.786084771 0.641745746
0.000000000 0.032638006 0.319797397
0.100443110 0.053636990 0.320429981
0.260974377 0.111194991 0.324351817
0.408728838 0.196204990 0.356103688
0.609613895 0.282479823 0.423782647
0.064768992 0.171663284 0.326628685
0.150410980 0.178873703 0.321695417
0.275648087 0.208601981 0.341302991
0.423149854 0.257305264 0.375331968
0.618090034 0.333206683 0.446046948
0.181783825 0.321694970 0.367488801
0.235800102 0.336748391 0.376976669
0.343959808 0.371410817 0.410625964
0.464010537 0.390132934 0.429601818
0.644908667 0.448703647 0.484630048
0.319418132 0.513345957 0.464895397
0.351802409 0.523213267 0.472106218
0.422770113 0.532953858 0.481594145
0.530044556 0.543453276 0.498924404
0.691967189 0.598355293 0.546362996
0.504491031 0.752055824 0.593801618
0.526881695 0.755344331 0.619734347
0.579506814 0.759898603 0.620620191
0.666160762 0.766476572 0.638583124
0.770398438 0.787476420 0.669829607
0.000000000 0.093232125 0.490448982
0.134218395 0.116129123 0.489183813
0.295002967 0.162555128 0.490448982
0.445414275 0.222644120 0.491461128
0.615812778 0.292978972 0.535863101
0.117773399 0.212903112 0.478305131
0.191018552 0.223655984 0.488804549
0.314231247 0.252118856 0.492093682
0.442757994 0.280581862 0.497659832
0.619987607 0.341429412 0.539152086
0.224920988 0.363314539 0.500316262
0.267805368 0.370777935 0.502846420
0.358380377 0.381910384 0.513978422
0.473497987 0.403795272 0.523466170
0.648197174 0.444654971 0.575458825
0.322707117 0.525743246 0.547501266
0.351422727 0.531309128 0.558128119
0.428336412 0.539152145 0.568247855
0.561037302 0.574826300 0.601265132
0.702087045 0.605566263 0.623149991
0.493611485 0.742947459 0.670714915
0.521315515 0.751423180 0.671220839
0.568374395 0.758254051 0.684123755
0.664136767 0.767488897 0.695129752
0.774066746 0.789753556 0.727640748
0.113978639 0.185831800 0.718152940
0.214294672 0.195319518 0.718152940
0.361036956 0.225680232 0.714104772
0.525237083 0.275395244 0.712586880
0.678937614 0.327007800 0.714231610
0.172422677 0.273371577 0.712839782
0.242378354 0.281846970 0.722706735
0.376723379 0.299810112 0.709930301
0.529538333 0.327387691 0.707020998
0.680328608 0.369892687 0.709044755
0.236685827 0.413915396 0.709551036
0.289310694 0.418216258 0.713599026
0.402277052 0.428336382 0.712207317
0.541176260 0.443137079 0.716128945
0.692093551 0.468943536 0.722707152
0.354332834 0.583428264 0.727640748
0.383301824 0.585325599 0.732827127
0.452877700 0.584060669 0.736116469
0.570904434 0.588235259 0.733839571
0.715876043 0.610879242 0.746236622
0.498544931 0.756103694 0.758506894
0.513725579 0.760910630 0.777861893
0.570398569 0.761923075 0.777609169
0.659962118 0.771663606 0.785704911
0.795319438 0.803035975 0.812143803
