Assets/Shaders/EldamarStudio/100 Sci-Fi LUTs Pack/LUTs/cube/Lucia LUT.cube
LUT_3D_SIZE 5
DOMAIN_MIN 0.000000 0.000000 0.000000
DOMAIN_MAX 0.903226 0.903226 0.903226
0.058823999 0.043136999 0.039216001
0.104616992 0.057179291 0.064389706
0.173940822 0.088930994 0.096141569
0.273751140 0.148134127 0.137381256
0.423908770 0.239468634 0.222517788
0.102972701 0.106894284 0.080075711
0.130423710 0.114104696 0.096773989
0.190259412 0.138646409 0.118658699
0.289057583 0.192283407 0.172295704
0.431751788 0.283617914 0.250600964
0.162175998 0.232131407 0.169386402
0.190638691 0.244275689 0.182795703
0.239974409 0.265527993 0.203415409
0.325996280 0.309677541 0.236052990
0.455281615 0.406957626 0.316002369
0.199873745 0.441619247 0.306135237
0.216698274 0.457558393 0.308159411
0.273624271 0.470968008 0.325110674
0.354079872 0.498418987 0.365971118
0.500062943 0.583807766 0.452119231
0.344718546 0.735230565 0.561290562
0.385705411 0.744338751 0.571789742
0.441239566 0.752181768 0.586843967
0.538393259 0.767868400 0.614041746
0.666160345 0.788741589 0.660847425
0.080075711 0.052624710 0.081720419
0.106894284 0.063757285 0.095129706
0.172296107 0.102340281 0.122580700
0.278557867 0.161542997 0.170651257
0.407842934 0.245667249 0.251233637
0.110815704 0.102972701 0.106894284
0.137634695 0.121947698 0.125869691
0.191271290 0.150410980 0.144845113
0.285768449 0.197216704 0.195572242
0.421884954 0.285894960 0.266539931
0.160784006 0.236685827 0.191903695
0.184693277 0.243263826 0.200758994
0.237318411 0.265527993 0.217077985
0.316508412 0.308032840 0.257052630
0.445161343 0.401011765 0.337634206
0.200632572 0.438962817 0.319164991
0.225173712 0.447691530 0.326755136
0.271347404 0.464768946 0.346362680
0.347248256 0.494497389 0.374446541
0.492978901 0.577356339 0.465907753
0.329664886 0.727766871 0.562049448
0.364452839 0.736495733 0.571536779
0.429474831 0.746615708 0.586211205
0.530550301 0.760278463 0.613282859
0.659962118 0.786590755 0.657811284
0.116381995 0.054901998 0.154965416
0.128146574 0.077166416 0.154332414
0.179126993 0.105249576 0.177861989
0.276027828 0.163187712 0.219101831
0.409487784 0.248576805 0.295635819
0.139910996 0.119670987 0.173307985
0.153320700 0.130423695 0.174320117
0.198734999 0.154965416 0.195825294
0.288045704 0.206325129 0.240354121
0.414674252 0.291713983 0.324098527
0.173940822 0.232131407 0.242631406
0.190891579 0.248830095 0.255028814
0.247817561 0.292978942 0.285768390
0.312586963 0.325363666 0.311954260
0.439594924 0.410878778 0.389879793
0.203922004 0.439595252 0.367615223
0.218342572 0.457558542 0.378747851
0.264768988 0.471600235 0.392789125
0.345350981 0.500695705 0.424162120
0.498924464 0.583554685 0.506008506
0.307779729 0.724730730 0.578241765
0.350284576 0.732953846 0.594939709
0.420998991 0.738393188 0.609740555
0.524098516 0.760404885 0.632637620
0.669575930 0.789500177 0.687665999
0.170778006 0.071600132 0.267932117
0.192283258 0.089310862 0.279696137
0.219481111 0.127134860 0.289183974
0.288424999 0.179506853 0.313978255
0.411891073 0.262997985 0.387349784
0.190891996 0.134977862 0.289437145
0.203668281 0.146742284 0.289057583
0.237065122 0.173940405 0.307780117
0.293358862 0.220746547 0.331309557
0.417330742 0.303225935 0.404680461
0.209614128 0.235420406 0.343453407
0.230107412 0.259709388 0.355850816
0.261859536 0.289437234 0.369259536
0.313978255 0.331941962 0.392536372
0.444781780 0.413788676 0.464516193
0.186211005 0.440607101 0.443516970
0.205187008 0.452625245 0.453889817
0.259835511 0.482985556 0.482353121
0.357242256 0.534725130 0.522960126
0.511701226 0.594054043 0.577609241
0.296774000 0.723845422 0.635926604
0.332321465 0.734851480 0.646046937
0.396836996 0.742694318 0.653130770
0.516635001 0.768247724 0.679949284
0.679063737 0.799114227 0.724478066
0.276027828 0.078431003 0.541935563
0.286527634 0.098418862 0.545224428
0.315243810 0.148513407 0.547248542
0.375205696 0.224794269 0.563187718
0.475142419 0.322074622 0.600758553
0.273370981 0.159266531 0.544212282
0.285515517 0.168121397 0.549145937
0.318911940 0.203415558 0.558254242
0.371537268 0.271220773 0.575584829
0.482605904 0.358633637 0.606577992
0.270714819 0.294496953 0.573181391
0.274256736 0.299683779 0.571916580
0.314611226 0.329790950 0.588235021
0.376849800 0.387349635 0.611764610
0.501328409 0.459329605 0.635926604
0.196584404 0.462238938 0.645034730
0.235420525 0.466540068 0.651486397
0.312081218 0.498165518 0.650980175
0.407843232 0.551802337 0.667299211
0.548766732 0.611764610 0.700063169
0.321315348 0.739278734 0.744465530
0.345351160 0.741808712 0.746742427
0.423149526 0.749651611 0.753573537
0.547374964 0.787223458 0.774193287
0.733080387 0.837318420 0.833523214
