Assets/Shaders/EldamarStudio/100 Sci-Fi LUTs Pack/LUTs/cube/Lucia LUT.cube
LUT_3D_SIZE 8
DOMAIN_MIN 0.000000 0.000000 0.000000
DOMAIN_MAX 0.903226 0.903226 0.903226
0.058823999 0.043136999 0.039216001
0.082732551 0.047438450 0.051359549
0.115243196 0.057179093 0.066666998
0.149652004 0.074003644 0.080708288
0.199747190 0.102593191 0.104110993
0.256546736 0.132953987 0.129284993
0.331308991 0.177735567 0.168248281
0.423908770 0.239468634 0.222517788
0.082732551 0.068184994 0.055660997
0.095256448 0.075648546 0.063503996
0.123845898 0.084250547 0.076407544
0.156736091 0.100695543 0.094497450
0.199747190 0.116381735 0.110562995
0.258949906 0.147627741 0.133965999
0.325489819 0.192283258 0.174573004
0.414673805 0.247185349 0.220619962
0.112839997 0.115243196 0.086148098
0.119544543 0.124225453 0.100316100
0.141050085 0.129285097 0.108159095
0.178241536 0.142188460 0.115116999
0.220114082 0.166097090 0.141049892
0.274889380 0.191018194 0.167235836
0.343833089 0.234914467 0.204427287
0.432258040 0.294749796 0.256419808
0.143453285 0.185072631 0.136242986
0.151928991 0.190132976 0.136875272
0.170019090 0.199240729 0.147627741
0.204047635 0.208601922 0.158127993
0.245540842 0.231372714 0.180898175
0.292852461 0.255534619 0.202403635
0.352055609 0.292726278 0.231625557
0.437571257 0.360910594 0.284377009
0.175584987 0.276407182 0.191904187
0.188867986 0.287792653 0.204047740
0.203668386 0.291334301 0.212270901
0.233902633 0.299937189 0.220493555
0.271220803 0.317140996 0.232005194
0.314990282 0.341808945 0.250601172
0.368880272 0.381277651 0.284124255
0.452498436 0.451233178 0.341049612
0.201897740 0.419355005 0.287918717
0.205692813 0.428842723 0.287286550
0.229348734 0.430739999 0.291713744
0.257178992 0.436559200 0.300822079
0.288804531 0.447944283 0.312839925
0.336875468 0.466034472 0.338646710
0.394054562 0.498419017 0.369513005
0.488425046 0.557748258 0.428083509
0.210752696 0.552814543 0.386843562
0.216065794 0.564705551 0.390512288
0.240227357 0.571536720 0.402909368
0.274130285 0.577482641 0.408855200
0.316129267 0.584946275 0.414041549
0.369892418 0.595572054 0.438077003
0.432890266 0.616192520 0.460974246
0.537381232 0.655281246 0.518153071
0.344718546 0.735230565 0.561290562
0.368500829 0.740796864 0.562175751
0.391777396 0.744338751 0.571283698
0.422390908 0.750663936 0.580518782
0.462871581 0.756483316 0.589120746
0.524478078 0.763820410 0.611511350
0.585452318 0.774952471 0.627324462
0.666160345 0.788741589 0.660847425
0.074510001 0.050980002 0.059582997
0.083491549 0.047438450 0.060341999
0.116381638 0.067046449 0.075648449
0.148513645 0.088551998 0.098039001
0.190765545 0.109297544 0.114737637
0.256546736 0.141302928 0.146109924
0.325363696 0.180391818 0.178494573
0.408981800 0.237191349 0.227830648
0.079569548 0.075648546 0.067805447
0.098797999 0.076027997 0.076407544
0.127766997 0.088931441 0.092093542
0.153194338 0.104617447 0.104617447
0.197849646 0.124984346 0.123086996
0.255407989 0.158254087 0.155977190
0.323339552 0.192283258 0.188235238
0.417963505 0.258443981 0.235294104
0.115243100 0.114737540 0.103858449
0.127008006 0.124225453 0.108918093
0.144212097 0.129664645 0.117140643
0.173940182 0.143326998 0.130423635
0.217457443 0.164073542 0.149272546
0.269449860 0.192662895 0.174319923
0.334345281 0.233270258 0.209108293
0.420873076 0.291840345 0.258696914
0.140164286 0.184693277 0.145604089
0.156736091 0.187476635 0.146742627
0.167615190 0.195319638 0.153067648
0.198861182 0.207083926 0.162428632
0.238836169 0.225427091 0.184820101
0.287033528 0.250853807 0.208601922
0.352688104 0.297786117 0.247438177
0.434914619 0.359645605 0.295129657
0.177609444 0.276154518 0.200632378
0.190259457 0.276786745 0.206831187
0.203795090 0.284250319 0.215812743
0.229980737 0.292093396 0.221632004
0.265275419 0.307400495 0.235800192
0.309424371 0.335483730 0.252498627
0.362934828 0.380392373 0.294244200
0.450094938 0.446046621 0.352055550
0.201518193 0.406578273 0.286653996
0.212523997 0.413788736 0.293990940
0.228589535 0.418469131 0.296267807
0.251612991 0.427577257 0.306135297
0.286400914 0.444022655 0.316761613
0.328525931 0.458443999 0.334598213
0.388488263 0.490449041 0.368754178
0.482605904 0.550537348 0.429601341
0.199367747 0.548386812 0.379885823
0.214927301 0.552308738 0.394054323
0.234282091 0.556609690 0.395319283
0.270588547 0.564199924 0.405818909
0.308032811 0.577356219 0.418216199
0.366223574 0.590259314 0.436180025
0.439721584 0.616824508 0.473371267
0.539405346 0.658317506 0.524984479
0.329032421 0.734851122 0.558633864
0.351296574 0.738519609 0.563188016
0.378368109 0.739531994 0.567362547
0.410246462 0.745603919 0.578747451
0.458190769 0.751422942 0.587476254
0.516761780 0.759140015 0.606072187
0.583681285 0.768247843 0.626439095
0.663250923 0.785325885 0.660847425
0.083871000 0.055661093 0.089310996
0.095256448 0.056040548 0.089690447
0.116002090 0.072865099 0.104237899
0.146489188 0.094497450 0.113598995
0.196711197 0.119165190 0.137887180
0.255281389 0.149652094 0.166097194
0.321947992 0.193421990 0.203668565
0.406071872 0.244655117 0.252751648
0.090449445 0.080328643 0.093611546
0.094750091 0.084629998 0.104237996
0.127007991 0.092852540 0.112080991
0.160278440 0.112080991 0.128146544
0.204933658 0.130423650 0.146109745
0.254142821 0.162175998 0.174699470
0.324604511 0.201517820 0.216951370
0.411384761 0.262618840 0.262618840
0.119924091 0.115117088 0.117520094
0.123845905 0.132448003 0.130044177
0.152055994 0.137887195 0.141808987
0.180265993 0.149145827 0.150411084
0.217836991 0.170777991 0.170019090
0.271094084 0.199747086 0.198608443
0.333712786 0.238836274 0.231751978
0.419354886 0.295508891 0.279190361
0.148007289 0.189879730 0.161163986
0.160657898 0.194940090 0.166730091
0.177482635 0.203542084 0.177735373
0.202783182 0.211764634 0.189120635
0.240860641 0.232511163 0.208349273
0.288677752 0.257937849 0.226312369
0.352814555 0.300696105 0.264642388
0.435673594 0.364326298 0.319418162
0.182669088 0.278811187 0.222517088
0.186843738 0.277166188 0.217204630
0.205313101 0.289816290 0.236685902
0.225680083 0.296774298 0.239342436
0.263251096 0.310942262 0.253004283
0.304743886 0.338140279 0.276786834
0.367362261 0.385958403 0.315496296
0.451359898 0.447943985 0.370397955
0.207969740 0.408601940 0.309044719
0.207337454 0.413029820 0.302340269
0.226185828 0.416571468 0.312080741
0.254016191 0.427197725 0.321821570
0.285641849 0.440860361 0.335483730
0.328273088 0.455028355 0.351928920
0.388867825 0.489310354 0.380897820
0.479569882 0.551043391 0.443643540
0.207211003 0.544844866 0.401644558
0.210499540 0.548893094 0.401138544
0.232890993 0.556736529 0.408728659
0.267425656 0.564959049 0.419860899
0.310689270 0.575331807 0.433523268
0.372169703 0.592662573 0.457811475
0.437444657 0.616951406 0.487539470
0.547754347 0.659961939 0.539531887
0.328905582 0.725237072 0.560025394
0.346615851 0.727893591 0.567488670
0.365211815 0.737254798 0.572042584
0.403668225 0.740417421 0.580518782
0.452371955 0.746615887 0.594433784
0.509297848 0.755218148 0.613282740
0.582415938 0.768880308 0.634535193
0.660468280 0.788108885 0.661606491
0.107020639 0.054901998 0.131182641
0.112080999 0.061100997 0.131182641
0.131309450 0.076028004 0.143453285
0.161417007 0.096395001 0.145224646
0.202150390 0.121062547 0.160910845
0.260847390 0.151549637 0.193295375
0.323971927 0.194560632 0.232131630
0.412523597 0.252625018 0.290069818
0.116381735 0.085768543 0.131562099
0.118785545 0.089690447 0.134725094
0.139532000 0.099936545 0.139784738
0.160278559 0.116002187 0.151170090
0.207210645 0.136748642 0.171536997
0.258064717 0.164073557 0.198102280
0.327767015 0.207463384 0.238836288
0.414547592 0.264136523 0.289690077
0.139152542 0.116761185 0.156356648
0.143453196 0.127640992 0.156609997
0.150031537 0.144591734 0.166856289
0.182922527 0.155471548 0.183302090
0.223655820 0.179380000 0.201011837
0.273750931 0.206451729 0.223529533
0.338393480 0.249841794 0.263504028
0.422138035 0.303352445 0.315749496
0.149651989 0.193421990 0.197343275
0.156736091 0.194940090 0.201644540
0.175078735 0.213789091 0.211005732
0.211891636 0.233270273 0.234914273
0.248703644 0.247058824 0.240733624
0.293105900 0.269702733 0.261859745
0.353194296 0.310056984 0.302213967
0.435040981 0.366350442 0.351802826
0.185452357 0.286274552 0.258949816
0.194560111 0.292093366 0.258570284
0.212903455 0.303985089 0.272359550
0.235167801 0.311321735 0.275775105
0.268816978 0.321441919 0.286274523
0.313851744 0.351170093 0.314484626
0.364452779 0.391018212 0.344718695
0.450727433 0.451486439 0.399114460
0.201138645 0.414041847 0.337254733
0.206831172 0.421379179 0.339658558
0.226944819 0.426059365 0.344592005
0.251612991 0.433902353 0.352055639
0.287286729 0.446932554 0.364959151
0.327134758 0.464010179 0.380138993
0.390006453 0.495635688 0.412523657
0.482985616 0.553826809 0.474003822
0.205060363 0.549019158 0.426185906
0.206958011 0.557874858 0.432258159
0.229601562 0.561796188 0.434535265
0.265148640 0.569639206 0.446299553
0.310816199 0.580898225 0.458317637
0.371663451 0.597343266 0.479443133
0.444781899 0.618469238 0.510309815
0.542694688 0.662745118 0.560151756
0.323971927 0.726248920 0.574066699
0.343706399 0.735357344 0.587349892
0.363820314 0.734977782 0.589879870
0.401897579 0.741682589 0.595319450
0.449968219 0.748513341 0.606957257
0.508665204 0.756736338 0.621884823
0.582289577 0.772422433 0.646299601
0.664010227 0.792409599 0.674636364
0.127640992 0.058823999 0.176849991
0.138266742 0.070967548 0.184440345
0.147248387 0.079949193 0.187982187
0.175078720 0.102213636 0.193421990
0.206704184 0.127640992 0.208222389
0.256419748 0.153067544 0.230613634
0.326754987 0.199747190 0.264642358
0.411258787 0.255281448 0.321568429
0.139405385 0.088551991 0.180139095
0.144971386 0.095635995 0.181277737
0.157115534 0.105376445 0.190259278
0.173940286 0.121821642 0.198861286
0.211511806 0.142568186 0.214294538
0.260467798 0.167615294 0.233775929
0.327640593 0.212650344 0.273750812
0.415180176 0.271347225 0.329285175
0.154332891 0.136368990 0.204300985
0.158633649 0.139911458 0.205945283
0.175584987 0.147248179 0.212144181
0.193927631 0.168121547 0.225300625
0.227197990 0.182542995 0.239721894
0.273877442 0.213029996 0.256546646
0.337634355 0.252245188 0.293611348
0.423529536 0.309677392 0.352941155
0.163693994 0.185325652 0.237697631
0.176723555 0.190259293 0.239974633
0.192663088 0.209867179 0.249715284
0.219228193 0.230993271 0.261859834
0.247565001 0.249715269 0.274383426
0.294496983 0.276407272 0.301834524
0.354459047 0.315116912 0.334977537
0.436432600 0.369765937 0.389879644
0.178620994 0.281847000 0.289689958
0.193674803 0.294623822 0.303605527
0.205313101 0.305503100 0.307021052
0.239089191 0.326628476 0.322707146
0.273624003 0.350031555 0.343074203
0.316508472 0.368500918 0.359519154
0.370398253 0.400759369 0.388361573
0.455154777 0.458317697 0.438709974
0.201265067 0.422643930 0.376343697
0.206704751 0.425047725 0.380265713
0.219228357 0.433522820 0.387349814
0.247438267 0.447944283 0.399873614
0.282100171 0.459329724 0.411132157
0.329158992 0.473750472 0.424161732
0.395446271 0.510183454 0.451866150
0.489184022 0.561669827 0.502972960
0.193675011 0.558127820 0.456546545
0.205060452 0.561543286 0.468690813
0.222517088 0.569386363 0.471473664
0.259203106 0.576849937 0.482732713
0.307527155 0.588108718 0.491714269
0.371663272 0.603668571 0.511068523
0.446805835 0.625553370 0.540923297
0.551422894 0.669829369 0.584819496
0.309424579 0.724604547 0.599620581
0.327261388 0.731814921 0.604680240
0.354332417 0.734977722 0.609993637
0.391650587 0.740923345 0.614927173
0.443010926 0.748260438 0.627071619
0.507147014 0.761543214 0.643010974
0.583934069 0.771663308 0.662239075
0.670208514 0.793168604 0.697659612
0.160658002 0.068564259 0.244655728
0.166982800 0.074889451 0.250980526
0.183681250 0.089816742 0.256419748
0.196204737 0.109171636 0.258317471
0.228336722 0.139911458 0.272106737
0.268184751 0.166350737 0.289689988
0.324604750 0.201264992 0.316002727
0.410120040 0.260214806 0.372422427
0.171283916 0.094370730 0.245920286
0.165211990 0.104996800 0.253636986
0.182922438 0.113598898 0.256419748
0.202023983 0.130803287 0.264642477
0.230360463 0.154206187 0.272738725
0.275775224 0.183681354 0.299557239
0.330550283 0.218089551 0.325236797
0.415053368 0.274636358 0.382542819
0.183301985 0.146109745 0.275268734
0.186084539 0.150411204 0.272486210
0.196331367 0.161416993 0.275142729
0.217837006 0.169133395 0.280202359
0.242884099 0.197722927 0.296394527
0.278431624 0.217710078 0.313598812
0.338393271 0.254396170 0.339785159
0.423655927 0.315116912 0.398355573
0.194686830 0.201517820 0.300948620
0.204806834 0.211385176 0.301328361
0.215686530 0.218469277 0.307906508
0.233775720 0.236559287 0.315116823
0.259708911 0.259582847 0.334345162
0.295762241 0.286147833 0.348766714
0.356103629 0.319797724 0.376976639
0.443263412 0.379000545 0.437571257
0.190512195 0.271979719 0.342947453
0.199493840 0.276407182 0.348260581
0.219354987 0.289310545 0.353193909
0.251359731 0.315116733 0.365591347
0.277925432 0.346489638 0.381783903
0.318153173 0.369133443 0.402909726
0.369260013 0.409108043 0.431752205
0.462871760 0.460721195 0.481087714
0.190259263 0.409234703 0.413156211
0.201138645 0.415433019 0.423149705
0.215306744 0.424794704 0.425553620
0.242631346 0.441998810 0.440101385
0.280075908 0.468816906 0.459455699
0.330929726 0.499304205 0.485515475
0.402023971 0.519924223 0.502340019
0.497026950 0.561669827 0.547248423
0.185578734 0.558633804 0.495129734
0.186464101 0.561796308 0.507906735
0.215053633 0.565717876 0.511701703
0.253383934 0.579380333 0.526122570
0.304111600 0.598987579 0.538392961
0.373940468 0.618722558 0.555471003
0.456420094 0.636053026 0.584313989
0.568247676 0.683111787 0.627577066
0.299556822 0.723845661 0.623023510
0.313851684 0.727514088 0.636559188
0.336369336 0.733333349 0.634661674
0.373181313 0.739531815 0.640480638
0.425680012 0.750537276 0.651865780
0.497659355 0.760151565 0.665781260
0.585452199 0.775964260 0.689563274
0.678810596 0.799367547 0.716887593
0.213029996 0.076154292 0.360657543
0.218975246 0.082479522 0.363567114
0.230993077 0.098039195 0.360657752
0.248956278 0.117140643 0.372928619
0.273497909 0.147881001 0.377229363
0.296900690 0.184566557 0.393548250
0.357748270 0.219228283 0.411638558
0.411764354 0.264642358 0.440354079
0.212017268 0.108032994 0.355597794
0.213915095 0.111701541 0.353953093
0.230233982 0.124225445 0.369386464
0.248956367 0.142567992 0.376470476
0.276786715 0.168627441 0.385705262
0.310056984 0.203162625 0.403162509
0.351929009 0.239974827 0.427956551
0.420999318 0.282606244 0.457178771
0.223402902 0.159772292 0.381910264
0.219607636 0.165717840 0.373687625
0.232384369 0.169260010 0.379253834
0.257178903 0.187476352 0.385578632
0.278811008 0.211385280 0.399114460
0.308918744 0.240101457 0.412776738
0.359392554 0.274636358 0.440480649
0.425047338 0.321188956 0.466793060
0.232005000 0.229854643 0.403794974
0.230993271 0.229854330 0.398987859
0.248829722 0.238456741 0.401391476
0.262871653 0.251739621 0.413915545
0.289057553 0.277166247 0.428462923
0.315243751 0.306894302 0.446299911
0.366097629 0.342567921 0.463757187
0.444655448 0.384313434 0.499936610
0.224288285 0.293611348 0.440733463
0.238330081 0.299557447 0.449968457
0.249083087 0.314737350 0.448450357
0.266160637 0.334724844 0.457558870
0.292979002 0.356230289 0.465907544
0.322707176 0.388741046 0.487286508
0.380645275 0.421884537 0.504743636
0.458949983 0.465401709 0.540543914
0.193674713 0.406957448 0.495509267
0.193168908 0.411005735 0.502593279
0.211005718 0.413282454 0.507653296
0.241998658 0.426312536 0.511574984
0.296521425 0.459456146 0.524857700
0.337128460 0.491967201 0.534851432
0.403541803 0.526122510 0.560910761
0.505376399 0.570777655 0.599241018
0.173813999 0.567488849 0.572675824
0.183428288 0.561290562 0.561796546
0.210625991 0.569133520 0.569259644
0.252878010 0.582542539 0.580898523
0.303478688 0.601264834 0.594307423
0.385705441 0.630360544 0.618975103
0.484123528 0.667172551 0.655407548
0.591397882 0.694497287 0.679190397
0.305249572 0.728399992 0.672991574
0.303985029 0.727766991 0.668817401
0.334218591 0.731562436 0.675142348
0.373940557 0.741302788 0.683744192
0.430866390 0.757621706 0.697153866
0.509424031 0.770778060 0.715622783
0.592409849 0.789373636 0.733966112
0.696773946 0.812649846 0.757747829
0.276027828 0.078431003 0.541935563
0.281214654 0.086654447 0.539658308
0.290575653 0.103478998 0.544718385
0.307020992 0.127640799 0.541935563
0.330043793 0.169766188 0.550917208
0.364073575 0.210372955 0.558380663
0.399241269 0.267425656 0.578494430
0.475142419 0.322074622 0.600758553
0.275142491 0.116002090 0.541429400
0.278052002 0.117393978 0.531941891
0.292472899 0.127640799 0.542061687
0.304617167 0.157368705 0.548260331
0.333965808 0.191271529 0.561669767
0.366350234 0.234788179 0.571536660
0.402909636 0.287159950 0.582416415
0.478304625 0.339784801 0.601391435
0.273624301 0.175711825 0.542694449
0.281087846 0.180391923 0.550410807
0.291334569 0.190891936 0.555724323
0.304364145 0.210119918 0.557748258
0.334092319 0.233902633 0.566982627
0.362934917 0.278304905 0.578873754
0.404300988 0.324351609 0.593421757
0.482605696 0.371283889 0.613156259
0.271347314 0.247438282 0.561669767
0.276280552 0.252878070 0.565338135
0.287159920 0.262745112 0.568753898
0.304617167 0.282858819 0.575711310
0.328905433 0.306767970 0.587349892
0.363440961 0.342694432 0.593927622
0.411385000 0.386590749 0.612523675
0.493737906 0.425679833 0.628462553
0.255787611 0.336369157 0.593674541
0.262998372 0.338519722 0.592283607
0.279949188 0.349905163 0.589879632
0.295383006 0.361922801 0.594307244
0.325742960 0.386590660 0.607716620
0.370651513 0.419354558 0.619101584
0.418216288 0.461859524 0.634661436
0.509930551 0.498924971 0.648450434
0.221884966 0.430866599 0.629854441
0.236685976 0.431625694 0.636053026
0.257431895 0.440227807 0.636559248
0.291840732 0.459203094 0.635547042
0.332068473 0.484503329 0.643390238
0.384566724 0.515116870 0.652877510
0.449082822 0.552561522 0.666034162
0.536622584 0.585958362 0.687159657
0.191777274 0.588867664 0.687665999
0.204680532 0.587855875 0.681341052
0.228969246 0.588488221 0.687539279
0.278684288 0.590891719 0.695129633
0.334345311 0.605945647 0.699431002
0.427198142 0.635420978 0.705882132
0.510562658 0.671726584 0.716381907
0.614547908 0.702719748 0.748133719
0.321315348 0.739278734 0.744465530
0.327134401 0.735104322 0.741049707
0.349652261 0.741808712 0.746489465
0.389879555 0.748639941 0.748260319
0.452624768 0.759266198 0.757495403
0.522327244 0.779633045 0.767868578
0.622897148 0.802909136 0.794686556
0.733080387 0.837318420 0.833523214
