Assets/Shaders/EldamarStudio/100 Sci-Fi LUTs Pack/LUTs/cube/Lucia LUT.cube
DOMAIN_MIN 0 0 0
DOMAIN_MAX 1 1 1
LUT_3D_SIZE 32
0.058823999 0.043136999 0.039216001
0.061859611 0.040101387 0.039216001
0.067046002 0.043517001 0.043517001
0.074383162 0.047059000 0.048323840
0.082732551 0.047438450 0.051359549
0.085768931 0.050474066 0.054395933
0.093864672 0.056040645 0.059961997
0.104616992 0.057179291 0.064389706
0.115243196 0.057179093 0.066666998
0.121315978 0.066287480 0.066667005
0.130297124 0.069576129 0.072485998
0.139405251 0.070588000 0.076533742
0.149652004 0.074003644 0.080708288
0.161796063 0.082859002 0.087033965
0.173940822 0.088930994 0.096141569
0.186084986 0.095002994 0.098039001
0.199747190 0.102593191 0.104110993
0.215559974 0.111068986 0.114357576
0.233776018 0.117141008 0.117393978
0.243643358 0.120430358 0.123213001
0.256546736 0.132953987 0.129284993
0.273751140 0.148134127 0.137381256
0.294876963 0.157242477 0.149272993
0.313093007 0.166350096 0.155345008
0.331308991 0.177735567 0.168248281
0.349525332 0.191271648 0.180645302
0.369260073 0.206451938 0.190259129
0.396584421 0.221631527 0.202403888
0.423908770 0.239468634 0.222517788
0.449462384 0.259456158 0.241998941
0.477292925 0.281593949 0.262871563
0.513724983 0.305882007 0.290196002
0.064895995 0.049209002 0.045288000
0.061859611 0.046173386 0.042251613
0.075648546 0.043137226 0.050854161
0.081467614 0.045287773 0.053637065
0.083112001 0.047817998 0.051739097
0.088804543 0.053510450 0.057432320
0.099430606 0.048956387 0.057938386
0.107400000 0.057938315 0.062998384
0.116002090 0.064769283 0.067425899
0.124351583 0.069323093 0.069702618
0.133333489 0.072612479 0.075521611
0.144465387 0.077672385 0.079569869
0.154585645 0.080835029 0.083744384
0.164579436 0.085642353 0.089816608
0.173940822 0.088930994 0.096141569
0.188488185 0.097406797 0.100442804
0.199746817 0.102593191 0.104111381
0.212523744 0.109297752 0.111954384
0.230740398 0.120177396 0.117393985
0.243390396 0.126249388 0.125996351
0.256546736 0.135230988 0.132321388
0.273751140 0.148134127 0.139405519
0.295003474 0.157368988 0.149399474
0.316129386 0.169386491 0.158380628
0.332068086 0.183048666 0.171283901
0.349525332 0.197343647 0.183681279
0.369260073 0.212524071 0.193295389
0.396584421 0.227704301 0.205439508
0.421252638 0.245540738 0.225553408
0.446426332 0.263756961 0.243263796
0.473371178 0.283744186 0.262871563
0.507652998 0.305882007 0.290196002
0.064516224 0.055281550 0.044908226
0.065781385 0.056546383 0.046173386
0.071346998 0.051360000 0.049588773
0.085768610 0.050853934 0.055408064
0.087033547 0.053510774 0.052118547
0.091334775 0.056040771 0.059962098
0.098165773 0.062744997 0.060974225
0.108665057 0.058317706 0.062618934
0.116761193 0.068185002 0.068184994
0.127261251 0.072612301 0.072612301
0.134218872 0.077798873 0.076407000
0.143327251 0.080835260 0.082479514
0.155344784 0.086780772 0.086780772
0.165465042 0.090828970 0.092346773
0.174573407 0.093864582 0.094623767
0.186337963 0.101707794 0.102593027
0.199999779 0.107779801 0.107147224
0.210372984 0.111448154 0.112586804
0.225553393 0.120556951 0.117141008
0.242505014 0.131436005 0.123845577
0.258443981 0.139405727 0.134851217
0.273877382 0.149272770 0.141429484
0.292726189 0.157495499 0.149652466
0.311954349 0.171663776 0.162808105
0.332953691 0.183934271 0.172169283
0.349525332 0.199114650 0.184566662
0.368248075 0.214295074 0.195192993
0.392283410 0.229475439 0.210625991
0.419101864 0.245161176 0.222137794
0.441619366 0.265148401 0.243390173
0.469070166 0.285515189 0.261100590
0.503731787 0.308032781 0.285895020
0.069070160 0.061353996 0.046932161
0.070841387 0.063124776 0.048703384
0.075648546 0.063503996 0.052625161
0.083491325 0.061227158 0.057431996
0.092599608 0.063883997 0.055154707
0.097406767 0.063883997 0.062492095
0.101708002 0.068943679 0.065274999
0.109424606 0.074003711 0.066919707
0.118532218 0.073244996 0.070714995
0.130170807 0.079317003 0.076787002
0.135230988 0.084124163 0.079949453
0.144592091 0.088172100 0.085009515
0.153700486 0.092346832 0.088804998
0.165718004 0.098165862 0.094623998
0.175838247 0.101201743 0.096648000
0.186084986 0.106514640 0.102593347
0.199494168 0.112586960 0.107653156
0.212270737 0.116887726 0.114990138
0.225047350 0.123592950 0.119923972
0.241492569 0.133965850 0.124478161
0.257179141 0.144212574 0.131815150
0.274383307 0.153320968 0.143959165
0.289816618 0.160025492 0.150664344
0.309170991 0.175205901 0.163567260
0.327134281 0.186843827 0.175458282
0.348260164 0.200379491 0.184566662
0.367994905 0.214547917 0.193675071
0.390765250 0.228210270 0.209614143
0.414800614 0.245920286 0.223655820
0.441113323 0.265907496 0.238582999
0.465022117 0.287159681 0.260721028
0.500695825 0.311068833 0.282353014
0.082732551 0.068184994 0.055660997
0.082732551 0.068184994 0.056040544
0.085642219 0.069955774 0.058191225
0.089184448 0.072612159 0.060847834
0.095256448 0.075648546 0.063503996
0.104364060 0.075648546 0.066540383
0.108791769 0.078557774 0.069955677
0.115117155 0.081214257 0.072991706
0.123845898 0.084250547 0.076407544
0.132953510 0.090322547 0.082479551
0.137001872 0.093864866 0.086021863
0.146109998 0.096900739 0.091081992
0.156736091 0.100695543 0.094497450
0.165591508 0.106767543 0.095003448
0.177482530 0.109930411 0.101075448
0.188741356 0.113725282 0.107147448
0.199747190 0.116381735 0.110562995
0.215307027 0.120683014 0.113092974
0.230487436 0.129791424 0.125237003
0.245667189 0.139278755 0.129411802
0.258949906 0.147627741 0.133965999
0.272106588 0.157115683 0.142062008
0.287286937 0.166224033 0.153953001
0.308032662 0.180898368 0.162808359
0.325489819 0.192283258 0.174573004
0.342694193 0.203415200 0.184946120
0.364958614 0.218342617 0.194434077
0.392282963 0.227450997 0.203542456
0.414673805 0.247185349 0.220619962
0.439848036 0.269070387 0.239215493
0.468058497 0.292852908 0.258443713
0.498418540 0.314104557 0.282732546
0.085768931 0.080329001 0.061732996
0.085768931 0.080329001 0.064769387
0.092220157 0.080329001 0.067299157
0.096521065 0.080834940 0.069070064
0.098292060 0.081720546 0.069575995
0.104364060 0.084756933 0.069575995
0.110941999 0.089816935 0.075142063
0.118152760 0.092093870 0.079063714
0.126502052 0.092599936 0.082100093
0.132953510 0.093358941 0.085515939
0.142061874 0.099430934 0.091587931
0.152181998 0.102972731 0.097153991
0.162049010 0.106008641 0.099810362
0.168627113 0.109803930 0.098039061
0.174699888 0.115875930 0.104111053
0.193801731 0.123845801 0.110183060
0.205439925 0.127387866 0.114737250
0.215559974 0.129791334 0.119164988
0.233523041 0.138899043 0.131309018
0.248703435 0.150790781 0.137887001
0.261985928 0.156736135 0.141555801
0.275142223 0.163820267 0.148134008
0.290322572 0.175332397 0.160025001
0.305502981 0.184440032 0.166097000
0.326249212 0.199114338 0.179506332
0.343706578 0.210499600 0.190005988
0.361922979 0.221632004 0.197596192
0.389247328 0.236559376 0.209614456
0.413914859 0.256293744 0.226691961
0.441239357 0.274004102 0.246679157
0.471094251 0.293358952 0.266540110
0.501454949 0.317140937 0.285768926
0.093864672 0.095003322 0.072865002
0.096395001 0.092473000 0.073371060
0.096395001 0.092473000 0.074256673
0.101834163 0.093738161 0.076913163
0.104237542 0.095382772 0.078557871
0.112460323 0.098418608 0.080708638
0.118532315 0.098924674 0.083238319
0.127893314 0.103352383 0.089310318
0.136369094 0.105755992 0.091714099
0.140670314 0.109297998 0.091208480
0.147121876 0.110056996 0.094623677
0.156230256 0.114105254 0.100695670
0.167868316 0.117140993 0.106767677
0.176976353 0.120429993 0.108158998
0.185325831 0.126501992 0.109676994
0.191397995 0.132573992 0.115749605
0.212017864 0.141555876 0.121821634
0.224414989 0.145856991 0.127134725
0.238836035 0.153067365 0.137381017
0.256799698 0.162428707 0.149019644
0.270082325 0.172675729 0.156988889
0.283238471 0.177988634 0.162302256
0.298418820 0.187096983 0.171157628
0.313599229 0.198608428 0.177229643
0.335610300 0.209993318 0.185578346
0.355724335 0.223529324 0.200252652
0.373561323 0.235294312 0.210752442
0.398861408 0.252498418 0.222897202
0.426059246 0.270462096 0.240354285
0.450347692 0.288172066 0.255028278
0.483617872 0.307779849 0.275774568
0.522201002 0.335357308 0.298924685
0.102972701 0.106894284 0.080075711
0.104364380 0.105502605 0.083364703
0.105249994 0.104616992 0.083364703
0.107779995 0.107147314 0.085894704
0.111954249 0.109804153 0.088930994
0.121062636 0.110309772 0.090702221
0.121062711 0.117393695 0.095382668
0.130423710 0.114104696 0.096773989
0.143326804 0.117141083 0.101327993
0.149905190 0.122327700 0.099177763
0.154205993 0.124224991 0.101960830
0.162302256 0.126249254 0.103731699
0.171410650 0.129285350 0.109803706
0.182542711 0.132574052 0.115875706
0.190259412 0.138646409 0.118658699
0.201897696 0.146362692 0.125110596
0.211005688 0.152434692 0.129664794
0.230613559 0.161416560 0.135610431
0.243769735 0.168500721 0.143706456
0.258191019 0.172422364 0.153953001
0.275901705 0.183175012 0.164199963
0.289057583 0.192283407 0.172295704
0.304364294 0.199240983 0.178621262
0.321062922 0.211384997 0.187729284
0.339784980 0.223529413 0.196078405
0.361290336 0.237065062 0.207969353
0.381025076 0.249968633 0.222643688
0.406451672 0.267045975 0.234788164
0.431751788 0.283617914 0.250600964
0.458949655 0.304997116 0.265274942
0.484123856 0.321947992 0.280961186
0.525110304 0.350031704 0.307526708
0.112839997 0.115243196 0.086148098
0.111322001 0.116761193 0.090702094
0.113599092 0.117520094 0.094749995
0.113851994 0.119291320 0.095003098
0.119544543 0.124225453 0.100316100
0.127893925 0.121189065 0.100316100
0.126628906 0.128526092 0.103098996
0.128905892 0.132321090 0.108159095
0.141050085 0.129285097 0.108159095
0.156230494 0.132321492 0.108159095
0.161290124 0.135357320 0.111827865
0.169133350 0.139152363 0.114357993
0.178241536 0.142188460 0.115116999
0.187096953 0.144971102 0.120936029
0.193169087 0.150031745 0.126502082
0.206451699 0.158507288 0.133459702
0.220114082 0.166097090 0.141049892
0.232890651 0.172801659 0.144718081
0.248071074 0.181910068 0.150790855
0.260468096 0.184187099 0.159645751
0.274889380 0.191018194 0.167235836
0.292093962 0.201391220 0.176090986
0.307273597 0.210626081 0.182162985
0.324857831 0.222770095 0.193042010
0.343833089 0.234914467 0.204427287
0.362808347 0.249209642 0.215559751
0.381531060 0.264390051 0.230740026
0.408349425 0.279569745 0.243136987
0.432258040 0.294749796 0.256419808
0.461353242 0.316002458 0.274383128
0.487159640 0.339405686 0.287792295
0.514484107 0.360658079 0.312081099
0.124983996 0.121315986 0.101328492
0.118912004 0.127387971 0.101328500
0.123845778 0.131056204 0.108032718
0.127514318 0.133965656 0.111701161
0.125616536 0.136369452 0.109424487
0.128652930 0.133333072 0.109424494
0.131941676 0.135357335 0.106894165
0.136242524 0.137128502 0.110815711
0.144085720 0.138393492 0.117267489
0.156230494 0.144465506 0.117267497
0.165591121 0.147501886 0.123086482
0.176470518 0.152561978 0.129031986
0.187349826 0.157368869 0.132573992
0.196204573 0.160151511 0.133080021
0.202277347 0.160151511 0.136116415
0.215559661 0.167615324 0.139278680
0.229221895 0.175205484 0.145603716
0.241999045 0.181910068 0.153826490
0.257179469 0.191018477 0.159898505
0.269576490 0.197343513 0.168753877
0.281720489 0.205060244 0.174067214
0.295129657 0.213282987 0.179380357
0.310309976 0.219734475 0.188235000
0.325490415 0.231878504 0.194306999
0.345351279 0.244022474 0.207463279
0.366477132 0.258949846 0.220999330
0.387603074 0.276534051 0.233776420
0.408855438 0.291714400 0.248956010
0.430360794 0.306894064 0.258696824
0.462365568 0.329158574 0.280455351
0.496015072 0.354586065 0.305629551
0.517520487 0.375838488 0.321189493
0.125489995 0.139026001 0.113599002
0.128146857 0.148007870 0.119417995
0.126375869 0.147628099 0.112966225
0.129411995 0.146616027 0.116255321
0.129158869 0.147501871 0.119671315
0.134724945 0.157115802 0.127260998
0.145350993 0.151549742 0.122200996
0.149525583 0.153447151 0.122074574
0.155091643 0.156230003 0.126375869
0.165085092 0.162301987 0.126375869
0.168500990 0.165464863 0.129285008
0.177609116 0.166476995 0.133333266
0.187729344 0.170778006 0.138519868
0.197090060 0.175584912 0.142061874
0.208475828 0.178241745 0.142441422
0.214547992 0.183048740 0.147881001
0.228210062 0.191651061 0.155976862
0.241745993 0.199747145 0.165844142
0.254649132 0.208854958 0.171916753
0.269829482 0.212397352 0.177988738
0.283997715 0.218342870 0.183175132
0.298165739 0.227450997 0.189247385
0.313219130 0.237317994 0.200000226
0.325616926 0.243896008 0.203288883
0.343073994 0.256040573 0.213914871
0.363693744 0.269576401 0.227071315
0.383428127 0.286274850 0.239216000
0.397469670 0.303858399 0.251992404
0.426691860 0.316381991 0.264515847
0.452245265 0.336622238 0.282732397
0.485388696 0.361922950 0.308159590
0.514737129 0.385199130 0.327388018
0.133585989 0.159266248 0.123719253
0.132574379 0.164326638 0.127766997
0.133459985 0.166856736 0.129158467
0.135989994 0.165085509 0.121315248
0.137887537 0.163567707 0.123972282
0.142315254 0.170777977 0.129791319
0.149399266 0.175837994 0.134345248
0.158254266 0.173054993 0.133206531
0.163188100 0.174952254 0.136242822
0.172296017 0.178494260 0.137507990
0.177609116 0.181657121 0.140417635
0.184692979 0.184692994 0.141429514
0.194940016 0.186970279 0.145604253
0.204933479 0.192789465 0.151676252
0.215306565 0.195825413 0.155218259
0.224667981 0.203289241 0.160025239
0.232258186 0.207843050 0.164579436
0.245793968 0.215306878 0.173307925
0.257938027 0.223023549 0.177988693
0.270841092 0.228589609 0.186084986
0.284124196 0.233523250 0.188362002
0.299177855 0.240607381 0.194307268
0.314484000 0.251739502 0.206198737
0.330423802 0.261606514 0.211132094
0.345098257 0.270208806 0.220999509
0.363314241 0.286527544 0.234534800
0.384440124 0.302466869 0.246805802
0.402656496 0.317647249 0.257431984
0.426691592 0.338646233 0.273624510
0.451739162 0.352561414 0.289310455
0.481214166 0.376091182 0.312207580
0.515749276 0.400379509 0.333460003
0.143453285 0.185072631 0.136242986
0.144971371 0.186970383 0.139278904
0.145224631 0.188994631 0.141302645
0.146615982 0.190132976 0.142188281
0.151928991 0.190132976 0.136875272
0.154206291 0.192409694 0.139152572
0.158633992 0.194560274 0.142441630
0.164705992 0.198481634 0.144591928
0.170019090 0.199240729 0.147627741
0.178368479 0.199620277 0.150664136
0.186843991 0.202530146 0.154838860
0.193801373 0.204427660 0.156989634
0.204047635 0.208601922 0.158127993
0.215939388 0.214421600 0.164199993
0.225047216 0.217457220 0.170271993
0.234155446 0.224161789 0.176343977
0.245540842 0.231372714 0.180898175
0.254649043 0.235040903 0.184566975
0.266287029 0.241113588 0.188108683
0.278431296 0.246047005 0.195572346
0.292852461 0.255534619 0.202403635
0.304996967 0.261606634 0.203415766
0.320050120 0.270588487 0.214927286
0.337254822 0.281720638 0.220999286
0.352055609 0.292726278 0.231625557
0.368627608 0.303984940 0.242884576
0.388361692 0.325236708 0.258064359
0.413282901 0.339278907 0.268437713
0.437571257 0.360910594 0.284377009
0.462365448 0.382162809 0.304870576
0.488045245 0.399999827 0.323972225
0.524478018 0.424288630 0.345224649
0.150031999 0.216951028 0.154206038
0.158633620 0.216951028 0.156483397
0.162681744 0.219354764 0.160025284
0.166223884 0.221884891 0.162302136
0.168880031 0.224541053 0.165465042
0.168880031 0.224541053 0.165465042
0.172675312 0.223023310 0.166477039
0.176597029 0.222770348 0.164326325
0.181910053 0.225806087 0.162808135
0.184946463 0.228842482 0.165844530
0.196205035 0.231878862 0.171536997
0.204554006 0.233144030 0.175585255
0.212903053 0.235421032 0.178874388
0.224794030 0.241239995 0.182163030
0.233902410 0.244275615 0.188235030
0.243263841 0.249462068 0.194307029
0.255155206 0.255281329 0.198608190
0.269576460 0.261353999 0.202530026
0.278684109 0.267426014 0.208602056
0.290069729 0.271220684 0.213662043
0.305756003 0.281340748 0.221884727
0.322201014 0.293738067 0.229222089
0.334345013 0.300063044 0.232384950
0.349398941 0.309297919 0.238456964
0.362555087 0.320683032 0.249083027
0.377482355 0.333333075 0.260594666
0.397217035 0.346236140 0.270462036
0.424541414 0.367488503 0.285642385
0.449209630 0.388740867 0.300822169
0.474763155 0.409993231 0.321062386
0.505249977 0.432131201 0.344718605
0.541682065 0.456420004 0.365971029
0.162175998 0.232131407 0.169386402
0.165211603 0.232131407 0.163314417
0.163060993 0.236432403 0.169892773
0.165211752 0.238077134 0.171410501
0.171916410 0.236685827 0.168753669
0.171916410 0.236685827 0.174573407
0.187096417 0.244275495 0.184693411
0.190638691 0.244275689 0.182795703
0.191018313 0.244022727 0.177988499
0.194054067 0.247058466 0.181024894
0.200000316 0.250094861 0.184060529
0.209361151 0.253131241 0.187729254
0.218975276 0.256673396 0.191903993
0.230866790 0.262492359 0.197343409
0.239974409 0.265527993 0.203415409
0.251486599 0.268564194 0.209487393
0.262998402 0.272232622 0.212523401
0.276407540 0.276533693 0.215053543
0.290828854 0.282606393 0.223782390
0.297153831 0.291461051 0.218722403
0.310183704 0.299304128 0.226565406
0.325996280 0.309677541 0.236052990
0.340416998 0.318279803 0.241492569
0.352561772 0.330423832 0.247564569
0.367615700 0.341935396 0.258191139
0.383554816 0.356862724 0.273118377
0.403289050 0.372802228 0.288424969
0.430613399 0.385705233 0.300821990
0.455281615 0.406957626 0.316002369
0.477799177 0.428209990 0.334724575
0.506515145 0.450347781 0.357495189
0.547754824 0.474635959 0.381151408
0.169512987 0.252118796 0.179759800
0.174952418 0.256925792 0.183301792
0.177988574 0.254775584 0.185831785
0.175205603 0.260088593 0.189626813
0.180139259 0.260468245 0.185451791
0.182162985 0.258443981 0.187476054
0.187729001 0.266034275 0.191397995
0.196078002 0.268563896 0.198608711
0.196837291 0.267046064 0.194813594
0.203162327 0.270082116 0.196205288
0.209107921 0.270714641 0.199240923
0.217204437 0.273751050 0.202277064
0.226312444 0.276787132 0.204174802
0.236685991 0.281341016 0.207463771
0.243643388 0.284377158 0.211384982
0.257558584 0.289816588 0.219860807
0.268184781 0.294370770 0.222896799
0.279443324 0.298291981 0.222896799
0.292852968 0.302593112 0.226691961
0.302087188 0.311448425 0.233902797
0.311954677 0.320556521 0.235420793
0.326628864 0.329664916 0.246552795
0.341555506 0.338773251 0.255281299
0.351422995 0.348639995 0.259076595
0.370398462 0.363061249 0.271979868
0.388614833 0.376723439 0.284250766
0.407337070 0.393927991 0.298924714
0.427071422 0.409866959 0.309170991
0.456546634 0.429980755 0.331182599
0.480834931 0.447691143 0.348133743
0.508918345 0.470335186 0.369639188
0.551423192 0.497659594 0.393927991
0.175584987 0.276407182 0.191904187
0.186211184 0.279443175 0.197976187
0.185578763 0.282099962 0.201012194
0.187349990 0.282859206 0.205819041
0.188867986 0.287792653 0.204047740
0.195319250 0.284756273 0.205186382
0.194813192 0.288804501 0.206198514
0.202150390 0.292852700 0.209234521
0.203668386 0.291334301 0.212270901
0.212017670 0.294370472 0.213029996
0.216697991 0.296015203 0.212903112
0.224794239 0.298039466 0.217457458
0.233902633 0.299937189 0.220493555
0.242757991 0.302593350 0.221126035
0.248829991 0.305629402 0.224161953
0.260594606 0.309551179 0.227450997
0.271220803 0.317140996 0.232005194
0.280328572 0.322580576 0.233270183
0.291587770 0.325616419 0.235041201
0.302466661 0.334218740 0.241872355
0.314990282 0.341808945 0.250601172
0.327134788 0.351929188 0.258697182
0.341682017 0.361543477 0.270461708
0.352182090 0.370651484 0.273498088
0.368880272 0.381277651 0.284124255
0.388741314 0.395066351 0.296521276
0.409867257 0.410626173 0.308538944
0.427071631 0.428842157 0.318658948
0.452498436 0.451233178 0.341049612
0.485389113 0.468943566 0.363314122
0.512333810 0.488551348 0.383301377
0.552941024 0.518912017 0.407590181
0.182921976 0.301834136 0.207716987
0.195572391 0.303731531 0.213788986
0.196331427 0.305882305 0.215559989
0.192157000 0.310816139 0.217457399
0.193295553 0.315749556 0.219354540
0.205186591 0.312713206 0.221631929
0.203415588 0.314104855 0.222137988
0.204933703 0.315496534 0.223782435
0.213283002 0.316255629 0.225553095
0.219354987 0.319291234 0.228589490
0.221884698 0.321695000 0.226438701
0.230233833 0.324731261 0.229474917
0.239974633 0.327261537 0.233776361
0.248829991 0.327514499 0.236812040
0.254901975 0.330550104 0.239848420
0.265148580 0.333586365 0.243010983
0.274256587 0.339025944 0.243010983
0.281593561 0.346868724 0.244275972
0.290701985 0.349905103 0.250348002
0.301960588 0.357242316 0.256419986
0.316002309 0.365085542 0.263757318
0.330803126 0.372549146 0.273877561
0.342947125 0.384566605 0.285642058
0.355091780 0.393674880 0.288678318
0.371157557 0.404048264 0.299177974
0.389373720 0.415813088 0.310562849
0.409108460 0.428463042 0.321188688
0.430613816 0.446552515 0.333586454
0.455154926 0.469449610 0.354459107
0.485262334 0.489057720 0.377608716
0.520177186 0.506135523 0.399114162
0.553573608 0.536495566 0.423402965
0.195066005 0.320051014 0.225933045
0.198102400 0.329158634 0.232005045
0.197849244 0.333206803 0.233776048
0.194560215 0.338773161 0.236306041
0.193295568 0.346110433 0.240607008
0.202403948 0.343074054 0.234535009
0.204174981 0.342567980 0.234282047
0.206957981 0.342821002 0.235926762
0.213283017 0.343580097 0.237444878
0.219355002 0.346616477 0.234661534
0.219608009 0.346742958 0.234788045
0.229981229 0.349019736 0.238583013
0.243516967 0.352055699 0.242378071
0.254902005 0.354838967 0.242884085
0.260974020 0.357874572 0.245920464
0.269449800 0.360910833 0.256167024
0.277292967 0.365465015 0.261227012
0.284629971 0.371157587 0.262492001
0.296773970 0.374193996 0.268564045
0.305882394 0.377229631 0.274636030
0.319038719 0.384566784 0.280708492
0.334219128 0.393422157 0.289058000
0.349019915 0.402783453 0.300822496
0.361163974 0.411891103 0.303858101
0.375585288 0.425553322 0.316002339
0.392409980 0.441619396 0.329537988
0.412144125 0.458823889 0.342441142
0.439468473 0.474003524 0.360657901
0.466286838 0.494749814 0.375711799
0.495129377 0.514484465 0.396963894
0.525996208 0.532447994 0.420113593
0.556609988 0.551676035 0.441619009
0.198861361 0.385579109 0.263630390
0.207463741 0.386338055 0.266919732
0.208349362 0.388994455 0.268690735
0.207210720 0.390133113 0.268690735
0.206451818 0.393169194 0.270967752
0.210752577 0.390132815 0.269702733
0.212270647 0.389626741 0.268690735
0.217204347 0.391271442 0.267046034
0.225174099 0.393169016 0.268564224
0.233270377 0.396204889 0.271600604
0.233523369 0.393548757 0.268690735
0.241619363 0.395572484 0.272738725
0.253763646 0.399746746 0.276533723
0.264010340 0.404174387 0.276786774
0.272611976 0.404680312 0.279823154
0.276280820 0.407716572 0.282858938
0.284630179 0.410752952 0.289310545
0.292599767 0.415560097 0.291840732
0.302593023 0.420746714 0.297912717
0.317520380 0.426565737 0.306768090
0.328526020 0.427704096 0.310942322
0.342820793 0.434155881 0.318152994
0.358001143 0.443390727 0.330044031
0.372802019 0.455155224 0.335737169
0.389500588 0.464263380 0.345604092
0.406578332 0.477040052 0.360278398
0.425806522 0.492473364 0.373814076
0.450854152 0.509930253 0.387476265
0.478178501 0.525110543 0.408349186
0.510815620 0.547881126 0.430866539
0.544085801 0.569892645 0.451739371
0.576344371 0.591903746 0.465401739
0.201897740 0.419355005 0.287918717
0.209108397 0.421252728 0.287160128
0.215559989 0.425047725 0.291840732
0.206704825 0.427577734 0.288045585
0.205692813 0.428842723 0.287286550
0.220872790 0.427324533 0.291840732
0.211890996 0.424920708 0.288045734
0.221758395 0.428209722 0.292979032
0.229348734 0.430739999 0.291713744
0.235041484 0.432637244 0.295509219
0.239216000 0.431751877 0.296647847
0.247311994 0.434661925 0.295888722
0.257178992 0.436559200 0.300822079
0.265528291 0.440607220 0.301834017
0.274636328 0.440607220 0.304870397
0.282732546 0.444908291 0.309803933
0.288804531 0.447944283 0.312839925
0.298545212 0.451612979 0.316508740
0.308918059 0.457684964 0.322580725
0.323592365 0.459961951 0.331436098
0.336875468 0.466034472 0.338646710
0.348007351 0.468058467 0.340670466
0.361416489 0.476154715 0.349145949
0.376596898 0.484756738 0.356989056
0.394054562 0.498419017 0.369513005
