Assets/Shaders/EldamarStudio/100 Sci-Fi LUTs Pack/LUTs/cube/Madison LUT.cube
LUT_3D_SIZE 8
DOMAIN_MIN 0.000000 0.000000 0.000000
DOMAIN_MAX 0.903226 0.903226 0.903226
0.070588000 0.070588000 0.070588000
0.096015446 0.070967548 0.071346998
0.152056009 0.075268902 0.083112098
0.223655641 0.097533353 0.116002284
0.306261986 0.135483995 0.137887195
0.399367452 0.176217467 0.170271739
0.509044945 0.223150283 0.213029996
0.668564558 0.273370981 0.268184811
0.083112001 0.108159088 0.090575546
0.108918086 0.105376542 0.087413445
0.168501094 0.124225445 0.106261544
0.237824440 0.140290901 0.124225445
0.314610720 0.164832532 0.148892999
0.405819178 0.207210734 0.188361540
0.517140985 0.245540544 0.221632004
0.666540325 0.292852342 0.270840973
0.117520094 0.190385997 0.126882091
0.140164092 0.204554096 0.139152542
0.197470099 0.209994003 0.143326998
0.262871742 0.226818547 0.159013093
0.338393301 0.246805996 0.188867986
0.436306179 0.267046183 0.211764827
0.550537646 0.305502892 0.248323783
0.698165834 0.356356651 0.303352118
0.183301985 0.293231934 0.190638632
0.200506091 0.301834553 0.200126633
0.244402185 0.309298158 0.213030085
0.305502951 0.324604630 0.219734639
0.383301824 0.340670466 0.237697825
0.469829351 0.359898627 0.263630718
0.582542539 0.390765280 0.295508921
0.721189380 0.432131261 0.339025974
0.250095010 0.414294362 0.261606187
0.257305622 0.426565558 0.269955635
0.300822169 0.430866390 0.271853387
0.359266430 0.438962728 0.281214178
0.436306179 0.455028564 0.304110974
0.527640939 0.474256933 0.325996190
0.632890463 0.502846479 0.350031376
0.755597949 0.547121942 0.404301018
0.321315467 0.577861726 0.346742719
0.340038180 0.580139041 0.350284278
0.384186834 0.583554447 0.361416817
0.438203633 0.587476492 0.366982818
0.511827707 0.600505769 0.385325670
0.591144443 0.611005485 0.405186713
0.683112264 0.629348755 0.443896472
0.794939637 0.666793227 0.501834452
0.437444836 0.709677577 0.462618560
0.459582597 0.714484572 0.469196558
0.486148179 0.720683277 0.472991854
0.533206522 0.723592579 0.486653924
0.587476373 0.725490093 0.498039275
0.660341561 0.732574522 0.518406272
0.733206511 0.744338989 0.546616256
0.818848908 0.764326096 0.588741183
0.612523556 0.846173644 0.632004738
0.626438916 0.851739347 0.638583004
0.642125368 0.852751434 0.645793676
0.674383461 0.855281770 0.649968386
0.711954653 0.860720992 0.658190966
0.764832258 0.861100554 0.677419662
0.816951215 0.873245060 0.699177623
0.877545655 0.884123743 0.729917586
0.069829002 0.074510001 0.090575546
0.092472993 0.070967548 0.088172443
0.153953552 0.087413445 0.102213636
0.225173622 0.119038187 0.130803093
0.302719831 0.152814999 0.161416993
0.399873525 0.192409545 0.201138556
0.513725519 0.228842571 0.235041291
0.656040251 0.272865206 0.275268525
0.083491549 0.107779540 0.094370544
0.116381541 0.116381548 0.123466447
0.166476667 0.133206993 0.125743449
0.231878281 0.150031552 0.145350739
0.310942382 0.180265889 0.173940375
0.401138484 0.216698542 0.204174742
0.511448264 0.247564793 0.240101248
0.653636575 0.287286818 0.280455381
0.134092003 0.190765545 0.150031641
0.153574020 0.200632095 0.159898996
0.198229089 0.206831098 0.162555546
0.260088265 0.226059631 0.182542995
0.338772863 0.247185528 0.202909380
0.428462982 0.271094173 0.230234087
0.541935444 0.305882335 0.267931819
0.685389042 0.350790471 0.315117091
0.179759532 0.293611377 0.212271094
0.199367657 0.296774298 0.211891547
0.238456637 0.302593529 0.221632078
0.297533184 0.317900270 0.228209838
0.373434484 0.336749077 0.250221640
0.460341364 0.355091721 0.268690974
0.575837910 0.387602568 0.303731978
0.703731596 0.426565468 0.347121894
0.236938626 0.415939391 0.269196719
0.259835541 0.415939391 0.275395632
0.297659993 0.424541265 0.285389096
0.354458809 0.436306208 0.292979181
0.428842723 0.451233387 0.309551001
0.518152833 0.466034383 0.332574517
0.629854560 0.497786105 0.359645993
0.748513758 0.538393021 0.405818850
0.320050746 0.564832449 0.354079485
0.336875260 0.571031272 0.362682194
0.375838071 0.574952424 0.371157378
0.432764024 0.582416177 0.375964463
0.503225923 0.592536092 0.394307554
0.585325718 0.605060220 0.417077720
0.681846976 0.622643769 0.447185278
0.788741231 0.659456313 0.504364371
0.427450985 0.699051142 0.461606830
0.444655567 0.713346004 0.464136541
0.478304863 0.712081313 0.477545768
0.524478257 0.714863956 0.485768616
0.580898166 0.721188962 0.496268064
0.652878046 0.726122558 0.521821618
0.729664981 0.740796983 0.545351028
0.813535810 0.758507371 0.588362098
0.618342876 0.839089036 0.635294080
0.629728079 0.847564578 0.633776188
0.643263817 0.851359785 0.641872525
0.672232866 0.855661213 0.649082661
0.714104891 0.855534434 0.658191204
0.760784030 0.861100316 0.676154137
0.816065609 0.867425382 0.696774065
0.869449496 0.880581915 0.731689036
0.054901998 0.068943903 0.128526002
0.088172443 0.078051552 0.136369199
0.156736091 0.088551901 0.160658091
0.228715986 0.121442094 0.174319729
0.308665186 0.159139901 0.201391280
0.403794706 0.197849736 0.236179724
0.510689259 0.234282285 0.271094292
0.665401638 0.279316932 0.319923908
0.090195999 0.109677091 0.144212186
0.122327909 0.114358090 0.151170105
0.171663091 0.133586437 0.169260100
0.235420629 0.157874644 0.182922557
0.314231187 0.191145003 0.215812728
0.405819178 0.222137734 0.242504641
0.517773271 0.251865834 0.276913345
0.658950031 0.298039436 0.318152994
0.129285097 0.193548083 0.184060991
0.155597553 0.205313101 0.197470084
0.204553992 0.210753098 0.216319010
0.262492210 0.229980737 0.222137719
0.339152187 0.251486093 0.241240069
0.432384491 0.275016010 0.264010102
0.542567551 0.310183376 0.299178094
0.688298523 0.356103837 0.346489727
0.186084643 0.298039556 0.239215732
0.205313087 0.299936980 0.244402185
0.241999075 0.308159649 0.252624750
0.305502981 0.321189284 0.265148699
0.373940736 0.334724814 0.282352626
0.464389563 0.358254015 0.303478718
0.576470673 0.391524374 0.331182659
0.707779586 0.431625515 0.375711441
0.246173203 0.414421290 0.299431086
0.256546527 0.419481516 0.305249602
0.293738097 0.427704096 0.309424281
0.352055848 0.432005048 0.319544494
0.426944971 0.443390280 0.333712965
0.513093054 0.467678547 0.354838550
0.621884525 0.497406662 0.385325551
0.742441535 0.543706238 0.434535027
0.324351370 0.564452708 0.382036835
0.339152187 0.566729784 0.381530285
0.374320090 0.573308170 0.392662823
0.429601729 0.578874350 0.404933572
0.506894350 0.592662811 0.419102073
0.580392361 0.601138711 0.436938584
0.677545607 0.621884763 0.466666549
0.780645013 0.662239134 0.519924045
0.426565468 0.700316370 0.472612560
0.446932554 0.705123544 0.492979020
0.477672368 0.708918452 0.498292118
0.524984181 0.712966561 0.502593279
0.585072577 0.722327411 0.516634941
0.650853753 0.730044425 0.539784789
0.726249158 0.738013566 0.563061535
0.814674437 0.763187826 0.606072307
0.605565727 0.840480864 0.633143902
0.620493174 0.843896329 0.645414114
0.636685729 0.846932590 0.647817612
0.669955850 0.851739466 0.658443689
0.712586820 0.856546640 0.672991753
0.758886516 0.857179046 0.684123755
0.817457139 0.867678702 0.710815668
0.874383509 0.876280785 0.741682410
0.062239353 0.073371358 0.195066288
0.095256448 0.076407447 0.197090551
0.155218095 0.097153902 0.212776646
0.224161997 0.127766982 0.225300640
0.309803843 0.165338188 0.255787641
0.404933453 0.199114382 0.286021471
0.520809293 0.234282285 0.317773640
0.673244596 0.278557837 0.360278279
0.097153999 0.117140636 0.206830993
0.122707352 0.128905639 0.205945283
0.171663195 0.140670449 0.224541545
0.239342630 0.162555560 0.243263632
0.316508323 0.191524446 0.264010191
0.405692458 0.222137734 0.287033737
0.523971975 0.257052302 0.323592275
0.667678773 0.292093664 0.367994845
0.138773084 0.198988006 0.239974618
0.153574005 0.203668296 0.249209180
0.202150181 0.220619649 0.250221729
0.267172992 0.237824440 0.271473736
0.342315078 0.256167203 0.292979211
0.437950462 0.275775015 0.313725442
0.553320706 0.314990282 0.346236467
0.691840768 0.353700012 0.389500022
0.190006629 0.298798651 0.292599648
0.198988095 0.300316542 0.295003444
0.243263736 0.310562611 0.299936980
0.304364622 0.325110286 0.309424281
0.382163167 0.342315078 0.326881826
0.468184352 0.364199996 0.349272370
0.580265582 0.392410010 0.379506648
0.709297597 0.436559290 0.420113921
0.242125094 0.417204618 0.343706548
0.259582639 0.424288630 0.346615732
0.300949067 0.428968757 0.360531300
0.359266460 0.438329935 0.362681985
0.431245923 0.447311997 0.378368258
0.519797504 0.472106427 0.401138276
0.625553608 0.499810368 0.426945001
0.744085610 0.543326735 0.469070375
0.318532646 0.566982865 0.424541384
0.339658618 0.567236125 0.426185995
0.378873914 0.574193358 0.435547292
0.431499243 0.578874350 0.445287734
0.505629599 0.590259254 0.456673175
0.585199475 0.604048073 0.476280987
0.680708230 0.624794543 0.502719641
0.784060717 0.661859572 0.553573728
0.433396637 0.700062871 0.521441996
0.453004509 0.705755830 0.518026590
0.477672428 0.708286107 0.528652608
0.525363564 0.712966323 0.536495864
0.582163095 0.720809281 0.549019516
0.653510273 0.729411662 0.565085292
0.727640510 0.742188215 0.593674541
0.815054059 0.765591264 0.632384658
0.605945349 0.841113031 0.659456134
0.617330730 0.845287621 0.662745178
0.633269906 0.846932352 0.670841217
0.665780902 0.850094616 0.677292526
0.706388056 0.855534434 0.687160075
0.759013534 0.861859620 0.704870403
0.814674199 0.869323075 0.723971784
0.883238435 0.879822612 0.751043379
0.074510001 0.079949193 0.267931998
0.102213539 0.088172346 0.266666859
0.159772083 0.108918190 0.274130285
0.228716195 0.135230541 0.292599618
0.310183376 0.170777991 0.314105004
0.403162450 0.203288928 0.340544194
0.524730980 0.235800087 0.380012274
0.673750758 0.280076027 0.433017164
0.100189894 0.135230541 0.284376979
0.124604993 0.143453091 0.276913524
0.177482650 0.150790632 0.289057404
0.239342630 0.170778006 0.302719623
0.320050627 0.195066392 0.321568549
0.411258459 0.226059735 0.347754300
0.525110543 0.255787641 0.383681387
0.674003780 0.293231815 0.429981083
0.149651989 0.205313101 0.308791906
0.161922649 0.213535652 0.309171557
0.203542277 0.221758187 0.316382080
0.271980017 0.235800177 0.332574546
0.343074173 0.262492180 0.352561474
0.438203722 0.280834764 0.374825835
0.551929295 0.314990193 0.409740567
0.700315952 0.350410908 0.448197097
0.186211452 0.303099185 0.343706369
0.206831187 0.306641638 0.349651933
0.245920181 0.315623164 0.358253807
0.307526618 0.326248914 0.372422844
0.384945810 0.338267267 0.384187013
0.469323009 0.366223723 0.410752594
0.583301485 0.390385836 0.433776200
0.716129065 0.429854274 0.473750561
0.245920166 0.416698188 0.402530372
0.257811278 0.424288541 0.410119832
0.297786176 0.430866390 0.412017465
0.358380824 0.439848006 0.427830368
0.435673386 0.456799179 0.441113204
0.519291461 0.473497927 0.454775423
0.629728019 0.498292476 0.484250367
0.751675963 0.540290833 0.525996208
0.325616539 0.564958990 0.478304714
0.341429263 0.569639385 0.484883189
0.377102941 0.573813736 0.490322381
0.436432570 0.582795501 0.500569165
0.500948727 0.586337686 0.508412182
0.586337686 0.605566263 0.525996149
0.684882998 0.625553787 0.555597901
0.790006042 0.663883805 0.592156529
0.434535384 0.702593446 0.563820243
0.447058767 0.710689485 0.565970898
0.476913452 0.710689247 0.573561192
0.519924164 0.713346004 0.575331926
0.583554566 0.721568465 0.593674660
0.655281723 0.730929852 0.611005664
0.729285538 0.744338989 0.627451301
0.822264135 0.769259751 0.662745118
0.590638995 0.845793784 0.688045740
0.599493802 0.844908178 0.686148167
0.620999396 0.847311974 0.691587567
0.657811582 0.849462450 0.697027147
0.702086985 0.852498412 0.710056782
0.757874787 0.862365723 0.720935941
0.813915431 0.870967805 0.741935372
0.883111894 0.880202472 0.771157384
0.086401008 0.099936739 0.348387003
0.111701541 0.106261544 0.352940917
0.170398355 0.122327901 0.365970969
0.244022727 0.143326998 0.371157348
0.326628447 0.175078928 0.398608446
0.411132485 0.205565721 0.413156182
0.523086309 0.239721999 0.451486439
0.676913321 0.277166456 0.503731728
0.097912803 0.139025539 0.347754270
0.136369288 0.149399266 0.356989473
0.176976472 0.157874733 0.367236167
0.250980437 0.175078824 0.381404161
0.322580248 0.199747011 0.395192802
0.411891460 0.229980737 0.417836756
0.526881754 0.258570343 0.454016238
0.668943644 0.294876814 0.499430627
0.141176090 0.215433091 0.391651094
0.157368988 0.226818442 0.389120638
0.214041993 0.227956980 0.399746805
0.270967990 0.240860358 0.408855200
0.354079485 0.263251096 0.426059246
0.445540547 0.282858998 0.448323727
0.555850744 0.313851863 0.479317069
0.697027206 0.351549536 0.524098575
0.178620994 0.306514651 0.423529476
0.201897547 0.310562640 0.434661388
0.242884189 0.316382170 0.435673714
0.307273746 0.328146368 0.441492468
0.385199398 0.343833297 0.460721016
0.471600085 0.360151470 0.474003792
0.583807766 0.387476176 0.502340198
0.714863598 0.428969145 0.543327034
0.235041186 0.424920738 0.483111918
0.255281210 0.432764113 0.482353091
0.295382828 0.431119829 0.486653835
0.356483072 0.438583374 0.495382935
0.428716123 0.451866180 0.506009161
0.521189153 0.471473664 0.525616705
0.631246269 0.495256007 0.545983315
0.749525309 0.533839166 0.586211145
0.317267478 0.564073503 0.546362758
0.335231185 0.565085053 0.548386991
0.369386733 0.573687732 0.554206192
0.427704006 0.577609241 0.562555432
0.500948727 0.584693193 0.574952483
0.585578740 0.599114478 0.577609241
0.682605803 0.621505260 0.606451690
0.786464512 0.648576498 0.642631233
0.425426841 0.700442553 0.617836773
0.447185129 0.700822353 0.623908877
0.469196916 0.708538890 0.617963493
0.511954248 0.713598967 0.630740166
0.574699700 0.722327292 0.640353978
0.654016256 0.730423689 0.652371585
0.733080566 0.741049528 0.668437779
0.825933158 0.766729653 0.704617023
0.593548238 0.839594781 0.715116978
0.599240959 0.843010724 0.718785286
0.618342698 0.841745853 0.724478126
0.647691548 0.848070860 0.729538262
0.689563692 0.852878034 0.738646209
0.749904871 0.857937932 0.748513699
0.808095872 0.866793036 0.769765794
0.884123743 0.880328834 0.803289175
0.081720427 0.114357993 0.476660281
0.115369998 0.122327998 0.474763006
0.182542801 0.134724900 0.482858568
0.259582639 0.154712349 0.493991286
0.353953362 0.179506987 0.511195362
0.446552724 0.205692738 0.526755273
0.551802814 0.244401991 0.551170290
0.678304791 0.282859266 0.587096632
0.098797999 0.154079556 0.472612262
0.129411802 0.154838547 0.478684098
0.189753085 0.166983008 0.481846809
0.264263213 0.183428004 0.497153461
0.351802915 0.202529833 0.509804189
0.448324025 0.230739728 0.530550182
0.552814543 0.257305503 0.550790727
0.672612548 0.298924834 0.582289636
0.114611000 0.223276377 0.498039275
0.149904996 0.228462636 0.502466857
0.204427466 0.235041380 0.507147253
0.284756541 0.246426448 0.525110841
0.376723468 0.264137089 0.537254632
0.474130273 0.286021382 0.551296473
0.580012679 0.316508383 0.573813677
0.696268201 0.352055609 0.602150321
0.140037939 0.312334269 0.534851313
0.171410546 0.315622985 0.536496103
0.229980722 0.321189284 0.541555882
0.308285922 0.332953990 0.546109915
0.398229003 0.346869051 0.566097438
0.498039246 0.363441080 0.577356219
0.598861575 0.394054294 0.594939828
0.714737415 0.425933272 0.620872736
0.206451729 0.430613577 0.576217413
0.218722090 0.440607011 0.583807826
0.269576252 0.440101266 0.589626729
0.334218800 0.442251742 0.592789471
0.427451104 0.451992184 0.600759029
0.529032052 0.470335037 0.615559757
0.637571394 0.495003462 0.629728019
0.751928926 0.525869608 0.662744939
0.301960528 0.574572742 0.638077021
0.318532556 0.581530690 0.644149184
0.358127892 0.581151366 0.642504811
0.416318625 0.585199296 0.647311926
0.490828454 0.588614762 0.652751088
0.576091051 0.599241018 0.660974503
0.679443240 0.621505260 0.682605803
0.787096500 0.651106715 0.706261992
0.422770560 0.700189829 0.682858586
0.433017254 0.707779825 0.688930988
0.461100549 0.708032846 0.685389102
0.507400274 0.715243280 0.693990946
0.570777833 0.716888011 0.706388533
0.643010736 0.726628721 0.716761529
0.733206511 0.747880816 0.730550587
0.822264254 0.762302220 0.750916779
0.586591005 0.842631221 0.768247604
0.592283487 0.843010783 0.766476989
0.611890852 0.840480685 0.771410644
0.642884195 0.846299767 0.776217461
0.691461265 0.852498591 0.789626718
0.741555810 0.863377333 0.794054091
0.802909553 0.868058264 0.808475733
0.879822850 0.881467640 0.827071488
0.049462192 0.126881987 0.648956597
0.107906558 0.130802989 0.649968147
0.201391101 0.141176000 0.660720587
0.291587830 0.156736195 0.660720587
0.397975802 0.178241819 0.672865450
0.503605366 0.207589984 0.687918782
0.617710531 0.249588847 0.702972829
0.731309593 0.295635819 0.718279362
0.055534657 0.161037266 0.652118564
0.107906550 0.161416709 0.652245581
0.193042263 0.169639245 0.657178998
0.293991297 0.190006256 0.669703007
0.391777188 0.207463369 0.674003839
0.498418808 0.233776107 0.687160015
0.612144232 0.263883382 0.697912633
0.732194841 0.309803516 0.714863777
0.041493136 0.229980931 0.662491918
0.107147753 0.235927001 0.665528417
0.200000107 0.237950921 0.670714915
0.296521634 0.251106918 0.680328608
0.404807359 0.266413987 0.687159777
0.515875995 0.291461080 0.703099489
0.627577245 0.320303559 0.713345766
0.746109843 0.365591168 0.729158521
0.013915230 0.318532437 0.684882522
0.086401060 0.320050448 0.688298225
0.200253040 0.323592484 0.689436853
0.304237813 0.339278787 0.699177563
0.414674014 0.351296425 0.702213585
0.524098575 0.372043252 0.713345826
0.634661734 0.397469908 0.719544411
0.751676083 0.438836306 0.734851420
0.092599817 0.440227568 0.710436404
0.139405489 0.441492736 0.716888011
0.204048321 0.438709378 0.720430076
0.309677184 0.440354198 0.722074389
0.429475009 0.455534339 0.727640629
0.542314947 0.474256933 0.739026010
0.661100566 0.499683529 0.748134077
0.773434460 0.534092128 0.760531127
0.275142640 0.592915654 0.752308786
0.296521366 0.594686806 0.753700256
0.336749017 0.594560385 0.755344868
0.392789543 0.590259314 0.757115722
0.471220613 0.586717367 0.753447115
0.578621447 0.600505888 0.764452696
0.689563453 0.620366573 0.774572909
0.798861623 0.649841726 0.794433832
0.429348707 0.732321262 0.782922208
0.452751398 0.729791105 0.786717355
0.472738564 0.729664981 0.786084890
0.517014861 0.732068241 0.792789280
0.573814034 0.732953906 0.801771045
0.644528568 0.733206570 0.800126374
0.732447565 0.744592011 0.809740543
0.835673630 0.769892514 0.824288189
0.591397703 0.844908476 0.839721620
0.603415310 0.851486564 0.837318182
0.616951466 0.851486623 0.842125416
0.650727630 0.855787396 0.839721680
0.684756219 0.855534375 0.847564578
0.744718492 0.864515781 0.850853682
0.806830943 0.870715022 0.866413653
0.877545595 0.893358827 0.878937602
