Assets/Shaders/EldamarStudio/100 Sci-Fi LUTs Pack/LUTs/cube/Madison LUT.cube
DOMAIN_MIN 0 0 0
DOMAIN_MAX 1 1 1
LUT_3D_SIZE 32
0.070588000 0.070588000 0.070588000
0.070588000 0.070588000 0.070588000
0.074889004 0.072738774 0.068437770
0.083491325 0.073244840 0.067931838
0.096015446 0.070967548 0.071346998
0.111195058 0.074003935 0.077418998
0.121315315 0.077039681 0.078431003
0.135357410 0.076786712 0.080075711
0.152056009 0.075268902 0.083112098
0.164200023 0.078304522 0.086148486
0.187981993 0.081340872 0.097912997
0.206198245 0.088425256 0.108032733
0.223655641 0.097533353 0.116002284
0.244908035 0.106641032 0.121569000
0.266160399 0.115749411 0.121569000
0.285009593 0.124857798 0.128779188
0.306261986 0.135483995 0.137887195
0.329917550 0.147627980 0.145098001
0.351170003 0.159772024 0.145098016
0.372422367 0.166350007 0.156230018
0.399367452 0.176217467 0.170271739
0.428716123 0.187349871 0.185452119
0.455913991 0.196584016 0.200126514
0.480202794 0.208728820 0.203162909
0.509044945 0.223150283 0.213029996
0.544971287 0.235547304 0.226565644
0.586970210 0.245667070 0.241239995
0.626439273 0.260847420 0.253383994
0.668564558 0.273370981 0.268184811
0.712840080 0.287286162 0.285135925
0.758380771 0.303352177 0.305123180
0.803921998 0.321568996 0.329412013
0.076660000 0.073624387 0.067552388
0.073624387 0.067552388 0.070588000
0.075774617 0.071853392 0.068437770
0.083491325 0.073244840 0.067931838
0.096394993 0.070588000 0.071346998
0.114231445 0.070967548 0.077418998
0.119291708 0.076533616 0.088551641
0.135610372 0.078431003 0.087286778
0.155091614 0.079822712 0.087666288
0.167235628 0.087412909 0.095256105
0.188108489 0.093358383 0.104111485
0.210246250 0.100569256 0.112080991
0.227450639 0.108539000 0.117900029
0.244655073 0.115496382 0.121821970
0.263124794 0.121821404 0.124604613
0.286780387 0.128525987 0.131815404
0.310815781 0.137001812 0.139405385
0.335989535 0.147627980 0.146995574
0.357241988 0.159772024 0.154206410
0.378494382 0.174699366 0.159772396
0.401644468 0.183428124 0.173308134
0.428716123 0.193422124 0.186464265
0.455913991 0.202656761 0.197343111
0.480202794 0.214800805 0.206198528
0.511322260 0.226944983 0.216065615
0.548007667 0.239974588 0.228209943
0.590512514 0.251233131 0.241746068
0.632511258 0.263883829 0.256420374
0.669323564 0.273750544 0.268564373
0.714611292 0.292599380 0.286907166
0.758760333 0.310689360 0.308159351
0.797849238 0.324604601 0.332447618
0.074129999 0.076660231 0.062365998
0.079696395 0.077040002 0.076154388
0.080961779 0.073118232 0.077039771
0.083997391 0.077925391 0.076534159
0.095382772 0.077419326 0.078810997
0.118911996 0.079190545 0.079569772
0.126628548 0.082099773 0.082099870
0.137887627 0.086527482 0.092599928
0.158886865 0.089310452 0.092852898
0.172422558 0.098418489 0.101960525
0.188993871 0.104617000 0.106767870
0.208222508 0.108665258 0.111827739
0.228209764 0.116381995 0.116634868
0.244908035 0.122707032 0.120177254
0.265022069 0.130676761 0.127008349
0.290196002 0.138899535 0.134851024
0.308412373 0.146489352 0.143959418
0.332574308 0.154964998 0.149398997
0.356862754 0.164073020 0.153953210
0.382416159 0.174699366 0.166730002
0.405565768 0.187981993 0.176596999
0.427830487 0.197343349 0.188488215
0.452118993 0.206451729 0.196584016
0.484503806 0.216572002 0.207716689
0.515623271 0.233016983 0.221252546
0.549019635 0.243769661 0.230613530
0.588235319 0.255154759 0.242758065
0.627451062 0.267299145 0.261227429
0.666793048 0.285388917 0.269449979
0.712081015 0.298038960 0.281593949
0.759266376 0.316761613 0.303478777
0.798228800 0.327640772 0.329032004
0.074383162 0.087286159 0.068944000
0.079696387 0.087792546 0.078305162
0.085768610 0.090322547 0.082353003
0.092599832 0.086021319 0.083618164
0.097153537 0.089816615 0.087033994
0.120935924 0.094623767 0.086654231
0.135610312 0.098924994 0.087412998
0.145730406 0.100695863 0.091081537
0.163188085 0.103732057 0.097912833
0.178368494 0.111827679 0.105502516
0.193548456 0.116761319 0.110056706
0.212017670 0.122074410 0.114358060
0.229095504 0.125110507 0.118532315
0.247691065 0.131056055 0.122201130
0.269955546 0.139152572 0.131309241
0.292219788 0.146995798 0.137887359
0.313219219 0.157368973 0.145730197
0.329158962 0.167109147 0.155470982
0.357116014 0.174446166 0.158001021
0.381910354 0.183301508 0.169386357
0.406072140 0.193042308 0.182668984
0.432384402 0.203162313 0.191777125
0.451866120 0.212144151 0.197722673
0.483744651 0.222390905 0.208728820
0.519165277 0.235799983 0.221885115
0.551296771 0.251106828 0.236685976
0.585705221 0.260215074 0.242757991
0.622896850 0.271600008 0.260215282
0.664516091 0.289183795 0.273244828
0.708538532 0.306894183 0.286653936
0.754838586 0.323845595 0.300569177
0.796204865 0.334472001 0.326755166
0.083112001 0.108159088 0.090575546
0.083491549 0.105882384 0.088298835
0.087412998 0.108918548 0.086021766
0.096394539 0.110689543 0.085895158
0.108918086 0.105376542 0.087413445
0.124098472 0.114484154 0.093485452
0.141050100 0.120683089 0.097406678
0.156356990 0.123845994 0.101327993
0.168501094 0.124225445 0.106261544
0.183681503 0.127261057 0.106261551
0.199620873 0.130676866 0.112839542
0.218090251 0.135357529 0.118532509
0.237824440 0.140290901 0.124225445
0.253257096 0.143579543 0.130550489
0.277292818 0.149652287 0.139658123
0.297533005 0.156483546 0.144718364
0.314610720 0.164832532 0.148892999
0.331435561 0.176217526 0.156230077
0.361796409 0.188361570 0.168374106
0.384187371 0.198102355 0.178114906
0.405819178 0.207210734 0.188361540
0.429728240 0.215306997 0.197849140
0.459962487 0.221505493 0.201138511
0.484503567 0.233396560 0.210246921
0.517140985 0.245540544 0.221632004
0.551549733 0.256925762 0.234029099
0.583428621 0.269323468 0.248829991
0.622896969 0.278431088 0.254902005
0.666540325 0.292852342 0.270840973
0.711701512 0.308032721 0.289689720
0.754838586 0.324604601 0.310056657
0.788235009 0.345856994 0.328273475
0.089184001 0.126375869 0.093611933
0.092220388 0.129411474 0.096647546
0.094750166 0.131435767 0.098671839
0.103352159 0.133712932 0.101960935
0.118026480 0.132700935 0.105629444
0.133206859 0.132700935 0.096521065
0.145856932 0.136748552 0.102593057
0.160657763 0.140290767 0.104869999
0.173814088 0.142061993 0.106641091
0.183681503 0.142441452 0.109297939
0.204680875 0.148386940 0.120935924
0.220873252 0.151929259 0.125996187
0.239342630 0.155471295 0.129538342
0.259329885 0.158759937 0.133586094
0.277545869 0.164831921 0.142694473
0.301580995 0.175711662 0.151802748
0.321821392 0.183807924 0.156862736
0.339531898 0.190891922 0.162302151
0.358760029 0.197469950 0.174446881
0.383554786 0.209613934 0.186590880
0.407336980 0.219354734 0.194433928
0.432131469 0.227450997 0.201517940
0.459962487 0.233649492 0.207210511
0.487286925 0.242757916 0.216318905
0.516381919 0.254648924 0.227703989
0.550537348 0.264009923 0.237064987
0.586464286 0.272612154 0.246173128
0.625933349 0.287539482 0.260973990
0.662744880 0.301960737 0.272358984
0.704237461 0.317141116 0.285515398
0.747248232 0.333206922 0.300948918
0.788235009 0.351929009 0.319165081
0.100315996 0.149652004 0.104237996
0.103352383 0.152688265 0.107273608
0.108539000 0.153573647 0.110309772
0.115749314 0.154965326 0.110815838
0.128905535 0.155344769 0.113092773
0.139784932 0.157494992 0.114737704
0.154965326 0.160025313 0.113219641
0.168754026 0.163061351 0.119291633
0.184693322 0.166097537 0.123339541
0.199114501 0.167868316 0.129917473
0.212270543 0.171157628 0.129032314
0.229474932 0.175205380 0.133080319
0.245793968 0.179380000 0.137887642
0.265908003 0.184060380 0.143959641
0.288677961 0.190132961 0.150790736
0.306894600 0.196204960 0.159898505
0.330929637 0.205060318 0.170525059
0.352435142 0.211132303 0.177862048
0.374446660 0.217204332 0.188108638
0.395699054 0.223782331 0.200253338
0.419987291 0.234029055 0.201012328
0.447311699 0.242125317 0.207590193
0.477672786 0.248450309 0.218216017
0.504997253 0.259961903 0.224921227
0.534598291 0.271347553 0.236306310
0.569133341 0.282099932 0.248450294
0.606198728 0.290322304 0.257305384
0.641619265 0.303478420 0.268437743
0.678431571 0.318658799 0.283491611
0.720176697 0.335610390 0.300948799
0.764326096 0.353320897 0.316255689
0.808475614 0.373181641 0.332827002
0.109170996 0.170651406 0.114737704
0.113852091 0.173687384 0.117773309
0.120682992 0.174572989 0.120809473
0.124224991 0.178368151 0.125110701
0.135989547 0.179127157 0.122833408
0.150157928 0.179632753 0.123845860
0.162682027 0.184313729 0.129791290
0.176217705 0.185705408 0.128146991
0.192916095 0.188741595 0.134978086
0.212017715 0.191777214 0.144085929
0.224414691 0.194813564 0.143200576
0.238582954 0.199494138 0.143832996
0.253763348 0.202529758 0.146109998
0.271474004 0.208095759 0.154459283
0.292978972 0.214168534 0.160531282
0.314104885 0.220240697 0.170651600
0.333839476 0.224794507 0.176723212
0.357368559 0.231372565 0.188488424
0.380645275 0.238456711 0.198608473
0.407084376 0.241239697 0.202277020
0.430233985 0.250853717 0.214547992
0.456546247 0.260974228 0.213536114
0.489057750 0.268311411 0.227071404
0.516382158 0.277419418 0.233143806
0.545983732 0.287918866 0.242125273
0.580518305 0.298671931 0.254269630
0.619987488 0.309297681 0.266919762
0.655661106 0.323718697 0.278305143
0.690069556 0.336875200 0.296015084
0.731815040 0.350537390 0.308159441
0.774699152 0.369639575 0.327640861
0.817963243 0.390891999 0.342820704
0.117520094 0.190385997 0.126882091
0.124351770 0.191903815 0.126881704
0.131056428 0.195066094 0.130676776
0.140164092 0.197343260 0.133459985
0.140164092 0.204554096 0.139152542
0.158759937 0.201138258 0.134219095
0.172422633 0.206451744 0.139278769
0.185326084 0.209235102 0.144085720
0.197470099 0.209994003 0.143326998
0.218722492 0.213029623 0.152435392
0.233523086 0.216824874 0.153574005
0.248450249 0.221884996 0.155597940
0.262871742 0.226818547 0.159013093
0.278811097 0.229601189 0.165338129
0.298039049 0.234661832 0.171916187
0.317899764 0.241493091 0.181277588
0.338393301 0.246805996 0.188867986
0.359645665 0.249841616 0.191903606
0.380898088 0.258696973 0.203668848
0.409740746 0.260974199 0.205692634
0.436306179 0.267046183 0.211764827
0.461100250 0.278431177 0.223403022
0.491713971 0.290449411 0.232637882
0.520935953 0.297153980 0.239974901
0.550537646 0.305502892 0.248323783
0.582795620 0.315369755 0.259582311
0.621758103 0.324984103 0.271726996
0.660974205 0.342694074 0.286654323
0.698165834 0.356356651 0.303352118
0.737887263 0.367742032 0.322074175
0.779253185 0.385578662 0.334471583
0.815685987 0.406831086 0.349651992
0.132700503 0.214674011 0.148134485
0.141808882 0.211638406 0.139026105
0.146489784 0.217457205 0.141176492
0.154838815 0.223655671 0.144592017
0.167488486 0.225806490 0.145224556
0.167488486 0.219734490 0.148260951
0.178494647 0.226439297 0.150917172
0.192283705 0.230487496 0.155850500
0.206578478 0.231246397 0.161543012
0.218722492 0.234282017 0.167615011
0.239974871 0.240227491 0.170904398
0.258823484 0.246172994 0.173814267
0.274636269 0.251106620 0.176850334
0.287919492 0.253889978 0.180518538
0.312207490 0.253890008 0.189626902
0.331435472 0.261353821 0.196204960
0.349778384 0.268817484 0.201012194
0.368754059 0.274130374 0.204048395
0.390006483 0.277166009 0.207084030
0.416824877 0.283238709 0.218848526
0.442378491 0.289057970 0.226565480
0.466666967 0.296394825 0.232005358
0.491713971 0.305629015 0.235673517
0.528146803 0.314737409 0.247817516
0.559646010 0.323719293 0.257431805
0.590006411 0.334218949 0.269323140
0.621758103 0.346236467 0.283870995
0.658190846 0.358380467 0.296014965
0.702719986 0.373434275 0.302972525
0.745983839 0.384946197 0.322074145
0.785072923 0.401265055 0.346868575
0.815685987 0.434155494 0.367868006
0.147880867 0.238962740 0.157748133
0.154079393 0.244655252 0.157368615
0.161036998 0.237318099 0.156862780
0.163567126 0.241872028 0.162175864
0.170524538 0.248197421 0.164705873
0.183174863 0.249715731 0.160151944
0.190765187 0.248703733 0.168248311
0.202529982 0.256673157 0.172043025
0.217204317 0.260468006 0.176849872
0.233649880 0.261353403 0.182921857
0.248703733 0.261479855 0.183174863
0.267931879 0.267551869 0.188234985
0.285009503 0.272485524 0.191018134
0.299684048 0.275521904 0.192283034
0.321315855 0.278178751 0.196078420
0.340796858 0.282985747 0.205186814
0.360531032 0.288551658 0.210246682
0.381404132 0.293231964 0.213915110
0.404933870 0.298544914 0.219228044
0.423402876 0.304363877 0.227830350
0.448450476 0.310436606 0.237950608
0.474763006 0.316508859 0.245034993
0.502972484 0.323719233 0.250221372
0.531055927 0.332826883 0.259582758
0.562934637 0.339658558 0.269449443
0.596078396 0.349525839 0.281340659
0.629474998 0.362681866 0.294497073
0.661100686 0.379632860 0.299430847
0.700189590 0.389120698 0.316887826
0.741682231 0.405565798 0.329285026
0.780392051 0.421631575 0.349398851
0.812776864 0.446932018 0.368627012
0.165085509 0.263250977 0.170904249
0.165085256 0.267299265 0.172928512
0.169133514 0.270714998 0.175078765
0.177735507 0.265401751 0.178115159
0.181910053 0.271473944 0.183428258
0.193801448 0.274509907 0.183934242
0.205945566 0.275015980 0.182416052
0.216698244 0.276660681 0.189880148
0.228842244 0.283491433 0.192536503
0.244528696 0.284756243 0.196078509
0.259835601 0.286780506 0.198355258
0.277040243 0.290828496 0.200379521
0.295256257 0.296900511 0.207589865
0.311322033 0.300822288 0.210246250
0.329032391 0.303858668 0.211511403
0.349905252 0.307273984 0.215306789
0.369639426 0.311828166 0.224415183
0.390259206 0.315496504 0.228462920
0.411764711 0.321568489 0.233143270
0.434535265 0.327640504 0.241998613
0.458443969 0.329917490 0.247311994
0.483871102 0.337760985 0.254143119
0.513092816 0.345983505 0.259455979
0.540417194 0.355091602 0.270461619
0.567994535 0.363946825 0.283617944
0.602529943 0.371410549 0.291334242
0.639595389 0.382416070 0.304111123
0.672992110 0.396078229 0.311701685
0.707274020 0.408348799 0.323972225
0.744971633 0.420999169 0.343959421
0.782416046 0.438076824 0.360531241
0.815813005 0.457052261 0.378747255
0.183301985 0.293231934 0.190638632
0.180265591 0.296268046 0.190259382
0.183807760 0.299304426 0.194433853
0.189500630 0.302213997 0.197469801
0.200506091 0.301834553 0.200126633
0.208096281 0.303352356 0.204680637
0.219734639 0.306135267 0.205439314
0.230739981 0.305502683 0.206198409
0.244402185 0.309298158 0.213030085
0.257305264 0.312713444 0.214168638
0.272359163 0.315749496 0.215939403
0.288424879 0.319671273 0.217836902
0.305502951 0.324604630 0.219734639
0.323972046 0.330423653 0.228336245
0.340923399 0.333460063 0.229221642
0.362049401 0.337634474 0.233902454
0.383301824 0.340670466 0.237697825
0.403921604 0.343074292 0.244908631
0.422137648 0.348134309 0.247438341
0.444781721 0.355344653 0.257178992
0.469829351 0.359898627 0.263630718
0.498165637 0.361922890 0.268691093
0.525616527 0.373687387 0.272232741
0.552941203 0.382795542 0.283364654
0.582542539 0.390765280 0.295508921
0.612017632 0.399873585 0.305376261
0.650980651 0.409487277 0.312966228
0.687413216 0.419228077 0.325743258
0.721189380 0.432131261 0.339025974
0.755218327 0.446046442 0.354206145
0.793422163 0.462997854 0.377229571
0.827577651 0.478684306 0.396204650
0.200759038 0.331942022 0.216951028
0.197975665 0.335230708 0.211385041
0.203035772 0.337760776 0.212903038
0.212397203 0.340290874 0.218216196
0.222011521 0.342820555 0.221379027
0.225047126 0.339784920 0.221379027
0.234914675 0.343580008 0.223402709
0.245667353 0.345983356 0.226185709
0.256293207 0.344718188 0.230234087
0.274509996 0.350790977 0.239342481
0.289816827 0.353700161 0.240227997
0.305249780 0.356989264 0.240481034
0.320682645 0.360025406 0.240481034
0.336116076 0.363314033 0.240987033
0.357368439 0.366350442 0.244022653
0.380771607 0.371537060 0.251359791
0.403542221 0.376091182 0.257938206
0.424415022 0.379001021 0.260847986
0.442631066 0.379001021 0.260848016
0.463377416 0.387096673 0.271221012
0.486527443 0.394560069 0.279823005
0.513093054 0.400126249 0.286654085
0.543200076 0.406325489 0.295635968
0.570398629 0.415433168 0.304617167
0.602530301 0.422517091 0.313472331
0.634029269 0.430233717 0.320556700
0.665655017 0.439595103 0.325363964
0.702086985 0.451739103 0.340543538
0.735357404 0.466539860 0.355470866
0.769766152 0.481467217 0.372422189
0.804554164 0.498418629 0.390385628
0.847059011 0.519671082 0.417710066
0.209867418 0.362301975 0.232131407
0.209867418 0.368374765 0.232131407
0.211385056 0.367362469 0.226565406
0.219481304 0.365591228 0.229348570
0.231752411 0.364199400 0.236812413
0.249335885 0.364072919 0.242631406
0.252372116 0.361037314 0.240101069
0.262239397 0.368121415 0.239974409
0.272991925 0.374066800 0.241366088
0.283618361 0.375078946 0.245414481
0.298924536 0.375331968 0.251612991
0.316129088 0.380012393 0.254396230
0.333712816 0.384313613 0.255661398
0.351296484 0.387602806 0.256167382
0.369513214 0.393674821 0.262239397
0.390765607 0.396711200 0.265275031
0.412650585 0.400379598 0.272612184
0.433902949 0.404047966 0.279822975
0.454775840 0.409360975 0.285135984
0.472991824 0.414926976 0.287919343
0.495635360 0.423529148 0.296647668
0.522959888 0.428968817 0.304110974
0.555344820 0.430613488 0.310815573
0.579632878 0.439721882 0.316888362
0.613662124 0.448830098 0.323592842
0.643896282 0.458697200 0.333080381
0.671980083 0.469702899 0.343326956
0.711195409 0.479064196 0.355723917
0.739658237 0.493864357 0.368248075
0.778874159 0.507273793 0.395192713
0.816571951 0.522707403 0.421884567
0.847059011 0.543959796 0.441998810
0.233396783 0.385451794 0.244907990
0.230992988 0.393927783 0.254522592
0.228842765 0.395698994 0.239468813
0.232637584 0.395445943 0.242251799
0.242884532 0.395445853 0.253636986
0.259076804 0.397469610 0.255660981
0.264642507 0.394939929 0.256546468
0.274256885 0.395192891 0.255154788
0.287919074 0.402782887 0.255154788
0.300316483 0.404427588 0.256546468
0.312839925 0.406830788 0.262492001
0.330044299 0.404807061 0.264515996
0.347122163 0.408601940 0.269449830
0.364073068 0.411891043 0.273497999
0.382289827 0.417963564 0.277419776
0.402909786 0.421631783 0.285894990
0.422643960 0.426185966 0.288930982
0.443643332 0.430739760 0.295635790
0.466666996 0.436811775 0.301707804
0.492346793 0.440480590 0.307400346
0.512460530 0.448450327 0.312333971
0.536242545 0.456546575 0.317899793
0.565338194 0.459582597 0.321188778
0.594180822 0.466413677 0.327261001
0.620746076 0.475522071 0.337887764
0.652624667 0.484630108 0.345604092
0.680455387 0.496268064 0.357242048
0.719924212 0.509171367 0.371283770
0.743959606 0.518785715 0.385831654
0.781909883 0.532194555 0.408602357
0.821252406 0.546110153 0.434914589
0.847059011 0.565844774 0.447059005
0.250095010 0.414294362 0.261606187
0.250094980 0.421884567 0.263124764
0.250094771 0.423023373 0.262239426
0.252119154 0.424288213 0.254902184
0.257305622 0.426565558 0.269955635
0.265654743 0.427324474 0.268816978
0.276786864 0.428336322 0.268816978
0.286400884 0.428589672 0.271853387
0.300822169 0.430866390 0.271853387
0.315243453 0.433143675 0.271853387
0.329032183 0.436179698 0.274636388
0.342188299 0.439721644 0.281214178
0.359266430 0.438962728 0.281214178
0.374699265 0.441745371 0.288424999
0.392915994 0.445287824 0.290196210
0.412017763 0.450474381 0.298039377
0.436306179 0.455028564 0.304110974
0.455787331 0.459835559 0.308412373
0.480076164 0.464136541 0.315369964
0.504111588 0.468943745 0.319924176
0.527640939 0.474256933 0.325996190
0.550917327 0.482353181 0.332068175
0.575837910 0.488551706 0.333586156
0.604807019 0.496015400 0.342441201
0.632890463 0.502846479 0.350031376
0.660214841 0.513346195 0.360784471
0.689057291 0.521568418 0.370904237
0.727514267 0.532700777 0.386084616
0.755597949 0.547121942 0.404301018
0.781910300 0.559519291 0.420746356
0.822137773 0.571663380 0.451107144
0.847059011 0.588614941 0.462239385
0.256799579 0.450094700 0.280961156
0.259835809 0.455534130 0.275648355
0.263504207 0.455787301 0.271726966
0.269070119 0.456546545 0.275521964
0.278178513 0.458823174 0.286147982
0.276154220 0.455787450 0.283364624
0.285768300 0.456546396 0.282858551
0.300948679 0.459582239 0.284882843
0.316002548 0.462492108 0.289437413
0.328146547 0.462492108 0.289437413
0.342567831 0.464769393 0.290702403
0.356356561 0.469196975 0.294876695
0.370904177 0.474130481 0.302466542
0.385831535 0.477419138 0.302719563
0.403289229 0.478178114 0.303099126
0.422770530 0.481720120 0.309044749
0.444908351 0.487159908 0.315116942
0.469070137 0.492599964 0.318785131
0.493358970 0.492599964 0.327893525
0.516129375 0.498165965 0.332068324
0.537381709 0.503605545 0.336369574
0.560025513 0.509677529 0.343073964
0.587223411 0.515749574 0.349398971
0.614041865 0.524351895 0.361543149
0.641366243 0.532447934 0.369765550
0.669323206 0.540670514 0.375964224
0.696647584 0.552308619 0.386084616
0.732700825 0.555597961 0.401264995
0.763820648 0.570019066 0.422390759
0.792410135 0.586464107 0.440733731
0.820366979 0.600759089 0.459076583
0.847691417 0.612903118 0.489437401
0.265908033 0.483491957 0.293105960
0.268943638 0.486527562 0.302213579
0.274130076 0.487665981 0.299051017
0.281214207 0.491208166 0.298545033
0.290322572 0.498292416 0.304364026
0.299430966 0.495256037 0.304364026
0.302466691 0.492220342 0.304111004
0.313092768 0.492979258 0.304111004
0.328273118 0.496015131 0.304617077
0.343326986 0.498924971 0.304617077
0.355471015 0.498924971 0.310436070
0.369892299 0.501201749 0.311954051
0.387096643 0.504490733 0.316128671
0.407083988 0.507780015 0.323972017
0.419227988 0.513852000 0.327008426
0.441492647 0.514611006 0.329791158
0.465275377 0.516635180 0.333333194
0.487286925 0.519924462 0.337001950
0.499430984 0.522960067 0.343073964
0.526502371 0.528526068 0.349399000
0.549525738 0.532700777 0.353320748
0.571790040 0.537002027 0.358633876
0.596331060 0.543074071 0.367615044
0.620619893 0.549146056 0.379759818
0.647438347 0.560025036 0.389626652
0.676154375 0.570271730 0.395698667
0.705756009 0.579633117 0.401265085
0.733080387 0.588741481 0.416445434
0.763820648 0.597343802 0.439594984
0.792410135 0.610752761 0.460088462
0.820619941 0.625047266 0.479822993
0.850727022 0.637192011 0.504617095
0.300063014 0.539152384 0.324731380
0.303099364 0.542188704 0.328272969
0.308285743 0.543074131 0.330929369
0.313092917 0.541808963 0.328652382
0.319544733 0.543706357 0.330549926
0.331056297 0.543073833 0.328146726
0.337634385 0.542567730 0.330676407
0.345856756 0.541429400 0.332574069
0.359898478 0.543326855 0.334471822
0.375078857 0.546363235 0.336496085
0.390132725 0.546489775 0.342315078
0.400252998 0.546489775 0.342314810
0.413915366 0.548766434 0.341555744
0.431625724 0.551549375 0.345477402
0.448829740 0.552561402 0.351043433
0.468184531 0.561037183 0.356483012
0.489057332 0.562175751 0.361416757
0.510183215 0.563314378 0.365085751
0.528779030 0.564199805 0.366856754
0.543706357 0.570018768 0.372928709
0.572928488 0.577988505 0.380897969
0.595825374 0.581783772 0.386717260
0.616697848 0.584187329 0.394181073
0.643643558 0.587603092 0.406325161
0.670209050 0.593675137 0.418469369
0.697533429 0.603415430 0.430866390
0.725490332 0.612523496 0.441492796
0.750537395 0.621631861 0.456673175
0.780518651 0.633396387 0.474509716
0.810879350 0.644402444 0.495003164
0.840101361 0.658570707 0.515876293
0.870461345 0.672612727 0.542062104
0.321315467 0.577861726 0.346742719
0.326249123 0.575205386 0.345983356
0.335230738 0.583681464 0.354458749
0.337507904 0.582416296 0.351928741
0.340038180 0.580139041 0.350284278
0.350663990 0.581657171 0.347248644
0.357748002 0.581657171 0.349272400
0.372042686 0.583301425 0.358886421
0.384186834 0.583554447 0.361416817
0.397090197 0.585452199 0.362176239
0.408475608 0.585578740 0.362428993
0.429095238 0.587476492 0.370019197
0.438203633 0.587476492 0.366982818
0.451866001 0.589500189 0.366729736
0.468437701 0.589500189 0.372801751
0.489057541 0.592915535 0.380771458
0.511827707 0.600505769 0.385325670
0.530170321 0.601897299 0.391651154
0.548892677 0.603162467 0.395446002
0.568374157 0.606831193 0.395319760
0.591144443 0.611005485 0.405186713
0.616445124 0.618089914 0.411258459
0.634281695 0.619101942 0.415812969
0.663377702 0.622137904 0.427956998
0.683112264 0.629348755 0.443896472
