Assets/Shaders/EldamarStudio/100 Sci-Fi LUTs Pack/LUTs/cube/Madison LUT.cube
LUT_3D_SIZE 5
DOMAIN_MIN 0.000000 0.000000 0.000000
DOMAIN_MAX 0.903226 0.903226 0.903226
0.070588000 0.070588000 0.070588000
0.135357410 0.076786712 0.080075711
0.266160399 0.115749411 0.121569000
0.428716123 0.187349871 0.185452119
0.668564558 0.273370981 0.268184811
0.109170996 0.170651406 0.114737704
0.176217705 0.185705408 0.128146991
0.292978972 0.214168534 0.160531282
0.456546247 0.260974228 0.213536114
0.690069556 0.336875200 0.296015084
0.209867418 0.362301975 0.232131407
0.262239397 0.368121415 0.239974409
0.369513214 0.393674821 0.262239397
0.522959888 0.428968817 0.304110974
0.739658237 0.493864357 0.368248075
0.338520139 0.607210338 0.365971118
0.385198832 0.616698384 0.376090825
0.486274540 0.623909295 0.397090226
0.631625295 0.647438288 0.438583136
0.801770747 0.696141779 0.521568537
0.612523556 0.846173644 0.632004738
0.643643618 0.854016602 0.646299779
0.688045621 0.854649186 0.654142737
0.778494656 0.866413593 0.684756815
0.877545655 0.884123743 0.729917586
0.057179291 0.071221001 0.116381988
0.139278978 0.079443708 0.138646394
0.268437684 0.140923277 0.175585106
0.431625247 0.209234580 0.234408692
0.667931736 0.278557837 0.310056806
0.123213284 0.172295704 0.165085703
0.184060708 0.185705394 0.188994408
0.294243962 0.223655984 0.212523818
0.455154985 0.266160846 0.251106977
0.685262442 0.340417683 0.330044359
0.208222702 0.355344683 0.262492120
0.261227101 0.367868513 0.271346986
0.366856396 0.384819657 0.288678110
0.521568656 0.422770381 0.327261090
0.737761021 0.491587639 0.408222198
0.343326986 0.599367380 0.393422127
0.384945959 0.605945528 0.409108132
0.485642105 0.619354844 0.424161702
0.623908818 0.637571275 0.457178831
0.789247036 0.690322518 0.536115944
0.615179896 0.841239929 0.632131457
0.632890522 0.848450363 0.643263757
0.686400890 0.852371871 0.664263070
0.775585055 0.862492204 0.688425004
0.872612476 0.880834758 0.741429508
0.067299418 0.073877417 0.224920988
0.142567992 0.097406998 0.237065107
0.264895409 0.146489829 0.268817395
0.433016807 0.209234580 0.321189374
0.666540205 0.270714819 0.393801630
0.133080274 0.187349692 0.263883680
0.183428109 0.193548411 0.274636418
0.295256108 0.227197692 0.300442696
0.454522401 0.271726698 0.341682255
0.687159717 0.332827389 0.416318655
0.207210585 0.355723977 0.343959808
0.255660981 0.366856396 0.355091393
0.365591377 0.389120370 0.373434335
0.523845673 0.422137529 0.406451523
0.737128198 0.487286210 0.472865194
0.340796828 0.598102391 0.466287255
0.387223393 0.602909744 0.477040142
0.480075955 0.614041984 0.493105382
0.621632159 0.636938691 0.523845792
0.792662621 0.691207945 0.591524124
0.601897597 0.835041225 0.670462012
0.617836893 0.847817898 0.670462012
0.674889565 0.850727201 0.688678205
0.772675633 0.861859620 0.711575210
0.876913190 0.880835056 0.756736159
0.082353003 0.104996867 0.376723260
0.155977115 0.122580871 0.383681118
0.284503818 0.162808418 0.407843113
0.444529116 0.216698125 0.444529116
0.676660299 0.279949814 0.527261078
0.127767131 0.200758830 0.403542250
0.184946567 0.211511701 0.417963415
0.307653278 0.235420555 0.438203663
0.468564123 0.275269002 0.474130243
0.697280169 0.340417683 0.541555941
0.204933703 0.368500948 0.483997405
0.251359820 0.377988815 0.482985109
0.374066800 0.395952106 0.506514549
0.530803561 0.424414814 0.529411972
0.738140464 0.481973648 0.588741183
0.335483998 0.596458256 0.578747272
0.383555144 0.606578112 0.588867664
0.480328947 0.617330849 0.597722888
0.619987249 0.639595270 0.616065979
0.793295622 0.679443419 0.671726644
0.595066249 0.839089036 0.733080089
0.615812898 0.845541060 0.738646090
0.661859632 0.851739287 0.746236384
0.762807846 0.861226797 0.764199793
0.880581915 0.881846964 0.808096051
0.049462192 0.126881987 0.648956597
0.179126829 0.139911160 0.657178700
0.340797216 0.167361990 0.667932034
0.532194912 0.216192111 0.689942896
0.731309593 0.295635819 0.718279362
0.048324089 0.212523818 0.665021837
0.175964400 0.217710406 0.665907741
0.349272370 0.241239831 0.679696143
0.543200314 0.282858968 0.701581359
0.741049588 0.350663811 0.728905499
0.020240422 0.377356231 0.701834202
0.167742029 0.376976669 0.707779765
0.369513214 0.395572394 0.719544590
0.568374395 0.430992961 0.737128198
0.767236054 0.487918794 0.752814293
0.315876305 0.626565456 0.756862640
0.358254224 0.630740106 0.763693869
0.456167132 0.628842533 0.764832318
0.619608164 0.636685371 0.774066925
0.807716787 0.680202246 0.801770747
0.591397703 0.844908476 0.839721620
0.611132264 0.850727499 0.843390346
0.669829488 0.852751434 0.844276071
0.759645760 0.865527928 0.852118611
0.877545595 0.893358827 0.878937602
