Assets/Shaders/EldamarStudio/100 Sci-Fi LUTs Pack/LUTs/cube/Maerrun LUT.cube
DOMAIN_MIN 0 0 0
DOMAIN_MAX 1 1 1
LUT_3D_SIZE 32
0.035294000 0.035294000 0.035294000
0.035294000 0.035294000 0.041366000
0.037444774 0.033143774 0.038835999
0.039216001 0.033902999 0.034029163
0.040354453 0.038836453 0.032132000
0.049462065 0.035800066 0.038203999
0.058570318 0.037824322 0.044275999
0.070967704 0.037571292 0.045414291
0.081593908 0.034535099 0.042378098
0.078557536 0.031499490 0.039342482
0.098797865 0.034282129 0.036306128
0.124098241 0.031246003 0.035294000
0.149145633 0.028589644 0.038709641
0.170651063 0.030866938 0.047311965
0.194939822 0.024794169 0.050347578
0.231245771 0.013915009 0.055787608
0.272232354 0.004807003 0.060341805
0.317267269 0.000000000 0.062744997
0.371916950 0.000000000 0.062745005
0.429348409 0.000000000 0.065528356
0.487033188 0.001897740 0.072359249
0.547754467 0.002909872 0.079443134
0.614547968 0.000000000 0.082732506
0.681340814 0.000000000 0.091840908
0.741302788 0.000000000 0.103225991
0.796204925 0.000000000 0.115369976
0.847818077 0.000506064 0.129538119
0.899430394 0.003542448 0.153826877
0.948386550 0.001265167 0.175458789
0.982795358 0.000000000 0.198481917
0.999114394 0.000000000 0.224541172
0.996078014 0.000000000 0.254902005
0.032258388 0.032258388 0.038330387
0.035294000 0.035294000 0.035294000
0.043896001 0.035294000 0.039215773
0.048323616 0.034408614 0.035800390
0.048703164 0.036559161 0.031752452
0.052498449 0.038836453 0.035167612
0.059076384 0.038330387 0.043769933
0.069322996 0.039216001 0.045414291
0.080834806 0.038330387 0.042378098
0.084630296 0.037571486 0.039342485
0.096141770 0.037445001 0.039216001
0.121062621 0.038330387 0.044402122
0.147248372 0.034282390 0.046299644
0.171157062 0.030866938 0.047059000
0.201011822 0.024794169 0.047311962
0.237318382 0.016318813 0.052751381
0.275268763 0.006325198 0.055787612
0.317899674 0.000000000 0.058570564
0.374952555 0.000000000 0.065781377
0.435168087 0.000000000 0.062998027
0.493105501 0.000000000 0.071220607
0.551802456 0.000885613 0.080455258
0.614421487 0.000000000 0.085895367
0.678305209 0.000000000 0.097912908
0.742821217 0.000000000 0.104743995
0.800632656 0.001391672 0.118152969
0.852878034 0.002530323 0.134092063
0.899430394 0.000506061 0.150790483
0.945730448 0.000885613 0.175079226
0.979759276 0.000000000 0.193169177
0.997849226 0.000000000 0.218089938
0.999114394 0.000000000 0.254902005
0.029222226 0.039974999 0.030613452
0.040860388 0.036559388 0.040480614
0.033143774 0.037444774 0.035294000
0.047817774 0.037444774 0.037065227
0.052751228 0.038203772 0.033143777
0.052245159 0.043010935 0.032637838
0.059961997 0.043517001 0.040733546
0.069322996 0.040228005 0.041619230
0.079949200 0.040734001 0.040353999
0.086021982 0.043517001 0.041492712
0.108665772 0.045667227 0.045667227
0.122833513 0.043643486 0.043643486
0.149652138 0.041240003 0.051106773
0.175205573 0.035420969 0.051360000
0.203668594 0.031245943 0.051360000
0.243390396 0.024920810 0.054016769
0.282859176 0.011259007 0.055534579
0.322453886 0.001518198 0.056799568
0.375584930 0.000000000 0.065907970
0.433902681 0.000000000 0.070335418
0.496521413 0.000000000 0.071094036
0.554712176 0.000000000 0.080455258
0.614295006 0.000000000 0.086654469
0.676027954 0.000000000 0.096774228
0.735484064 0.000000000 0.110816002
0.797849476 0.000000000 0.119670980
0.853004336 0.002277290 0.136369124
0.900189400 0.002530326 0.153194219
0.937128484 0.000000000 0.176343843
0.979127109 0.001771217 0.198861375
0.997343183 0.001265166 0.218342796
0.997849226 0.000000000 0.252751231
0.031246159 0.047059000 0.027324161
0.037571389 0.044781838 0.036179390
0.043517001 0.045541160 0.037571162
0.037697837 0.041745998 0.034029163
0.054016385 0.042125449 0.034408614
0.052751228 0.047311839 0.033143774
0.062365480 0.049588997 0.038962677
0.069322996 0.050095163 0.043643165
0.081467196 0.044022970 0.038330067
0.088551983 0.048070844 0.042884003
0.111195706 0.051233292 0.050221160
0.134219050 0.048956260 0.050221100
0.151675954 0.050474640 0.050601128
0.179506987 0.045035098 0.055914126
0.209867224 0.040986583 0.054901998
0.245414585 0.036812164 0.057305802
0.287666351 0.024667846 0.059835803
0.329664707 0.008349430 0.058064573
0.378873974 0.004048189 0.065907970
0.435800105 0.000000000 0.072233006
0.494750172 0.000000000 0.078937583
0.554459393 0.000000000 0.082985327
0.611891508 0.000126512 0.089310981
0.673750997 0.001265161 0.099557258
0.732194662 0.000000000 0.108159117
0.787476242 0.000000000 0.124478139
0.845667183 0.000000000 0.137128234
0.893485010 0.002277287 0.154585883
0.936369300 0.001265167 0.175584957
0.969513118 0.000506056 0.200632155
0.999240994 0.002656839 0.222770184
0.997343183 0.000000000 0.249715149
0.038836453 0.048197545 0.036052998
0.033902999 0.051612712 0.035673548
0.038836453 0.055281550 0.034282222
0.048323840 0.056546837 0.031752452
0.051359549 0.048956543 0.032132000
0.054395933 0.051992163 0.035167612
0.067172773 0.054648869 0.040733546
0.076913387 0.057305705 0.045161158
0.082226194 0.058823902 0.046679452
0.094370984 0.052751131 0.043643069
0.112333998 0.055407871 0.052245416
0.133839503 0.053510550 0.053636838
0.158128083 0.051992640 0.053257290
0.180392534 0.060088966 0.059076965
0.216698050 0.054142717 0.056293581
0.251486391 0.051233355 0.057305802
0.289437383 0.041745715 0.061100803
0.333460063 0.024667589 0.064516023
0.385072559 0.015559953 0.067552425
0.441872120 0.005313185 0.072612457
0.498798192 0.000379548 0.080582187
0.555597842 0.000379548 0.088678442
0.607590437 0.000253036 0.095003434
0.671094716 0.002783356 0.107147448
0.729538262 0.001644712 0.114357799
0.784439921 0.000379548 0.123212866
0.834661603 0.000000000 0.139785066
0.880202711 0.000000000 0.154965430
0.930676699 0.000000000 0.173181504
0.970651329 0.000000000 0.196331143
0.993548393 0.000000000 0.221631631
0.999620438 0.000000000 0.245920449
0.035800066 0.057305932 0.042124998
0.038836453 0.063377932 0.039089385
0.036053225 0.060341869 0.040860161
0.041872066 0.060088836 0.039089061
0.051359549 0.061100543 0.035167612
0.054395933 0.064136930 0.038203999
0.065021999 0.064642869 0.043769933
0.077672474 0.065148935 0.048197225
0.088298865 0.065655001 0.049715165
0.100442991 0.064895898 0.046679456
0.118405998 0.067552000 0.055281803
0.136622503 0.070588253 0.058317933
0.160404995 0.070967935 0.057811871
0.189500153 0.072232962 0.059076965
0.222897291 0.069196582 0.062112574
0.261606663 0.070461735 0.059329808
0.301581383 0.066413745 0.063377798
0.345351100 0.054522302 0.070840985
0.394180954 0.039847940 0.076660037
0.448576689 0.022390984 0.076913066
0.501834154 0.009487942 0.083617799
0.557495236 0.003415935 0.091714054
0.616698027 0.003289423 0.098039046
0.677419662 0.000253031 0.110183060
0.731815219 0.000506065 0.126881629
0.784439921 0.001391672 0.138393536
0.834535122 0.002909871 0.148513928
0.877166331 0.000000000 0.154965430
0.925363600 0.000000000 0.175458789
0.967362344 0.000000000 0.197975859
0.993042350 0.000000000 0.220113590
0.996584058 0.000000000 0.236812070
0.032764323 0.074003994 0.045667320
0.033270389 0.075015999 0.045161385
0.040607225 0.076787002 0.046426225
0.041619159 0.075269155 0.048197001
0.049968325 0.078305088 0.046173096
0.059455931 0.081340931 0.051360253
0.075142637 0.081846997 0.051866319
0.082352929 0.081846997 0.051359903
0.094876871 0.082606092 0.051739097
0.114105329 0.084377319 0.052245487
0.127008319 0.087286450 0.058317546
0.153320819 0.088298321 0.061353676
0.178115308 0.091966994 0.061353676
0.208981380 0.094749995 0.062112708
0.244655207 0.093990900 0.069702893
0.292473376 0.093358316 0.072738513
0.332447827 0.093232192 0.074510060
0.376470387 0.087413065 0.081973627
0.428842306 0.079822659 0.088045642
0.482985735 0.071979620 0.088551641
0.539531648 0.051865906 0.099936627
0.591397762 0.037824314 0.111954316
0.645793915 0.030360842 0.120682836
0.701707959 0.003289418 0.120809637
0.760152102 0.000253034 0.135230929
0.810879171 0.001391672 0.154585958
0.860341668 0.003415936 0.168754309
0.904870152 0.000379552 0.178874314
0.947627902 0.037950959 0.203289106
0.974952221 0.073371224 0.224541485
0.995572269 0.104490742 0.251612812
0.998608351 0.134092227 0.278304964
0.026439296 0.092219993 0.050347995
0.026439296 0.092219993 0.050347995
0.026312526 0.093864702 0.050853934
0.036685623 0.093864702 0.055154707
0.043517001 0.096141987 0.055154707
0.060720995 0.097912759 0.056167163
0.074636221 0.103352405 0.062112994
0.092852995 0.101707697 0.055534583
0.098924801 0.103225693 0.054775096
0.120556988 0.107147470 0.061353482
0.148007691 0.108538829 0.067298993
0.164073497 0.107906409 0.067678705
0.194434270 0.109044760 0.069955707
0.225300401 0.115622759 0.071473703
0.261732787 0.123972110 0.079190403
0.305249661 0.123972110 0.080202609
0.355344653 0.123972110 0.083238222
0.397722661 0.122327819 0.089816861
0.451359719 0.121315427 0.096901007
0.506008744 0.117141098 0.102340281
0.555977464 0.109803662 0.107147694
0.613662064 0.093611389 0.122327574
0.664642990 0.083364889 0.133965492
0.722327828 0.068184868 0.140037894
0.775964797 0.055914208 0.149019554
0.829475224 0.057052486 0.166982934
0.876534045 0.061859783 0.187729403
0.919797421 0.064516045 0.202150688
0.964326322 0.090828493 0.224288478
0.989120662 0.130423650 0.254648864
0.997722745 0.185831532 0.277672261
1.000000000 0.237444401 0.311827987
0.017330905 0.112713091 0.058697093
0.015812907 0.113472186 0.056419998
0.015939226 0.114863865 0.057179097
0.016192131 0.116635092 0.058191095
0.029095907 0.117773637 0.064263098
0.052624997 0.118912190 0.059709094
0.072106093 0.122707419 0.063251220
0.089057311 0.128273383 0.063883677
0.107274100 0.125996098 0.054775096
0.122454509 0.132068083 0.069955491
0.160151958 0.133839086 0.076407000
0.186464354 0.132574260 0.077925265
0.206578285 0.132574633 0.078304999
0.237445071 0.135863274 0.084630035
0.273877174 0.152055919 0.091208093
0.315116763 0.156609997 0.090828806
0.361416429 0.158127993 0.090828799
0.410625756 0.159393147 0.095129572
0.462239057 0.162555322 0.104237981
0.515875936 0.161543459 0.114104748
0.567109287 0.157368913 0.121315382
0.615180433 0.153573290 0.127641067
0.672865510 0.147754282 0.137001663
0.732953787 0.150158092 0.152181894
0.785325825 0.149399176 0.165085196
0.835547268 0.148893163 0.181403846
0.882100105 0.155977309 0.202656269
0.921315491 0.168121368 0.221125975
0.964579344 0.188235164 0.239721805
0.991397977 0.212017506 0.271853238
1.000000000 0.248070344 0.301201552
1.000000000 0.290575176 0.328525990
0.008222514 0.140037507 0.073877491
0.002150518 0.143073887 0.064769104
0.004933514 0.143832982 0.064642780
0.008095996 0.143959507 0.066287495
0.010879122 0.145098060 0.067299493
0.029095888 0.154206455 0.073371492
0.060215294 0.150285006 0.071347170
0.087792449 0.153067797 0.070461527
0.110309705 0.159392521 0.069955491
0.128526524 0.159392506 0.069955498
0.164073750 0.165464520 0.076407008
0.194560751 0.167235509 0.080455266
0.221379131 0.169386312 0.084377006
0.249589086 0.175332472 0.090702042
0.286021829 0.181404471 0.099810421
0.327261567 0.185578704 0.101581499
0.374320149 0.190006018 0.102972820
0.425806165 0.195825189 0.107273586
0.477419436 0.201897979 0.116381995
0.529032588 0.205060124 0.128273025
0.582669377 0.204048261 0.136495501
0.635926902 0.202909827 0.142567784
0.688045919 0.205439478 0.149146453
0.745730400 0.205439478 0.164326087
0.794433832 0.210119992 0.177229583
0.841619253 0.215685979 0.193548635
0.888172090 0.222770125 0.214801058
0.924604833 0.234914884 0.236053422
0.963820219 0.255028784 0.249209493
0.989373684 0.272739172 0.282985330
1.000000000 0.296647906 0.322074473
1.000000000 0.339152008 0.340669990
0.004933871 0.170271739 0.086147994
0.007589998 0.176217258 0.077039614
0.001517999 0.177102864 0.080834769
0.002024001 0.179632857 0.084123999
0.002024001 0.183680966 0.083744548
0.005060131 0.190259665 0.082226872
0.030866576 0.191777736 0.083238870
0.068437658 0.193042740 0.082226738
0.105629280 0.199367523 0.082985640
0.143200859 0.201517731 0.085135877
0.175964743 0.204427600 0.090954870
0.208349496 0.212523848 0.092978872
0.237697870 0.214041829 0.095129639
0.268311083 0.214547902 0.099683836
0.312713683 0.217963725 0.108791538
0.351549655 0.226438940 0.117899925
0.395066559 0.235041112 0.120936185
0.442631274 0.242631465 0.125869721
0.489689946 0.244149670 0.137254849
0.544085741 0.250221759 0.146363229
0.592030287 0.253383875 0.154585749
0.644655347 0.253383875 0.160657734
0.699810445 0.254395753 0.166856498
0.746362925 0.254395753 0.176470846
0.792662501 0.258949727 0.193927735
0.834788084 0.266413391 0.208728656
0.878305018 0.275015593 0.227451116
0.921948016 0.287159741 0.251107305
0.955723882 0.301960677 0.272359669
0.985831499 0.324478239 0.294117898
1.000000000 0.344845325 0.328526437
1.000000000 0.373181611 0.352814734
0.001897744 0.216824472 0.104364246
0.006957613 0.216824740 0.099303856
0.003542000 0.220619485 0.097026765
0.000000000 0.223149806 0.101075150
0.000379548 0.228462994 0.098798253
0.002024256 0.231246352 0.090828933
0.004554076 0.238330230 0.092346735
0.043390151 0.238330230 0.092346735
0.090449035 0.243643239 0.093864731
0.141050220 0.247943997 0.098165512
0.183048606 0.253004611 0.100062996
0.224541500 0.256040484 0.110183507
0.257179260 0.261733234 0.110183507
0.289310515 0.260088533 0.112587251
0.325995952 0.263124883 0.119924076
0.372802287 0.272991925 0.127008051
0.413788855 0.279063553 0.136116445
0.459456354 0.287792563 0.142062232
0.506388545 0.289184242 0.154206276
0.552182257 0.294750214 0.163567603
0.601138294 0.298924983 0.168880507
0.645667255 0.302972764 0.177862108
0.697912693 0.305249751 0.186970234
0.745350897 0.309044749 0.194180906
0.792662501 0.311575025 0.206071973
0.835167289 0.316255331 0.227071315
0.874762833 0.324604481 0.244655237
0.915749431 0.336748481 0.265907615
0.950663745 0.349525571 0.287539542
0.982289314 0.366476685 0.312333882
1.000000000 0.387602806 0.337887317
1.000000000 0.406578243 0.362934738
0.000000000 0.286274195 0.127893642
0.003795002 0.284376919 0.123718895
0.004680645 0.285642058 0.126248926
0.002276998 0.286527216 0.123845443
0.001517999 0.292220473 0.119291738
0.002277291 0.292979538 0.106388636
0.001391678 0.298292220 0.105755962
0.008096121 0.305882186 0.108285636
0.066540003 0.306641102 0.111321829
0.128020212 0.312333554 0.118152924
0.183175147 0.314990640 0.118405923
0.232131377 0.319038630 0.125363499
0.281087905 0.324351549 0.134092629
0.318532676 0.324351549 0.134092629
0.354205877 0.326502323 0.138393626
0.400126457 0.333333522 0.146742627
0.443390638 0.342061996 0.155471176
0.485895395 0.343832612 0.163947135
0.533460259 0.345856905 0.175079301
0.577609360 0.349398911 0.184440359
0.619734645 0.355850667 0.195446178
0.666287184 0.358887047 0.201517910
0.708791852 0.364579558 0.216445267
0.753320456 0.368627578 0.224541277
0.803035796 0.373561174 0.238582909
0.845413923 0.376597226 0.255154580
0.886400819 0.382163048 0.277925342
0.922201157 0.395572186 0.295508891
0.953700066 0.407716572 0.319797367
0.978494346 0.423402846 0.344591707
1.000000000 0.441619098 0.373687118
1.000000000 0.457052559 0.395951569
0.000000000 0.376091063 0.154712036
0.000253032 0.376344085 0.148387000
0.001897742 0.379000783 0.152561769
0.004680839 0.380012929 0.156104043
0.007084001 0.377735585 0.148893490
0.001012001 0.380771965 0.133713096
0.000253032 0.383807749 0.131435990
0.000253032 0.389626801 0.133586347
0.015180190 0.397217005 0.137634143
0.103225410 0.400252610 0.149778932
0.178874314 0.397722930 0.150791034
0.239848480 0.398987800 0.156103790
0.294497252 0.404047698 0.163440645
0.349399060 0.412397057 0.167236075
0.397975802 0.412397057 0.167236075
0.448956341 0.414800882 0.176597029
0.493485361 0.419608086 0.188235030
0.531436145 0.424035549 0.199114189
0.573940992 0.420999169 0.205186993
0.618975401 0.420493096 0.214294717
0.660974264 0.425932825 0.229348496
0.702720225 0.432511181 0.245541021
0.751043916 0.435674042 0.257937998
0.787729025 0.435927063 0.270335048
0.835040867 0.440481037 0.289057344
0.878304660 0.445667446 0.310562670
0.911195159 0.450727195 0.331562132
0.944592297 0.468943954 0.346742481
0.972422838 0.481594086 0.374446630
0.991144955 0.497280061 0.403542191
1.000000000 0.515243232 0.431372613
1.000000000 0.533460021 0.464769065
0.000000000 0.418595791 0.175964400
0.003036387 0.421632171 0.166856006
0.001138642 0.428336442 0.166982755
0.000632584 0.433649540 0.171284154
0.001265006 0.435420632 0.170145854
0.001012001 0.438456297 0.154965460
0.002530322 0.441492677 0.154965073
0.003289416 0.444528878 0.160657674
0.004048334 0.448830128 0.165464699
0.021252349 0.451865733 0.164958537
0.150031894 0.451992214 0.171284303
0.227451354 0.455407768 0.172043398
0.288425267 0.460847199 0.177356169
0.343327105 0.467045784 0.185452044
0.401012212 0.467045784 0.197596818
0.451992184 0.469449580 0.204806983
0.499050945 0.475521982 0.213029385
0.540923238 0.482100189 0.220366552
0.586084962 0.481720626 0.226439357
0.628589749 0.478684247 0.238077417
0.671726882 0.481973201 0.255281538
0.712587118 0.485641897 0.272865385
0.754079580 0.484250784 0.285262376
0.796584427 0.490322798 0.303478390
0.840101242 0.495129764 0.320429951
0.881341040 0.502593458 0.342061788
0.913725436 0.510942638 0.365717530
0.941555858 0.523592651 0.389247239
0.966983199 0.533839583 0.409740567
0.986590743 0.548893154 0.439974517
0.997596204 0.566223800 0.467678577
1.000000000 0.582036793 0.489057809
0.000000000 0.475521594 0.202023774
0.000632583 0.480961144 0.195319206
0.003668970 0.486148328 0.186210826
0.002403804 0.492473036 0.190765142
0.002024256 0.495888561 0.195319533
0.000000000 0.500948429 0.188235655
0.004933513 0.501580894 0.183428273
0.004680903 0.504617274 0.188108593
0.004680913 0.507653475 0.194180787
0.007716578 0.510689080 0.192789108
0.099304497 0.513219357 0.196078524
0.209614113 0.513219357 0.202150777
0.280961305 0.516255379 0.201771140
0.339911312 0.519544423 0.205818817
0.399747193 0.521695197 0.215812817
0.459835559 0.526502192 0.232763961
0.506894171 0.529538155 0.241871968
0.548766315 0.534345329 0.249462157
0.590765178 0.532574594 0.257305712
0.635926783 0.534598231 0.266540587
0.682226479 0.531562328 0.280581832
0.723719239 0.535104215 0.300822109
0.761669815 0.535104275 0.317393780
0.799620628 0.538899601 0.335610390
0.835294127 0.544971585 0.356103688
0.874762774 0.551043570 0.375838250
0.907147229 0.558633804 0.398608476
0.934471607 0.566982746 0.420999467
0.956736028 0.574066758 0.440227568
0.982795537 0.592030346 0.463251173
0.996963620 0.607969522 0.492093563
1.000000000 0.618595779 0.513345957
0.000000000 0.534724593 0.229348168
0.000000000 0.545350790 0.227830380
0.000632582 0.548386872 0.219607607
0.004933808 0.550664186 0.214294374
0.004680806 0.553952932 0.221884727
0.000506065 0.561163545 0.221126124
0.002024002 0.559139550 0.218089864
0.004680519 0.563820302 0.215433374
0.002403812 0.565338433 0.221505374
0.004680560 0.566856086 0.223023385
0.064895600 0.569892406 0.225932851
0.180771902 0.569386363 0.229475185
0.269576102 0.570524991 0.235547185
0.335104287 0.570904553 0.235673398
0.402150601 0.572675765 0.249841779
0.455281377 0.576597154 0.258570552
0.512966573 0.581151366 0.269196361
0.556103706 0.584186971 0.280202329
0.597343206 0.582922161 0.291967332
0.640860081 0.585452199 0.301075339
0.683744252 0.584692955 0.312460810
0.729285240 0.583681345 0.327640444
0.766476989 0.586590528 0.348007172
0.805692792 0.588235259 0.369006991
0.836812317 0.592030585 0.387982249
0.868817329 0.593927920 0.403668642
0.901075244 0.600632370 0.424921125
0.928399622 0.608728349 0.447185606
0.950410962 0.614800394 0.468817145
0.973687112 0.622390747 0.486021399
0.995698571 0.644022763 0.511195600
1.000000000 0.651992202 0.536116183
0.000000002 0.593042254 0.256040126
0.000000000 0.605060101 0.259076536
0.000000000 0.610120118 0.255407959
0.001265008 0.611385107 0.252624691
0.006578009 0.608348668 0.251865685
0.001012001 0.616445005 0.254143059
0.000632576 0.614168108 0.252118796
0.000632578 0.614421248 0.250347823
0.000000024 0.621758580 0.251486510
0.000000043 0.618722200 0.257558525
0.036558904 0.620872974 0.259455830
0.142188415 0.619860828 0.262491792
0.258823901 0.619734108 0.266034126
0.328147084 0.622517526 0.272865146
0.402530193 0.622517526 0.293358505
0.455028355 0.624920905 0.299557358
0.504490614 0.626691699 0.303858489
0.558507502 0.628463089 0.308159113
0.604048014 0.631498754 0.326375902
0.647438347 0.634534895 0.336875349
0.688677847 0.635673523 0.347880989
0.726881385 0.634028852 0.360404998
0.766350508 0.636685669 0.375584632
0.808349192 0.635673523 0.398355365
0.841998875 0.636685789 0.417457134
0.868184745 0.638836443 0.433396190
0.898039460 0.636812150 0.445034683
0.925363839 0.648576677 0.469323426
0.946110189 0.654775083 0.492346495
0.969133496 0.661479950 0.513851702
0.989626586 0.669576526 0.529411733
0.998735011 0.684756100 0.556736171
0.000000010 0.653764009 0.280329049
0.000000002 0.653764009 0.283365428
0.000000000 0.657179296 0.284251034
0.000000000 0.662492216 0.288552016
0.000506000 0.669070363 0.297407001
0.000506000 0.666034043 0.291335016
0.002530322 0.666540027 0.288551748
0.003668971 0.666033983 0.288804740
0.002909906 0.667552114 0.294370919
0.000000137 0.670335531 0.309171051
0.032005023 0.670208991 0.306514919
0.134724841 0.668437779 0.308032721
0.252245665 0.668816984 0.311068714
0.334219158 0.674130023 0.315370083
0.397976249 0.674130023 0.330550432
0.450727612 0.676533878 0.334219038
0.500569224 0.676533818 0.339026242
0.552434802 0.674003601 0.347628415
0.604048014 0.670967996 0.356736034
0.649589062 0.674003601 0.369386822
0.692979455 0.678937495 0.381277978
0.732195079 0.682226956 0.393422037
0.766350508 0.682226956 0.405945510
0.805818915 0.676154137 0.421125948
0.845540822 0.672865272 0.437065333
0.874256968 0.674510002 0.453889966
0.895003080 0.679317057 0.472359151
0.922327459 0.682353437 0.496647894
0.939025819 0.686148107 0.515622973
0.960025370 0.692979217 0.539658129
0.980771899 0.702720046 0.561543226
0.992662966 0.715116978 0.574952960
0.008349362 0.731182754 0.363061130
0.000000003 0.733966172 0.363314152
0.000000000 0.733966172 0.368501306
0.000000000 0.735104501 0.369766474
0.000000000 0.738520145 0.374320477
0.000000000 0.737887561 0.373055458
0.002530322 0.734851182 0.372043490
0.007210997 0.732953846 0.370904833
0.022391103 0.732574344 0.373561502
0.055787336 0.735610187 0.382669330
0.162808433 0.738520145 0.383175373
0.218469054 0.732447863 0.384187222
0.310309678 0.730170727 0.390638769
0.381024480 0.734092474 0.398355842
0.434661597 0.734092474 0.400885880
0.481593996 0.734092474 0.411258668
0.526375771 0.738267124 0.413915306
0.572295845 0.739025891 0.420493692
0.617457330 0.735989690 0.429601878
0.663504422 0.730170786 0.441492856
0.707147300 0.737001836 0.449842125
0.748640001 0.740923643 0.462239146
0.785325885 0.739405394 0.477419138
0.814168274 0.743959308 0.479316682
0.844528615 0.731056333 0.492220342
0.880581915 0.730171084 0.506894410
0.905629456 0.734725058 0.525236964
0.919291794 0.733206868 0.551802993
0.943959355 0.738899350 0.570778072
0.959519148 0.749145865 0.588994086
0.979886234 0.758507371 0.612396955
0.997722983 0.764959097 0.632131696
0.006072264 0.775964439 0.403668463
0.002656613 0.777103126 0.407463461
0.003794996 0.777988732 0.419354528
0.001264997 0.779253602 0.422896981
0.000379548 0.780645072 0.424035519
0.001897740 0.783681452 0.428589702
0.000632582 0.781151175 0.426691979
0.046426345 0.778114736 0.431625694
0.078557812 0.777356207 0.432384729
0.142694190 0.781530738 0.436179727
0.226944670 0.780771613 0.440227717
0.294749945 0.781404197 0.436559200
0.355850369 0.775711477 0.443010449
0.414547473 0.777735710 0.454142958
0.459582210 0.777735710 0.454142958
0.505882323 0.777735710 0.461353660
0.548387110 0.776217520 0.471979469
0.589626849 0.779886007 0.477419317
0.629601717 0.778114736 0.486527711
0.671094298 0.776090682 0.494623750
0.709044933 0.775711477 0.502972722
0.747501254 0.781783760 0.508032858
0.784187257 0.779886007 0.521568477
0.816824853 0.784187198 0.528652489
0.847944260 0.783807755 0.539658248
