Assets/Shaders/EldamarStudio/100 Sci-Fi LUTs Pack/LUTs/cube/Maerrun LUT.cube
LUT_3D_SIZE 5
DOMAIN_MIN 0.000000 0.000000 0.000000
DOMAIN_MAX 0.903226 0.903226 0.903226
0.035294000 0.035294000 0.035294000
0.070967704 0.037571292 0.045414291
0.194939822 0.024794169 0.050347578
0.547754467 0.002909872 0.079443134
0.948386550 0.001265167 0.175458789
0.026439296 0.092219993 0.050347995
0.092852995 0.101707697 0.055534583
0.261732787 0.123972110 0.079190403
0.613662064 0.093611389 0.122327574
0.964326322 0.090828493 0.224288478
0.000000000 0.418595791 0.175964400
0.003289416 0.444528878 0.160657674
0.401012212 0.467045784 0.197596818
0.712587118 0.485641897 0.272865385
0.966983199 0.533839583 0.409740567
0.002023998 0.800252974 0.428969115
0.088930815 0.808475554 0.467045844
0.480328649 0.810120285 0.494623244
0.742441118 0.808096230 0.546489418
0.940037787 0.816951156 0.633143783
0.628083467 0.951928794 0.735230565
0.673877597 0.959645987 0.742820978
0.737760663 0.953067780 0.756609321
0.823782384 0.958380818 0.768627644
0.924351692 0.956989169 0.804300785
0.004554003 0.029728293 0.195952103
0.139658689 0.011385297 0.222390816
0.286907077 0.001644708 0.229348093
0.581657290 0.001644708 0.372548938
0.941429317 0.002656833 0.466919571
0.000000000 0.209993377 0.277040094
0.000000000 0.136369705 0.290828496
0.367994487 0.036938712 0.317014486
0.626692295 0.001012128 0.409234941
0.954332650 0.062492203 0.480202287
0.001644708 0.459708810 0.434535086
0.003542298 0.475521803 0.460088074
0.371283919 0.475901514 0.481720477
0.700063407 0.464515775 0.513345957
0.932574093 0.561037302 0.594813466
0.000000000 0.793421686 0.593927681
0.083491370 0.797722876 0.610120237
0.498039186 0.795066357 0.646426380
0.739531994 0.798988044 0.674889266
0.926248908 0.816571832 0.719670892
0.654269576 0.952434778 0.770271957
0.702593327 0.954079688 0.791144669
0.758001208 0.948513389 0.798861384
0.837824106 0.950537562 0.812270522
0.929285049 0.953067839 0.835420668
0.009867410 0.000000000 0.758001149
0.018722696 0.000632584 0.747122109
0.521189213 0.000000000 0.763820648
0.813915491 0.000000000 0.746489644
0.949398816 0.000000000 0.732827365
0.000000000 0.260594696 0.783681095
0.004933705 0.143959805 0.786843657
0.434535116 0.026312394 0.786590397
0.802909434 0.002656836 0.772802234
0.957748234 0.040480923 0.755344689
0.000000000 0.673497796 0.821758389
0.001644708 0.651613116 0.828336418
0.394180566 0.564453185 0.822390795
0.744845271 0.482479334 0.817836404
0.939532220 0.536622584 0.789626777
0.361416578 0.832257986 0.855407953
0.467046052 0.839089572 0.858064711
0.626059234 0.835800290 0.854775667
0.777735531 0.836179793 0.855155170
0.904111326 0.823149800 0.853004396
0.643137157 0.943959832 0.843769610
0.685009420 0.949525476 0.862997830
0.773054779 0.948513389 0.870714843
0.866666555 0.946615815 0.888045669
0.934977591 0.951802790 0.905502558
0.000000000 0.006957868 0.942315161
0.000000000 0.003289420 0.945477545
0.317899942 0.002277288 0.947501302
0.662872016 0.002909872 0.940291166
0.951423109 0.000000000 0.948513687
0.000000000 0.216444969 0.953068018
0.003036126 0.214927107 0.953194439
0.266160429 0.196710944 0.947121978
0.651865840 0.163566917 0.942568004
0.944592118 0.096014999 0.949525535
0.310942352 0.652245522 0.942568004
0.360910684 0.647438228 0.947501302
0.461100698 0.600000083 0.949778438
0.681720555 0.585957766 0.947501481
0.918912113 0.562555194 0.943959415
0.654269397 0.878557980 0.944085836
0.690702140 0.877292871 0.949146450
0.748260558 0.873371363 0.949020028
0.807084143 0.853130996 0.949020028
0.926375806 0.824794114 0.945224285
0.775079131 0.955470979 0.963566959
0.796204865 0.958001137 0.956483126
0.823149800 0.959012985 0.952055752
0.884883106 0.956736147 0.955977142
0.939025998 0.954712331 0.953320682
0.003922000 0.136242792 0.998734832
0.002277292 0.137887508 0.998734832
0.107021026 0.152055621 0.999367416
0.518153131 0.182542741 0.997090161
0.768880665 0.254269570 0.993421853
0.000000000 0.296268404 0.997722745
0.000000000 0.307526797 0.997090101
0.202782974 0.320303679 0.998355269
0.540417433 0.354585528 0.997976005
0.784186959 0.399873316 0.996078014
0.409108192 0.644022524 0.994687021
0.437824190 0.636938632 0.994433820
0.522074580 0.628463209 0.998734951
0.667046189 0.637950659 0.995445967
0.824541271 0.657305241 0.997469783
0.784313798 0.890322983 0.987349629
0.802656472 0.892726123 0.985072851
0.814168274 0.883238375 0.987982273
0.815560162 0.857178807 0.988867819
0.900949001 0.852498412 0.993295312
0.864136994 0.971536756 0.978874207
0.880708814 0.964832127 0.986084878
0.898291945 0.972675800 0.984314024
0.927514017 0.975584924 0.990132987
0.955723941 0.975331962 0.990891814
