Assets/Shaders/EldamarStudio/100 Sci-Fi LUTs Pack/LUTs/cube/Maerrun LUT.cube
LUT_3D_SIZE 8
DOMAIN_MIN 0.000000 0.000000 0.000000
DOMAIN_MAX 0.903226 0.903226 0.903226
0.035294000 0.035294000 0.035294000
0.040354453 0.038836453 0.032132000
0.081593908 0.034535099 0.042378098
0.149145633 0.028589644 0.038709641
0.272232354 0.004807003 0.060341805
0.487033188 0.001897740 0.072359249
0.741302788 0.000000000 0.103225991
0.948386550 0.001265167 0.175458789
0.038836453 0.048197545 0.036052998
0.051359549 0.048956543 0.032132000
0.082226194 0.058823902 0.046679452
0.158128083 0.051992640 0.053257290
0.289437383 0.041745715 0.061100803
0.498798192 0.000379548 0.080582187
0.729538262 0.001644712 0.114357799
0.930676699 0.000000000 0.173181504
0.017330905 0.112713091 0.058697093
0.029095907 0.117773637 0.064263098
0.107274100 0.125996098 0.054775096
0.206578285 0.132574633 0.078304999
0.361416429 0.158127993 0.090828799
0.567109287 0.157368913 0.121315382
0.785325825 0.149399176 0.165085196
0.964579344 0.188235164 0.239721805
0.000000000 0.286274195 0.127893642
0.001517999 0.292220473 0.119291738
0.066540003 0.306641102 0.111321829
0.281087905 0.324351549 0.134092629
0.443390638 0.342061996 0.155471176
0.619734645 0.355850667 0.195446178
0.803035796 0.373561174 0.238582909
0.953700066 0.407716572 0.319797367
0.000000000 0.534724593 0.229348168
0.004680806 0.553952932 0.221884727
0.002403812 0.565338433 0.221505374
0.269576102 0.570524991 0.235547185
0.512966573 0.581151366 0.269196361
0.683744252 0.584692955 0.312460810
0.836812317 0.592030585 0.387982249
0.950410962 0.614800394 0.468817145
0.006072264 0.775964439 0.403668463
0.000379548 0.780645072 0.424035519
0.078557812 0.777356207 0.432384729
0.355850369 0.775711477 0.443010449
0.548387110 0.776217520 0.471979469
0.709044933 0.775711477 0.502972722
0.847944260 0.783807755 0.539658248
0.942820966 0.781024456 0.607590437
0.297912359 0.876407564 0.566856265
0.374193817 0.882732272 0.585958302
0.444401890 0.884124279 0.589753449
0.530044198 0.889310658 0.608855188
0.625553727 0.882606268 0.616192341
0.731688738 0.880076051 0.640227735
0.830993295 0.878684282 0.657052279
0.922453821 0.887539685 0.693864226
0.628083467 0.951928794 0.735230565
0.654522300 0.959266424 0.732447624
0.680961370 0.957621753 0.740290642
0.707147419 0.959139764 0.749525607
0.755597949 0.955977023 0.755470932
0.806577802 0.958380818 0.766097605
0.870841265 0.958001256 0.784819543
0.924351692 0.956989169 0.804300785
0.022390550 0.042378001 0.069702998
0.065781094 0.030613907 0.077925548
0.098671995 0.031372905 0.079063997
0.156483188 0.031878456 0.101328544
0.295762181 0.000000000 0.164705738
0.498418570 0.001518192 0.225300565
0.733080089 0.002024260 0.278431624
0.943453193 0.000000000 0.315369904
0.022011001 0.070461996 0.094370544
0.034155454 0.063883543 0.099431098
0.107653551 0.047817998 0.104870185
0.168627635 0.045034640 0.123212732
0.303225935 0.013915457 0.167109445
0.494623750 0.000000000 0.219860882
0.699177623 0.000379548 0.257178932
0.904743731 0.000000000 0.286147922
0.003921903 0.130677089 0.131436095
0.009487906 0.135736734 0.149525180
0.091587998 0.138899550 0.154965192
0.213155821 0.119671099 0.167868644
0.369512975 0.113092832 0.204680622
0.562428892 0.056546718 0.240481079
0.770271897 0.023529373 0.278684169
0.950790584 0.104996555 0.334218651
0.005566002 0.270208627 0.215559646
0.003542355 0.279696465 0.225933284
0.005945562 0.291840881 0.221125662
0.241366267 0.302719891 0.234028921
0.426439077 0.314231455 0.260974288
0.604174495 0.319165289 0.286780566
0.777735472 0.331815422 0.326502234
0.926502228 0.381277531 0.380391836
0.000000000 0.520303905 0.335863501
0.000379548 0.533839345 0.344339281
0.001138644 0.542947292 0.338520020
0.208096012 0.549272835 0.343959719
0.478937566 0.566223800 0.368627369
0.664136589 0.566856563 0.400000304
0.818216205 0.576470613 0.453004628
0.934345305 0.607716680 0.517899930
0.004048004 0.759392679 0.476786822
0.000000000 0.766350269 0.487033576
0.056799382 0.763567090 0.494497001
0.348387271 0.761922717 0.512081265
0.538899183 0.766982675 0.530676782
0.704996467 0.766350269 0.560277998
0.829095602 0.771916449 0.583807409
0.932953715 0.781404018 0.642505109
0.250980288 0.865781128 0.584819794
0.341556162 0.875268817 0.607589781
0.433143288 0.875648499 0.624161839
0.530170619 0.872232854 0.637444735
0.633143961 0.875142694 0.651486814
0.722200751 0.868816972 0.658570766
0.824541271 0.871220827 0.681973815
0.920177221 0.874004006 0.707020879
0.639089346 0.953573525 0.744591892
0.672359288 0.953067780 0.760657847
0.691967070 0.955091774 0.759392679
0.724351406 0.950284421 0.761543155
0.765464842 0.951928794 0.774826169
0.814800680 0.954079390 0.783681214
0.865148425 0.953699946 0.797343552
0.924983978 0.952561617 0.808348835
0.000000001 0.028968995 0.260468364
0.042378094 0.020113550 0.269575924
0.181404188 0.000000000 0.281594366
0.300442576 0.000759096 0.287160277
0.383428484 0.002403808 0.303478658
0.531562507 0.001138645 0.375838190
0.751043558 0.000000000 0.472106069
0.940670609 0.001897736 0.511701167
0.006325002 0.099430993 0.275395274
0.001517998 0.059962448 0.296141833
0.151422739 0.018469451 0.307527274
0.296900928 0.000000000 0.306009263
0.394813031 0.004807003 0.325743288
0.522833467 0.003162904 0.373687834
0.727767229 0.000379548 0.456546575
0.917520106 0.000000000 0.496268004
0.000000000 0.269955486 0.359013498
0.000379548 0.256673187 0.374826372
0.000000002 0.170525193 0.381910443
0.302087247 0.103352100 0.394560456
0.472865373 0.020240203 0.412523568
0.594307482 0.029854640 0.442125022
0.780012548 0.022770375 0.500442624
0.946742415 0.141682580 0.527261198
0.004301354 0.413662463 0.441745728
0.000759096 0.416824639 0.456293285
0.000000000 0.423149735 0.473244667
0.207463548 0.383048624 0.482226312
0.490702361 0.289816469 0.477672219
0.619734585 0.302340448 0.486274302
0.787349939 0.330677181 0.527767062
0.927514315 0.404680341 0.556103885
0.000000000 0.574067235 0.535736442
0.004807003 0.577608883 0.547881007
0.000759115 0.585831463 0.561037242
0.208854750 0.585578740 0.569513202
0.471220642 0.579633355 0.567741692
0.654522777 0.559898794 0.580771625
0.801771283 0.586843550 0.607337177
0.910056889 0.639089227 0.647564948
0.000000000 0.759013116 0.630107224
0.005819469 0.762934744 0.638583362
0.071347013 0.762808084 0.640227675
0.355471283 0.758000970 0.646426320
0.555850565 0.758507252 0.659835517
0.705123484 0.758001208 0.677672505
0.823149920 0.770651579 0.694623649
0.914611042 0.789753377 0.728778958
0.262998074 0.869449854 0.674762905
0.353700191 0.874383628 0.681467354
0.444275618 0.871600330 0.693485022
0.544971585 0.868057907 0.706641138
0.648956656 0.866919279 0.720556378
0.741935253 0.868437469 0.736369550
0.828210175 0.869450033 0.747628212
0.914737344 0.878304958 0.770272195
0.651739597 0.953699946 0.776597023
0.674636364 0.952182114 0.789626658
0.713978529 0.952561557 0.804553807
0.743453324 0.948260546 0.807084322
0.784313619 0.953320682 0.814421237
0.830486834 0.950284660 0.822391033
0.880329013 0.948260546 0.829727948
0.927766979 0.949778795 0.843769789
0.000000000 0.000000000 0.615559578
0.003035997 0.002783356 0.625553608
0.201011747 0.000000000 0.628210366
0.428336263 0.000000000 0.639594913
0.615306795 0.002403808 0.643516660
0.747122109 0.000759096 0.642758012
0.802782834 0.002783356 0.636179566
0.947880566 0.000000000 0.674889445
0.001517999 0.093738355 0.629095495
0.000000000 0.047817998 0.636812270
0.034155298 0.001138547 0.644275784
0.393548638 0.000000000 0.650980234
0.585452139 0.002403808 0.646173537
0.732447684 0.000759096 0.639974475
0.801138580 0.000000000 0.633902431
0.926122487 0.000000000 0.657432079
0.003542355 0.329411745 0.678304613
0.000758999 0.295256108 0.695382714
0.003542452 0.174446389 0.700442553
0.286906809 0.118405826 0.705629647
0.569639266 0.017077930 0.697785974
0.760025263 0.002024269 0.682732642
0.844528675 0.003542271 0.687665939
0.948639989 0.148134083 0.686274409
0.008349358 0.566223562 0.739278913
0.000000000 0.558759928 0.741303205
0.002783366 0.519924402 0.735356867
0.081973374 0.421252191 0.729285300
0.488930941 0.350916862 0.732194722
0.724857807 0.283111989 0.722201169
0.838456511 0.308918834 0.705123246
0.930676401 0.407843143 0.711701453
0.001138644 0.691587806 0.764326274
0.000000000 0.695129335 0.771789730
0.072106466 0.701834559 0.776091099
0.374446541 0.699810207 0.774825990
0.535483778 0.656166911 0.777609110
0.694117367 0.583174944 0.768500924
0.829980731 0.580771983 0.747627854
0.909803569 0.647311926 0.767362297
0.110689536 0.802403688 0.803542078
0.238709912 0.806324780 0.813915312
0.365971208 0.806198597 0.806324840
0.496774048 0.804933369 0.809234798
0.628336370 0.798735142 0.810373425
0.732194781 0.799494088 0.812397003
0.820493281 0.771410644 0.799494028
0.904491007 0.809107959 0.821632028
0.357495189 0.874130249 0.790512323
0.416192442 0.878051996 0.798355222
0.488677919 0.871347368 0.796078563
0.575964570 0.869575977 0.803541958
0.666793168 0.869829416 0.808728635
0.759266257 0.869070351 0.815939307
0.834408641 0.866413951 0.828209877
0.906514883 0.881467640 0.835547149
0.649462223 0.952308655 0.828463137
0.672485590 0.950031579 0.825300455
0.701834142 0.950917304 0.839215696
0.756229937 0.946489573 0.850600779
0.802656591 0.945350945 0.862239063
0.848703504 0.946995676 0.870208800
0.889310598 0.947248638 0.873750865
0.927261233 0.950917006 0.880328715
0.001518192 0.002403808 0.831499159
0.000000000 0.000000000 0.833522916
0.002403828 0.004807003 0.826059401
0.359013200 0.000000000 0.841745377
0.576849997 0.000000000 0.839342177
0.756735861 0.000000000 0.835926592
0.917141020 0.001644712 0.829854429
1.000000000 0.001518192 0.843137383
0.001138644 0.072359346 0.825933158
0.001518192 0.052371901 0.847691596
0.000000004 0.003036093 0.839468360
0.308412462 0.001138644 0.835167706
0.547501564 0.000000000 0.837191582
0.732321143 0.000379548 0.824161708
0.902213871 0.001897740 0.826186001
0.988867819 0.001265167 0.830613554
0.002403808 0.300822198 0.857558489
0.001518095 0.274889201 0.858064651
0.002403808 0.208096281 0.864895821
0.149905175 0.176976740 0.862365365
0.501581132 0.107147463 0.858317375
0.711195529 0.032637656 0.848197281
0.903858185 0.000759113 0.847564936
0.990259111 0.036812067 0.852118790
0.000379548 0.549905121 0.863250911
0.000379548 0.547501326 0.864516258
0.047058832 0.511322260 0.868057787
0.091081366 0.440480769 0.862491786
0.455281645 0.414800912 0.866666853
0.666034043 0.382162929 0.855534673
0.870714366 0.318279296 0.852878153
0.975837886 0.354206204 0.844022751
0.110816032 0.742188156 0.883617938
0.230360374 0.743074179 0.875648201
0.364705741 0.738393247 0.879696131
0.489437014 0.717900097 0.877419174
0.568500817 0.665907562 0.878810942
0.686527431 0.634155691 0.876913607
0.846426070 0.596331418 0.866413832
0.948387027 0.619102001 0.854269564
0.472991467 0.837444782 0.891840875
0.502846122 0.840860248 0.894750178
0.555471122 0.841619432 0.892599523
0.623909056 0.845035017 0.893864810
0.702087402 0.849842012 0.890828788
0.767488897 0.825427175 0.887033761
0.839215636 0.793042302 0.892093658
0.922074497 0.798102438 0.878937483
0.557621539 0.892220080 0.906388283
0.579886079 0.900063217 0.897913039
0.612523556 0.896900773 0.894623756
0.664263308 0.895129740 0.896647632
0.736875474 0.896900773 0.899430931
0.800253153 0.892726243 0.890322745
0.851233482 0.892093360 0.900948763
0.908159435 0.885009527 0.891714036
0.647311985 0.950537801 0.883111835
0.663630724 0.954332590 0.885136247
0.705249667 0.945856929 0.893105984
0.744465470 0.950031459 0.892220199
0.797722995 0.949525654 0.895635784
0.852624953 0.947248459 0.902466953
0.897153497 0.946995556 0.909803808
0.939152360 0.947880983 0.916635156
0.000000000 0.001897740 0.925110519
0.000000000 0.000000000 0.927007735
0.004048005 0.000000000 0.929791033
0.197975755 0.002024260 0.927766979
0.458444089 0.000379548 0.932953954
0.646679461 0.001897740 0.921062529
0.811005831 0.002024260 0.922833264
0.973940670 0.000000000 0.935610652
0.002783259 0.084629826 0.919671178
0.004048004 0.076786824 0.913219452
0.002403808 0.041492648 0.923592389
0.118912272 0.005692640 0.925363600
0.435673475 0.001138644 0.924478173
0.634281993 0.000000000 0.921694934
0.801771224 0.000379548 0.917141020
0.961037159 0.002403808 0.918532550
0.000000000 0.278684258 0.938393533
0.002403808 0.252498478 0.934472084
0.000000000 0.243010640 0.933459878
0.046806190 0.236053273 0.924604535
0.409108013 0.222517565 0.928652644
0.616445661 0.200252742 0.933713138
0.794433713 0.163567007 0.933333576
0.968121529 0.100316264 0.934851527
0.048829831 0.519924283 0.935736895
0.060214922 0.518279493 0.929791272
0.077925555 0.494750172 0.929664612
0.125616550 0.453763396 0.935610533
0.432637364 0.454142928 0.929791152
0.614168227 0.440733731 0.932321072
0.775838256 0.416192323 0.922327578
0.951423168 0.373054862 0.930044115
0.395319283 0.731688440 0.921441972
0.444275826 0.728652477 0.934218705
0.502340078 0.731815219 0.932195008
0.539025843 0.713345885 0.935231209
0.566350102 0.677925110 0.933459520
0.672358990 0.662239134 0.933207035
0.795066595 0.642631173 0.931562245
0.943453610 0.611384928 0.927261233
0.612776697 0.858317494 0.937002003
0.629728258 0.860341728 0.939531803
0.656546295 0.858317494 0.935230732
0.696394444 0.852371752 0.937381566
0.750664353 0.843896568 0.938899755
0.773687720 0.826818526 0.934851766
0.834029019 0.804807186 0.936875522
0.932194889 0.786590517 0.930297196
0.676660299 0.903605461 0.941556036
0.697280228 0.903478622 0.941808999
0.719038486 0.909298182 0.941429496
0.750411272 0.908918440 0.945604086
0.793927968 0.914231479 0.943832874
0.842251956 0.916508257 0.946109712
0.873371124 0.905755758 0.940417767
0.914358079 0.892726302 0.938140452
0.750284731 0.957241952 0.959519029
0.760278404 0.961290240 0.953699946
0.769133568 0.959266365 0.952182114
0.792915821 0.957242072 0.945350766
0.822644055 0.958507478 0.948386848
0.865654707 0.955471218 0.947374940
0.904996753 0.952308714 0.951549411
0.938013971 0.949398994 0.946995735
0.000000000 0.051233273 0.981657028
0.004174544 0.043643303 0.981277585
0.000000000 0.024415269 0.980265737
0.019860985 0.008475705 0.976470768
0.359013021 0.000759096 0.976091266
0.545097947 0.000379548 0.983175278
0.709424257 0.000000000 0.979380310
0.854269207 0.002656833 0.973814189
0.003794996 0.121948086 0.970524967
0.000000000 0.126881808 0.971916735
0.001897740 0.116761826 0.976976573
0.000379548 0.107653081 0.975078821
0.340038091 0.080455355 0.975332141
0.540796995 0.055914365 0.975711763
0.696015000 0.041745637 0.975078821
0.843516767 0.044402469 0.975078821
0.001644713 0.277798891 0.978367984
0.006578009 0.276533723 0.979380250
0.000000000 0.287286371 0.985452116
0.031499103 0.287539840 0.978747725
0.356230259 0.292473346 0.979380071
0.546995401 0.299051225 0.976976395
0.704491019 0.308665454 0.978621185
0.846552730 0.325490296 0.974319816
0.075142376 0.510942280 0.970525265
0.079696283 0.515496731 0.977103293
0.091461010 0.497406900 0.977609336
0.238330022 0.483997464 0.983807623
0.430360287 0.490196198 0.972928584
0.578747392 0.489943147 0.975585103
0.712460637 0.490196198 0.971030891
0.847058594 0.486021399 0.970018983
0.511701703 0.731182396 0.963061094
0.532068551 0.729538143 0.972928524
0.537507772 0.727134347 0.968500912
0.551423073 0.701328158 0.972549081
0.585705400 0.682479382 0.969260037
0.676154196 0.680961370 0.969260037
0.760151684 0.671473444 0.969007194
0.865528047 0.671093941 0.969765723
0.686021686 0.855281472 0.963187754
0.699557304 0.859962165 0.967235863
0.719544590 0.861859620 0.972042978
0.749905050 0.858823597 0.961416721
0.769765913 0.850853980 0.969512999
0.776470423 0.826945007 0.971030772
0.833522677 0.815433085 0.962175965
0.896647274 0.813788772 0.977862358
0.761669874 0.921821237 0.966350257
0.767868519 0.919291556 0.965212047
0.785958350 0.919544578 0.966856182
0.804807305 0.921189308 0.972042918
0.829222083 0.925237179 0.967615306
0.862112284 0.918026268 0.969260037
0.884882927 0.910057247 0.977735579
0.923718810 0.896900654 0.967741668
0.826439083 0.955724001 0.971283853
0.825933158 0.959013104 0.973814011
0.835294247 0.957748234 0.972675622
0.851992548 0.963314295 0.976470768
0.873244882 0.963314354 0.979759634
0.901834130 0.964452624 0.976723492
0.926248789 0.966350436 0.975585282
0.957242310 0.968753815 0.971410215
0.003922000 0.136242792 0.998734832
0.000379548 0.135230675 0.996457577
0.001265167 0.139658526 0.998734832
0.001138644 0.141176626 1.000000000
0.271853417 0.157495126 0.994180620
0.476407409 0.175458610 0.998102248
0.626438916 0.208602056 0.998734832
0.768880665 0.254269570 0.993421853
0.002656833 0.187729344 1.000000000
0.001138547 0.192030221 0.997469962
0.000000000 0.194180891 0.992915988
0.004554178 0.198987901 0.999620438
0.276786864 0.213788778 0.997722983
0.477672637 0.228589788 1.000000000
0.623529494 0.252498329 1.000000000
0.764199913 0.287412971 0.992030203
0.000000000 0.330423743 1.000000000
0.000000000 0.338140160 0.997090459
0.000000015 0.348007321 0.998102307
0.059962109 0.350284517 0.995445788
0.351549715 0.363820344 1.000000000
0.515623033 0.383428276 0.998481989
0.651739717 0.403921634 0.999620438
0.787981868 0.432764173 0.995319128
0.098292194 0.523213267 0.998481870
0.104743823 0.525490344 0.997975767
0.200758815 0.525743127 1.000000000
0.345730633 0.530044258 0.998481750
0.467931658 0.537254751 1.000000000
0.577355921 0.541429400 0.995951772
0.689057767 0.550664127 0.998734832
0.801138580 0.566097260 0.998861372
0.561163723 0.734851122 0.994939983
0.574319720 0.734851241 0.987476230
0.566856623 0.722454309 0.996584237
0.579126894 0.707020998 0.998481810
0.618469000 0.702593386 0.996963978
0.686527371 0.702467024 0.999620438
0.760278344 0.705755949 1.000000000
0.844022870 0.716002285 0.992789209
0.775205612 0.876154721 0.989627004
0.780518293 0.882226706 0.985831976
0.788235366 0.875268817 0.986590922
0.785452187 0.865780950 0.988488317
0.780392230 0.845035076 0.991524279
0.790259480 0.834914625 0.994180739
0.836685658 0.835420549 0.992789090
0.889563560 0.830233932 0.996584237
0.828968942 0.924224913 0.986211181
0.828589499 0.929791272 0.983048797
0.840607464 0.925996065 0.988108933
0.855028510 0.933839321 0.986337721
0.870335042 0.929791272 0.984186947
0.887286603 0.929538488 0.991650581
0.886780620 0.908538997 0.984566689
0.922833562 0.910057247 0.989373505
0.864136994 0.971536756 0.978874207
0.876534045 0.965465009 0.992156804
0.885262787 0.964832127 0.990891814
0.890575469 0.968753874 0.982289612
0.906388342 0.967235625 0.987349987
0.921694815 0.976596773 0.988361835
0.946489692 0.973055243 0.986970186
0.955723941 0.975331962 0.990891814
