Assets/Shaders/EldamarStudio/100 Sci-Fi LUTs Pack/LUTs/cube/Marianna LUT.cube
DOMAIN_MIN 0 0 0
DOMAIN_MAX 1 1 1
LUT_3D_SIZE 32
0.086274996 0.050980002 0.054901998
0.098419003 0.054016385 0.060973998
0.119164996 0.054901998 0.060594771
0.143453315 0.053636838 0.061353996
0.167741999 0.050980002 0.067805447
0.192029998 0.050980002 0.076913066
0.218848959 0.048450325 0.083491646
0.244528979 0.042125296 0.084630288
0.268817186 0.035294000 0.083871000
0.293105990 0.035293993 0.089942999
0.320303887 0.023656003 0.093105868
0.345604002 0.013535747 0.100189731
0.371030629 0.006704646 0.108158998
0.398608059 0.003668968 0.114484027
0.428968817 0.000632584 0.123592407
0.459329605 0.000000000 0.132700801
0.489689976 0.001518192 0.143326998
0.519417703 0.003922000 0.154838577
0.546742976 0.003921997 0.163946986
0.574067354 0.001138643 0.170272008
0.605186701 0.000000000 0.182036728
0.635547280 0.000000000 0.195193127
0.660215497 0.000126512 0.204807490
0.693611920 0.003162904 0.226059914
0.724730968 0.003922000 0.238203704
0.755091310 0.002530328 0.248703331
0.785958052 0.000000000 0.261353910
0.819354415 0.000000000 0.276533544
0.855407596 0.018595794 0.289057642
0.895382345 0.045161359 0.308285922
0.931688607 0.079064161 0.330803186
0.952941000 0.121569000 0.349020004
0.098419003 0.066160388 0.060973998
0.116634995 0.066160388 0.064010389
0.130929768 0.069196776 0.065781385
0.151296556 0.071347229 0.068690836
0.173434541 0.072232388 0.075015619
0.195066392 0.072232388 0.070841067
0.209234387 0.069702715 0.074889325
0.240607351 0.065022387 0.082100317
0.268817395 0.058064774 0.084630288
0.283997625 0.053510770 0.083871007
0.314105362 0.050600901 0.095761992
0.345604241 0.038836394 0.099177867
0.375205666 0.029854778 0.107400388
0.404427797 0.024415357 0.117014416
0.432005197 0.015812971 0.120556802
0.457558364 0.007969586 0.129664570
0.488171786 0.004554195 0.141808793
0.519417703 0.003289424 0.156736135
0.546742976 0.000885613 0.173055351
0.576850057 0.000885612 0.173814386
0.606325090 0.000000000 0.181277648
0.636559129 0.001012128 0.194180727
0.663124621 0.002909875 0.207590118
0.693611920 0.000126517 0.223023519
0.724730968 0.000885613 0.235167891
0.753700018 0.003668603 0.244275689
0.782922447 0.009614061 0.256293267
0.816318750 0.027324386 0.276533544
0.852371931 0.043264024 0.294370651
0.888804257 0.071220897 0.309045166
0.928778827 0.102846339 0.326881766
0.965084970 0.136748612 0.342947215
0.114863999 0.079190545 0.077798769
0.122327767 0.087792546 0.072232611
0.138393551 0.081340775 0.068817228
0.158633932 0.083112001 0.072612390
0.179380223 0.085641772 0.079822779
0.190006167 0.089183778 0.073750779
0.218722537 0.086654097 0.079570092
0.237444520 0.083618067 0.084250771
0.270588428 0.079569995 0.092852898
0.288298786 0.076280989 0.095382519
0.313598990 0.068817124 0.100442767
0.343959749 0.067805000 0.110563025
0.373813987 0.057305649 0.111575134
0.402150512 0.050727770 0.118406028
0.431372613 0.047312137 0.125237420
0.462744951 0.042504743 0.133080184
0.487033367 0.033396356 0.142188191
0.517899871 0.029727999 0.154838577
0.546742976 0.028209802 0.168501168
0.576850057 0.025806546 0.176470995
0.607210457 0.025806546 0.182163253
0.635547280 0.025806546 0.192283258
0.661859751 0.027704252 0.206198767
0.692220032 0.028715869 0.219354913
0.718279719 0.032258321 0.232131511
0.751423061 0.036432628 0.244022876
0.782543004 0.044275671 0.256672829
0.817583621 0.060594745 0.277925193
0.849335790 0.074889414 0.296520889
0.889310539 0.101960897 0.312966406
0.924730957 0.130929738 0.329032421
0.962175727 0.156229764 0.345477551
0.134345159 0.096394993 0.092726000
0.136116385 0.099683844 0.089942776
0.145224780 0.103099220 0.077925161
0.160405159 0.096521154 0.075648323
0.187729537 0.096900612 0.083618164
0.197849378 0.102086999 0.079317167
0.217330799 0.104364477 0.083365157
0.245794147 0.102593616 0.088298835
0.270082146 0.100316316 0.094370842
0.294370830 0.100316316 0.102972522
0.317393988 0.092852287 0.107526705
0.345730513 0.089816161 0.114611089
0.374952644 0.087539159 0.121442482
0.399114192 0.079316996 0.119418159
0.426438808 0.079316996 0.127514407
0.457937926 0.079443514 0.137887359
0.488045365 0.074636295 0.146995366
0.515496552 0.067425482 0.156103581
0.547754824 0.067425482 0.165211827
0.574320078 0.067172505 0.174320206
0.600885272 0.066034153 0.184693247
0.633270085 0.068058155 0.195825115
0.658950329 0.068311162 0.208096340
0.690448999 0.067931414 0.219101995
0.718785524 0.073244572 0.229981154
0.744845152 0.080708623 0.240986481
0.780771911 0.089310318 0.257178903
0.816444993 0.099936888 0.278431267
0.848829806 0.113346137 0.295761973
0.882479310 0.130297288 0.312207162
0.925869524 0.159266144 0.330929548
0.958127856 0.177482158 0.350284845
0.154459000 0.119164996 0.098797999
0.156356543 0.111195162 0.105629094
0.162049323 0.112080544 0.096014999
0.172549158 0.115496159 0.086274616
0.188488543 0.111701541 0.087792993
0.215812936 0.114737153 0.087792993
0.230866551 0.119924091 0.089943223
0.248829871 0.123086996 0.090954997
0.273118556 0.123846002 0.092473000
0.297406554 0.123845994 0.098545007
0.318405867 0.119544350 0.104237542
0.345350951 0.117520094 0.112333797
0.375332177 0.115622640 0.119924091
0.401644498 0.109803610 0.122454479
0.422643840 0.109677091 0.128146991
0.451486588 0.112080894 0.139025986
0.480329186 0.111322097 0.149652198
0.508665502 0.106515095 0.158760414
0.548133969 0.106515102 0.167868048
0.571663380 0.109297737 0.176596895
0.594054282 0.110436089 0.187222987
0.619228244 0.112460092 0.199999675
0.655281484 0.118279092 0.215306520
0.688171864 0.112713084 0.225173905
0.719670951 0.115369633 0.234661743
0.749399066 0.122453749 0.243769854
0.777356029 0.131056085 0.254142612
0.810752392 0.137128085 0.275394976
0.843769908 0.150410891 0.291334361
0.877925575 0.165591270 0.307653189
0.912966549 0.181277618 0.324857563
0.958507001 0.199493647 0.352182001
0.166602999 0.131309003 0.104869999
0.181783393 0.131309003 0.117014773
0.185831711 0.129790932 0.115243323
0.191144928 0.133332938 0.109676994
0.200632542 0.135989547 0.109044611
0.221884936 0.126881927 0.099936999
0.239089325 0.129917547 0.099936999
0.255407929 0.133459777 0.098798230
0.276154280 0.136748999 0.098545000
0.300442934 0.142061993 0.104617000
0.318911910 0.147881001 0.107779868
0.343706250 0.147880867 0.115370184
0.373813987 0.146742523 0.124478288
0.404680878 0.143200770 0.131562084
0.419860482 0.140164390 0.128526479
0.450474471 0.142441675 0.139025986
0.480329186 0.143959865 0.149652198
0.507653534 0.142947868 0.158760414
0.535990000 0.142947868 0.167868048
0.564326346 0.145730525 0.174193710
0.592536509 0.146868870 0.182669193
0.620367110 0.148892879 0.193295255
0.649209499 0.154711872 0.206198916
0.676533878 0.154711872 0.224414945
0.709424257 0.155977160 0.236558989
0.742314696 0.160910785 0.246805727
0.774193168 0.167488858 0.256926000
0.804680407 0.173560858 0.272359341
0.835420609 0.182289690 0.288298726
0.871600151 0.195952043 0.308791846
0.907400191 0.211132452 0.328905582
0.940291047 0.226818800 0.346109986
0.191397965 0.158633634 0.121062636
0.204048023 0.156103313 0.128146768
0.212776631 0.156103313 0.133839220
0.218722478 0.157368481 0.132700473
0.225680098 0.161416635 0.132827103
0.234028935 0.158760250 0.123718932
0.250221312 0.154711992 0.114611320
0.268690705 0.154459029 0.114611320
0.287792325 0.154965326 0.113219641
0.308538675 0.157495320 0.115749635
0.332068294 0.166097626 0.111321546
0.352308571 0.174193367 0.118405931
0.377482593 0.177988321 0.126375675
0.405945987 0.179127038 0.133838996
0.427956879 0.176091224 0.137634099
0.452751100 0.177861840 0.146616280
0.482858866 0.179380000 0.157242119
0.510183215 0.179380000 0.166350245
0.537507713 0.179380000 0.175458372
0.572422385 0.184693605 0.189373717
0.597849488 0.185831964 0.197343737
0.626945257 0.188867822 0.206451505
0.655534804 0.196078151 0.216824695
0.678052247 0.193674967 0.225427330
0.712207317 0.195951670 0.245920584
0.751422942 0.200379297 0.258823633
0.787855625 0.206451446 0.269576311
0.814167857 0.212523952 0.282732427
0.841998935 0.223782465 0.292852819
0.874130428 0.234661594 0.311575174
0.913851857 0.249082908 0.335104287
0.952435017 0.264263332 0.355217993
0.215433702 0.185705408 0.147501692
0.224288702 0.181024298 0.150284693
0.233775973 0.181783408 0.150916919
0.242378309 0.181783408 0.153952867
0.251107156 0.184440240 0.156989247
0.254142761 0.185705408 0.152941182
0.272232711 0.181530371 0.138899311
0.280834705 0.180138692 0.133080706
0.302846193 0.174825996 0.131562516
0.322833419 0.171284005 0.129791275
0.343579739 0.181657150 0.130550370
0.365844250 0.190765426 0.129664660
0.382542640 0.198734701 0.134218767
0.403795302 0.205565736 0.139025733
0.425300270 0.210879117 0.146489412
0.451992512 0.211005598 0.150790602
0.483870715 0.215559393 0.164453194
0.510942161 0.215179980 0.171916410
0.537254751 0.214168131 0.177988693
0.569639444 0.219734415 0.195952088
0.600126505 0.223655984 0.204048023
0.626438975 0.224668115 0.214168280
0.656799614 0.232384399 0.223908499
0.682606161 0.233902588 0.231499091
0.715243697 0.235420823 0.248956546
0.748893023 0.239848092 0.266034245
0.790639043 0.245920107 0.278684348
0.817203999 0.251992583 0.291966975
0.849082708 0.261733353 0.303099096
0.878305137 0.273877382 0.317647159
0.911701560 0.284250408 0.335357606
0.954205990 0.297153711 0.355850726
0.236686081 0.212271094 0.175585002
0.243516997 0.205439419 0.177862093
0.252498507 0.205818966 0.174952418
0.261353403 0.208349094 0.176723257
0.272739112 0.207590103 0.179000646
0.276154280 0.209487945 0.181278035
0.293864638 0.207210645 0.169639453
0.307400376 0.205186188 0.156609818
0.314990193 0.202909291 0.151296899
0.339278966 0.190765291 0.145224124
0.355471075 0.196584195 0.146236643
0.375711352 0.205945343 0.147501811
0.394686639 0.214674190 0.148640454
0.404554069 0.221505225 0.146869093
0.422770172 0.236685589 0.156483412
0.447438300 0.242884189 0.159139901
0.474763095 0.244402185 0.162935004
0.509297669 0.251106769 0.179380357
0.533712983 0.248577163 0.180265918
0.564326644 0.253131092 0.195952371
0.593548715 0.257305533 0.206578359
0.620366991 0.261100322 0.212650090
0.650726974 0.264136672 0.224794075
0.681087792 0.269576102 0.234534904
0.716002524 0.274130285 0.251233280
0.748893201 0.277799100 0.267552048
0.780266047 0.284377158 0.280708075
0.811132073 0.290702194 0.296141416
0.846046567 0.299430817 0.307906061
0.878937364 0.310310125 0.322074294
0.914737582 0.319924086 0.343706518
0.948134005 0.325996101 0.352814913
0.257938474 0.245667502 0.187729016
0.267046124 0.236559108 0.196837410
0.278178573 0.236179754 0.194813505
0.287666470 0.239215821 0.196457982
0.293991506 0.240986511 0.206325054
0.300063491 0.234914511 0.203289449
0.311068982 0.236812338 0.197975859
0.320430011 0.239468753 0.186464220
0.330170602 0.239342093 0.172549307
0.351422966 0.230234474 0.160404533
0.361163855 0.220999599 0.148513511
0.378747731 0.222896978 0.143200263
0.398861468 0.230234146 0.143706337
0.416698068 0.239722013 0.149905503
0.434914798 0.254902363 0.162049487
0.457937926 0.267678946 0.166856185
0.479316920 0.273244977 0.168247506
0.500190020 0.275395572 0.173307598
0.527514458 0.284503967 0.194560021
0.560278416 0.287539631 0.201012239
0.591651022 0.290702254 0.207717001
0.619861007 0.294750452 0.215686485
0.644654989 0.300569475 0.227830470
0.675015867 0.303605080 0.239974499
0.709930599 0.309044540 0.254269272
0.742188692 0.313598692 0.266919643
0.771157622 0.317773581 0.277672470
0.807590365 0.326881945 0.295888454
0.841113269 0.335863143 0.306008816
0.872865379 0.346742421 0.317014426
0.909424543 0.356230378 0.335610062
0.960278034 0.359392524 0.367994517
0.279190868 0.270334989 0.211511731
0.291208357 0.269955456 0.208981395
0.298165739 0.267298877 0.222390771
0.308791965 0.268310994 0.222897023
0.317393988 0.270081967 0.227198198
0.318405986 0.274130613 0.239341930
0.332068294 0.268057972 0.231246322
0.342947572 0.271600425 0.224794611
0.351802737 0.275901496 0.214168534
0.366603345 0.275395364 0.202023745
0.373307854 0.260468006 0.178241745
0.392536521 0.247311622 0.164073497
0.413535863 0.246046633 0.158633739
0.431245863 0.251866013 0.160910964
0.444148958 0.264389545 0.165085122
0.462365746 0.279569924 0.170018941
0.482605845 0.296774209 0.176091060
0.502087295 0.307147443 0.180898160
0.527135015 0.311701834 0.188487977
0.554459393 0.320809513 0.198608369
0.583807766 0.325995862 0.208602116
0.612144291 0.329032004 0.217710257
0.638330042 0.331309021 0.227703989
0.663124800 0.337128699 0.234282017
0.695762277 0.342441589 0.248703301
0.730170786 0.349904925 0.262491971
0.762049258 0.355470866 0.275648266
0.798482001 0.357368439 0.298671842
0.832257926 0.369133651 0.308917999
0.867425501 0.378494352 0.325110286
0.899177730 0.386843592 0.340670228
0.934598148 0.389879733 0.359898865
0.302466989 0.308791757 0.235799968
0.308539242 0.304743767 0.232764110
0.318405986 0.302719504 0.242631286
0.329538286 0.303984672 0.248956501
0.342061937 0.304743767 0.247438699
0.343706250 0.307527125 0.262618303
0.354332834 0.311575115 0.273750544
0.364579499 0.305502772 0.261353523
0.372549236 0.309298128 0.248829886
0.382163227 0.312333763 0.230360270
0.396584243 0.310056895 0.216698483
0.400632501 0.292852223 0.196457997
0.421505630 0.277672142 0.181277603
0.439089298 0.275142491 0.176343992
0.456546515 0.280202508 0.174066827
0.475521863 0.296774060 0.183174804
0.490702242 0.308918446 0.184692994
0.507273853 0.327514231 0.191018313
0.527387977 0.337507993 0.194054306
0.552435100 0.348133892 0.200632364
0.575964510 0.353446960 0.205945730
0.603035867 0.359392494 0.217710257
0.630486727 0.361795992 0.227830499
0.658570588 0.369766057 0.235800266
0.691714287 0.377862483 0.250727266
0.720935941 0.383934498 0.261732996
0.753446937 0.391903758 0.273624122
0.791397870 0.394939750 0.294876873
0.827198029 0.399493635 0.313978672
0.858823180 0.408096403 0.324857473
0.894749939 0.416951120 0.347121835
0.925490022 0.422264248 0.364959002
0.326755285 0.356609911 0.265780926
0.332068384 0.351676285 0.263883650
0.339405507 0.350031793 0.270335406
0.350031316 0.347248435 0.283491641
0.366730005 0.350664288 0.279696643
0.370524704 0.352182269 0.294117332
0.381151289 0.354965270 0.302466601
0.388868004 0.355597913 0.304617226
0.396458209 0.351802826 0.291713923
0.403289288 0.354838431 0.267046064
0.415306628 0.356736124 0.252625138
0.427956909 0.349019408 0.238583401
0.433270276 0.331941545 0.218089640
0.448197633 0.316508830 0.202403247
0.466793388 0.311195612 0.191903636
0.489184111 0.316508591 0.194560274
0.507021010 0.331309170 0.201770633
0.519165158 0.341682553 0.201138213
0.533839583 0.359392643 0.203162625
0.555091679 0.373181313 0.207843006
0.575205386 0.385325372 0.213156089
0.599493921 0.390385777 0.218216479
0.626944780 0.396710753 0.230107501
0.656293452 0.405819178 0.239215910
0.688930929 0.413788915 0.254016638
0.723213196 0.420367271 0.268943638
0.749525249 0.426945210 0.276027650
0.788361669 0.433649629 0.292979240
0.826312602 0.438203424 0.314990819
0.861480176 0.441872060 0.334345579
0.894496858 0.450601220 0.349146217
0.931182623 0.460214913 0.375964642
0.350284964 0.406705022 0.304238021
0.358633608 0.404933661 0.304238021
0.368753791 0.405692846 0.309298038
0.378874004 0.406957924 0.316635013
0.390006065 0.404048115 0.329032063
0.396078050 0.410120100 0.341176063
0.407463670 0.411638081 0.341682374
0.415433347 0.409993738 0.338267028
0.419987172 0.408475995 0.331436068
0.432131916 0.411511600 0.325364053
0.435294122 0.411385059 0.304744184
0.446173280 0.405565828 0.286780775
0.459835649 0.395445704 0.269196808
0.469450027 0.379507005 0.244908035
0.481594026 0.361290246 0.223655671
0.502086997 0.351423055 0.215306804
0.521568179 0.353194028 0.214041844
0.537128150 0.365717590 0.216571569
0.549272895 0.380898029 0.213535964
0.566477001 0.395825386 0.216318682
0.583301783 0.412397057 0.220999062
0.602783263 0.428336173 0.227324158
0.632637978 0.437697530 0.236179516
0.659582853 0.447058916 0.245034873
0.688678026 0.454396039 0.258444279
0.720682919 0.459582716 0.272738993
0.754079938 0.463377982 0.285136044
0.790511966 0.472485602 0.297280014
0.829348385 0.478684068 0.319291621
0.867046297 0.482985228 0.341556132
0.904617548 0.489563614 0.363567591
0.944085956 0.504744053 0.384819984
0.365464568 0.440101385 0.331562400
0.365464568 0.452245384 0.331562400
0.382415742 0.450474560 0.342315167
0.396078110 0.452498794 0.348007619
0.405059963 0.455155194 0.350410938
0.408222824 0.449589223 0.365464807
0.421885133 0.455661207 0.375079125
0.434788406 0.455534518 0.381657064
0.442757726 0.454016477 0.381530464
0.447311521 0.457052737 0.367868781
0.447817564 0.454269350 0.347248912
0.456546515 0.449841797 0.323972285
0.471600384 0.445414215 0.306135386
0.487665981 0.440227717 0.290449142
0.502846420 0.415938973 0.266160429
0.512587190 0.395318985 0.244908005
0.526375830 0.386337578 0.232004970
0.541682363 0.389626771 0.226818398
0.564452469 0.402150393 0.231751949
0.576597273 0.414547414 0.237064987
0.595699191 0.427324444 0.240607142
0.615686536 0.442757845 0.243263826
0.638710022 0.458949894 0.245287895
0.656926036 0.474130303 0.248323500
0.681594133 0.485768408 0.259456158
0.712713420 0.495256037 0.275015980
0.747501314 0.502593398 0.291461051
0.778367996 0.508918405 0.306388378
0.814800620 0.512713671 0.321189225
0.851865947 0.516381979 0.340037942
0.890069783 0.522959948 0.362428755
0.931941986 0.538140416 0.390891969
0.385451794 0.487918764 0.363693774
0.385451794 0.492852598 0.366097599
0.391903579 0.498545378 0.376850367
0.408348769 0.497280598 0.386970431
0.418216079 0.501075566 0.387349576
0.423276722 0.503099561 0.396457732
0.431625515 0.504743755 0.408981919
0.446805894 0.505882442 0.423023582
0.458950102 0.502846241 0.430613369
0.465275139 0.502593279 0.420367062
0.465401620 0.502213717 0.401770890
0.467425346 0.499177843 0.376470506
0.479569852 0.494623750 0.351802558
0.496521056 0.492599547 0.333839536
0.513852179 0.479063570 0.311701596
0.529031992 0.454775423 0.289816618
0.538140416 0.430487007 0.268564194
0.551296532 0.419734597 0.253131032
0.573813796 0.421252608 0.246805802
0.584566712 0.430992782 0.245667011
0.600505948 0.448829532 0.253636718
0.620240510 0.462492228 0.254648983
0.640227973 0.477799058 0.252371997
0.662998021 0.492978901 0.262238920
0.681214571 0.505882561 0.265275091
0.708032966 0.520809531 0.275648654
0.741429150 0.532953858 0.290322721
0.771789849 0.540923595 0.305502623
0.807463586 0.544338822 0.325489998
0.845667124 0.552688420 0.344212353
0.882732391 0.557621717 0.363946587
0.922201216 0.566729784 0.389753193
0.400632173 0.539531529 0.403162539
0.408222377 0.539531946 0.398608387
0.405565768 0.542567968 0.408728957
0.419734150 0.544339180 0.421379030
0.431498736 0.545477748 0.425679713
0.436432868 0.552688360 0.432890385
0.445035070 0.553194046 0.442504823
0.458949864 0.555977046 0.459456354
0.473371178 0.552941263 0.474636376
0.483238488 0.549904883 0.471600354
0.482100189 0.549778342 0.456925988
0.487159938 0.549272478 0.435673475
0.492472827 0.545098186 0.409487486
0.506894231 0.541429400 0.384693295
0.523845792 0.533586144 0.359645784
0.541176379 0.518532574 0.338393390
0.551802218 0.495762378 0.312587172
0.560910583 0.468437999 0.291334808
0.578620970 0.456167340 0.274383396
0.594813347 0.453383833 0.262744844
0.611132145 0.464009911 0.264262944
0.629348457 0.482226193 0.270335197
0.647438645 0.494623810 0.265654713
0.667551994 0.511195481 0.273624390
0.688804388 0.524098575 0.283491492
0.712587118 0.534851670 0.289310485
0.740923226 0.553194284 0.297406852
0.767235637 0.566350639 0.308538705
0.801391602 0.576217771 0.322959989
0.838077307 0.580012381 0.347248346
0.878431141 0.592156947 0.366729766
0.916128814 0.597090185 0.386717200
0.411005557 0.589247108 0.444275975
0.425553381 0.587476432 0.437823892
0.426691771 0.587476313 0.442251623
0.425806165 0.591144681 0.452498525
0.446299523 0.590765119 0.460847139
0.450347900 0.598861456 0.469449461
0.459076881 0.599114358 0.477925450
0.471853554 0.598102272 0.492346674
0.489184141 0.600885630 0.512334108
0.501328111 0.597849250 0.518406093
0.500822425 0.597090125 0.509551108
0.505882323 0.597090125 0.492599815
0.513725221 0.595445693 0.470208794
0.522580564 0.589879692 0.446426094
0.536622405 0.584566653 0.417583406
0.552308559 0.574320078 0.391270876
0.566350162 0.560151875 0.367362112
0.572422147 0.537634492 0.335104555
0.581530571 0.510310054 0.313852102
0.599873364 0.493105382 0.292219996
0.622390747 0.489183873 0.284756303
0.643263698 0.497406572 0.286780566
0.661606908 0.509803593 0.286654055
0.677798629 0.528020382 0.288678318
0.696900427 0.541049957 0.296647996
0.721062303 0.553067625 0.308032870
0.750917017 0.563188016 0.317646563
0.769512534 0.584187388 0.321062416
0.799114466 0.600759208 0.329411805
0.833017349 0.612017870 0.346616149
0.868058562 0.616445124 0.370398581
0.910562634 0.628589153 0.385578990
0.426186025 0.631752014 0.468564093
0.438329995 0.634788394 0.483744472
0.446426034 0.633017242 0.492346734
0.448702991 0.635547161 0.500442982
0.452371597 0.642378449 0.506388426
0.467551947 0.639342010 0.509424031
0.479190677 0.642378330 0.515496671
0.491082013 0.641619265 0.526755273
0.504491091 0.640607119 0.543200314
0.519545019 0.643390536 0.560911000
0.525869966 0.640354097 0.561164021
0.533206761 0.639594972 0.550031781
0.540037692 0.638456643 0.530929744
0.543833017 0.635420978 0.507147014
0.549905062 0.635420978 0.488931060
0.559139848 0.627704203 0.455281347
0.572043240 0.618342757 0.427703798
0.584566951 0.604427457 0.401897520
0.590638995 0.577103019 0.362429023
0.602530003 0.546995342 0.330044627
0.624920726 0.527640820 0.313093245
0.649715126 0.520556867 0.308033019
0.670714557 0.524984002 0.307906508
0.691966951 0.543200791 0.304870099
0.710436523 0.554585695 0.306894362
0.731688857 0.566729665 0.314864010
0.756989062 0.581404090 0.326755017
0.784313440 0.596584499 0.338898987
0.808222532 0.614926994 0.347627848
0.836812377 0.632890403 0.360278189
0.866793573 0.646299958 0.376470596
0.895383000 0.652877986 0.391651005
0.463630378 0.690954745 0.542947471
0.464642376 0.691207767 0.544212461
0.474636137 0.692093372 0.550790846
0.481340736 0.692219913 0.556103945
0.485894769 0.696774185 0.560278296
0.498671293 0.693737745 0.563314497
0.513851702 0.693231702 0.573940456
0.526249468 0.696015120 0.582163453
0.538393736 0.696774185 0.594307482
0.551549911 0.699810565 0.608475745
0.566350758 0.699810624 0.620366752
0.566350520 0.694749951 0.608222783
0.569006741 0.694370329 0.592283487
0.570651352 0.694370747 0.573434472
0.576723397 0.689310730 0.555218458
0.587602973 0.684503734 0.532194853
0.598608732 0.677293122 0.503352106
0.611891329 0.668184936 0.477672160
0.622264445 0.649462461 0.440354496
0.631119788 0.630486727 0.409234762
0.641366482 0.600126505 0.375838399
0.660341740 0.577482820 0.355597973
0.679949343 0.564452767 0.342694730
0.703857899 0.566729784 0.331688464
0.725110292 0.582669377 0.340037942
0.748007655 0.595572412 0.350158393
0.774193764 0.610246718 0.362176031
0.801518142 0.623149812 0.367488712
0.826185703 0.635673344 0.376976550
0.850474417 0.653636754 0.391397685
0.880582213 0.671853364 0.405818999
0.913599372 0.685515404 0.417204380
0.489816457 0.732700467 0.593421698
0.491713732 0.734598160 0.591524482
0.501960516 0.730803192 0.595572472
0.511068881 0.733333170 0.597343683
0.517393887 0.736622453 0.600506008
0.524983764 0.735104203 0.606578410
0.539658010 0.736495435 0.613409460
0.553194106 0.739784420 0.625553429
0.566856742 0.741555810 0.637191713
0.581277788 0.742315173 0.651612699
0.592536628 0.742441714 0.658064485
0.606957972 0.744085968 0.661353469
0.601644576 0.736875117 0.646552801
0.599620402 0.736622453 0.632890403
0.604047775 0.733839452 0.616318703
0.609234571 0.727767467 0.591397822
0.622897148 0.726249278 0.567109466
0.634155750 0.720683157 0.542188406
0.643769741 0.708032787 0.509551108
0.662618816 0.695762217 0.478684455
0.671726704 0.671853244 0.450221479
0.678811133 0.641492963 0.415812969
0.692599714 0.615433156 0.389879972
0.713345706 0.601264715 0.368880391
0.739151955 0.601265013 0.363567322
