Assets/Shaders/EldamarStudio/100 Sci-Fi LUTs Pack/LUTs/cube/Marigold LUT.cube
LUT_3D_SIZE 5
DOMAIN_MIN 0.000000 0.000000 0.000000
DOMAIN_MAX 0.903226 0.903226 0.903226
0.184313998 0.129411995 0.129411995
0.261227101 0.114358000 0.137254998
0.438076973 0.056167006 0.133332998
0.652372122 0.010752873 0.113724999
0.953573465 0.002656833 0.091587983
0.188235000 0.203668699 0.129411995
0.282099694 0.199746698 0.116635293
0.448197097 0.183048576 0.117647000
0.662871540 0.186717272 0.109803997
0.950031698 0.210879117 0.080708295
0.272612393 0.340670377 0.117647000
0.337760687 0.342315078 0.121568576
0.468817413 0.343327224 0.117014416
0.684503376 0.378747374 0.090449288
0.967109203 0.434914380 0.005060187
0.373687148 0.612270474 0.008728874
0.429601401 0.616192281 0.000000000
0.569639266 0.620114267 0.003289416
0.748513341 0.630866408 0.002909872
0.984060585 0.672612309 0.002656833
0.405186832 0.927387595 0.000000000
0.469322979 0.935736597 0.001265167
0.615180373 0.930550158 0.002656833
0.802529991 0.932574451 0.000000000
0.985831797 0.931182742 0.000000000
0.177102998 0.125489995 0.187982693
0.263504416 0.112080708 0.186337993
0.429601789 0.094117582 0.188614696
0.634408295 0.057305433 0.201644287
0.945477486 0.004174720 0.190512702
0.212144271 0.194180995 0.185705408
0.283744425 0.196457714 0.190891981
0.432511091 0.188615113 0.187982693
0.642630935 0.185958430 0.190891981
0.951928735 0.182416245 0.181150824
0.284377396 0.338393092 0.190259412
0.339658678 0.336115986 0.188614696
0.467172652 0.336115986 0.183680996
0.681846976 0.370525092 0.180392414
0.969259620 0.423149824 0.150031283
0.360784411 0.611005664 0.124351703
0.421379119 0.608349085 0.130550578
0.561669588 0.613915384 0.120050572
0.743326962 0.624035239 0.095762156
0.986717045 0.666792929 0.015686445
0.378495008 0.928652763 0.006831295
0.444908708 0.929538369 0.002023991
0.602150381 0.929917753 0.003921838
0.800253034 0.929917634 0.000000000
0.993674815 0.926248908 0.000000000
0.194812998 0.124857575 0.317141384
0.286021709 0.106514581 0.311194986
0.436811954 0.101961002 0.305376381
0.646426558 0.034282017 0.331941694
0.957495451 0.000000000 0.355723977
0.253004402 0.199367419 0.309930414
0.312840134 0.200000003 0.302719563
0.439721674 0.192536697 0.305376381
0.657305419 0.161416575 0.322707117
0.966856301 0.001644708 0.344465405
0.303351969 0.329537958 0.299430996
0.348766267 0.337760687 0.302720010
0.478684783 0.336115986 0.300063401
0.694623709 0.355091393 0.311574847
0.981657207 0.374826223 0.316002190
0.297153771 0.609361410 0.288551241
0.368627429 0.609614253 0.287033379
0.542061806 0.608602107 0.287919283
0.754711866 0.616824865 0.284124076
0.988235116 0.652625084 0.281341106
0.284123778 0.920050323 0.270208389
0.376091301 0.923339784 0.256673127
0.562808394 0.927893341 0.260341644
0.789500535 0.932194889 0.270588100
0.987096786 0.928525925 0.270967782
0.283491135 0.100948870 0.528905332
0.367868274 0.088425294 0.528146565
0.519291401 0.048703343 0.518785655
0.691714108 0.001012128 0.510310233
0.971157432 0.000000000 0.568121493
0.298039407 0.204933271 0.519671023
0.373434424 0.199367568 0.522707224
0.517267406 0.180392146 0.516128838
0.695888340 0.137760580 0.514863849
0.979000390 0.000632580 0.568374276
0.296014994 0.376723379 0.514105260
0.354585707 0.365970522 0.516888261
0.520177126 0.345983833 0.515496671
0.732574284 0.336116374 0.523972273
0.986970067 0.333333254 0.554965377
0.272358984 0.614168286 0.517141104
0.355218112 0.622643828 0.525236845
0.530929804 0.622011185 0.533712983
0.767995119 0.630866408 0.541556239
0.992409945 0.647691250 0.561163962
0.374319583 0.923465908 0.582036734
0.450727165 0.926628590 0.590259075
0.598735034 0.926248908 0.591777384
0.788235307 0.923718929 0.578621030
0.989500105 0.926881671 0.585705101
0.363566995 0.054901998 0.860847414
0.444908679 0.020873006 0.859076262
0.612650216 0.000000000 0.864136815
0.806325078 0.002277296 0.858317435
0.994813144 0.002656833 0.854269564
0.347121984 0.196204811 0.859202683
0.426185995 0.185958445 0.859202683
0.596584499 0.144465417 0.856293559
0.801138461 0.029981136 0.854016304
0.998734832 0.000000000 0.859076262
0.232638001 0.395699203 0.861479998
0.345224410 0.386843503 0.865401387
0.562934399 0.378747374 0.862112582
0.794813514 0.360151500 0.856925607
0.997469842 0.340290785 0.858823180
0.225300282 0.668058097 0.862998128
0.342567950 0.674256980 0.864389718
0.553952813 0.666160941 0.863377571
0.781024516 0.664262891 0.856799603
0.992662609 0.668691099 0.857938051
0.336369634 0.943200409 0.867425561
0.422264516 0.940417409 0.859455764
0.596457779 0.939152598 0.858823180
0.802909434 0.924604595 0.862365305
0.974066794 0.932574451 0.879063725
