Assets/Shaders/EldamarStudio/100 Sci-Fi LUTs Pack/LUTs/cube/Marigold LUT.cube
LUT_3D_SIZE 8
DOMAIN_MIN 0.000000 0.000000 0.000000
DOMAIN_MAX 0.903226 0.903226 0.903226
0.184313998 0.129411995 0.129411995
0.197596103 0.125489995 0.126249000
0.292347014 0.107526898 0.138013899
0.386717647 0.068310998 0.133332998
0.496015191 0.041619197 0.129411995
0.612903237 0.017836748 0.119797260
0.775331855 0.001644712 0.107526712
0.953573465 0.002656833 0.091587983
0.179253444 0.143832549 0.132953539
0.218342543 0.150537997 0.122327998
0.295888662 0.135989547 0.132573992
0.392283648 0.127008185 0.130296990
0.496015191 0.112080991 0.123972192
0.616951227 0.108538546 0.120809905
0.775078833 0.105756000 0.103605293
0.949525595 0.107147083 0.087286539
0.194307193 0.223403096 0.126375809
0.239468634 0.217457548 0.118785545
0.305629194 0.219481096 0.110562898
0.398481756 0.210879102 0.114104547
0.499178082 0.199746996 0.110562898
0.624667704 0.207969740 0.111827739
0.789626777 0.227071285 0.098165721
0.951802671 0.240480989 0.078684434
0.248829633 0.295383006 0.117647000
0.271220893 0.298924655 0.111321896
0.329159111 0.298165649 0.112080999
0.411385298 0.294244349 0.113724999
0.513978183 0.297659993 0.106261544
0.635673821 0.313219249 0.100569099
0.796078205 0.342567891 0.073877007
0.962302446 0.366730094 0.038583387
0.297153980 0.402530372 0.106514804
0.325996190 0.402530372 0.107147455
0.371284068 0.401012182 0.108285807
0.441366017 0.403289169 0.105123192
0.533459544 0.401012182 0.102846004
0.660594940 0.430233926 0.074636273
0.816824734 0.473750561 0.015306819
0.971663237 0.499051183 0.001138640
0.358507246 0.565717697 0.036053538
0.384566724 0.567615449 0.027071280
0.435673475 0.569133461 0.022264278
0.512460291 0.571536958 0.020999633
0.601644576 0.579380453 0.012144011
0.702972710 0.583301485 0.003922000
0.841239810 0.610499740 0.000000000
0.983554602 0.637950718 0.002656833
0.391524017 0.757368565 0.006198708
0.425047100 0.756103814 0.000758999
0.474256814 0.761922538 0.003036191
0.555344880 0.761922538 0.003415642
0.654902101 0.761163652 0.003035997
0.758886755 0.765211582 0.004174544
0.870461583 0.767488837 0.000000000
0.988867521 0.771410465 0.000000000
0.405186832 0.927387595 0.000000000
0.432764173 0.932194889 0.003542452
0.482226104 0.934471726 0.001265167
0.568753660 0.932700992 0.001518189
0.668564141 0.930044115 0.001265167
0.776976466 0.933080494 0.000000000
0.891081274 0.933839619 0.000000000
0.985831797 0.931182742 0.000000000
0.180391997 0.132953539 0.143453091
0.201517999 0.125489995 0.135610089
0.295509100 0.108285904 0.150158450
0.380898178 0.097280100 0.143832639
0.480708629 0.085136354 0.154079556
0.602909565 0.062112808 0.154079556
0.761669993 0.012144302 0.142694101
0.948386550 0.000000000 0.140796840
0.184313998 0.146615997 0.143073544
0.218342558 0.146615997 0.146236554
0.288425118 0.143453091 0.144212186
0.381277621 0.137634546 0.145856902
0.480329186 0.129791558 0.150158450
0.603921473 0.120809615 0.151423007
0.768754005 0.109297544 0.145097807
0.943073630 0.097533546 0.137381092
0.214421451 0.209614560 0.152561560
0.243010998 0.209235102 0.146995544
0.300949067 0.208476007 0.146236449
0.392283529 0.208476007 0.147754550
0.491713822 0.203668386 0.151676446
0.618469000 0.206325024 0.146489382
0.776344240 0.220114097 0.141303003
0.947501183 0.236938924 0.119291425
0.253131092 0.295383006 0.153700098
0.277798623 0.292726457 0.150538012
0.331056446 0.291840523 0.147754639
0.407463282 0.290322632 0.150158450
0.504617333 0.296521634 0.144591838
0.623276472 0.311321706 0.143579900
0.793421745 0.338646621 0.122833543
0.951549351 0.358507365 0.095762104
0.307273895 0.399493992 0.146489367
0.326375753 0.395066559 0.142061904
0.369766057 0.398228824 0.145857006
0.445414633 0.400253087 0.145224810
0.525996029 0.402530372 0.138646185
0.654396057 0.426312834 0.124984093
0.815053999 0.468184650 0.083491713
0.970398128 0.496900707 0.043896556
0.354585737 0.556609452 0.086780816
0.375711739 0.562049270 0.086907014
0.431372643 0.564452589 0.081847079
0.507780075 0.564073026 0.077040173
0.598102689 0.567235827 0.059709445
0.699810207 0.577356219 0.040607095
0.837318242 0.608096004 0.008602269
0.986084759 0.634029150 0.001897740
0.386590719 0.748513818 0.000000000
0.411638290 0.750537574 0.006072285
0.463757575 0.745730340 0.002024260
0.545224607 0.747501135 0.002024260
0.636685729 0.750284433 0.002024260
0.747628331 0.754332542 0.000000000
0.863124549 0.757116020 0.000379548
0.980138898 0.762175620 0.000000000
0.393042296 0.929032326 0.001265167
0.416572005 0.924478292 0.001265167
0.477166355 0.921821475 0.000379548
0.561669707 0.921568751 0.004553989
0.658443868 0.924098492 0.002656833
0.775458574 0.926375508 0.002530012
0.891460836 0.928019881 0.003542452
0.991144776 0.927387834 0.004933537
0.171789899 0.127767086 0.208476007
0.204174638 0.125110537 0.203415543
0.291587889 0.109044902 0.203035995
0.389626980 0.098418549 0.207716912
0.483491272 0.091840908 0.209234893
0.598987758 0.062365629 0.207463562
0.766603410 0.004933716 0.211511999
0.946489334 0.005186845 0.209740847
0.201517999 0.152941003 0.210120097
0.234788537 0.140290990 0.194307089
0.294750094 0.142694101 0.202656552
0.387602717 0.143073544 0.203795090
0.482352853 0.140417099 0.208096460
0.602023900 0.127134904 0.213282913
0.765591323 0.086653814 0.212903261
0.945857108 0.025427021 0.210626453
0.226565197 0.210878998 0.206957996
0.254016101 0.215560108 0.210499540
0.309551030 0.212397188 0.203795090
0.392663002 0.208855450 0.206958011
0.487413108 0.212397203 0.210120112
0.614547729 0.211258844 0.215939343
0.781657457 0.206072196 0.206198707
0.954458892 0.211258829 0.199114203
0.270082355 0.293485433 0.209361091
0.293232083 0.292726457 0.209361091
0.338520020 0.287159741 0.208096445
0.405060291 0.288804650 0.204554006
0.502593577 0.293358743 0.202529743
0.632890463 0.307020962 0.205819264
0.794180810 0.334345222 0.194054455
0.960278511 0.346742749 0.185199007
0.311321795 0.394686997 0.206198707
0.327514082 0.395951688 0.202403903
0.376850188 0.393168986 0.196711004
0.445034981 0.393548638 0.202276900
0.527261317 0.394686997 0.196078196
0.654775500 0.427577257 0.183934271
0.818469465 0.458823651 0.166350290
0.974193394 0.487160176 0.155724168
0.351422995 0.561416566 0.170398623
0.370398551 0.562175632 0.172042817
0.425173879 0.566097438 0.167236015
0.503478706 0.563314080 0.166097566
0.599746883 0.570777893 0.159518912
0.703099191 0.570651531 0.146869004
0.844022930 0.603795469 0.128146723
0.985451877 0.632637560 0.099936724
0.368753910 0.752561510 0.045667455
0.392030120 0.753447175 0.047564901
0.453890085 0.756609678 0.044908356
0.539025724 0.755850732 0.038456641
0.640986443 0.756609619 0.032890737
0.750664294 0.757368565 0.012397371
0.868184507 0.758380473 0.002277297
0.986084342 0.767741621 0.003921905
0.375458747 0.927893698 0.003289114
0.399241000 0.931435585 0.000759006
0.462365746 0.930297315 0.002530020
0.549525261 0.927640498 0.000000007
0.655914068 0.932700694 0.000759103
0.769133568 0.928652763 0.002024270
0.887539625 0.927893698 0.002277295
0.989626765 0.931815028 0.000000007
0.177102998 0.124351643 0.274636626
0.221378729 0.117267452 0.278557628
0.299810529 0.105123095 0.277419299
0.378873944 0.101961002 0.268437654
0.487033576 0.091081999 0.277039647
0.601644456 0.061100267 0.281340986
0.773687541 0.000000000 0.299810350
0.952688098 0.002403812 0.291587800
0.214421451 0.153573900 0.271853179
0.238583431 0.153700098 0.271980077
0.304870188 0.148134097 0.267552525
0.386717647 0.141809091 0.268311530
0.479822814 0.137128085 0.274257094
0.600379586 0.117773712 0.276913643
0.770145297 0.020240728 0.284377009
0.948133886 0.001644716 0.288931161
0.241872355 0.214674205 0.271600544
0.269955754 0.215053633 0.271980017
0.322453856 0.215560108 0.262492090
0.395319641 0.208476007 0.262871742
0.486906737 0.208476007 0.271853268
0.608096123 0.192916006 0.277798712
0.783048570 0.161669895 0.279190630
0.967235863 0.116508447 0.283238560
0.273497999 0.287539274 0.255660921
0.297027171 0.286780179 0.267173082
0.346363187 0.287539274 0.266034514
0.411385268 0.287539274 0.273497999
0.508918583 0.288677633 0.266793638
0.633902848 0.299683750 0.269576281
0.791650832 0.303858280 0.269702643
0.959266067 0.307653427 0.271979809
0.305882007 0.396710724 0.269323468
0.326881886 0.397469819 0.270462126
0.379759610 0.391524166 0.269196659
0.447817832 0.393927991 0.269576281
0.530803025 0.394686997 0.264516354
0.661353707 0.423276454 0.261859804
0.823655903 0.448450625 0.257179081
0.973813772 0.467678547 0.249335811
0.316635162 0.554965377 0.253636658
0.343959540 0.556103885 0.253636628
0.406831205 0.556103945 0.250474542
0.491713822 0.562049389 0.252751559
0.592283189 0.564832091 0.247564644
0.703352392 0.573561192 0.240860000
0.848323703 0.594180763 0.230234355
0.988614798 0.618469238 0.234029174
0.314737707 0.748513520 0.208475709
0.348387182 0.751676023 0.205566302
0.415560007 0.745730460 0.200759083
0.516128898 0.750157833 0.201770931
0.623782337 0.750157833 0.196204811
0.742314816 0.753447235 0.182669297
0.863757193 0.754585922 0.179253638
0.988235235 0.756609738 0.174319640
0.324351639 0.932700992 0.174067259
0.356104016 0.926249146 0.170018822
0.428083181 0.928020298 0.171410725
0.525110245 0.927008092 0.171536922
0.639848053 0.927134871 0.170018733
0.759772301 0.928652763 0.170145363
0.882859111 0.930676639 0.177735433
0.992409945 0.927260756 0.169386566
0.220240191 0.113724999 0.362049401
0.251992553 0.109424450 0.358380735
0.326122999 0.103478804 0.354079485
0.401644439 0.101961002 0.355091989
0.492979199 0.095003009 0.355724186
0.610372961 0.055534534 0.367488712
0.781530738 0.001518192 0.397596270
0.957874596 0.000000000 0.420999348
0.247817904 0.154838547 0.357748449
0.274383217 0.157242358 0.356103837
0.328779519 0.152055904 0.353320479
0.405186266 0.147754550 0.352940857
0.490195841 0.138772994 0.349904835
0.616065919 0.114231355 0.370145530
0.774699390 0.008602269 0.388867617
0.955976963 0.001644716 0.407337099
0.270461917 0.218596101 0.351043284
0.297533542 0.219860733 0.360151708
0.343959391 0.217077911 0.342441171
0.417710185 0.217963204 0.349904835
0.497533172 0.206957817 0.348640084
0.630866587 0.186590999 0.369386613
0.791144729 0.137760818 0.390132993
0.976723552 0.017963311 0.400126278
0.301960826 0.293864787 0.349145740
0.313472182 0.300569534 0.349019557
0.359772205 0.295003444 0.339152306
0.428968936 0.295383006 0.345351189
0.519418120 0.287159830 0.353446990
0.650474310 0.280581981 0.368374169
0.815559626 0.263377696 0.367488980
0.972422123 0.243010640 0.372042984
0.314358175 0.397090167 0.348513365
0.339405358 0.392410189 0.354585618
0.379253387 0.395572364 0.353447080
0.452118963 0.401771277 0.354459047
0.553067565 0.402530372 0.356356382
0.678304672 0.411891162 0.353826463
0.837444484 0.419860870 0.355724186
0.978873968 0.432890356 0.361669749
0.292978823 0.557115912 0.362428635
0.320935994 0.559772372 0.355976939
0.377988636 0.563314199 0.353573710
0.473750651 0.568121016 0.347374737
0.582542777 0.567615449 0.346236169
0.711322129 0.571916461 0.343074203
0.855787158 0.592409909 0.350284636
0.989120543 0.605565965 0.364073247
0.246426180 0.751170039 0.344592005
0.294370711 0.752435148 0.347628266
0.364073217 0.751929104 0.338519990
0.475901097 0.752814353 0.334977776
0.606831133 0.756736338 0.332194805
0.736369729 0.754332542 0.331941843
0.864389360 0.754459083 0.329158992
0.987096608 0.757621527 0.338393271
0.280202448 0.929917574 0.360404730
0.313852102 0.929538250 0.353700191
0.391018569 0.930297196 0.356357008
0.501581371 0.929285109 0.356357008
0.626818180 0.930803180 0.359898359
0.752308428 0.932321429 0.364959002
0.882858813 0.931056261 0.367615551
0.991903961 0.930044174 0.370019019
0.268311232 0.103984743 0.483364701
0.302593529 0.102087006 0.487666279
0.368880481 0.096268266 0.482099533
0.453763723 0.080329008 0.482353091
0.549019456 0.051233277 0.477545470
0.644149184 0.026312282 0.467805207
0.794560254 0.000000000 0.510815978
0.971157491 0.000000000 0.539278805
0.274509907 0.153320745 0.478431195
0.308918744 0.151043549 0.478051662
0.370777816 0.145097911 0.479442984
0.454648912 0.131815091 0.474762738
0.545857370 0.116381913 0.467299461
0.646805644 0.091208078 0.472738475
0.788868010 0.005566292 0.496774316
0.958886623 0.000000000 0.526249409
0.297027349 0.225679994 0.479443192
0.320303738 0.222517282 0.478810728
0.370904744 0.221126109 0.478431374
0.456546366 0.210120201 0.470335364
0.550411403 0.198861465 0.474130183
0.654648840 0.179000720 0.471600175
0.812650025 0.123972379 0.510183454
0.981024444 0.017078016 0.530676544
0.294750094 0.316002637 0.469576448
0.319165081 0.312966555 0.473244727
0.367994636 0.302340180 0.467678905
0.452372015 0.296141893 0.467678726
0.555850685 0.289184093 0.469070196
0.667046309 0.276154548 0.473118097
0.819355190 0.249841988 0.492979258
0.979253411 0.234155729 0.515749574
0.304870278 0.424794644 0.469323218
0.323592544 0.425553739 0.474383295
0.379127353 0.420872748 0.474003792
0.458064526 0.411511809 0.471600085
0.572549164 0.409108132 0.481593996
0.700189471 0.405945808 0.486527711
0.849588990 0.412650257 0.501328349
0.991144776 0.421758264 0.517267406
0.292599261 0.563567460 0.477672458
0.316761553 0.569006741 0.485262662
0.379000723 0.571031153 0.486274362
0.467425644 0.572675288 0.487666249
0.589247167 0.580898225 0.490828693
0.724478483 0.581277668 0.501075447
0.870335579 0.591271460 0.501454890
0.994939983 0.602909505 0.519418299
0.251613170 0.756736040 0.499051183
0.296141803 0.750410974 0.503478706
0.370018929 0.751296282 0.500442803
0.479696423 0.752941012 0.500442863
0.600506127 0.759519458 0.498671442
0.730423689 0.754585743 0.494244188
0.867425740 0.758760273 0.496647894
0.990765214 0.758760273 0.508538723
0.373054504 0.924477935 0.546869278
0.396457702 0.930423856 0.544212282
0.459076434 0.921315491 0.548007250
0.537634313 0.927134752 0.546742439
0.628083527 0.926755011 0.538266838
0.757368624 0.926755011 0.535104334
0.882226586 0.928779006 0.543579996
0.989247024 0.926122606 0.536369264
0.330043972 0.081720427 0.667172551
0.361669838 0.074762717 0.666920006
0.430107683 0.053763717 0.660721004
0.519671202 0.012650369 0.661100447
0.625932932 0.000759096 0.663883507
0.729158700 0.001897740 0.666413546
0.844275534 0.001644712 0.658317804
0.975331843 0.000000000 0.664769530
0.333079994 0.137634262 0.651486397
0.364452809 0.136242837 0.666161001
0.432890654 0.120176814 0.664769232
0.522201121 0.094876654 0.665654540
0.615939021 0.043643288 0.649335861
0.729411602 0.001644712 0.648323655
0.841492772 0.000379548 0.650221109
0.971663296 0.001265167 0.655787110
0.313724995 0.217837006 0.665528476
0.350411177 0.217963099 0.658950090
0.418469369 0.209361196 0.655028462
0.513472617 0.193168640 0.660594523
0.618848562 0.170145392 0.662365496
0.731182933 0.131941810 0.656040549
0.852877617 0.061227348 0.656166673
0.980391800 0.007210644 0.661100388
0.265907645 0.319544554 0.659962118
0.302466631 0.312460363 0.656925738
0.385198981 0.307906240 0.656799436
0.488804549 0.299810648 0.654902220
0.603036344 0.287286639 0.654775321
0.730929554 0.269070238 0.653890193
0.856040537 0.241619334 0.652751505
0.981404066 0.232005224 0.657052577
0.257684916 0.457305670 0.660974026
0.290069461 0.454775631 0.660088539
0.365464926 0.447944462 0.661606431
0.462365270 0.431625664 0.660720885
0.598734915 0.420366555 0.657684863
0.729411483 0.411132365 0.660974145
0.868058383 0.407210648 0.657052279
0.988235235 0.424668193 0.668058336
0.238582984 0.607590497 0.664136589
0.276533991 0.611132026 0.664516151
0.356483459 0.604554355 0.659962058
0.471853375 0.599367380 0.669449568
0.600379646 0.598102748 0.668185055
0.733206451 0.598734975 0.671474040
0.878304541 0.597723186 0.673371315
0.989879608 0.618342698 0.679696560
0.227830708 0.762934804 0.661606789
0.272738725 0.755218267 0.660215259
0.354585707 0.759772539 0.658064544
0.474636346 0.759519160 0.657052279
0.604427278 0.755977273 0.656420231
0.745730698 0.755091846 0.670335591
0.863630295 0.760657549 0.671094596
0.988614798 0.767489016 0.687033296
0.366350293 0.926375508 0.685389102
0.403542072 0.928273201 0.683997333
0.467046142 0.921821594 0.686021328
0.561543405 0.924857557 0.698798358
0.670840919 0.927640617 0.709297836
0.772549152 0.928146541 0.720177174
0.872865260 0.928525925 0.708538651
0.986590743 0.926881373 0.714104891
0.363566995 0.054901998 0.860847414
0.397975534 0.045287561 0.859709024
0.464137107 0.012270749 0.856293321
0.553826451 0.000000000 0.857937932
0.661859572 0.001518192 0.859202743
0.775964618 0.000759092 0.861353517
0.900695801 0.002277288 0.856925726
0.994813144 0.002656833 0.854269564
0.360531271 0.122960381 0.860215187
0.386211544 0.114484392 0.858570158
0.458570391 0.102340549 0.858190596
0.550790429 0.056926355 0.856419802
0.657937825 0.002024167 0.849209249
0.772169590 0.002656833 0.855028450
0.891207933 0.002277285 0.845920384
0.995192707 0.002277285 0.854902029
0.335483968 0.217710182 0.857178807
0.370904297 0.214294642 0.863883495
0.436053008 0.210499942 0.859455764
0.541049778 0.187223375 0.859708786
0.654016316 0.161416993 0.863757014
0.771283925 0.111701548 0.855534256
0.898924410 0.024414981 0.854522169
0.998734832 0.001265178 0.855534434
0.265401721 0.327640623 0.861986041
0.313725561 0.320556730 0.864895821
0.398987800 0.319797635 0.858823419
0.510056734 0.309424609 0.851865411
0.633776009 0.295003265 0.854775369
0.759898663 0.276534021 0.847817659
0.892852664 0.251233280 0.851106763
0.996204793 0.221505210 0.849588633
0.211511657 0.473370999 0.856419742
0.268311203 0.468184561 0.865907550
0.352055639 0.462618440 0.862997890
0.481340826 0.458443910 0.860341668
0.616319060 0.449588984 0.852624536
0.753193915 0.444781989 0.855281115
0.888678312 0.438456476 0.855407894
0.997216642 0.433649182 0.857937932
0.223023251 0.632131398 0.865275204
0.273877442 0.636306047 0.866666853
0.364832550 0.634282410 0.857052207
0.486654013 0.629981220 0.861733019
0.620240629 0.623908997 0.859835327
0.748386979 0.626059353 0.863630712
0.885515571 0.629601538 0.861859262
0.994180918 0.627451181 0.859203219
0.223149791 0.788741589 0.857685030
0.286274612 0.788867772 0.859456062
0.374573082 0.787855864 0.858317494
0.490955263 0.787855864 0.858064353
0.619101703 0.779633045 0.854649007
0.746489406 0.778115034 0.857431710
0.871473789 0.780012786 0.856546283
0.984946072 0.783428073 0.854016304
0.336369634 0.943200409 0.867425561
0.372169465 0.941682577 0.865022361
0.442757815 0.938393533 0.861985803
0.542441607 0.938013971 0.860720634
0.653004289 0.933459759 0.859455764
0.774066865 0.927387834 0.864642620
0.878052115 0.926881373 0.873498023
0.974066794 0.932574451 0.879063725
