Assets/Shaders/EldamarStudio/100 Sci-Fi LUTs Pack/LUTs/cube/Marigold LUT.cube
DOMAIN_MIN 0 0 0
DOMAIN_MAX 1 1 1
LUT_3D_SIZE 32
0.184313998 0.129411995 0.129411995
0.181277603 0.126375601 0.126375601
0.182542771 0.127640769 0.127640769
0.188108832 0.128146827 0.128146827
0.197596103 0.125489995 0.126249000
0.209740877 0.125489995 0.132321000
0.232005000 0.120430000 0.135863319
0.261227101 0.114358000 0.137254998
0.292347014 0.107526898 0.138013899
0.316635042 0.098418511 0.141049519
0.340923756 0.086401001 0.141176000
0.363188267 0.076280750 0.137127995
0.386717647 0.068310998 0.133332998
0.413789004 0.062238999 0.133332998
0.438076973 0.056167006 0.133332998
0.467172593 0.047691200 0.130929798
0.496015191 0.041619197 0.129411995
0.523972154 0.037951007 0.129411995
0.554333031 0.031878993 0.129411995
0.579127073 0.025806287 0.126628637
0.612903237 0.017836748 0.119797260
0.652372122 0.010752873 0.113724999
0.691840470 0.007716520 0.113598518
0.731308937 0.004680903 0.110562898
0.775331855 0.001644712 0.107526712
0.819481313 0.000000000 0.103099011
0.862492085 0.000000000 0.096521065
0.908032417 0.000000000 0.087413460
0.953573465 0.002656833 0.091587983
0.983174980 0.003922000 0.094117999
0.996078014 0.003922000 0.090575792
0.996078014 0.003922000 0.078431003
0.184313998 0.123339996 0.126375601
0.184313998 0.126375601 0.135483995
0.183428392 0.123339772 0.128146604
0.189374000 0.124604836 0.131435603
0.200632393 0.125110537 0.135736555
0.212776482 0.122454390 0.123213388
0.235041261 0.122454390 0.131815061
0.264263064 0.114104971 0.139152303
0.295382798 0.105249614 0.141049907
0.319671392 0.098418511 0.134977520
0.341050267 0.092220001 0.132194877
0.367236257 0.086401254 0.134092122
0.389373988 0.081594132 0.132194638
0.411258668 0.077166356 0.130044341
0.441113383 0.068311006 0.127260998
0.465401381 0.059835814 0.124857813
0.492978781 0.053763580 0.123339996
0.520935714 0.051360000 0.124604985
0.551296651 0.050094992 0.129411981
0.581657350 0.044022992 0.123845994
0.614041865 0.037950777 0.120556653
0.653384268 0.032005262 0.113725260
0.694750369 0.028715882 0.107526518
0.731308937 0.019860515 0.104490906
0.775331855 0.016824905 0.108285993
0.819481313 0.012397397 0.107526712
0.862492085 0.009108387 0.102593064
0.908032417 0.009108387 0.093485460
0.953573465 0.003795399 0.087034009
0.984946191 0.005692765 0.086274788
0.997343421 0.009614212 0.087666214
0.993042350 0.016066000 0.090575777
0.186464220 0.123719223 0.127640769
0.184313998 0.122454390 0.128146619
0.186464220 0.125489995 0.132954001
0.190259382 0.124984384 0.127640769
0.203415543 0.126881778 0.135483772
0.224414781 0.122074932 0.132700935
0.238076866 0.123719223 0.131309450
0.262365639 0.120430231 0.133839056
0.291967005 0.111574680 0.138646230
0.316255450 0.106893994 0.133712515
0.341935873 0.102972776 0.134724870
0.363188267 0.098924518 0.131688729
0.390259653 0.093611866 0.132194638
0.412270784 0.088298775 0.129411995
0.440733820 0.081088133 0.128273353
0.468437761 0.080581814 0.127387807
0.492725730 0.072991997 0.124351807
0.520050108 0.069323197 0.122454233
0.550410986 0.067805000 0.122454219
0.580771744 0.066539995 0.121695220
0.616824687 0.060468003 0.117520489
0.652498603 0.056419998 0.115496226
0.691714466 0.054522291 0.110183001
0.734218776 0.049462415 0.109171130
0.775331855 0.042757839 0.104364224
0.819481313 0.041113544 0.106261909
0.861480057 0.037065484 0.103225708
0.903731406 0.035420772 0.097406693
0.949272454 0.038709782 0.086654246
0.980645180 0.034409005 0.087666199
0.995698988 0.037571311 0.085768618
0.992156982 0.045414545 0.089816995
0.185705006 0.130549997 0.130676836
0.180139065 0.131309554 0.128905594
0.186464220 0.130044386 0.127640769
0.197090164 0.133080319 0.126882002
0.206198558 0.135357603 0.127261460
0.228209943 0.130171001 0.132447839
0.247944310 0.127893835 0.134725004
0.266666412 0.127260998 0.135610282
0.290955216 0.122706994 0.133332998
0.315243334 0.120176673 0.133332998
0.338646442 0.115875863 0.133712873
0.365718275 0.114104897 0.135230735
0.386970669 0.111068800 0.131055996
0.414042026 0.102720127 0.128146827
0.441366404 0.097659998 0.128146827
0.468690783 0.095003352 0.128146827
0.495762140 0.096015163 0.126628965
0.521315277 0.090575583 0.124857575
0.551676154 0.087539189 0.120682999
0.582036555 0.087286159 0.118912160
0.615559876 0.086021163 0.118279584
0.655028284 0.080961287 0.113219194
0.689310789 0.080708325 0.112333648
0.733712912 0.078811057 0.111194998
0.775711417 0.076028161 0.107906163
0.816951334 0.071474001 0.100695521
0.861480176 0.071474001 0.097153842
0.904743552 0.069196709 0.093358561
0.945730448 0.074130140 0.089943029
0.979633152 0.076154232 0.084630139
0.994686961 0.075774990 0.088931158
0.994686961 0.081846997 0.086274996
0.179253444 0.143832549 0.132953539
0.172422156 0.149525777 0.132573992
0.180518329 0.149146229 0.131182775
0.196331173 0.148260623 0.127641007
0.218342543 0.150537997 0.122327998
0.227450922 0.147501603 0.125363618
0.248830080 0.142694548 0.128020316
0.271979988 0.138266832 0.130297273
0.295888662 0.135989547 0.132573992
0.320177436 0.135989547 0.132573992
0.339405537 0.130170554 0.130044326
0.364958942 0.127767086 0.130676731
0.392283648 0.127008185 0.130296990
0.414042026 0.123972520 0.124984033
0.441366404 0.120936133 0.125110537
0.468690783 0.115876004 0.125110537
0.496015191 0.112080991 0.123972192
0.523972154 0.111827970 0.121821962
0.554333031 0.108791575 0.124857582
0.584693015 0.108918093 0.122327805
0.616951227 0.108538546 0.120809905
0.651613116 0.107906125 0.118153326
0.691334426 0.105123512 0.109424450
0.734092236 0.105376549 0.106641091
0.775078833 0.105756000 0.103605293
0.814926982 0.104743876 0.097786337
0.855408132 0.102593094 0.089942999
0.910056829 0.102593094 0.083871007
0.949525595 0.107147083 0.087286539
0.979886115 0.110436089 0.088045686
1.000000000 0.111448079 0.086274996
1.000000000 0.117520094 0.086274996
0.170145065 0.165084928 0.129917935
0.179253459 0.168121323 0.126881540
0.189626709 0.167362213 0.128652766
0.201011926 0.165590987 0.129411995
0.212270543 0.165717617 0.128399998
0.239594936 0.162681997 0.128399998
0.258823335 0.162175938 0.128905937
0.277292758 0.159519225 0.127767280
0.295509100 0.157241940 0.126501992
0.317141086 0.157241940 0.126501992
0.341429830 0.151422948 0.126501992
0.364705920 0.147375196 0.125996053
0.390006334 0.145983875 0.124224991
0.414042026 0.145224899 0.118912034
0.441366404 0.142188519 0.121948414
0.468690783 0.139152125 0.122074932
0.496015191 0.134092003 0.122074932
0.523972154 0.130296990 0.121569000
0.554333031 0.130043954 0.121821970
0.584693015 0.132574290 0.119291581
0.616951227 0.131309122 0.116255328
0.650348127 0.129790932 0.112713128
0.685262442 0.129411504 0.106388062
0.730802894 0.132447898 0.106388062
0.775837898 0.134977639 0.103605293
0.818975270 0.136115998 0.097786337
0.860974133 0.136115998 0.090195999
0.903984845 0.139025867 0.089943007
0.948007643 0.139025867 0.086527847
0.977103174 0.143579856 0.085009724
0.994939983 0.146868870 0.083744675
1.000000000 0.147880867 0.086274996
0.181277320 0.183807641 0.129411995
0.187855393 0.181783393 0.128905922
0.196963772 0.186969995 0.128020316
0.210120007 0.183807328 0.126882002
0.219481096 0.181277320 0.123972453
0.236053258 0.180391937 0.121821679
0.260847330 0.179885998 0.124352001
0.282099694 0.178241715 0.124352001
0.302087069 0.176723540 0.123719223
0.326881498 0.178494319 0.125489995
0.348513424 0.172675326 0.120430000
0.368754178 0.168627575 0.118405744
0.394307315 0.166730314 0.119038321
0.421378732 0.166477278 0.117647000
0.446426392 0.163440898 0.118406095
0.468943775 0.162808314 0.121442482
0.497533381 0.161416635 0.120050810
0.526502311 0.158633634 0.118406102
0.556862712 0.158633634 0.116508357
0.584693015 0.156356350 0.118785642
0.620746195 0.159392729 0.113852002
0.657432139 0.157621503 0.112207189
0.694243968 0.156229824 0.110562526
0.737381220 0.159266219 0.103352323
0.780644894 0.162302598 0.101075038
0.824541271 0.165338278 0.099430680
0.866034091 0.168500632 0.093232006
0.904490829 0.177608773 0.085136004
0.954585910 0.177988321 0.085009530
0.981151044 0.177988321 0.078431480
0.995572269 0.181656927 0.074762680
1.000000000 0.183301643 0.076154359
0.188235000 0.203668699 0.129411995
0.197596416 0.200632304 0.121189296
0.209107757 0.200758696 0.124478295
0.218216151 0.203035861 0.124478295
0.230739787 0.198861405 0.119544744
0.245414570 0.201391399 0.116508357
0.261100709 0.198102415 0.116887905
0.282099694 0.199746698 0.116635293
0.304111183 0.196711078 0.116635293
0.330550194 0.197975934 0.118785523
0.352055579 0.195572406 0.116382003
0.374572784 0.191524252 0.115622744
0.393927932 0.187349990 0.114863642
0.422517031 0.186084956 0.117647000
0.448197097 0.183048576 0.117647000
0.473371476 0.180771694 0.115117095
0.496141702 0.182289496 0.116635293
0.526881814 0.183048561 0.114358000
0.558254063 0.184060693 0.112333745
0.587476075 0.182922050 0.114863649
0.622390449 0.183681145 0.113852002
0.662871540 0.186717272 0.109803997
0.703098953 0.185325399 0.111827716
0.745603800 0.189879596 0.104237899
0.786464334 0.194560260 0.099683717
0.826186061 0.196204975 0.096647680
0.868690789 0.199493825 0.095382713
0.908538818 0.209361106 0.085515723
0.950031698 0.210879117 0.080708295
0.986970484 0.212523401 0.080328800
0.996837139 0.214294389 0.069449633
0.998355269 0.218089700 0.065654717
0.194307193 0.223403096 0.126375809
0.203415766 0.222643793 0.114990510
0.216192409 0.221758187 0.114105001
0.229601249 0.220493153 0.118406095
0.239468634 0.217457548 0.118785545
0.257305861 0.222391099 0.116508156
0.270462006 0.220620006 0.112207003
0.285894990 0.216445491 0.111321613
0.305629194 0.219481096 0.110562898
0.329917997 0.216445491 0.110562898
0.352055758 0.217078105 0.111321993
0.373814076 0.214294940 0.111827739
0.398481756 0.210879102 0.114104547
0.419987172 0.205313101 0.116887905
0.446805596 0.202782780 0.116887905
0.473371297 0.200505897 0.113598906
0.499178082 0.199746996 0.110562898
0.525363624 0.202782765 0.111195475
0.558760166 0.205819160 0.111322001
0.590132773 0.206831098 0.113345742
0.624667704 0.207969740 0.111827739
0.663630247 0.212524056 0.108286001
0.706261516 0.215433195 0.108412482
0.749398887 0.220240191 0.104237899
0.789626777 0.227071285 0.098165721
0.829981327 0.231119186 0.094370589
0.867426157 0.232131183 0.090828910
0.912713468 0.238203883 0.084756911
0.951802671 0.240480989 0.078684434
0.979886055 0.242251962 0.074636102
0.999873459 0.246173173 0.072485447
0.996837080 0.252245188 0.057305805
0.218595967 0.238583505 0.114231028
0.218595982 0.244655490 0.114231028
0.225553781 0.246046990 0.115749292
0.236179963 0.244781822 0.118912160
0.248577029 0.241745561 0.121821940
0.263757437 0.238709956 0.124857545
0.276534021 0.241113186 0.112460166
0.291967005 0.237191737 0.106135003
0.311701208 0.231625885 0.107526518
0.335990012 0.234661490 0.113598518
0.360278010 0.237444878 0.116508387
0.380392045 0.234282494 0.115369745
0.402277112 0.229475334 0.113724999
0.429095566 0.226565495 0.113851510
0.453384310 0.226565495 0.113851517
0.477798969 0.226438984 0.113851517
0.502213895 0.226312488 0.113598518
0.528400004 0.227071553 0.114231087
0.561796486 0.230107948 0.117267482
0.595192850 0.233143628 0.117393993
0.628462672 0.234155506 0.113725483
0.663124263 0.237318143 0.107779995
0.700189531 0.245793983 0.102340475
0.745730758 0.245793983 0.105376087
0.786590755 0.252878278 0.096647523
0.828842521 0.259076804 0.087666012
0.873498082 0.262492001 0.081720524
0.916002810 0.268564016 0.075648524
0.958634079 0.274636030 0.069576532
0.984946251 0.278684258 0.063504495
0.997090161 0.282606006 0.057685260
0.999873459 0.288677990 0.051233027
0.222517118 0.259582877 0.110815868
0.231245995 0.259835869 0.119544744
0.235546991 0.263757110 0.113092966
0.242631122 0.263251156 0.118153155
0.252624661 0.260215193 0.126249447
0.272865057 0.257178932 0.119165070
0.277925462 0.256672978 0.117140681
0.295508981 0.259329587 0.113345705
0.317014098 0.256799787 0.114610866
0.339152098 0.255534381 0.116381869
0.360531002 0.252751738 0.113724999
0.382795244 0.251739621 0.114737131
0.403035760 0.247691363 0.111447997
0.426818252 0.245161027 0.108159028
0.453763813 0.247817874 0.110815868
0.482858986 0.245414063 0.113219060
0.506641209 0.247944370 0.110688999
0.529538274 0.251360148 0.108538575
0.556104004 0.254395962 0.111574963
0.589500427 0.257432371 0.109044641
0.628589451 0.262365729 0.108918130
0.666034102 0.265401602 0.103858262
0.702846289 0.270714492 0.096142001
0.748386860 0.279063880 0.096394971
0.791650712 0.281341136 0.092599876
0.834534943 0.286401182 0.087286867
0.879064083 0.290448934 0.083238736
0.919164956 0.298924744 0.072359137
0.956356704 0.307653576 0.066287145
0.985958338 0.312207371 0.058443934
0.998987854 0.314357877 0.049462277
1.000000000 0.316381872 0.039342001
0.233649254 0.276787251 0.113851994
0.238709643 0.278810978 0.118912384
0.245667249 0.278937489 0.117140964
0.253004432 0.280708253 0.110562898
0.260594517 0.278431535 0.119671203
0.276913196 0.275395572 0.117140807
0.291081578 0.276913255 0.115116678
0.300695956 0.276913255 0.112080708
0.322327524 0.278810978 0.114357904
0.342314750 0.277039766 0.115622744
0.365591407 0.274004132 0.114737131
0.384819508 0.272992224 0.113724999
0.406071901 0.269955873 0.112586647
0.427577317 0.267172515 0.108412251
0.453131229 0.268437684 0.113219410
0.482858986 0.270714939 0.108159192
0.511701167 0.269196749 0.111195192
0.535863101 0.273624659 0.106641263
0.562934995 0.276660293 0.105502978
0.593548715 0.281720340 0.107020639
0.628842771 0.286653996 0.103984743
0.670082390 0.292725980 0.101834260
0.707653463 0.297026753 0.093611985
0.749398887 0.306135148 0.086021490
0.788614511 0.312713265 0.085515492
0.833902240 0.315749645 0.076660506
0.879569888 0.319291502 0.073118493
0.920556426 0.326881677 0.064010113
0.959392846 0.335990071 0.053131025
0.983428001 0.343327224 0.045287810
0.998861372 0.346615911 0.037950404
1.000000000 0.347754240 0.029221747
0.248829633 0.295383006 0.117647000
0.250727385 0.297280252 0.119544744
0.255914003 0.299304277 0.117267452
0.262112498 0.298165649 0.113598511
0.271220893 0.298924655 0.111321896
0.282606006 0.298165917 0.114357702
0.297280312 0.296774328 0.116002284
0.312460721 0.298165649 0.114357710
0.329159111 0.298165649 0.112080999
0.347754657 0.298165649 0.114737161
0.369513094 0.296394885 0.113724999
0.390891999 0.295383006 0.113724999
0.411385298 0.294244349 0.113724999
0.432890654 0.291460991 0.110942349
0.457179159 0.291460991 0.115243353
0.483997613 0.293864816 0.112713203
0.513978183 0.297659993 0.106261544
0.542567730 0.298292577 0.108032942
0.573434651 0.301328331 0.102467008
0.606072366 0.308285654 0.105882287
0.635673821 0.313219249 0.100569099
0.675142705 0.319291264 0.096521363
0.714864135 0.325616270 0.090322852
0.754332542 0.335736543 0.079190195
0.796078205 0.342567891 0.073877007
0.833522916 0.350663930 0.068311028
0.881087780 0.353194267 0.055660941
0.923592508 0.358001262 0.047691368
0.962302446 0.366730094 0.038583387
0.985325754 0.372928590 0.025933165
0.996963620 0.378115237 0.019481361
1.000000000 0.381150931 0.016698007
0.263504028 0.319418043 0.117647000
0.263756990 0.319924027 0.118152998
0.269070059 0.321568817 0.114990227
0.274636090 0.322074860 0.113472030
0.280581534 0.319924086 0.113851517
0.289689928 0.325996071 0.116887905
0.304870307 0.322201043 0.119924292
0.319038689 0.319671065 0.120430291
0.335484087 0.319924027 0.117393970
0.356736451 0.319924027 0.117393970
0.375079006 0.319418043 0.114484161
0.395572245 0.319671065 0.113724999
0.417204231 0.318785459 0.113724999
0.441493005 0.316002101 0.113978028
0.465781003 0.316002101 0.113978028
0.490322590 0.318405837 0.113724999
0.517394006 0.322707057 0.110688999
0.548386693 0.328146577 0.106008552
0.581783891 0.331182986 0.102972947
0.617457688 0.340037763 0.106767975
0.647058964 0.345350742 0.100569293
0.678431332 0.349905014 0.088172004
0.723719478 0.356103539 0.081720509
0.763187885 0.368121088 0.072359100
0.808981538 0.375964612 0.064768970
0.852498293 0.384567052 0.055407990
0.889690101 0.395446032 0.043010939
0.932194829 0.395446032 0.027830567
0.968880594 0.402656823 0.020872982
0.989879787 0.408222824 0.011005852
0.996710598 0.411764652 0.000253032
0.999746978 0.414801061 0.000253032
0.272612393 0.340670377 0.117647000
0.275647998 0.346742392 0.123718992
0.288804531 0.345098168 0.113472216
0.296900809 0.343327224 0.108412161
0.298545271 0.341049939 0.110815868
0.301833928 0.344212830 0.113851517
0.326122314 0.342694491 0.116887905
0.337760687 0.342315078 0.121568576
0.347121984 0.344718724 0.121947899
0.365844071 0.347248405 0.114357583
0.384187311 0.341429383 0.111448452
0.406451374 0.342694640 0.112460159
0.426691622 0.343959808 0.113724999
0.444528610 0.343327224 0.113978028
0.468817413 0.343327224 0.117014416
0.495509207 0.345730424 0.114610612
0.522201180 0.348766595 0.110688999
0.551422954 0.352435201 0.107146986
0.584819555 0.355470985 0.112080529
0.615433335 0.366856724 0.100695565
0.648956299 0.372675478 0.098039329
0.684503376 0.378747374 0.090449288
0.729791522 0.389499873 0.081720509
0.769259930 0.398608267 0.066540092
0.811005533 0.408349097 0.052624729
0.854775310 0.416825026 0.037950628
0.895509064 0.426565737 0.022011604
0.935230434 0.434914380 0.009614585
0.967109203 0.434914380 0.005060187
0.989879727 0.438583165 0.004933814
0.998481810 0.443390429 0.003289416
0.996710598 0.451233804 0.003289416
0.286527783 0.369133592 0.108033009
0.289563388 0.380012602 0.121315807
0.292599559 0.375331819 0.110183261
0.307020992 0.371790141 0.104870163
0.312713534 0.368754029 0.109803997
0.319797695 0.367741913 0.110815868
0.338266909 0.370525271 0.113851517
0.350790590 0.369133592 0.113598906
0.356862783 0.370651782 0.115876004
0.375078797 0.372043103 0.111701325
0.398102552 0.371157587 0.110815868
0.410246521 0.369133592 0.107779741
0.433775932 0.370651782 0.111195005
0.454269618 0.370904744 0.113219000
0.474256814 0.373054981 0.109803617
0.498544961 0.370651782 0.110436201
0.524351597 0.373687387 0.108918004
0.552688122 0.377988547 0.104617007
0.587855816 0.384566635 0.103605002
0.618469536 0.391144723 0.097785994
0.654522538 0.401391745 0.083744273
0.689943075 0.409487724 0.076660536
0.731056511 0.422896862 0.066920012
0.770524919 0.432004690 0.044908307
0.812270522 0.438836366 0.036559217
0.853383958 0.447817892 0.021758363
0.893864810 0.456926048 0.007590205
0.931435406 0.466034144 0.003036210
0.974952400 0.467172593 0.003668972
0.991144776 0.470714569 0.000632587
0.999114394 0.476154387 0.001518196
0.996078014 0.485262781 0.001518196
0.297153980 0.402530372 0.106514804
0.304743797 0.408602387 0.112587199
0.307779938 0.410246789 0.108665451
0.314611167 0.404933572 0.099304162
0.325996190 0.402530372 0.107147455
0.333965927 0.400632620 0.108285807
0.347122312 0.398102313 0.109297678
0.365970969 0.401012182 0.110562518
0.371284068 0.401012182 0.108285807
0.390259176 0.401012182 0.108285807
0.409740716 0.399493992 0.106768005
0.429981112 0.401012182 0.109297931
0.441366017 0.403289169 0.105123192
0.466161013 0.403795213 0.108918168
0.483112156 0.404301137 0.104111008
0.507653356 0.402529985 0.102846004
0.533459544 0.401012182 0.102846004
0.558380723 0.405312955 0.102213584
0.592157006 0.414421350 0.097027183
0.624541521 0.420746386 0.086401001
0.660594940 0.430233926 0.074636273
0.701075494 0.439342320 0.060468007
0.738267183 0.453384161 0.050601315
0.773560941 0.463883489 0.030487191
0.816824734 0.473750561 0.015306819
0.857937813 0.479822963 0.012017814
0.897912920 0.488298327 0.000000000
0.936369121 0.496394813 0.000000000
0.971663237 0.499051183 0.001138640
0.995698988 0.502593160 0.002150783
1.000000000 0.507779777 0.000885608
0.997596204 0.515623152 0.001518192
0.305123568 0.439595520 0.108665034
0.317899972 0.439595520 0.108791813
0.322960198 0.439595520 0.104617208
0.329791546 0.438962966 0.099304155
0.340797007 0.438962966 0.100442998
0.346615970 0.438962966 0.102213658
0.356483281 0.435167462 0.102087021
0.369259953 0.433396220 0.102087021
0.387602657 0.435673535 0.102087021
0.408855051 0.435673535 0.102087021
0.425553441 0.433396250 0.099810310
0.444149226 0.433775783 0.101581432
0.463757217 0.437318116 0.103731863
0.479949594 0.442884117 0.098418891
0.496647954 0.440227956 0.096141599
0.518279731 0.439089298 0.094244018
0.545604169 0.436938703 0.093611442
0.572296143 0.436938703 0.091714032
0.599620640 0.446047068 0.088678397
0.632510960 0.451739520 0.076407492
0.669070184 0.460974127 0.061859705
0.707653701 0.472738683 0.048323859
0.750031888 0.481847048 0.035926878
0.781910002 0.493485123 0.020240534
0.821758270 0.504996538 0.008222721
0.864516199 0.514990151 0.000000000
0.902972639 0.521062076 0.000000000
0.945097864 0.527134836 0.000000000
0.975584805 0.530550301 0.000000001
0.992915630 0.535989702 0.000000000
0.998735011 0.540543735 0.000253032
0.998735011 0.543580115 0.003289424
0.320304006 0.479064018 0.084376976
0.335483611 0.479064018 0.096520975
0.339658022 0.479064018 0.103098989
0.344971389 0.477798849 0.104111105
0.355977446 0.475395054 0.100442953
0.359013081 0.475395054 0.088298962
0.372422338 0.475395054 0.085009612
0.385452002 0.474888980 0.083870962
0.399620205 0.475142002 0.083870962
0.417963475 0.475142002 0.083870962
0.439215869 0.475142002 0.083870962
0.457937986 0.474888980 0.083617993
0.476407319 0.476280659 0.082985349
0.495130032 0.479317009 0.080202051
0.522454321 0.479317009 0.083238438
0.536748946 0.483871013 0.078557961
0.557748199 0.484630167 0.074509762
0.584440112 0.482479960 0.070461571
0.608729064 0.482479930 0.061353948
0.641619384 0.486021638 0.055534277
0.676913440 0.493105769 0.044908032
0.712587118 0.503479004 0.033522874
0.746995509 0.515243530 0.023782067
0.786463976 0.524351895 0.005566058
0.822896600 0.533712685 0.001265030
0.861479998 0.543073714 0.000000000
0.899937034 0.551422954 0.000000000
0.933333397 0.557494998 0.000000000
0.967488766 0.560910940 0.000000003
0.987981915 0.567489147 0.000000002
0.995445669 0.573687911 0.000000000
0.992662966 0.573940992 0.000253032
0.341050386 0.521315753 0.065654986
0.347881317 0.518532395 0.066666976
0.356609732 0.520683169 0.068058208
0.362934709 0.521315753 0.068437457
0.374320000 0.520556509 0.065780908
0.379759461 0.522959769 0.063250914
0.390386015 0.522959769 0.058697235
0.405312985 0.521315455 0.055660918
0.419354469 0.520936012 0.054522268
0.435546964 0.522959769 0.054522268
0.453890234 0.522959769 0.051739622
0.477166355 0.522959769 0.051739622
0.496900678 0.522959769 0.050600979
0.515370429 0.524604499 0.048070651
0.537634730 0.529665112 0.051107038
0.562555313 0.529665112 0.042125020
0.579253733 0.531942070 0.036812104
0.602150679 0.530803740 0.032511048
0.626439035 0.530803740 0.023402870
0.656293750 0.533586383 0.019861259
0.689690053 0.536622465 0.015686233
0.723213255 0.543959618 0.010246625
0.755091846 0.554332435 0.006830987
0.794560313 0.566097677 0.004553992
0.834029198 0.577482760 0.000000000
0.875142336 0.582922101 0.000000000
0.916382074 0.587855816 0.000000000
0.949778438 0.596205115 0.000000000
0.980518639 0.602277100 0.002656833
0.994307339 0.607210755 0.001012141
0.997975767 0.613536000 0.000000000
0.994939625 0.615433753 0.000000000
0.358507246 0.565717697 0.036053538
0.358886987 0.564579070 0.030360801
0.370651722 0.567741990 0.032005507
0.374193728 0.568248034 0.028969120
0.384566724 0.567615449 0.027071280
0.396710724 0.569133282 0.030107278
0.404047906 0.569639206 0.025679862
0.419481665 0.569639206 0.024288537
0.435673475 0.569133461 0.022264278
0.451992214 0.573307693 0.022264276
0.470082462 0.569639206 0.021252405
0.490448952 0.571536958 0.022138275
0.512460291 0.571536958 0.020999633
0.531183004 0.571536958 0.018469308
0.554079652 0.574320316 0.021505691
0.575837970 0.579380453 0.018216409
0.601644576 0.579380453 0.012144011
0.622897267 0.580012858 0.010120267
0.648450553 0.581277728 0.004807035
0.678304732 0.582163095 0.005060352
0.702972710 0.583301485 0.003922000
0.736369371 0.586337864 0.001897740
0.767615736 0.593548238 0.001771228
0.801770926 0.602150500 0.000000000
0.841239810 0.610499740 0.000000000
