Assets/Shaders/EldamarStudio/100 Sci-Fi LUTs Pack/LUTs/cube/Marianna LUT.cube
LUT_3D_SIZE 8
DOMAIN_MIN 0.000000 0.000000 0.000000
DOMAIN_MAX 0.903226 0.903226 0.903226
0.086274996 0.050980002 0.054901998
0.167741999 0.050980002 0.067805447
0.268817186 0.035294000 0.083871000
0.371030629 0.006704646 0.108158998
0.489689976 0.001518192 0.143326998
0.605186701 0.000000000 0.182036728
0.724730968 0.003922000 0.238203704
0.855407596 0.018595794 0.289057642
0.154459000 0.119164996 0.098797999
0.188488543 0.111701541 0.087792993
0.273118556 0.123846002 0.092473000
0.375332177 0.115622640 0.119924091
0.480329186 0.111322097 0.149652198
0.594054282 0.110436089 0.187222987
0.719670951 0.115369633 0.234661743
0.843769908 0.150410891 0.291334361
0.236686081 0.212271094 0.175585002
0.272739112 0.207590103 0.179000646
0.314990193 0.202909291 0.151296899
0.394686639 0.214674190 0.148640454
0.474763095 0.244402185 0.162935004
0.593548715 0.257305533 0.206578359
0.716002524 0.274130285 0.251233280
0.846046567 0.299430817 0.307906061
0.326755285 0.356609911 0.265780926
0.366730005 0.350664288 0.279696643
0.396458209 0.351802826 0.291713923
0.433270276 0.331941545 0.218089640
0.507021010 0.331309170 0.201770633
0.575205386 0.385325372 0.213156089
0.688930929 0.413788915 0.254016638
0.826312602 0.438203424 0.314990819
0.400632173 0.539531529 0.403162539
0.431498736 0.545477748 0.425679713
0.473371178 0.552941263 0.474636376
0.492472827 0.545098186 0.409487486
0.551802218 0.495762378 0.312587172
0.611132145 0.464009911 0.264262944
0.688804388 0.524098575 0.283491492
0.801391602 0.576217771 0.322959989
0.489816457 0.732700467 0.593421698
0.517393887 0.736622453 0.600506008
0.566856742 0.741555810 0.637191713
0.601644576 0.736875117 0.646552801
0.622897148 0.726249278 0.567109466
0.671726704 0.671853244 0.450221479
0.739151955 0.601265013 0.363567322
0.842504680 0.657305479 0.407337278
0.636432528 0.863630295 0.732194841
0.660974026 0.863377690 0.750157833
0.706388354 0.862745285 0.770145297
0.752814591 0.866413653 0.803668618
0.757495284 0.865275025 0.774699628
0.779000998 0.849715590 0.706641555
0.812270522 0.807716548 0.602782845
0.877040029 0.732068360 0.513092637
0.814800620 0.944085777 0.860467970
0.823402643 0.953447044 0.879190385
0.852118850 0.951169908 0.881467819
0.879570007 0.948260844 0.900822043
0.894623578 0.947880983 0.904870152
0.887918949 0.949778736 0.869196713
0.912334204 0.944339097 0.820493340
0.938899636 0.911448598 0.744212627
0.003922000 0.114863545 0.160658002
0.168121547 0.050221000 0.170524538
0.272359550 0.053763449 0.152814999
0.369512737 0.067046456 0.189627007
0.472991735 0.097912803 0.244402185
0.582922339 0.144844994 0.302340090
0.707906425 0.162808090 0.351802379
0.836685300 0.192789510 0.386211365
0.091840908 0.173181087 0.163440555
0.175205529 0.135989547 0.167741999
0.280202538 0.117140643 0.171663091
0.371537089 0.129285187 0.201391205
0.473624557 0.156356543 0.251612902
0.591650963 0.160151839 0.287160039
0.703099251 0.175837830 0.323466092
0.831119597 0.195699096 0.369259924
0.176344097 0.214674205 0.201391205
0.237445086 0.217837110 0.204174533
0.305249631 0.202150181 0.197090656
0.388361633 0.217330635 0.201770738
0.486147732 0.228336647 0.230739743
0.597217202 0.238077283 0.260974288
0.712586999 0.256799191 0.296394736
0.839342356 0.292219907 0.351929098
0.282479435 0.339278907 0.263124377
0.321315169 0.344465286 0.271727085
0.389500171 0.342441738 0.310436606
0.428209752 0.326881647 0.251865834
0.487286508 0.337508082 0.241239995
0.573687375 0.377861917 0.265148669
0.685515285 0.402782977 0.302213788
0.817457199 0.427198112 0.358633637
0.341682196 0.527893603 0.385325581
0.388108790 0.530549943 0.399746895
0.453763396 0.533712804 0.453130841
0.484250396 0.537381411 0.441745460
0.538140535 0.488804370 0.332068354
0.604680717 0.462871641 0.298924536
0.680329084 0.523972154 0.319924116
0.802656770 0.569133461 0.371157348
0.449588984 0.722327650 0.563440919
0.483238280 0.723086655 0.581151485
0.534597993 0.727767289 0.623529375
0.590765119 0.734092474 0.654775500
0.613282442 0.719165266 0.583048820
0.660214663 0.663377643 0.473244727
0.731815398 0.605819046 0.389500290
0.833016992 0.662871301 0.432258278
0.621125996 0.856166840 0.723845363
0.641113520 0.858823538 0.737887561
0.679569721 0.861606538 0.760657847
0.738140166 0.862365544 0.798734903
0.757368565 0.857938111 0.782669187
0.768500566 0.849842012 0.715496838
0.804427564 0.803541958 0.615180314
0.878178239 0.727387547 0.519291699
0.809993327 0.948260546 0.860341370
0.824415028 0.947248697 0.881973803
0.845414519 0.944465280 0.879064083
0.868943691 0.949399173 0.896394610
0.895762205 0.949399173 0.908918321
0.893105626 0.945857108 0.877419353
0.916255414 0.937254667 0.827830553
0.942820966 0.910183787 0.762302160
0.001517998 0.196584284 0.291334271
0.000758999 0.139405191 0.290575266
0.263377994 0.043136999 0.275775015
0.375711739 0.026818812 0.265907645
0.467046380 0.031372808 0.283617973
0.570777833 0.092852637 0.340670377
0.686400950 0.169133469 0.399493992
0.812143803 0.269576371 0.482858807
0.000758999 0.254649103 0.295003533
0.019987449 0.213535652 0.295003563
0.246426642 0.115243092 0.283618093
0.377355725 0.102340452 0.271853119
0.469450086 0.104996994 0.284377068
0.569639266 0.152814895 0.346236467
0.687666059 0.211258367 0.417583793
0.816445529 0.305755824 0.494623721
0.003162904 0.325110286 0.305503070
0.079949364 0.324730754 0.301960737
0.253131002 0.239722073 0.300822198
0.392283529 0.202150196 0.289184183
0.476534098 0.218596101 0.316508353
0.585199356 0.260467827 0.378494412
0.690322340 0.322580367 0.444908261
0.819228351 0.387982100 0.512334168
0.176091433 0.331688762 0.326502264
0.224288076 0.322959840 0.330929726
0.298924744 0.321821392 0.321189106
0.394560546 0.320809633 0.307021081
0.475648403 0.339152277 0.331309199
0.580898046 0.359772116 0.362934828
0.701707661 0.391903907 0.413156122
0.826059461 0.432384700 0.465528190
0.219860792 0.498798192 0.411132276
0.270461798 0.502466738 0.415939301
0.370019078 0.499683350 0.410373181
0.469955623 0.514990628 0.466666460
0.508665204 0.473118186 0.388614982
0.575205266 0.483744532 0.369386613
0.671600163 0.529538393 0.409740567
0.805186808 0.571410418 0.471979797
0.352435172 0.701707721 0.544465482
0.391777247 0.695256174 0.553194046
0.456040621 0.708538830 0.579759836
0.562428594 0.717647076 0.645920038
0.598355412 0.706514716 0.631625891
0.633017302 0.654396057 0.511827946
0.714863896 0.619481444 0.455407947
0.815812707 0.678431451 0.502719700
0.543074012 0.848703504 0.703984737
0.586084545 0.847058594 0.719797313
0.638709664 0.853384197 0.747374952
0.714610994 0.859582424 0.782162905
0.760657728 0.861986160 0.805439413
0.761290550 0.845161319 0.745098233
0.792662561 0.801644325 0.650727630
0.865148783 0.740037858 0.567868412
0.785831749 0.953320682 0.857811570
0.807843029 0.949399054 0.862112284
0.822643638 0.949272633 0.879949629
0.866413653 0.952182055 0.897153497
0.899557054 0.953067601 0.915496647
0.897659719 0.948766708 0.895888686
0.911827803 0.938267052 0.848703384
0.943959713 0.912207484 0.782289624
0.002276998 0.326248914 0.471473575
0.006325098 0.289436728 0.462491810
0.000379562 0.151169986 0.443643004
0.359266639 0.018469356 0.418722630
0.481214195 0.000000000 0.411385089
0.562302709 0.002656643 0.417710364
0.669829309 0.022517284 0.443516612
0.798987567 0.155976981 0.514990747
0.000000000 0.370145649 0.466413617
0.000759096 0.326628357 0.462112457
0.001897551 0.228462726 0.455787361
0.350663841 0.102720007 0.428589284
0.482100219 0.074509904 0.414927453
0.560278296 0.088172160 0.414294541
0.664010108 0.112333730 0.444908291
0.798228800 0.208096325 0.516887665
0.005566002 0.477040172 0.488804370
0.000000001 0.444908381 0.489563286
0.001138563 0.354079276 0.476281077
0.322453737 0.205945283 0.454396069
0.475648403 0.188488543 0.420620173
0.567489088 0.197849452 0.430866390
0.675395370 0.229728013 0.466286927
0.805692554 0.324604511 0.547628045
0.000000000 0.549398899 0.506261885
0.000000000 0.543580294 0.509045184
0.002783366 0.535736501 0.495003283
0.316002280 0.381783634 0.460847586
0.480834752 0.306261957 0.438709468
0.567741752 0.318785280 0.446046710
0.677039981 0.387476265 0.513472617
0.799114645 0.485389143 0.596457601
0.013535639 0.511448264 0.499430805
0.081720546 0.506009161 0.497785896
0.222770274 0.504491031 0.496394724
0.343453288 0.490069628 0.484250158
0.473118305 0.448450595 0.459835440
0.563567281 0.494244188 0.498292208
0.680961311 0.528779268 0.543453336
0.811005414 0.579759717 0.595825434
0.006831090 0.658950210 0.597975910
0.038330365 0.655281723 0.596964180
0.232384443 0.665401816 0.595319450
0.410878837 0.662239134 0.585958481
0.559646010 0.685515463 0.637191594
0.591903806 0.638077259 0.564959049
0.681594074 0.641492605 0.549905181
0.798355401 0.697533250 0.588108659
0.388361812 0.835167587 0.707526863
0.434408277 0.835547209 0.706388712
0.506767869 0.834914804 0.717394412
0.607843161 0.846932292 0.743326783
0.730423748 0.857305348 0.801644146
0.759392798 0.849715114 0.787981987
0.779759943 0.798734903 0.693484843
0.848703027 0.763567269 0.636812270
0.730170727 0.952055573 0.844655395
0.745477378 0.954332471 0.859709203
0.786084771 0.950537562 0.879190326
0.839848101 0.950664043 0.894623578
0.892346442 0.955597460 0.919418156
0.916508675 0.953573704 0.922959983
0.912334204 0.942694843 0.877545774
0.935863078 0.919291675 0.811258733
0.004807003 0.460721195 0.662871540
0.000000000 0.432131827 0.655661166
0.000000000 0.339911252 0.644781590
0.000379548 0.135357171 0.623150051
0.456167012 0.000000000 0.594686925
0.573814213 0.001518192 0.564200103
0.656673253 0.001644712 0.564073443
0.780644953 0.001518192 0.587981999
0.000000000 0.495129555 0.657179177
0.004807003 0.456673145 0.657811821
0.000379548 0.388235450 0.641113043
0.007210811 0.186337978 0.632004797
0.444781661 0.086148188 0.588361561
0.568121433 0.040354352 0.561290085
0.653384268 0.058064613 0.570651650
0.773814023 0.062618695 0.585705042
0.000000000 0.567236125 0.673877239
0.000379548 0.554079354 0.681593776
0.000000000 0.480329186 0.658064604
0.000000000 0.337002099 0.638077021
0.423909009 0.199746996 0.606451631
0.565338671 0.178620994 0.579506755
0.665148437 0.184946388 0.579633415
0.784566760 0.196331352 0.591524124
0.001138547 0.704743922 0.695508778
0.000758999 0.685262501 0.688678265
0.001517999 0.620872974 0.670967937
0.002403808 0.507653177 0.650853753
0.374572992 0.335104495 0.620113850
0.555597544 0.302972972 0.579127014
0.665401638 0.312713295 0.587349772
0.787223101 0.334977448 0.596078455
0.000000000 0.736495495 0.687919319
0.001138644 0.745351136 0.695129335
0.002403808 0.736622274 0.685768127
0.003035997 0.709550679 0.681847095
0.362049401 0.546995163 0.650853753
0.550790250 0.440227568 0.595192909
0.659076273 0.458950341 0.591777503
0.793674827 0.550537646 0.657179177
0.000000000 0.715243459 0.690575123
0.003162904 0.716255367 0.692726135
0.012650639 0.706894279 0.682479203
0.218596086 0.695509017 0.680202127
0.394433945 0.666160583 0.653257430
0.535610497 0.599493980 0.611258626
0.665148556 0.663630724 0.664010108
0.812902987 0.702972949 0.702846408
0.000000000 0.777862132 0.745351255
0.003415642 0.787603021 0.750916898
0.048576936 0.803668499 0.752308428
0.330044061 0.809234500 0.741555870
0.556736231 0.814168096 0.748260558
0.731941819 0.837824106 0.808349550
0.731182754 0.784187317 0.718912303
0.827071309 0.783175111 0.707147598
0.563693404 0.945224464 0.839974940
0.593927622 0.950790405 0.843896091
0.658190966 0.948387027 0.853383839
0.743200481 0.950410962 0.869449377
0.835926473 0.953320801 0.894623578
0.914990604 0.960278034 0.930170715
0.914358020 0.953446984 0.916129112
0.925742984 0.920682907 0.842884123
0.003922000 0.558380723 0.803415477
0.002024260 0.538393319 0.800885260
0.001517998 0.480961472 0.794687092
0.004048004 0.358507544 0.787096739
0.100189909 0.138266742 0.767868459
0.515243709 0.003794996 0.726755202
0.647691786 0.000379548 0.702087462
0.769639373 0.003162908 0.717520535
0.004174544 0.580645084 0.797596455
0.002277191 0.560278475 0.794687212
0.002024260 0.503478825 0.793801248
0.000759096 0.391018361 0.785072565
0.041618999 0.181277633 0.768627346
0.504743993 0.095003352 0.728146911
0.642631054 0.018342642 0.702340007
0.765717864 0.004554092 0.718153000
0.000759096 0.648576796 0.810246468
0.000000000 0.634029031 0.813535810
0.000000000 0.579506755 0.796078384
0.003542355 0.474763095 0.797976077
0.003162808 0.276786745 0.769639194
0.493358672 0.210753098 0.740670145
0.650094926 0.169512838 0.712080896
0.775205612 0.167868450 0.729032278
0.000000000 0.749525666 0.813282490
0.001138644 0.737760723 0.815433145
0.003035996 0.684756398 0.808096051
0.002783356 0.599367380 0.797090471
0.005313091 0.453889906 0.780012727
0.465275407 0.333080024 0.743453324
0.643010676 0.293231934 0.716888130
0.783681154 0.297153622 0.732068121
0.004048004 0.878178418 0.833775759
0.000379548 0.873497725 0.830486774
0.004807100 0.835799873 0.825679839
0.001138547 0.762049079 0.811005414
0.133080125 0.656672955 0.796964169
0.427450955 0.493358552 0.769513190
0.655534744 0.427704185 0.727387726
0.796963811 0.443010539 0.731688738
0.000000000 0.883617699 0.832763672
0.000000000 0.883238256 0.834281921
0.000000001 0.882985651 0.826818466
0.002276998 0.873877466 0.821631670
0.232384279 0.850221276 0.817077696
0.455787182 0.703099191 0.783681512
0.651107013 0.596964180 0.730170667
0.798987627 0.615559697 0.724351645
0.003542452 0.860594511 0.825806439
0.000000000 0.864516079 0.831625700
0.000000002 0.857052565 0.827577174
0.146109924 0.843516707 0.816318750
0.370651454 0.826945007 0.807336986
0.526881397 0.798734963 0.770525157
0.650221050 0.748134255 0.736369610
0.817330778 0.798608303 0.788235188
0.020872843 0.893232107 0.876154661
0.041745536 0.904490709 0.879443347
0.096394211 0.920935869 0.883238375
0.379000008 0.935230732 0.874509633
0.628842473 0.939279079 0.873244762
0.806325376 0.941682816 0.900948584
0.916128993 0.956736147 0.941682518
0.914610744 0.918152750 0.866540015
0.000000000 0.639468253 0.902846277
0.005566292 0.622011721 0.910057247
0.001518192 0.583048224 0.902213693
0.000000000 0.502087653 0.910057008
0.001644712 0.337634385 0.898545325
0.227704108 0.162049294 0.876154304
0.575458288 0.052877981 0.854775548
0.730170548 0.003542456 0.831372559
0.001897740 0.654016554 0.904491007
0.002277288 0.640733540 0.908538997
0.001138547 0.603288949 0.905376196
0.001897547 0.525616765 0.905755937
0.003542452 0.371030748 0.894876480
0.216698110 0.206451744 0.880708575
0.570271969 0.121442109 0.848830283
0.729538083 0.015433388 0.824414968
0.000000000 0.702087164 0.900569022
0.005313265 0.690069556 0.908918202
0.001517998 0.653510571 0.908286095
0.001897643 0.584566534 0.901581109
0.003162711 0.455281377 0.897279978
0.170271724 0.286654264 0.889816403
0.560530961 0.222264469 0.860594332
0.738772810 0.168753847 0.841872334
0.005566002 0.784060955 0.912334025
0.004933716 0.773308277 0.908538997
0.000379548 0.744085908 0.913219333
0.000000000 0.684250295 0.900062919
0.002277288 0.580645323 0.903225780
0.090702116 0.401265115 0.887792349
0.548133910 0.346995264 0.860847652
0.739658356 0.294370562 0.844022751
0.002403808 0.893611372 0.921062529
0.002276998 0.886654079 0.920303524
0.001644712 0.862871587 0.911322296
0.005186744 0.813535631 0.920303583
0.000759096 0.735736370 0.909044981
0.181910113 0.588235199 0.896394372
0.533586264 0.488930881 0.877545655
0.753320575 0.431878835 0.848576844
0.000000000 0.981909990 0.913219571
0.003289004 0.980012298 0.921948195
0.006957803 0.974446237 0.923212945
0.004301257 0.949651837 0.922454178
0.253889948 0.888045549 0.919291556
0.380518794 0.786717534 0.906641245
0.534724832 0.653383851 0.884756565
0.777988136 0.587476373 0.859202862
0.000000000 0.982289553 0.920809567
0.000000000 0.975332260 0.923845530
0.021252181 0.972169280 0.918659151
0.184060395 0.969386697 0.916887999
0.426059276 0.962681770 0.921315372
0.582036555 0.953826547 0.932321310
0.641619086 0.838456571 0.892725945
0.807463288 0.741049528 0.848323822
0.175584599 0.956862807 0.922707200
0.216318622 0.962682188 0.929538071
0.311448336 0.958000958 0.936116278
0.413156360 0.953320265 0.927134216
0.516761661 0.945477247 0.924983978
0.615180016 0.926881731 0.910816252
0.727134585 0.900695741 0.888551593
0.849083126 0.894749999 0.886021674
0.001265167 0.696900964 0.983174980
0.006578155 0.680455565 0.983554542
0.001517998 0.654142737 0.985199213
0.000000000 0.594940126 0.985958338
0.001518192 0.497786433 0.983680964
0.002024260 0.303352237 0.973687530
0.324984610 0.211384952 0.973814070
0.642378449 0.130929798 0.957368612
0.000379548 0.711701393 0.986211240
0.002530012 0.699810207 0.984439969
0.000379548 0.667299092 0.978874087
0.003036187 0.615433276 0.981151044
0.000000000 0.522454023 0.978115022
0.000000000 0.341049850 0.981277645
0.312966257 0.243263617 0.972675323
0.647691548 0.168627530 0.963693798
0.002530012 0.752814710 0.979253650
0.003289011 0.737761021 0.978368282
0.000000000 0.714105010 0.977482736
0.000000000 0.663250983 0.982036829
0.002024264 0.575711608 0.989247084
0.002277087 0.425680131 0.984693110
0.299051613 0.319164813 0.976849854
0.641998768 0.250094920 0.963693798
0.000000000 0.810499668 0.975331962
0.002909561 0.804048061 0.980012357
0.000000000 0.780392110 0.985452235
0.002530012 0.743453622 0.980644941
0.001138644 0.663377643 0.980139136
0.000759092 0.544085801 0.982415915
0.279823095 0.421505183 0.981151044
0.634661615 0.366224110 0.957368612
0.000000000 0.907021165 0.979632795
0.002656539 0.900822461 0.978621185
0.003162904 0.882226408 0.978494465
0.001518192 0.841745675 0.979000628
0.002530012 0.786717415 0.986464202
0.001265167 0.689942956 0.980265498
0.290322781 0.552688181 0.973813832
0.650474489 0.491208196 0.970651805
0.001265167 0.992409766 0.973940670
0.002277285 0.987223089 0.979127407
0.002656832 0.978873909 0.982163191
0.076533653 0.953573763 0.980012417
0.143074021 0.914737463 0.980645120
0.282226682 0.843010783 0.982036829
0.415686280 0.733206689 0.975964487
0.680581868 0.638962746 0.963061213
0.131056070 1.000000000 0.975964725
0.173054799 0.998734832 0.976596892
0.282352567 0.999620438 0.973181605
0.427577525 0.998734832 0.970904112
0.527261019 0.998481810 0.979380071
0.632131457 0.971410751 0.979506671
0.645287752 0.896773934 0.975964725
0.731562018 0.785072863 0.964326382
0.427450985 0.997343183 0.976596832
0.438836157 0.997722745 0.974573255
0.493864477 1.000000000 0.985704958
0.566223681 0.998734832 0.979000628
0.650474250 1.000000000 0.977608919
0.752308488 0.997975767 0.978873909
0.845034838 0.992915928 0.973560810
0.863250911 0.937507927 0.974193692
