Assets/Shaders/EldamarStudio/100 Sci-Fi LUTs Pack/LUTs/cube/Marianna LUT.cube
LUT_3D_SIZE 5
DOMAIN_MIN 0.000000 0.000000 0.000000
DOMAIN_MAX 0.903226 0.903226 0.903226
0.086274996 0.050980002 0.054901998
0.244528979 0.042125296 0.084630288
0.428968817 0.000632584 0.123592407
0.635547280 0.000000000 0.195193127
0.855407596 0.018595794 0.289057642
0.215433702 0.185705408 0.147501692
0.280834705 0.180138692 0.133080706
0.425300270 0.210879117 0.146489412
0.626438975 0.224668115 0.214168280
0.849082708 0.261733353 0.303099096
0.365464568 0.440101385 0.331562400
0.434788406 0.455534518 0.381657064
0.502846420 0.415938973 0.266160429
0.615686536 0.442757845 0.243263826
0.814800620 0.512713671 0.321189225
0.514105260 0.765085280 0.625806272
0.580518484 0.772169232 0.657938242
0.637064874 0.769007266 0.669322968
0.710183263 0.706261992 0.488678247
0.855661094 0.674510121 0.432131946
0.814800620 0.944085777 0.860467970
0.844022691 0.950916946 0.873877347
0.891840637 0.947880805 0.906894386
0.891713798 0.946236491 0.858317375
0.938899636 0.911448598 0.744212627
0.000000000 0.172295704 0.251106977
0.231499404 0.045414291 0.248450413
0.423023373 0.033017285 0.250094682
0.612017870 0.131815299 0.352814674
0.820999086 0.285009652 0.480328918
0.015306718 0.286400974 0.266793400
0.237951010 0.213156402 0.271979958
0.429601401 0.192915991 0.275648117
0.605439425 0.261985958 0.374699414
0.826565742 0.343706340 0.476407528
0.225173712 0.424414784 0.358001530
0.344844699 0.427071810 0.352182090
0.467172682 0.399241120 0.332827389
0.600885391 0.446046799 0.354838520
0.819101870 0.506641567 0.442504525
0.416698426 0.746489525 0.576344252
0.502340257 0.754332364 0.625047386
0.635420382 0.767362535 0.707273901
0.677798688 0.702973008 0.535357535
0.835041225 0.689563513 0.497659802
0.797975779 0.952055693 0.865401506
0.823402703 0.956103683 0.879949450
0.888677776 0.952814519 0.912334144
0.899683654 0.943959832 0.882985651
0.942441642 0.911448598 0.774699450
0.007843000 0.396331787 0.574193776
0.001644708 0.290702105 0.562808514
0.420493394 0.002530012 0.507526815
0.586843729 0.000632584 0.483997375
0.774952173 0.032637842 0.517773688
0.001644708 0.492093474 0.583048522
0.000000000 0.412649959 0.569892526
0.387349695 0.174572989 0.520809650
0.591144860 0.153699979 0.500569105
0.792915463 0.214547396 0.545097947
0.003289416 0.653889775 0.604174852
0.003289416 0.643769443 0.604933381
0.328146994 0.462997824 0.563061237
0.589753389 0.381277382 0.524731040
0.794560194 0.522074640 0.633143604
0.000000000 0.662744939 0.641998768
0.018722441 0.668817341 0.642884314
0.401012301 0.687033713 0.626185954
0.604301274 0.663124859 0.609487891
0.802150249 0.721948206 0.639215529
0.676027775 0.945983410 0.844908655
0.722453952 0.951929212 0.854395866
0.837191641 0.953193963 0.890575647
0.917014480 0.958759904 0.926755071
0.927134812 0.919291794 0.819355071
0.003922000 0.581657112 0.829728246
0.001012128 0.533839285 0.829095602
0.002277288 0.299810171 0.812397122
0.532447875 0.011890996 0.761164010
0.765085340 0.002656833 0.754964948
0.000000000 0.648576856 0.838583112
0.005313418 0.593675017 0.836306214
0.004554003 0.404048204 0.823149860
0.517394185 0.184439987 0.773055136
0.763567507 0.131688714 0.761416852
0.002277288 0.819860637 0.851233244
0.001897583 0.786590815 0.849209368
0.002023998 0.650980532 0.832763970
0.463250965 0.416571826 0.789247215
0.789753497 0.365211695 0.771916509
0.001012128 0.911954284 0.859076262
0.000000000 0.908033013 0.855407715
0.077672288 0.895635962 0.846679389
0.503352106 0.740544081 0.814042032
0.802782893 0.642884254 0.762049317
0.004933693 0.895762205 0.881467760
0.034914497 0.907526851 0.891587496
0.385451794 0.917520523 0.882479489
0.786084712 0.936369658 0.892093420
0.902972937 0.915116966 0.870335162
0.001265167 0.696900964 0.983174980
0.001265167 0.663504183 0.983428240
0.002656833 0.556356370 0.985831797
0.001265167 0.257811487 0.976976514
0.642378449 0.130929798 0.957368612
0.001012124 0.739658535 0.981783986
0.000000000 0.709044874 0.976976573
0.000000000 0.609360993 0.984187126
0.002023991 0.345730364 0.983428061
0.645034671 0.229601562 0.958380640
0.003289416 0.860974371 0.984566808
0.001897590 0.837444842 0.978494823
0.003921839 0.755723953 0.972043216
0.005187006 0.582922220 0.989879787
0.642884195 0.425680220 0.968880653
0.001265167 1.000000000 0.975964665
0.004427761 0.998102248 0.983428299
0.278304815 0.961543322 0.980139136
0.401391536 0.855660856 0.971157491
0.689689815 0.678431153 0.963566959
0.427450985 0.997343183 0.976596832
0.474130064 0.998987913 0.977355778
0.610752642 0.999367416 0.983807564
0.777861834 0.997722685 0.981404126
0.863250911 0.937507927 0.974193692
