Assets/Shaders/EldamarStudio/100 Sci-Fi LUTs Pack/LUTs/cube/Mollie LUT.cube
LUT_3D_SIZE 5
DOMAIN_MIN 0.000000 0.000000 0.000000
DOMAIN_MAX 0.903226 0.903226 0.903226
0.000000000 0.000000000 0.078431003
0.079822987 0.014041712 0.094117999
0.226945400 0.060847409 0.128779411
0.429728240 0.132447869 0.191271126
0.698671758 0.210625976 0.270714819
0.018974997 0.126881406 0.139278993
0.108918689 0.146489412 0.135989979
0.268816978 0.178873688 0.174952686
0.459835678 0.223023579 0.222390994
0.716255426 0.280581802 0.287033647
0.168753982 0.321694970 0.240606993
0.227324516 0.339405388 0.255660981
0.357748389 0.358380795 0.268058002
0.537381530 0.384819508 0.294876993
0.764579177 0.433016956 0.365718067
0.366097391 0.545350969 0.364959002
0.414674252 0.555597544 0.380898118
0.510562539 0.560784519 0.389879823
0.656293392 0.579759359 0.417836994
0.830866635 0.624162138 0.472232819
0.669829428 0.776976585 0.596710742
0.691460609 0.788614810 0.594433725
0.733839571 0.791271627 0.598482072
0.818975091 0.801138639 0.621378779
0.908918619 0.821378767 0.662112594
0.002277292 0.009487708 0.124224991
0.065781116 0.020619705 0.145477712
0.233143687 0.089943118 0.194180995
0.430992842 0.157242283 0.242884278
0.688804626 0.220746264 0.308412522
0.027830701 0.134724990 0.177482709
0.117393695 0.148766696 0.191903695
0.266540080 0.185072809 0.225932688
0.451613128 0.229854688 0.269322991
0.705249548 0.279949397 0.322074503
0.172675401 0.320050687 0.281847388
0.222011283 0.332194805 0.280455410
0.350537777 0.355091363 0.297532976
0.528526068 0.378621399 0.323339671
0.757748067 0.431372494 0.386590809
0.375458658 0.538899362 0.393042237
0.409867108 0.548386991 0.406451553
0.510815799 0.554585695 0.411005706
0.647817969 0.572549164 0.432257801
0.826059401 0.615179956 0.493864566
0.659329712 0.776976585 0.589626908
0.683617771 0.781783640 0.595572352
0.730803132 0.786717057 0.612523496
0.810119927 0.796584606 0.621758461
0.904237747 0.821378767 0.655028462
0.000000000 0.033396408 0.239341974
0.064769410 0.048070706 0.250474393
0.226312816 0.099430986 0.281847388
0.430740118 0.159266278 0.325363547
0.692726135 0.211890981 0.389879793
0.060214985 0.159266531 0.269070119
0.120683111 0.165464982 0.278557986
0.263251096 0.192283407 0.309297562
0.451613128 0.228209987 0.345224410
0.705756009 0.274003983 0.399873704
0.195572406 0.313851982 0.343327224
0.241366386 0.329917639 0.354712129
0.357748389 0.355091363 0.374699354
0.533080280 0.377355963 0.402150393
0.760025501 0.427071214 0.449968636
0.391524106 0.533333123 0.459709406
0.423529387 0.543453395 0.459076375
0.503984571 0.552941144 0.468564540
0.643896520 0.569259703 0.486527383
0.826944947 0.618089795 0.535357118
0.655407727 0.767741799 0.612143934
0.672612548 0.777988315 0.624035180
0.723339617 0.779506624 0.637697339
0.810246766 0.796584487 0.650474370
0.902339756 0.826059163 0.686780572
0.002909872 0.079570122 0.372801989
0.095888704 0.096774422 0.381277829
0.252877951 0.126248986 0.410752833
0.443516999 0.169639125 0.446300119
0.700948775 0.215179980 0.507147312
0.085009567 0.182795689 0.402909666
0.156356812 0.191271275 0.405819118
0.288172096 0.207589701 0.431625396
0.469955713 0.234408692 0.465907693
0.716887832 0.281846970 0.516381919
0.235420406 0.349525511 0.446679413
0.270461947 0.353067547 0.452751279
0.375711650 0.366223663 0.479696542
0.544465542 0.375711709 0.502593517
0.762302339 0.419228226 0.551928818
0.418849111 0.523845255 0.530803144
0.454522252 0.535610259 0.545983374
0.524098694 0.548639834 0.558760166
0.649462283 0.572928250 0.577735424
0.834787965 0.606578112 0.618343115
0.662744880 0.763567328 0.692220092
0.682479501 0.769765973 0.692346454
0.715749502 0.782795787 0.697153747
0.798228741 0.794686556 0.704110920
0.907526970 0.821758270 0.735230744
0.069575801 0.147880971 0.607083738
0.177482784 0.151802659 0.609740615
0.344212621 0.164832145 0.624035597
0.546363056 0.171283826 0.654775441
0.757368565 0.221125811 0.671094596
0.130550101 0.225679815 0.609360993
0.204174384 0.232510686 0.616571665
0.362808496 0.237064943 0.633143783
0.556103766 0.245541111 0.657052279
0.767615438 0.279949397 0.683491647
0.230740249 0.377988815 0.644149184
0.285515487 0.378620982 0.644908190
0.421252638 0.385831803 0.656672776
0.595952094 0.388361812 0.676281035
0.801265001 0.415938973 0.705123603
0.466034114 0.579759955 0.685136080
0.485641956 0.582795799 0.696015060
0.552055776 0.579759538 0.702086926
0.662745118 0.573561072 0.713852048
0.846299589 0.597469926 0.745350718
0.673750699 0.771789730 0.760025442
0.689310789 0.773054600 0.775205493
0.727260768 0.779632747 0.780265331
0.802023888 0.794939995 0.797216654
0.907653451 0.827956617 0.826818585
