Assets/Shaders/EldamarStudio/100 Sci-Fi LUTs Pack/LUTs/cube/Mollie LUT.cube
DOMAIN_MIN 0 0 0
DOMAIN_MAX 1 1 1
LUT_3D_SIZE 32
0.000000000 0.000000000 0.078431003
0.000000000 0.000000000 0.078431003
0.002150774 0.000000000 0.074129999
0.008981999 0.000000000 0.073118001
0.021505548 0.000379548 0.079190098
0.036685936 0.003415935 0.085262865
0.056926318 0.011511676 0.091334999
0.079822987 0.014041712 0.094117999
0.101834096 0.013283000 0.095636003
0.117014498 0.019355007 0.101708010
0.138013870 0.028336871 0.113599002
0.159266248 0.033396740 0.119671255
0.181657284 0.039847996 0.122707352
0.205693036 0.051739033 0.125743032
0.226945400 0.060847409 0.128779411
0.255407989 0.074762799 0.139025986
0.284250200 0.086907193 0.146616191
0.312207133 0.096015409 0.151549980
0.342567950 0.105123043 0.163694024
0.370145351 0.117014721 0.173055366
0.399367452 0.125363991 0.182163253
0.429728240 0.132447869 0.191271126
0.460215479 0.141682014 0.200632498
0.493611902 0.153826818 0.215812907
0.531562269 0.168248281 0.226439282
0.571030974 0.180645302 0.235547304
0.611006141 0.189753070 0.245667070
0.653510869 0.198861450 0.260847420
0.698671758 0.210625976 0.270714819
0.742441297 0.222770408 0.281593949
0.784946144 0.235800356 0.295508981
0.827450991 0.250979990 0.313724995
0.003036387 0.000000000 0.066286996
0.003036387 0.000000000 0.078431003
0.003036387 0.000000000 0.080581777
0.005186839 0.003795161 0.079696387
0.013535708 0.009108387 0.081467390
0.036685936 0.009487935 0.082226485
0.056926318 0.015054000 0.093358614
0.078178696 0.022011384 0.098798320
0.100316487 0.024668096 0.101707995
0.120050885 0.028463393 0.107780010
0.143959388 0.034535386 0.113851994
0.165338248 0.043516736 0.121694997
0.186590627 0.050853640 0.125743255
0.209234655 0.060847417 0.129285350
0.236053020 0.069955796 0.137887031
0.257305413 0.081467375 0.138519615
0.284250200 0.092979193 0.146615803
0.311574548 0.102087408 0.154585600
0.339531600 0.111195043 0.166729629
0.375458360 0.123086713 0.173308328
0.403541714 0.133333251 0.182163253
0.431751996 0.141555741 0.192283258
0.460341960 0.150790378 0.203542382
0.496647537 0.162934422 0.215812907
0.534598470 0.172801897 0.228715986
0.574066997 0.183681279 0.238583282
0.614041746 0.192283392 0.248197392
0.656546474 0.198861450 0.260847420
0.701708078 0.210625976 0.278684646
0.743706465 0.226312399 0.287160367
0.785831749 0.241872579 0.302087337
0.830487370 0.257052779 0.328905374
0.001771226 0.010752774 0.064895771
0.001771226 0.010752774 0.072738774
0.001771226 0.015053772 0.089183778
0.006831225 0.015053772 0.087160163
0.014800545 0.021505546 0.085262775
0.037318096 0.026818775 0.088804774
0.063377544 0.025426999 0.088171996
0.081340924 0.031498998 0.098671705
0.101581320 0.038330093 0.103478998
0.122833721 0.044149488 0.109551005
0.144844994 0.052245773 0.115622997
0.165085509 0.058317769 0.121694997
0.187349766 0.066160545 0.127766997
0.209867075 0.074003771 0.132068217
0.235294178 0.081214413 0.139278576
0.262112558 0.092725992 0.143326774
0.286400974 0.101833999 0.147880971
0.313725322 0.110309795 0.156989187
0.341049761 0.119417816 0.167615011
0.372422516 0.129158720 0.176343933
0.401264757 0.139405727 0.184313953
0.430360407 0.148513421 0.194433779
0.460215479 0.157748014 0.206325218
0.494623780 0.169892550 0.214421228
0.533333063 0.179759279 0.226565763
0.574193478 0.188867658 0.237318084
0.613409042 0.197976068 0.246932358
0.650980055 0.205692768 0.259076744
0.693990886 0.217077747 0.274383098
0.746615946 0.230992943 0.289057851
0.785705149 0.247058973 0.301201940
0.824921191 0.260974228 0.329032004
0.000000000 0.029727999 0.072992161
0.000000000 0.028463159 0.079064161
0.000000000 0.034029320 0.084882997
0.008855159 0.038836159 0.098039001
0.022517255 0.038077157 0.091208383
0.044655256 0.042757932 0.098165996
0.067172483 0.048070837 0.099177673
0.089183703 0.048703317 0.100189701
0.105882101 0.054775320 0.107780091
0.127134487 0.063377649 0.113346167
0.145856872 0.069956034 0.118152998
0.167615503 0.077040151 0.124224998
0.189247623 0.083112165 0.130296990
0.213662162 0.089184165 0.136369050
0.237950653 0.095256150 0.142441317
0.262112617 0.104870312 0.147374973
0.289437026 0.113978319 0.153447032
0.316761553 0.120682731 0.162555411
0.344086170 0.129790977 0.171663210
0.374193579 0.138899356 0.180771515
0.400759161 0.148007736 0.187349573
0.428083301 0.157116130 0.197470099
0.461480319 0.166223794 0.209487647
0.494876742 0.177229643 0.216697991
0.531562269 0.185831696 0.224794567
0.569892287 0.194939658 0.236812472
0.611891031 0.204048052 0.245414168
0.646805406 0.213156447 0.256040722
0.685641646 0.224920973 0.273371279
0.731941521 0.240101337 0.282985389
0.786970139 0.253510535 0.299557537
0.819607973 0.265275002 0.324225157
0.000000000 0.054395642 0.087792993
0.001138547 0.050980382 0.094623990
0.001897547 0.056546770 0.093485221
0.008475612 0.063124932 0.093864545
0.030866545 0.065401547 0.099556997
0.055155318 0.059329543 0.108665384
0.075521991 0.068058096 0.113092773
0.092599541 0.074889258 0.115749255
0.111195087 0.078684539 0.118785545
0.132447496 0.084756546 0.121821932
0.149778411 0.087919317 0.125996128
0.170651495 0.092599988 0.130676553
0.195699185 0.098671995 0.135989547
0.222517580 0.104743995 0.142061546
0.246679068 0.110815987 0.148134291
0.268563867 0.119671345 0.155344993
0.292093188 0.126881987 0.162175894
0.319038153 0.133206949 0.170904115
0.346363366 0.142314583 0.180012524
0.376470566 0.152181908 0.189120814
0.404174477 0.160531282 0.194813356
0.430740118 0.169260129 0.200126261
0.464010000 0.178241983 0.212144479
0.497153491 0.187096655 0.221252099
0.532447577 0.194307104 0.228842571
0.569259763 0.201770663 0.236938983
0.606198609 0.210879058 0.248829991
0.645666957 0.219987437 0.254902005
0.683238149 0.231751963 0.273118258
0.724224985 0.246299848 0.284883231
0.769892573 0.262618899 0.293865025
0.818469405 0.271726549 0.321189463
0.000000000 0.081720799 0.099936999
0.009108387 0.075648032 0.112080999
0.014547934 0.080834769 0.108159214
0.018342772 0.087413155 0.105123155
0.027830157 0.089690320 0.108665384
0.058190931 0.086653933 0.111700997
0.085009381 0.093232252 0.118279703
0.100948699 0.097912870 0.120556869
0.113851927 0.099936932 0.121821836
0.132447496 0.106008932 0.124857552
0.162428737 0.109171063 0.136622071
0.184187174 0.112207316 0.141176254
0.207084268 0.116887987 0.143579930
0.231625959 0.122959994 0.145097941
0.252878338 0.129031986 0.151169941
0.274636656 0.139911607 0.164452851
0.295888662 0.146995738 0.172043189
0.318785131 0.151169986 0.176723853
0.343326986 0.157494977 0.183048919
0.373434812 0.172169298 0.192156598
0.405692667 0.178747669 0.199367538
0.435547143 0.183807924 0.204933867
0.464010000 0.190385997 0.212144479
0.494370818 0.196458012 0.221252099
0.527514219 0.205313221 0.232637569
0.564199626 0.213915184 0.240986988
0.603162229 0.223023072 0.249082997
0.642631352 0.232131451 0.260973990
0.684756517 0.243895978 0.272358984
0.724478066 0.254269183 0.286021471
0.765844226 0.266666651 0.298418969
0.809361100 0.280834943 0.318153083
0.010119998 0.103984669 0.119671315
0.014168385 0.108033188 0.119164996
0.025426999 0.104111187 0.120556772
0.034787998 0.109171480 0.118532643
0.043136865 0.112207770 0.122074768
0.062744863 0.113472380 0.120809376
0.082985640 0.118026316 0.123845637
0.107021019 0.123845704 0.128273293
0.122707412 0.126249313 0.129917771
0.142694652 0.132321313 0.132953838
0.167488739 0.135484099 0.137127995
0.193801507 0.136495963 0.145224512
0.215559959 0.141303003 0.149905324
0.238456994 0.148766324 0.153700322
0.261986077 0.154838309 0.164326310
0.285642266 0.160910919 0.170398310
0.310057193 0.168248117 0.179127187
0.333965600 0.171916306 0.184060976
0.358253986 0.177988335 0.193928018
0.390639067 0.184819371 0.205312967
0.419102043 0.198102474 0.206831068
0.450221568 0.204048321 0.212017864
0.479317099 0.210246816 0.219860688
0.512081146 0.218722641 0.231372744
0.546995878 0.224794641 0.235926345
0.583428204 0.233649626 0.247312009
0.622896671 0.242757380 0.257179260
0.662365258 0.251865774 0.271346986
0.701960921 0.261100620 0.278431624
0.742694378 0.273244590 0.292346388
0.785705090 0.286653906 0.309677243
0.833143651 0.305123329 0.332827002
0.018974997 0.126881406 0.139278993
0.026945088 0.128020063 0.128020316
0.034787994 0.134218931 0.131562054
0.046932314 0.129917696 0.129791290
0.060214959 0.132574543 0.135483831
0.077925339 0.138140470 0.137507752
0.093990922 0.142061695 0.141176313
0.108918689 0.146489412 0.135989979
0.131689101 0.150284693 0.141302690
0.154712498 0.156356692 0.146995485
0.177229688 0.159519568 0.150031537
0.199873507 0.162175983 0.155091494
0.221884996 0.164452985 0.160025626
0.243137315 0.172801703 0.165591702
0.268816978 0.178873688 0.174952686
0.294749856 0.181656882 0.180644989
0.319038659 0.189247474 0.188235193
0.346236527 0.193801254 0.192789569
0.371536732 0.200885415 0.203921720
0.399241090 0.205312714 0.211132005
0.430487007 0.211891174 0.220366731
0.459835678 0.223023579 0.222390994
0.490828961 0.229854494 0.231878206
0.522707224 0.238962904 0.239468813
0.561669827 0.244149700 0.244781703
0.596711218 0.253004670 0.253383636
0.636179864 0.262365460 0.264769286
0.676786780 0.271473825 0.276533544
0.716255426 0.280581802 0.287033647
0.759013116 0.291460931 0.303352416
0.797596216 0.304490566 0.315875709
0.845414281 0.324225008 0.337886989
0.029601190 0.151929095 0.155976996
0.039468870 0.151169792 0.140797004
0.047944322 0.152181968 0.138899431
0.059835415 0.159519196 0.145730197
0.072739087 0.153447181 0.146868750
0.093611933 0.160658032 0.155977130
0.109803870 0.165464878 0.161796093
0.124098502 0.169259816 0.159519106
0.138520181 0.172296196 0.151170179
0.165844604 0.178368181 0.163314193
0.188108861 0.182289958 0.168247864
0.207843244 0.185325831 0.171789989
0.229475170 0.187982097 0.176723644
0.248450220 0.194307134 0.180013001
0.275774598 0.200885192 0.186084986
0.301580966 0.202909291 0.190512285
0.328146487 0.205945298 0.195825189
0.351802647 0.215053678 0.205566138
0.378874093 0.224162057 0.214801058
0.404933631 0.227703735 0.219101846
0.432258189 0.232637554 0.224414721
0.463630378 0.239721969 0.232258081
0.497027457 0.248576611 0.244149089
0.528020084 0.256419986 0.247817904
0.565211535 0.262492388 0.251612812
0.605059981 0.268943965 0.257937640
0.638963103 0.281087995 0.273118079
0.680961847 0.290449321 0.279949099
0.720809758 0.299557239 0.292852551
0.762302101 0.309677124 0.308285922
0.807463288 0.323465675 0.331056058
0.843896091 0.338646084 0.337128073
0.053889982 0.179253489 0.168121010
0.056926362 0.185325503 0.162049025
0.060341723 0.180265754 0.157621801
0.069955818 0.180771977 0.158886984
0.087919489 0.189879984 0.165085539
0.106135488 0.183807984 0.174193904
0.121948332 0.188488498 0.178241640
0.137128681 0.194433987 0.176470503
0.153700590 0.199620605 0.172422588
0.174952984 0.202656984 0.175458968
0.199367478 0.208728999 0.184693098
0.217457265 0.212650239 0.187475994
0.236306280 0.214547485 0.188867643
0.260594994 0.215559527 0.192157015
0.287919343 0.224667907 0.198229000
0.310436726 0.228842795 0.204301000
0.334978163 0.231752262 0.210246488
0.360911041 0.236306071 0.217710152
0.382163495 0.245414466 0.229854956
0.412017494 0.248956144 0.236306489
0.440227747 0.253889978 0.240354225
0.469703108 0.260974348 0.243643135
0.503099442 0.269829005 0.247185484
0.536495924 0.272865385 0.253257483
0.569765806 0.280708760 0.259202987
0.606324971 0.289563775 0.265148491
0.645035088 0.299303979 0.273118079
0.681467831 0.311447978 0.288298428
0.720809758 0.320809335 0.305755466
0.760278106 0.329917669 0.318405688
0.801770806 0.341808945 0.331688583
0.846932471 0.359898478 0.352308482
0.075268872 0.203668743 0.180265740
0.069576390 0.206830859 0.174193740
0.083365001 0.208601862 0.176723734
0.092726029 0.205565989 0.178494707
0.104870543 0.210752547 0.182542548
0.115496874 0.217330858 0.186590925
0.136243179 0.216318861 0.188108996
0.150537863 0.219987586 0.189120874
0.165971100 0.224794731 0.188614860
0.187223494 0.229981363 0.193801492
0.205565989 0.230107874 0.193928003
0.227830246 0.234155610 0.194939613
0.249335632 0.239468515 0.197469652
0.275142163 0.244528696 0.203795001
0.297153533 0.243010402 0.204553992
0.317267746 0.249715596 0.208222806
0.339531988 0.257811874 0.218343064
0.364832252 0.264389724 0.227957159
0.388361990 0.266666830 0.233270079
0.417963743 0.272991866 0.237065494
0.448323727 0.276154459 0.243010998
0.479696393 0.281214863 0.249082997
0.514737546 0.288298726 0.256040841
0.542567909 0.294117779 0.262112856
0.573687553 0.297153592 0.265907586
0.605060160 0.304996789 0.272738665
0.640987039 0.313598871 0.281340867
0.684629977 0.320935845 0.294117421
0.723718882 0.333079845 0.314610809
0.766729653 0.345983148 0.334851027
0.807590067 0.359139562 0.348513484
0.847059011 0.375331849 0.361669868
0.092473254 0.232004970 0.196457997
0.098545238 0.230993122 0.192410246
0.099557504 0.235926494 0.188867986
0.112713508 0.235926494 0.196205154
0.120683245 0.236306041 0.199240953
0.128146932 0.242125422 0.195698947
0.149399042 0.245667234 0.202277258
0.165718138 0.245667234 0.203921542
0.178621352 0.249842077 0.205060080
0.197343752 0.257179230 0.209867239
0.217710510 0.257432252 0.210120246
0.235926494 0.259455979 0.212143987
0.257178903 0.263630539 0.210246250
0.282479256 0.271347463 0.216192037
0.305502385 0.271853089 0.217963248
0.332447588 0.271979600 0.224415064
0.352182150 0.276534170 0.227451056
0.375964373 0.284630239 0.238709718
0.400253236 0.284630239 0.243137032
0.428083718 0.292219996 0.248197600
0.456546724 0.296394706 0.253131241
0.486780494 0.300442994 0.259203255
0.520936251 0.306514978 0.267172992
0.550157905 0.312586963 0.273244977
0.581783831 0.320430219 0.281088233
0.613535941 0.326249152 0.284123838
0.644529164 0.334851503 0.292472988
0.682479680 0.340923488 0.304616988
0.726754963 0.348260492 0.318659037
0.767994583 0.360404462 0.332827002
0.808855176 0.374446213 0.352181941
0.843011022 0.388487995 0.364706010
0.115623280 0.265780926 0.213535637
0.123213284 0.263883650 0.211638376
0.130044416 0.267299265 0.212017864
0.136622638 0.269702643 0.211764798
0.142315179 0.269702643 0.218975633
0.147628278 0.271979898 0.210626349
0.165464640 0.275015950 0.215559959
0.184313402 0.277545631 0.220240578
0.197217092 0.278304726 0.223276183
0.212397501 0.286654145 0.226312473
0.235673860 0.288172275 0.228715986
0.254902273 0.289057642 0.229601368
0.274256915 0.292093277 0.232637286
0.295256287 0.298166007 0.232890323
0.317773253 0.302087188 0.235926688
0.346868873 0.304996639 0.243769795
0.372675449 0.306514829 0.247565091
0.394560218 0.308918625 0.249968290
0.418848962 0.308918625 0.255028278
0.443643361 0.314990580 0.259962052
0.472106367 0.322580367 0.268311620
0.500442863 0.325616777 0.274383634
0.530930102 0.331435770 0.280455619
0.562302291 0.336495638 0.286527634
0.596078455 0.343706578 0.293738276
0.630613923 0.351676285 0.302340597
0.664010346 0.360278636 0.306388199
0.695003510 0.366350621 0.317899615
0.734092355 0.375838280 0.331182659
0.776723325 0.386590898 0.343833029
0.817457199 0.398734897 0.356482863
0.848324001 0.410878927 0.374952644
0.150537997 0.303479016 0.228462994
0.150284961 0.304491013 0.228462994
0.155092031 0.307527006 0.233270049
0.162935004 0.310562879 0.237571165
0.174952537 0.308159024 0.239468992
0.177988932 0.308159024 0.233396992
0.190638736 0.310689330 0.237444997
0.206324771 0.313472331 0.240733996
0.220746130 0.316508144 0.240227938
0.235926524 0.319544554 0.243263558
0.262238920 0.322580874 0.249462053
0.283238530 0.323846012 0.251486063
0.302593648 0.324984372 0.252877682
0.324352026 0.328020036 0.255914003
0.342567980 0.334092021 0.258950382
0.369639575 0.339911014 0.266287208
0.395952195 0.344212204 0.269829184
0.417837024 0.347375005 0.267932028
0.442125082 0.347375005 0.267932028
0.463883400 0.349905342 0.270461708
0.490828484 0.356483281 0.278684497
0.521442294 0.363567173 0.288805008
0.551802993 0.366603523 0.295003474
0.585072994 0.369639128 0.301201969
0.620240510 0.375205576 0.307526976
0.656420290 0.381277978 0.314990640
0.692094028 0.387856066 0.324351937
0.725490391 0.393928051 0.333459556
0.759139717 0.407463819 0.348133892
0.796078146 0.422391206 0.362808168
0.834155202 0.436938971 0.379759580
0.870588005 0.449083000 0.401012003
0.168753982 0.321694970 0.240606993
0.165717587 0.333838969 0.240606993
0.174067110 0.328399748 0.249209538
0.181151241 0.328779429 0.253763646
0.187602535 0.332574248 0.251612991
0.202276915 0.335483402 0.245540991
0.210373282 0.338013709 0.249588996
0.227324516 0.339405388 0.255660981
0.243516803 0.340796888 0.255913973
0.251106888 0.343833297 0.246299937
0.272106290 0.346868932 0.255155295
0.290575653 0.349905252 0.257558823
0.308665633 0.352308750 0.259835839
0.330424011 0.355344415 0.265022367
0.357748389 0.358380795 0.268058002
0.378368199 0.362049013 0.271094382
0.404554188 0.364199400 0.275395215
0.429981142 0.366729558 0.277798712
0.454269856 0.374699384 0.283112407
0.478557825 0.374699384 0.283112407
0.506008863 0.379126966 0.287539840
0.537381530 0.384819508 0.294876993
0.570018947 0.387855858 0.301075459
0.600379825 0.390891463 0.310183078
0.631372392 0.398481667 0.318658859
0.664389551 0.405565977 0.327134639
0.697913051 0.412650108 0.336748987
0.728525996 0.424288809 0.348639965
0.764579177 0.433016956 0.365718067
0.802150548 0.445161402 0.377988577
0.838962793 0.458823770 0.391903579
0.870588005 0.473370969 0.413156003
0.191777587 0.351928800 0.262365580
0.195951998 0.352055609 0.252751589
0.192915618 0.359898597 0.263503820
0.203794986 0.357115954 0.268311173
0.210625872 0.360911041 0.264515996
0.219734535 0.359898657 0.262492001
0.229854301 0.367741913 0.268943787
0.242251679 0.367488891 0.270082086
0.261227190 0.366729766 0.272358984
0.273877591 0.368121475 0.266792983
0.289689869 0.371157706 0.267805040
0.306894243 0.374193311 0.272865444
0.325490266 0.377229601 0.274383605
0.347754806 0.380518585 0.278431773
0.368627369 0.385705203 0.277166367
0.391144782 0.388741583 0.280202597
0.413915366 0.390259385 0.283238590
0.440986753 0.391524374 0.286274374
0.468817145 0.398861557 0.290575922
0.495508999 0.399620593 0.298292190
0.523592472 0.403415591 0.300189912
0.552941144 0.409487575 0.305755973
0.583301485 0.413788795 0.311954498
0.611385047 0.414547682 0.321062714
0.641745746 0.419860572 0.330170304
0.673497438 0.431625426 0.340670317
0.706388354 0.440733582 0.350790739
0.736748755 0.449082881 0.361036986
0.770018578 0.458570749 0.368880659
0.806451321 0.469449550 0.388868153
0.843516767 0.481593966 0.403162569
0.875395000 0.495255798 0.422896802
0.211511806 0.379253179 0.280581981
0.219101995 0.380771786 0.272992194
0.220240414 0.381151378 0.272612602
0.224794343 0.385958225 0.281467378
0.236432374 0.388614982 0.276660383
0.242504850 0.386717260 0.276660383
0.251107067 0.390765518 0.282732517
0.263504088 0.396331489 0.286780685
0.277925372 0.393295258 0.285262287
0.294623941 0.392536372 0.286021173
0.308412313 0.395445853 0.287539393
0.325110644 0.399999917 0.289563239
0.342568040 0.403035849 0.292599618
0.366224229 0.406072199 0.295382977
0.385705352 0.410879374 0.293611765
0.404806972 0.413029999 0.293864787
0.429095387 0.417584181 0.293864787
0.454016536 0.417584181 0.296900570
0.483491212 0.421885163 0.299936950
0.512586713 0.425427198 0.308539033
0.537254691 0.427704006 0.313851714
0.568627357 0.432764113 0.319923967
0.596710682 0.438203692 0.326881498
0.621252120 0.439595401 0.333206892
0.649335563 0.445667177 0.342315078
0.678304672 0.453130841 0.351422697
0.711448193 0.467046261 0.363440931
0.742821038 0.474130392 0.373560935
0.777355790 0.482858837 0.380012661
0.804933131 0.493738353 0.391904145
0.842251599 0.504996717 0.416698545
0.876913190 0.516508222 0.438077182
0.229854122 0.403668106 0.291460991
0.238329947 0.408475757 0.290322810
0.239721566 0.409614533 0.290069968
0.246679291 0.410879374 0.289437413
0.260721147 0.414294541 0.290196419
0.266793132 0.414800525 0.290702403
0.276027858 0.416065872 0.295129955
0.287792683 0.418469429 0.297280401
0.301581532 0.421884626 0.297406882
0.313725531 0.418849021 0.300442487
0.326502144 0.420366675 0.303478837
0.342694461 0.425426722 0.306514889
0.361417204 0.430992782 0.309550613
0.382669598 0.434029102 0.312839985
0.403921932 0.437065393 0.313598961
0.422137946 0.437065542 0.311701566
0.444275767 0.440101534 0.311448365
0.470335126 0.445540965 0.310309559
0.497659564 0.445540965 0.313345939
0.527134717 0.450474530 0.321315765
0.553700328 0.455281377 0.327261388
0.577735722 0.457684666 0.331435561
0.610626042 0.460847527 0.343200088
0.631878495 0.464389861 0.346236467
0.657684863 0.470714837 0.353826702
0.686906815 0.479190201 0.362934887
0.714737117 0.488298625 0.373054653
0.748007655 0.497406989 0.385325879
0.780897915 0.507147312 0.392789543
0.811005354 0.517394006 0.404807150
0.833775818 0.529285550 0.421505570
0.873245001 0.538393140 0.454901993
0.260214984 0.440100968 0.297533035
0.266286999 0.440100968 0.303605020
0.264010042 0.438456804 0.306767851
0.268564343 0.438203841 0.307020843
0.285010010 0.441619009 0.305376083
0.291081995 0.447691023 0.311448067
0.302213997 0.445667356 0.314484388
0.314105004 0.444782019 0.314484328
0.325743169 0.446553022 0.312460065
0.334978014 0.452245504 0.312586546
0.350031883 0.449209154 0.315622896
0.366982967 0.452751547 0.318659306
0.385199338 0.458823949 0.321695328
0.403922051 0.464389950 0.324984044
0.425174385 0.467425555 0.331056029
0.441619217 0.465654850 0.324604809
0.461606443 0.467426002 0.322327793
0.485515594 0.472865433 0.325489998
0.506768048 0.475901037 0.331561983
0.534092426 0.478684396 0.337381005
0.563567519 0.483870983 0.343706548
0.592157125 0.487665951 0.348513842
0.619734526 0.488171995 0.352308512
0.640986919 0.494244009 0.355344892
0.666793346 0.497786313 0.362934709
0.698292375 0.502719998 0.372042716
0.732953966 0.509551108 0.382163048
0.763313890 0.518659472 0.397343427
0.785957873 0.530423939 0.406957865
0.815559626 0.540544212 0.421125948
0.844402492 0.550791025 0.438203603
0.867173016 0.562682033 0.454902023
0.312839746 0.490449101 0.334219098
0.313345730 0.490449101 0.329158366
0.319417745 0.490449101 0.330929369
0.320936084 0.489310741 0.333333194
0.331562757 0.490069568 0.333712727
0.337634742 0.488930762 0.334977716
0.346236438 0.495002717 0.341049731
0.358127803 0.492726088 0.341050088
0.370272100 0.491587758 0.339531988
0.381404251 0.493611753 0.341555744
0.385199606 0.496520847 0.341682225
0.404428005 0.499557257 0.344718635
0.423403084 0.503352761 0.346616358
0.441366404 0.505882740 0.347754717
0.457558781 0.508918285 0.348766714
0.478811175 0.507147551 0.354838699
0.499304086 0.507147551 0.355218381
0.522327542 0.510689378 0.358886749
0.541429758 0.511574745 0.360657752
0.565464795 0.514611065 0.363947064
0.588994145 0.515749693 0.362428606
0.616698265 0.521062553 0.366982937
0.645793855 0.526375413 0.375332206
0.672359288 0.527134418 0.378367931
0.695888937 0.533206940 0.388235599
0.724098682 0.536749065 0.399241060
0.755218089 0.542441428 0.410752803
0.778747320 0.553826451 0.425933152
0.811764777 0.565591693 0.438456714
0.837065220 0.575964451 0.451233566
0.867552340 0.587729216 0.467552334
0.894497037 0.603668749 0.482732743
0.342820734 0.523086727 0.352815002
0.350410730 0.523086727 0.356229961
0.352814466 0.524984002 0.356356472
0.358886480 0.527514338 0.355091304
0.364199966 0.528020382 0.356482983
0.367235988 0.523465812 0.356482983
0.379633158 0.526122451 0.359645724
0.390385479 0.527260721 0.365717709
0.401771098 0.526502192 0.363441080
0.412776738 0.528779447 0.364199996
0.421884865 0.529791355 0.362428725
0.433270246 0.532953501 0.366350263
0.451106966 0.536749005 0.367109627
0.468058020 0.536496043 0.366603702
0.486527413 0.536243081 0.368247986
0.506514788 0.540164530 0.371157706
0.529285371 0.540164530 0.375711530
0.552308440 0.542567730 0.381403983
0.570524931 0.542567730 0.383933991
0.590512574 0.545351088 0.386717349
0.614800453 0.548386991 0.393548727
0.635040998 0.548386991 0.388488054
0.661733210 0.554711759 0.396204978
0.689057589 0.558254182 0.404553801
0.714104772 0.562808335 0.410626322
