Assets/Shaders/EldamarStudio/100 Sci-Fi LUTs Pack/LUTs/cube/Mollie LUT.cube
LUT_3D_SIZE 8
DOMAIN_MIN 0.000000 0.000000 0.000000
DOMAIN_MAX 0.903226 0.903226 0.903226
0.000000000 0.000000000 0.078431003
0.021505548 0.000379548 0.079190098
0.101834096 0.013283000 0.095636003
0.181657284 0.039847996 0.122707352
0.284250200 0.086907193 0.146616191
0.399367452 0.125363991 0.182163253
0.531562269 0.168248281 0.226439282
0.698671758 0.210625976 0.270714819
0.000000000 0.054395642 0.087792993
0.030866545 0.065401547 0.099556997
0.111195087 0.078684539 0.118785545
0.195699185 0.098671995 0.135989547
0.292093188 0.126881987 0.162175894
0.404174477 0.160531282 0.194813356
0.532447577 0.194307104 0.228842571
0.683238149 0.231751963 0.273118258
0.029601190 0.151929095 0.155976996
0.072739087 0.153447181 0.146868750
0.138520181 0.172296196 0.151170179
0.229475170 0.187982097 0.176723644
0.328146487 0.205945298 0.195825189
0.432258189 0.232637554 0.224414721
0.565211535 0.262492388 0.251612812
0.720809758 0.299557239 0.292852551
0.115623280 0.265780926 0.213535637
0.142315179 0.269702643 0.218975633
0.197217092 0.278304726 0.223276183
0.274256915 0.292093277 0.232637286
0.372675449 0.306514829 0.247565091
0.472106367 0.322580367 0.268311620
0.596078455 0.343706578 0.293738276
0.734092355 0.375838280 0.331182659
0.211511806 0.379253179 0.280581981
0.236432374 0.388614982 0.276660383
0.277925372 0.393295258 0.285262287
0.342568040 0.403035849 0.292599618
0.429095387 0.417584181 0.293864787
0.537254691 0.427704006 0.313851714
0.649335563 0.445667177 0.342315078
0.777355790 0.482858837 0.380012661
0.342820734 0.523086727 0.352815002
0.364199966 0.528020382 0.356482983
0.401771098 0.526502192 0.363441080
0.451106966 0.536749005 0.367109627
0.529285371 0.540164530 0.375711530
0.614800453 0.548386991 0.393548727
0.714104772 0.562808335 0.410626322
0.821252465 0.596331418 0.459329724
0.482226551 0.637823999 0.439468265
0.503984809 0.641239822 0.445034802
0.527640641 0.647058606 0.453384280
0.569639206 0.651359916 0.465907544
0.627956927 0.656420290 0.468563974
0.693611741 0.658064544 0.476913542
0.766856253 0.674383581 0.497279972
0.852498472 0.693484783 0.529411554
0.669829428 0.776976585 0.596710742
0.676533580 0.784440041 0.584060609
0.700821996 0.786843836 0.594686687
0.722833395 0.788867831 0.593927741
0.758001149 0.792536438 0.605439425
0.806072056 0.798355520 0.619860828
0.850853920 0.809234321 0.631878614
0.908918619 0.821378767 0.662112594
0.000000000 0.007843000 0.099556997
0.013662548 0.004301451 0.099936545
0.099810548 0.025426645 0.121821545
0.181657284 0.062998444 0.147754639
0.280708641 0.102972642 0.177482650
0.396331459 0.140164286 0.203795195
0.520303845 0.175837830 0.241239995
0.683111787 0.213535532 0.282732666
0.000000000 0.054016095 0.116761088
0.034408998 0.061859995 0.131688997
0.108792000 0.080202542 0.142188534
0.193042636 0.110056631 0.157495111
0.285009176 0.136242911 0.182922348
0.396331429 0.167235553 0.216698527
0.515622854 0.193042248 0.239848286
0.667425752 0.226818532 0.279822707
0.047311645 0.148386747 0.165717646
0.076280639 0.160531089 0.168121547
0.148007199 0.167994648 0.177862078
0.225553274 0.188361645 0.191144988
0.322580487 0.212271094 0.219101638
0.425553739 0.231878474 0.239342347
0.551549613 0.262492299 0.268311262
0.702086926 0.297153622 0.309297651
0.121189177 0.255534708 0.220113993
0.141556188 0.265780807 0.226439089
0.192915738 0.273624510 0.231878281
0.266793191 0.286527276 0.234914362
0.360784382 0.303099185 0.254142821
0.459076703 0.315496355 0.269829512
0.580012560 0.338267088 0.297280461
0.718153238 0.369513184 0.333965838
0.210246548 0.376470715 0.276660204
0.230107367 0.376343906 0.293232203
0.272485912 0.389373988 0.290702194
0.336749166 0.394813269 0.297786087
0.424415171 0.408981383 0.306388170
0.524351954 0.422643721 0.323592454
0.640607297 0.440986574 0.348640203
0.768374383 0.471094280 0.392410159
0.340164721 0.511701286 0.353447288
0.360025287 0.513472497 0.356609821
0.392283469 0.519291282 0.365844369
0.445034891 0.524477959 0.369765997
0.518785894 0.531056285 0.383934081
0.604933739 0.542441726 0.396458000
0.706894159 0.559266329 0.416951030
0.813409328 0.593295455 0.458064467
0.472738832 0.631372571 0.448450744
0.493991256 0.633649409 0.449082822
0.520430148 0.638330400 0.451739490
0.560151875 0.640733778 0.460341454
0.616318762 0.647058547 0.469070375
0.686021268 0.652498364 0.477672458
0.757495522 0.665022314 0.495762289
0.844149351 0.685515225 0.527514338
0.656673014 0.773434162 0.589879751
0.670462012 0.786084771 0.582922041
0.692346573 0.784187019 0.589626670
0.720303774 0.786084771 0.598481953
0.755850613 0.791524231 0.615433395
0.803668499 0.796710730 0.617836893
0.851233304 0.806578040 0.637697756
0.903352201 0.822517335 0.653889894
0.000000000 0.014041901 0.139405191
0.002656545 0.012144452 0.144971102
0.090069897 0.030486999 0.162934989
0.186843649 0.070082352 0.192409739
0.288172007 0.111195281 0.220999271
0.399873734 0.144844994 0.246932089
0.529285550 0.180898085 0.275774807
0.686780572 0.217710078 0.318026662
0.000000000 0.063377991 0.154332995
0.020240095 0.077546000 0.169260100
0.104111195 0.087286644 0.178621098
0.193421990 0.114737540 0.200632185
0.289436817 0.145350829 0.224921003
0.392409980 0.173940465 0.245667532
0.523466051 0.202530026 0.273877382
0.676533878 0.237444893 0.310942084
0.046047095 0.158254102 0.191903993
0.090069994 0.162555560 0.209993988
0.140923187 0.173814192 0.215433180
0.225173637 0.192662999 0.233143628
0.318785280 0.213788897 0.250854105
0.430360734 0.238963082 0.277419209
0.554206431 0.265654892 0.302466691
0.711827576 0.294623971 0.338013828
0.132195085 0.261100709 0.253004193
0.149399281 0.268564165 0.262492180
0.199240834 0.276786625 0.262871742
0.271220714 0.287033647 0.269070536
0.358001024 0.304237723 0.285135984
0.460215360 0.318279624 0.297153741
0.582542598 0.341049999 0.328273386
0.717899799 0.371410519 0.359392643
0.223909184 0.369766086 0.303858191
0.231119826 0.381277651 0.312586963
0.278811187 0.386211365 0.317267299
0.337507963 0.391651005 0.318912208
0.422897071 0.405819178 0.334598184
0.519544721 0.418722510 0.344718367
0.639848292 0.441872299 0.373814195
0.764832199 0.470335126 0.409614265
0.348133832 0.510057032 0.382163346
0.360910654 0.512713552 0.383554518
0.394180924 0.512713730 0.388488382
0.447058648 0.522200882 0.395699084
0.516888201 0.525996089 0.400253177
0.604301155 0.540164709 0.414041817
0.699810147 0.557242036 0.436179549
0.816698372 0.587855816 0.479696631
0.468058556 0.624288559 0.453510374
0.490828484 0.632131279 0.462745070
0.519797623 0.635294080 0.468311191
0.559772372 0.642758012 0.471979737
0.612903178 0.642378330 0.484756440
0.683870971 0.652498305 0.496521294
0.754332542 0.663504183 0.504237533
0.842125535 0.687539279 0.540290773
0.651739419 0.775458574 0.591903627
0.671347320 0.775964439 0.597849369
0.683870852 0.778241754 0.597596526
0.716255665 0.782921851 0.607210755
0.753320694 0.788108706 0.615686238
0.796710491 0.794307530 0.619481504
0.849589050 0.804427564 0.644275606
0.902972698 0.819607794 0.654522657
0.000000000 0.023529001 0.197343275
0.003415642 0.028209999 0.210878998
0.095888741 0.049715549 0.222896636
0.183301985 0.075142287 0.244908631
0.288172185 0.114737637 0.267552614
0.400126368 0.150410995 0.290195733
0.535989881 0.180518642 0.322327644
0.695002794 0.214674175 0.360657811
0.000758999 0.080581993 0.220872983
0.035547543 0.092852540 0.210752994
0.101707995 0.099810541 0.239848092
0.191018268 0.119038187 0.255028635
0.293611377 0.145730197 0.276913434
0.399494171 0.174699366 0.298924744
0.532574356 0.205313101 0.328020364
0.685262263 0.232005194 0.356356442
0.061353736 0.167615205 0.251106739
0.091461092 0.169892296 0.261733115
0.153953448 0.186843738 0.264769197
0.232637376 0.198608458 0.282858998
0.329791218 0.217330739 0.303731740
0.431499183 0.237697721 0.317267478
0.566476762 0.265907764 0.345477372
0.715369940 0.296774179 0.381024808
0.144718274 0.263503909 0.297026992
0.170271739 0.269829631 0.297280639
0.211385190 0.278811097 0.307020962
0.282606244 0.292093277 0.317267239
0.365464658 0.304617286 0.330929637
0.467299253 0.323213041 0.345477372
0.592662811 0.343706548 0.373940647
0.728905559 0.373561263 0.402530074
0.225427181 0.375332177 0.352308631
0.247691527 0.381530464 0.352181852
0.288931280 0.392156810 0.362049162
0.350158185 0.399240762 0.363567263
0.427957028 0.410878927 0.370651186
0.526375651 0.427071273 0.390006453
0.642758012 0.443390191 0.411005646
0.770904422 0.476280957 0.444275975
0.359898627 0.507021010 0.422011524
0.372801989 0.510057092 0.420366824
0.402909636 0.517014444 0.424668074
0.453889817 0.521062493 0.430613637
0.520809531 0.531182647 0.437570900
0.605945826 0.542188466 0.453383714
0.704870343 0.557748377 0.470335215
0.816951394 0.592536211 0.512586713
0.481720209 0.626059294 0.492725998
0.501075327 0.632637560 0.496774018
0.524604559 0.635800004 0.496774107
0.565717936 0.642884254 0.500568986
0.616698027 0.646805942 0.513472617
0.682985365 0.653383970 0.520429969
0.761796176 0.662618518 0.536495507
0.846426070 0.691208065 0.567362070
0.657052219 0.774572790 0.612523615
0.671853304 0.774319768 0.616951525
0.683238268 0.782036841 0.621378779
0.715116918 0.780897915 0.623402774
0.749399006 0.785325706 0.627704024
0.793042123 0.790765345 0.640227675
0.841746032 0.806831062 0.656925619
0.903478384 0.825553358 0.684250593
0.000000000 0.046172999 0.273371190
0.003036191 0.055154737 0.272106647
0.100316100 0.067299001 0.293864787
0.189879835 0.087665997 0.313472182
0.292093188 0.117394179 0.328273177
0.406451464 0.154206187 0.352055728
0.530803382 0.184946001 0.380012274
0.693611383 0.221125811 0.418595999
0.006957997 0.102593087 0.291587800
0.036559280 0.103352085 0.283364832
0.114610732 0.115496539 0.299304098
0.198481828 0.130044088 0.311448544
0.288551629 0.151170179 0.325489730
0.402150631 0.182922348 0.357368886
0.532827139 0.205313087 0.379886180
0.687160075 0.234281987 0.414547801
0.085136190 0.183934093 0.308539093
0.108412549 0.192663088 0.316128731
0.155851096 0.200506091 0.324478120
0.231372714 0.207210749 0.336495727
0.326628298 0.220872998 0.357369095
0.437824368 0.243263736 0.377735376
0.565338433 0.267931998 0.402783006
0.721694708 0.294117719 0.439342380
0.161163986 0.274130285 0.338772833
0.185958445 0.278811097 0.350158185
0.225427091 0.288931072 0.353194177
0.286147833 0.296394855 0.370904624
0.364705563 0.310562640 0.380645275
0.475521922 0.325869381 0.398988008
0.598228872 0.342694521 0.417077750
0.731941581 0.368374705 0.446299553
0.249842182 0.374446183 0.389247179
0.274636567 0.379506856 0.394054174
0.308539093 0.388615012 0.402656287
0.361796379 0.401517749 0.411258370
0.436306179 0.417584181 0.423023373
0.534092367 0.427324444 0.437571138
0.651612878 0.442758113 0.461480081
0.779380083 0.472359389 0.490449190
0.370651275 0.508791924 0.464516371
0.391271532 0.509677529 0.465527982
0.416571647 0.515875697 0.470461816
0.461733103 0.525616586 0.477166206
0.525237083 0.530803204 0.480581909
0.611005485 0.542567730 0.489310563
0.713599205 0.562175751 0.517393827
0.818975151 0.589753389 0.545477629
0.490954965 0.626818478 0.527134597
0.512713611 0.633396685 0.539279044
0.534345388 0.636179268 0.543073952
0.568627477 0.642504692 0.541049957
0.621884763 0.650980294 0.551549375
0.689310312 0.655661166 0.558633745
0.762049437 0.666666627 0.573308170
0.854522526 0.697912455 0.603162408
0.658317327 0.769259810 0.639341950
0.662997901 0.772675157 0.638962567
0.679822803 0.779506505 0.646805704
0.708791912 0.784187138 0.648829758
0.744591832 0.787349641 0.652751446
0.792156816 0.793548465 0.667045951
0.844781816 0.806072235 0.681594014
0.904996574 0.821252227 0.699177802
0.001897740 0.072485738 0.350537747
0.025173929 0.080582187 0.350917190
0.113851734 0.092726350 0.363061637
0.199999630 0.106008738 0.379127085
0.299683660 0.128905535 0.395572454
0.405060202 0.158507243 0.418975472
0.533080578 0.186843738 0.445540756
0.695888638 0.212650239 0.485388875
0.018089540 0.116635092 0.350790262
0.059582610 0.123339534 0.351043463
0.127893820 0.134345353 0.365211904
0.209740475 0.145983741 0.383428127
0.299810290 0.156609803 0.399999917
0.410120428 0.180139273 0.417077750
0.535483539 0.211132258 0.440227568
0.681214631 0.230866656 0.477672547
0.097660087 0.198988095 0.379379898
0.128399804 0.205186486 0.383301824
0.179632828 0.208728835 0.395951837
0.245414525 0.216192186 0.404553831
0.337887526 0.226438880 0.419102073
0.441113144 0.242504835 0.438836247
0.566603541 0.267552465 0.458064258
0.719164789 0.296014965 0.501201570
0.178747624 0.288804382 0.409487456
0.194687083 0.288931161 0.412270695
0.232384369 0.297533303 0.416445464
0.293485165 0.303732008 0.429854453
0.379506469 0.308538884 0.446299583
0.476913184 0.323086530 0.459329724
0.592536628 0.339911163 0.476786584
0.730550110 0.365464747 0.508412302
0.269323200 0.388361484 0.454396188
0.284503639 0.392789543 0.448956102
0.322200835 0.395951837 0.457052708
0.373561263 0.407337248 0.474004090
0.437697381 0.414041728 0.482606173
0.535736442 0.425300181 0.495635718
0.652118981 0.439595401 0.516761422
0.773054600 0.464136809 0.545983553
0.387476474 0.499557227 0.505502999
0.399746835 0.502340198 0.508539200
0.429474831 0.508791745 0.520177066
0.476533711 0.516255379 0.524098396
0.532574177 0.529917777 0.536242902
0.604933679 0.540543973 0.544339001
0.711954415 0.551043749 0.560910583
0.824414909 0.577229500 0.591524482
0.501960754 0.620746315 0.575079203
0.520810008 0.621378779 0.576217711
0.541302919 0.628210068 0.576849937
0.572675407 0.635673642 0.590132713
0.620999277 0.646299541 0.595699012
0.683365047 0.654396057 0.592030227
0.761290550 0.669956028 0.610120475
0.857684910 0.695382535 0.637950897
0.661985755 0.763061523 0.675268471
0.668943644 0.770904303 0.675521851
0.679696500 0.772295713 0.681214392
0.700063288 0.775458395 0.681593895
0.732447684 0.784819841 0.685389161
0.785831749 0.790638864 0.688930809
0.839468777 0.807843029 0.705629230
0.902213812 0.822770417 0.728652775
0.006831284 0.111068994 0.458064556
0.060467828 0.112460256 0.458064556
0.144844800 0.120683186 0.465022355
0.233902559 0.136242703 0.482226282
0.333459556 0.146489277 0.496521086
0.446932465 0.154838741 0.514611244
0.564579546 0.183301702 0.532574534
0.699936628 0.216192275 0.554964781
0.038330115 0.141302839 0.451106995
0.082479537 0.149272740 0.459455848
0.155471548 0.154206291 0.467046112
0.239215821 0.165464908 0.478178650
0.337254733 0.173560917 0.495255917
0.446932465 0.183807731 0.508665502
0.561290503 0.207210734 0.525110543
0.684250474 0.235926688 0.545604110
0.107274093 0.217836812 0.475521982
0.142567888 0.222517282 0.479063809
0.194813475 0.227197796 0.488551378
0.274383545 0.231119379 0.498545140
0.366350353 0.239721894 0.516129076
0.477925211 0.242125273 0.528526425
0.592536509 0.264769107 0.546616316
0.717267394 0.292599708 0.568121374
0.182795644 0.300569296 0.495129883
0.199240938 0.308918625 0.497153461
0.243769631 0.308412284 0.506641150
0.313472629 0.315623283 0.515243530
0.400759161 0.318026274 0.529664695
0.498924702 0.322707117 0.543453455
0.607336879 0.339152277 0.555091560
0.731182575 0.361416817 0.575079203
0.277672350 0.403415203 0.524604678
0.304237813 0.409361035 0.534598291
0.331182480 0.412017673 0.537128329
0.377988815 0.414800823 0.546109974
0.453257382 0.416065991 0.556230247
0.548134327 0.420619965 0.573054850
0.655407548 0.432510912 0.588361502
0.774825752 0.455534637 0.610246420
0.405692279 0.518532515 0.575711548
0.419355005 0.524984002 0.582922280
0.440860271 0.527261198 0.586337686
0.484376788 0.529158950 0.590006232
0.539405465 0.536622465 0.601138532
0.612776697 0.539278746 0.613662004
0.712713540 0.548766434 0.625932992
0.823023498 0.571157038 0.647438109
0.505755544 0.621125817 0.619861305
0.520430267 0.623149991 0.618722558
0.544212282 0.621125817 0.621252358
0.578621268 0.628969312 0.632890284
0.624161601 0.636812270 0.641492546
0.686148226 0.650094628 0.653636992
0.761290491 0.669829547 0.675015569
0.855154753 0.688171864 0.692979097
0.667046487 0.757748127 0.705250084
0.673624516 0.762681723 0.710689187
0.684124112 0.761416674 0.715876281
0.705882192 0.769006789 0.723971963
0.741302967 0.780139029 0.730929613
0.782163084 0.791144669 0.738140345
0.835546732 0.803668618 0.749019146
0.901454508 0.827703834 0.767109394
0.069575801 0.147880971 0.607083738
0.117900357 0.144212380 0.603415489
0.199746996 0.155091897 0.614294827
0.294497281 0.160530999 0.619861007
0.402024031 0.169007167 0.630613446
0.514990509 0.172042921 0.645920396
0.637318552 0.183681160 0.661859632
0.757368565 0.221125811 0.671094596
0.085262790 0.177229524 0.600126147
0.140417621 0.179379985 0.598734617
0.200632527 0.182036817 0.606831193
0.296015203 0.189247355 0.615686357
0.394433647 0.194054544 0.629474759
0.508412182 0.199367642 0.642884493
0.628715634 0.204047844 0.655407727
0.749525607 0.236179829 0.661859632
0.136875063 0.243896335 0.609613776
0.175585091 0.244655326 0.618848622
0.231752083 0.253004193 0.620872676
0.322200835 0.251739323 0.628842652
0.416824818 0.256925970 0.640607238
0.532827258 0.261480063 0.657811463
0.651992321 0.266413808 0.669070303
0.770145357 0.295129716 0.680961370
0.186590821 0.323718905 0.623023570
0.219734445 0.323972017 0.632763922
0.271727085 0.328905463 0.637824059
0.345477402 0.334471792 0.642884195
0.437571168 0.336495847 0.648197293
0.544844925 0.338013649 0.661480010
0.658949912 0.337128639 0.676913202
0.775078893 0.364579618 0.687412560
0.292979389 0.426691979 0.637317777
0.304364383 0.436052948 0.654902220
0.334977746 0.428842455 0.654269278
0.393042266 0.427450806 0.657811403
0.479190171 0.434408545 0.666666627
0.579506755 0.433649629 0.681973696
0.688804507 0.437950671 0.696268201
0.807463586 0.456926018 0.706641316
0.437697649 0.554459333 0.677039862
0.452877998 0.553447127 0.680581927
0.473750472 0.554965258 0.690955043
0.506767929 0.551043570 0.689057589
0.551043630 0.545224547 0.692220211
0.623782396 0.546995521 0.707273602
0.727514267 0.548766434 0.720050514
0.837444544 0.570145547 0.734724641
0.546362817 0.658570230 0.706894338
0.561922789 0.656293511 0.721062720
0.581404209 0.657052398 0.716128767
0.608981729 0.663377583 0.727640450
0.647564828 0.663124561 0.728653014
0.705123007 0.670841098 0.738140404
0.769133687 0.671474040 0.750537694
0.871220946 0.686653972 0.772422433
0.673750699 0.771789730 0.760025442
0.679063559 0.773181438 0.773940325
0.699936807 0.771789789 0.769892514
0.715369940 0.778114974 0.774193227
0.750157773 0.783554792 0.786590815
0.790385485 0.791144669 0.792662621
0.842505097 0.803668618 0.808348894
0.907653451 0.827956617 0.826818585
