Assets/Shaders/EldamarStudio/100 Sci-Fi LUTs Pack/LUTs/cube/Movar LUT.cube
LUT_3D_SIZE 8
DOMAIN_MIN 0.000000 0.000000 0.000000
DOMAIN_MAX 0.903226 0.903226 0.903226
0.000000000 0.003922000 0.000000000
0.040354453 0.000379548 0.000379548
0.086906999 0.003922000 0.009360999
0.162049279 0.001138644 0.018469356
0.257432371 0.000000000 0.027450999
0.403036475 0.000000000 0.043136999
0.567488849 0.000000000 0.063377991
0.752308547 0.000000000 0.082479820
0.011765000 0.033270452 0.008981547
0.029348547 0.039974999 0.012144452
0.088931449 0.034029450 0.019608000
0.165212095 0.036812000 0.028210096
0.264895827 0.026312357 0.032891002
0.402656943 0.001138547 0.046931997
0.566476822 0.000000000 0.063883543
0.739278734 0.000000000 0.089057654
0.007843000 0.093106091 0.041492902
0.023908546 0.099810548 0.034408901
0.097912900 0.103352092 0.036812000
0.177735373 0.111954190 0.049715545
0.287919164 0.120556287 0.056420196
0.430233926 0.118153088 0.065275349
0.590259373 0.111195289 0.082985379
0.761543453 0.097280361 0.104869992
0.002783356 0.207589924 0.066160642
0.000759096 0.215180174 0.059329286
0.087666191 0.214674011 0.079064094
0.205312923 0.224288642 0.084123641
0.313093156 0.236811832 0.088425189
0.452371866 0.245288014 0.098544993
0.601138592 0.258570641 0.112713277
0.773687243 0.275015622 0.130929619
0.000000000 0.364832163 0.110436186
0.000000000 0.368754178 0.104110993
0.001518006 0.369513273 0.111068994
0.200379267 0.373055011 0.114231177
0.342188179 0.375079364 0.131561980
0.471347272 0.388361573 0.141809195
0.627197623 0.404807091 0.158886895
0.793295562 0.427198023 0.178620994
0.000000000 0.548386991 0.170271739
0.002783259 0.552308440 0.180138990
0.000000000 0.554838777 0.171283975
0.153194085 0.548893332 0.186463997
0.359012932 0.556862652 0.192030638
0.511068761 0.555977464 0.207336992
0.654648542 0.566476703 0.225806728
0.806451499 0.588867426 0.254648805
0.004553996 0.702466547 0.230993271
0.001897740 0.712081313 0.246932715
0.000000001 0.713472486 0.253384262
0.150284469 0.714737594 0.262998283
0.373181641 0.715876222 0.265907556
0.521188974 0.713219523 0.278558254
0.671094596 0.719797254 0.301201582
0.810120165 0.736495674 0.333080262
0.000000000 0.869829416 0.349398792
0.000758999 0.866160512 0.370398462
0.121062130 0.871094584 0.374952555
0.310942024 0.871220827 0.379253566
0.454396009 0.871347368 0.389626622
0.581277549 0.873624623 0.399746716
0.700695813 0.872359455 0.416698337
0.825300455 0.872359455 0.438456774
0.000000000 0.003542452 0.075142093
0.034029547 0.000000000 0.074762546
0.092852548 0.008601999 0.079063997
0.163314641 0.006325098 0.100695647
0.268058002 0.002783356 0.131182730
0.405819207 0.000000000 0.164579093
0.564705849 0.000000000 0.178494662
0.749651730 0.000000000 0.188488260
0.003922000 0.037191547 0.082605645
0.027830549 0.036812000 0.097533546
0.087286547 0.036812000 0.094370537
0.170271724 0.030993259 0.103731737
0.266919374 0.003921806 0.126375735
0.407336980 0.001518192 0.151929289
0.576976538 0.000000000 0.174193531
0.764958858 0.000000000 0.181024626
0.003542452 0.106135450 0.098545186
0.006325002 0.106514998 0.112839997
0.083744094 0.104111090 0.114358090
0.183175281 0.105249643 0.120176733
0.301455200 0.089563549 0.137381524
0.435673922 0.054775387 0.148386821
0.589120805 0.011005739 0.166730091
0.764958918 0.008728648 0.185831904
0.000000000 0.208855286 0.145856827
0.003542355 0.207716733 0.148260623
0.055281453 0.215180278 0.146615833
0.195192724 0.214294478 0.150537640
0.319670916 0.225806743 0.165591538
0.455913991 0.230486915 0.178114727
0.611385286 0.240227461 0.190638721
0.780645013 0.257811725 0.215686545
0.005945647 0.353573829 0.212776735
0.004807003 0.360910565 0.198102385
0.000379550 0.359266371 0.190385893
0.176217288 0.368880361 0.196963832
0.329917729 0.371916384 0.198861375
0.469702542 0.378874362 0.208981454
0.625679731 0.396331400 0.229854435
0.792409599 0.422137976 0.250601083
0.001518192 0.537760913 0.253510326
0.003035997 0.541049540 0.255028546
0.000758999 0.542315066 0.247691542
0.118279822 0.542188168 0.254522473
0.345477790 0.550537646 0.258317471
0.501960456 0.550031722 0.273498029
0.643643379 0.557115912 0.286401063
0.811385334 0.582542777 0.311069101
0.006831284 0.700189829 0.300189555
0.003289004 0.708159268 0.303352088
0.002403711 0.706514537 0.308665514
0.119418174 0.706135094 0.314105123
0.368374556 0.709171116 0.326375335
0.524098694 0.710309505 0.337761015
0.676407278 0.723972261 0.367488801
0.816698313 0.739532113 0.391271532
0.003922000 0.860088587 0.401770920
0.013789087 0.867172599 0.406831384
0.133206472 0.868437767 0.416698366
0.315369576 0.865275025 0.418595701
0.454142988 0.867172599 0.427451044
0.583934426 0.867931664 0.441366196
0.701454759 0.867172599 0.449589163
0.824035585 0.870335519 0.476028025
0.000759096 0.000000000 0.216066197
0.045414094 0.003542452 0.223909095
0.136243090 0.000000000 0.228589281
0.204301089 0.000379548 0.226691842
0.278684288 0.004807003 0.241113380
0.412650466 0.000000000 0.285768479
0.567615330 0.001518192 0.323339671
0.750284314 0.000000000 0.357874751
0.004301452 0.031752452 0.223909095
0.004301451 0.031752355 0.224668205
0.108033106 0.022770096 0.228589281
0.194433823 0.010626355 0.231752187
0.285768300 0.003162903 0.248576730
0.412144244 0.000000000 0.280581743
0.580012858 0.001518192 0.334724963
0.754459143 0.002277284 0.358254313
0.003162904 0.124478102 0.256040275
0.000000000 0.119417645 0.251360089
0.075268902 0.101707995 0.256040275
0.204047725 0.097406641 0.269070446
0.307653278 0.094750196 0.272485971
0.440607220 0.065907717 0.308285832
0.591777563 0.012270901 0.334218651
0.764705837 0.000000011 0.350537360
0.000759096 0.230866268 0.280961365
0.003542452 0.223782375 0.277799100
0.000379552 0.230107278 0.286401302
0.180391818 0.219481632 0.289942920
0.322074831 0.217583999 0.304491073
0.458950102 0.213662088 0.320809484
0.621884525 0.205692276 0.348133832
0.784313798 0.220240459 0.363820434
0.000000000 0.353953183 0.318659186
0.000758999 0.355850846 0.321315736
0.001518192 0.360910386 0.335104287
0.141556084 0.367615551 0.331562012
0.324098378 0.367995083 0.338393271
0.476660460 0.373687625 0.351549447
0.632637680 0.388108552 0.369513094
0.793295562 0.419228554 0.395825654
0.000000000 0.537254572 0.397343189
0.000000000 0.542314708 0.393801391
0.002276998 0.541429102 0.383427948
0.060847547 0.540290475 0.387982011
0.330170572 0.543453336 0.398355424
0.496521384 0.544971526 0.402530193
0.647185087 0.556609511 0.412650377
0.800505579 0.579000652 0.436053187
0.000000000 0.703984559 0.423909009
0.004427551 0.700189769 0.425553203
0.004048100 0.704237521 0.432510912
0.120935924 0.705249906 0.433270007
0.369006842 0.706261635 0.443769455
0.527767062 0.712333798 0.453637004
0.671094596 0.724478364 0.471473664
0.814294696 0.742567778 0.491840452
0.000759096 0.863250911 0.491460979
0.075141996 0.859709024 0.497027308
0.203162342 0.862618506 0.501960635
0.345224500 0.866160512 0.507780135
0.470714808 0.863756835 0.513092995
0.594560266 0.863756895 0.522706926
0.706641376 0.868690789 0.532827199
0.831372380 0.868437767 0.552561760
0.000000000 0.002783356 0.430613548
0.030613806 0.000000000 0.445667267
0.157748550 0.003922000 0.435040921
0.261353284 0.000000000 0.441239923
0.372675449 0.002403808 0.454648733
0.466793269 0.000000000 0.452371925
0.581404209 0.000000000 0.467046201
0.752181768 0.001138644 0.515370250
0.000759096 0.014168002 0.426818281
0.000000000 0.003542355 0.437824160
0.121694736 0.000000000 0.442124993
0.254522294 0.000000000 0.447564930
0.358633488 0.000000000 0.451992363
0.458444118 0.001518192 0.452118814
0.587982357 0.002024260 0.479190379
0.762175798 0.000759096 0.520050347
0.001517998 0.096268095 0.456925929
0.000379548 0.099431001 0.450221300
0.009361098 0.089184098 0.462491900
0.222011641 0.082985103 0.468816936
0.350411028 0.056293294 0.471094012
0.467552364 0.034408908 0.479823053
0.602403283 0.009108192 0.496900827
0.763187826 0.002783367 0.519544423
0.005566002 0.256799281 0.479949266
0.000000000 0.254016638 0.481087923
0.000000000 0.231625274 0.491081268
0.159266651 0.217077911 0.498418927
0.335104376 0.217963547 0.490955353
0.470588475 0.214800641 0.499177843
0.615053892 0.215939268 0.514611304
0.784946442 0.227451265 0.533713043
0.000000000 0.383807391 0.499304026
0.001138644 0.388488173 0.508032739
0.000758999 0.384186953 0.510816097
0.079822727 0.375205278 0.519038618
0.317773551 0.371536940 0.518532515
0.478810817 0.378874153 0.533080041
0.634282351 0.392915756 0.538899302
0.791650832 0.418089986 0.553952992
0.000759096 0.536622465 0.545477271
0.000759096 0.537381470 0.548133850
0.000759096 0.541555822 0.545477331
0.050095186 0.540290475 0.542314947
0.327893347 0.545098126 0.557115495
0.496015072 0.550284684 0.564199984
0.647944152 0.555471122 0.567995250
0.795319438 0.592662632 0.580012560
0.000000000 0.703099251 0.572295904
0.000000000 0.704870284 0.568627596
0.002403808 0.703352332 0.565718055
0.095888726 0.705249906 0.575079322
0.365717739 0.706388593 0.576976657
0.531688750 0.711701393 0.587729275
0.674509943 0.722074509 0.602023900
0.810499489 0.740796864 0.617836714
0.001518189 0.860467970 0.588741124
0.000758999 0.857558787 0.594054461
0.175078720 0.864642560 0.600506008
0.362808228 0.864263177 0.611005723
0.503351986 0.860847354 0.622896791
0.611005545 0.862112522 0.627071440
0.721948326 0.868058205 0.639974654
0.835673392 0.870714784 0.656799793
0.003035997 0.002403808 0.639342189
0.000758999 0.000000000 0.634914756
0.146363184 0.000759096 0.641492546
0.280581981 0.000000000 0.647817791
0.395572364 0.002403808 0.654143155
0.507273734 0.000000000 0.654901624
0.619481564 0.002277288 0.651612878
0.763946772 0.001265167 0.677293003
0.003162807 0.001138644 0.634914756
0.000000000 0.000000000 0.647944391
0.107779555 0.000000000 0.644401908
0.261733204 0.000000000 0.639215469
0.387855977 0.000000000 0.645160913
0.497786015 0.000000000 0.650221527
0.618722320 0.002277288 0.664642751
0.762555301 0.001265167 0.685262501
0.000000000 0.079064004 0.641619265
0.001138644 0.077925555 0.655787349
0.000759096 0.060974196 0.647817552
0.218216524 0.036938641 0.651486635
0.367488980 0.012144382 0.664516330
0.495888472 0.007590195 0.657179296
0.617204309 0.000759107 0.663504183
0.769765675 0.001897746 0.685894787
0.000000000 0.225047529 0.652877808
0.002403808 0.221505374 0.665654719
0.000000000 0.213662297 0.660847843
0.127893448 0.210878924 0.670334935
0.336369544 0.207589924 0.657558739
0.480835021 0.212017268 0.669829190
0.625427008 0.213155910 0.681973696
0.787476182 0.207210258 0.697659791
0.003035997 0.386211187 0.665907562
0.002403808 0.382163376 0.673624694
0.000000000 0.383048475 0.677040040
0.040227737 0.373181641 0.680076182
0.312081158 0.377482563 0.682479143
0.473624468 0.378115356 0.691081345
0.633396566 0.386590570 0.687160075
0.799746752 0.404933721 0.699304223
0.001518192 0.539405704 0.702719629
0.001138547 0.537508130 0.706514716
0.000000000 0.539152086 0.703732073
0.053890090 0.540037692 0.696521163
0.327387810 0.542314708 0.698165417
0.495635629 0.548513889 0.700696230
0.649968266 0.561416686 0.704491138
0.803921163 0.586464405 0.709297895
0.001518192 0.696268022 0.715496242
0.000000000 0.693864524 0.716382027
0.000000000 0.703225613 0.713219404
0.048324186 0.698545277 0.700442553
0.357495278 0.708538711 0.711701155
0.531688929 0.713852048 0.715496242
0.679569542 0.720430255 0.721695364
0.808222473 0.745603740 0.728146791
0.002656833 0.859835744 0.694623768
0.003542158 0.864389539 0.704744041
0.045920201 0.865401566 0.704743862
0.309803665 0.862112582 0.710183322
0.482226759 0.863124788 0.711575031
0.629980922 0.863377452 0.731941760
0.736875176 0.862871468 0.741555691
0.840480626 0.869829416 0.748007357
0.000000000 0.000000000 0.789500237
0.002024260 0.000379548 0.793928206
0.103226095 0.002024260 0.795319438
0.256799281 0.004048004 0.797343731
0.378368199 0.002403808 0.796204984
0.499430746 0.002024260 0.791397452
0.611258566 0.000000000 0.796078444
0.746489525 0.000000000 0.818342686
0.000379548 0.000000000 0.789120674
0.000758999 0.004048004 0.782922328
0.029980838 0.002403808 0.781024575
0.234534815 0.000000000 0.792410016
0.370145530 0.002024260 0.793042481
0.494117528 0.002024260 0.797723174
0.608981788 0.001644712 0.806071818
0.748766482 0.000000000 0.828463078
0.004554092 0.040607292 0.788867474
0.000379548 0.035041284 0.789120555
0.000000000 0.021252448 0.798482120
0.194181189 0.015307092 0.796584666
0.343453526 0.010246644 0.801264703
0.475268811 0.008728839 0.801391721
0.602782965 0.007969745 0.806704819
0.747501552 0.006072199 0.827956915
0.002783356 0.214800626 0.803288996
0.002277095 0.210878924 0.804933488
0.004048004 0.208855182 0.798734844
0.105882272 0.206072018 0.804553866
0.326248914 0.211891368 0.810752749
0.464136750 0.215939283 0.809234738
0.603921533 0.221379191 0.813661993
0.754711866 0.236306176 0.835167587
0.001518192 0.364199996 0.799873531
0.000379548 0.364705622 0.809234619
0.005945744 0.369259745 0.807463884
0.059962004 0.365844131 0.808475554
0.317014605 0.374193370 0.805313408
0.469829470 0.383554548 0.816192269
0.615559638 0.392536223 0.815812528
0.767741740 0.404680640 0.828336537
0.005819256 0.524731457 0.822897017
0.001897740 0.521315575 0.819228232
0.003542266 0.524731457 0.825426996
0.163693815 0.527767360 0.819734335
0.362049371 0.537634194 0.817330658
0.508791447 0.546110213 0.818975508
0.642884552 0.562428713 0.819355011
0.793421686 0.575079203 0.826059639
0.001897740 0.667425573 0.835546970
0.000379548 0.669323266 0.825806558
0.018975280 0.670082092 0.835926533
0.217330664 0.681720197 0.836052716
0.395572364 0.690828562 0.828842759
0.552941024 0.708285809 0.828842700
0.694497466 0.724098802 0.830866456
0.813282967 0.749905109 0.834029019
0.000759092 0.840733707 0.847691596
0.005313282 0.842631161 0.848576844
0.065654360 0.848323822 0.849588931
0.248323798 0.855281472 0.840101361
0.432005048 0.862492025 0.828716040
0.603668272 0.861859620 0.824414968
0.742694438 0.864389718 0.832257926
0.837318122 0.872232795 0.834408700
0.000000000 0.003922000 0.904491007
0.000000000 0.001897740 0.900569022
0.030360289 0.000000000 0.905882239
0.229221925 0.000000000 0.905629337
0.350284189 0.000759096 0.910689294
0.469070435 0.000000000 0.911701381
0.579000533 0.001644712 0.908412576
0.701201558 0.000000000 0.917900264
0.003542452 0.001897740 0.907653272
0.000000000 0.001897740 0.904237568
0.010499556 0.000379548 0.904111505
0.212271094 0.002403808 0.907147706
0.348007500 0.001138644 0.918026328
0.467046171 0.001897740 0.911068857
0.584313750 0.000000000 0.916255534
0.700442612 0.000000000 0.923845351
0.001644712 0.015180185 0.906514645
0.000758999 0.015306899 0.908665538
0.001644712 0.013662187 0.903478622
0.162302554 0.013662187 0.911575139
0.329032272 0.013662187 0.911701381
0.455281287 0.015939282 0.913093209
0.578115165 0.021252373 0.916761458
0.696014822 0.036811903 0.918406188
0.000000000 0.210879207 0.915116906
0.006325001 0.205692381 0.912460506
0.000758999 0.209993631 0.912586927
0.118153252 0.213661984 0.915623009
0.319418103 0.220620275 0.916887939
0.457811415 0.230233818 0.916255534
0.582921982 0.250221282 0.916255295
0.709044933 0.274889201 0.924477816
0.000000000 0.381783575 0.908286273
0.000000000 0.382669270 0.913472712
0.013789095 0.381910264 0.911448538
0.158380628 0.382289708 0.919038653
0.339405447 0.386590540 0.917141199
0.475015730 0.397596449 0.915875971
0.600000262 0.414547831 0.922454298
0.730803430 0.429980993 0.923972070
0.000000000 0.525616884 0.912839711
0.023909010 0.527514160 0.919797540
0.115369923 0.534092367 0.911195397
0.293864906 0.542947173 0.914104939
0.411511451 0.554711998 0.916255534
0.521568894 0.554712236 0.916255534
0.636306286 0.570018768 0.919417977
0.762681842 0.585452437 0.925995767
0.130803198 0.659329534 0.917267323
0.165970743 0.658949971 0.918279707
0.263377368 0.663504183 0.910057247
0.373940825 0.675521970 0.917267263
0.483997643 0.690701962 0.913219333
0.604300857 0.717141032 0.919924080
0.713219285 0.732194841 0.920176983
0.817710221 0.747628152 0.919544578
0.290449023 0.795066357 0.943706751
0.302340299 0.801012039 0.933459640
0.358886719 0.805945277 0.930297017
0.442251712 0.815053940 0.932954013
0.536748707 0.829221964 0.930550218
0.634914398 0.842631042 0.920935988
0.751043499 0.859835804 0.920176983
0.858823180 0.873624623 0.920935988
0.001265167 0.002656833 0.992283165
0.002656833 0.000000000 0.988487959
0.009234867 0.000000000 0.985451877
0.186084449 0.000000000 0.991271317
0.319671005 0.001518192 0.991271317
0.439215720 0.000000000 0.990132868
0.550411165 0.000000000 0.991144776
0.662998021 0.000000000 0.993547976
0.002277285 0.000000000 0.990638554
0.000000000 0.000379548 0.991017997
0.001265176 0.000379548 0.992283165
0.176470548 0.000759096 0.990765214
0.322327524 0.000000000 0.993674815
0.435420662 0.002277285 0.994180918
0.550790608 0.000000000 0.989120781
0.666540086 0.003036284 0.995445788
0.001897736 0.018596113 0.993674815
0.003162904 0.016698375 0.994307041
0.001265171 0.017963544 0.990512192
0.149905264 0.018722448 0.996204793
0.307527065 0.023276636 0.987855852
0.439468563 0.041745808 0.994939983
0.553826272 0.085388884 0.990891755
0.670334876 0.134218782 0.994939983
0.003035990 0.218975276 0.991144776
0.000000000 0.222517431 0.993295252
0.001518004 0.224288255 0.990512192
0.163820252 0.233396426 0.996331334
0.321948022 0.243896246 0.991271317
0.450221479 0.259582460 0.993674815
0.570272088 0.282732725 0.994939983
0.686400771 0.312334090 0.993674815
0.060215123 0.407716364 0.993801355
0.060468271 0.405692518 0.991397798
0.084377065 0.397849262 0.991271317
0.239974588 0.391271353 0.992536187
0.366856396 0.407210708 0.992536187
0.485262483 0.421378791 0.994939983
0.596964061 0.437318146 0.994686604
0.712713301 0.459329337 0.995951772
0.307147086 0.578115046 0.985325515
0.329158604 0.576344192 0.988488019
0.366982818 0.582036674 0.991271257
0.414800704 0.585199177 0.988361597
0.465780973 0.567868471 0.994939983
0.548134267 0.571790278 0.992283165
0.653384030 0.592915893 0.992030442
0.753700376 0.607843161 0.992409945
0.405439198 0.691081524 0.989120781
0.421378642 0.693864226 0.993422031
0.460214674 0.697659731 0.989879608
0.513218999 0.709677279 0.985958278
0.590765536 0.726375818 0.987476408
0.669576287 0.742441535 0.987349510
0.732953966 0.745603561 0.988361776
0.819734216 0.764326274 0.990638494
0.483238399 0.799240708 0.996204793
0.501075208 0.800505579 0.989373684
0.521441758 0.799240768 0.996204793
0.574573040 0.810626209 0.987729132
0.634408772 0.822643638 0.991397858
0.715243518 0.847944319 0.982668877
0.798355341 0.870082259 0.981277823
0.882985473 0.889436781 0.981783986
