Assets/Shaders/EldamarStudio/100 Sci-Fi LUTs Pack/LUTs/cube/Movar LUT.cube
LUT_3D_SIZE 5
DOMAIN_MIN 0.000000 0.000000 0.000000
DOMAIN_MAX 0.903226 0.903226 0.903226
0.000000000 0.003922000 0.000000000
0.073244996 0.003922000 0.005566289
0.210625976 0.000632584 0.018975416
0.443516970 0.000000000 0.045160998
0.752308547 0.000000000 0.082479820
0.005566289 0.079443701 0.032384705
0.078178696 0.084376991 0.028462706
0.226692080 0.093864702 0.043516703
0.467425555 0.087033406 0.065781280
0.759772480 0.034535099 0.100063145
0.000000000 0.287792802 0.087665990
0.007210577 0.295635402 0.097532980
0.270082384 0.300948769 0.101328418
0.506262004 0.318912268 0.126881823
0.792157054 0.355218232 0.154458970
0.001012128 0.581783354 0.185452119
0.003289420 0.591271639 0.189500123
0.272612482 0.594181120 0.204427540
0.547501266 0.597470105 0.228589132
0.808728397 0.626565456 0.274889380
0.000000000 0.869829416 0.349398792
0.090701766 0.872359455 0.373687595
0.381657034 0.867805183 0.383427799
0.613155901 0.871347308 0.405565947
0.825300455 0.872359455 0.438456774
0.000000000 0.000000000 0.178874120
0.104364686 0.002277292 0.186084688
0.217836812 0.003289416 0.184819683
0.450347692 0.000000000 0.263251096
0.754838586 0.002277292 0.320430249
0.001644708 0.099430986 0.204427689
0.060847413 0.080455408 0.208981693
0.241366386 0.079822987 0.227957100
0.474256843 0.011005569 0.275648266
0.763693750 0.001265167 0.311827987
0.003288997 0.284503400 0.262239397
0.000000000 0.292726099 0.273751110
0.257052392 0.295635372 0.288425386
0.509550810 0.297659367 0.305755675
0.790132761 0.326881677 0.338899374
0.002023998 0.571916342 0.369513243
0.002277127 0.582415998 0.361416936
0.239974901 0.585705340 0.365464985
0.542567909 0.588994503 0.380012840
0.802276850 0.624035239 0.412523925
0.001012124 0.862239063 0.466160625
0.140923291 0.864136636 0.476913154
0.401264995 0.865148365 0.484250247
0.617836654 0.869070053 0.497406930
0.831878603 0.868437767 0.527767241
0.000000000 0.003289416 0.538899779
0.129158691 0.000000000 0.542188406
0.338772804 0.000000000 0.559898734
0.513092697 0.001012128 0.552308679
0.753573596 0.000000000 0.593169034
0.001644708 0.059203126 0.557242215
0.003288997 0.044781707 0.560531199
0.304111391 0.012144282 0.562428772
0.513092697 0.001265006 0.564705610
0.763314128 0.001644708 0.602024078
0.003289416 0.313219428 0.580644786
0.002277292 0.308032811 0.593422055
0.230360806 0.295003384 0.599620342
0.514105260 0.294750094 0.597343624
0.790132761 0.316761792 0.619355023
0.003289416 0.573561311 0.624162078
0.002909707 0.573940396 0.631751776
0.219354764 0.583048522 0.626059651
0.536749125 0.588741243 0.638836265
0.799493849 0.630866528 0.653257668
0.002656833 0.857937932 0.649336100
0.064516187 0.861859381 0.649589121
0.425046951 0.860594749 0.662997961
0.651613057 0.859582484 0.681973398
0.840481043 0.873750746 0.695761979
0.000000000 0.001012128 0.822897136
0.036938842 0.000000000 0.828462839
0.314484537 0.000000000 0.825174272
0.523719013 0.000000000 0.827830195
0.735357285 0.000000000 0.848703206
0.005819002 0.004174706 0.822770119
0.001012128 0.004301290 0.830613136
0.278305084 0.002277292 0.831625283
0.508159399 0.000632580 0.835294127
0.735104203 0.000000000 0.850980282
0.000000000 0.284882933 0.829348505
0.000000000 0.292093486 0.840227664
0.225806624 0.295382500 0.834661365
0.491207838 0.302972794 0.839848518
0.743832886 0.322327524 0.858190954
0.005819002 0.558128119 0.850221097
0.002023998 0.561416686 0.854775071
0.305123091 0.569007277 0.844276130
0.558380365 0.593675077 0.848324120
0.794686615 0.619102120 0.853130996
0.026312491 0.826312423 0.868690789
0.082605839 0.832637548 0.868311286
0.374825925 0.845667601 0.863377512
0.638583064 0.859076262 0.853257298
0.840100944 0.872738838 0.857179284
0.001265167 0.002656833 0.992283165
0.003922000 0.001265167 0.987222791
0.256926239 0.000000000 0.990385532
0.465781301 0.000000000 0.993674815
0.662998021 0.000000000 0.993547976
0.002909876 0.001644708 0.993927896
0.000000000 0.001265167 0.991271317
0.239342228 0.000632584 0.992662847
0.468564123 0.019481272 0.992409945
0.667045712 0.075015843 0.993674815
0.000632584 0.308286041 0.989753127
0.004301121 0.304237634 0.992283404
0.268437773 0.316129208 0.993674934
0.495509088 0.341302902 0.993927717
0.695888638 0.378874183 0.995572388
0.335483521 0.608728766 0.989120841
0.382921815 0.610119939 0.985704958
0.481720179 0.624162078 0.991397738
0.595952213 0.617836952 0.993295312
0.769892633 0.646299899 0.992409945
0.483238399 0.799240708 0.996204793
0.510056436 0.799493670 0.990385950
0.609360933 0.812903166 0.984440148
0.736242890 0.851233244 0.983174980
0.882985473 0.889436781 0.981783986
