Assets/Shaders/EldamarStudio/100 Sci-Fi LUTs Pack/LUTs/cube/Movar LUT.cube
DOMAIN_MIN 0 0 0
DOMAIN_MAX 1 1 1
LUT_3D_SIZE 32
0.000000000 0.003922000 0.000000000
0.003036387 0.000885613 0.000000000
0.016824998 0.000000000 0.000000000
0.031246159 0.000000000 0.000000000
0.040354453 0.000379548 0.000379548
0.049462065 0.003415935 0.003415935
0.061100643 0.003922000 0.003922000
0.073244996 0.003922000 0.005566289
0.086906999 0.003922000 0.009360999
0.105123006 0.003921998 0.015433002
0.117520742 0.001012129 0.018595871
0.137760982 0.000000000 0.019608000
0.162049279 0.001138644 0.018469356
0.186337993 0.003668968 0.015939033
0.210625976 0.000632584 0.018975416
0.230107591 0.000000000 0.024414996
0.257432371 0.000000000 0.027450999
0.295129955 0.000000000 0.028715992
0.337634027 0.000000000 0.034788009
0.366224080 0.000000000 0.040860005
0.403036475 0.000000000 0.043136999
0.443516970 0.000000000 0.045160998
0.480201960 0.000000000 0.051233027
0.522706807 0.000000000 0.057305805
0.567488849 0.000000000 0.063377991
0.613029599 0.000000000 0.066666998
0.658570170 0.000000000 0.067678995
0.704111278 0.000000000 0.073750995
0.752308547 0.000000000 0.082479820
0.797343314 0.003541982 0.089816980
0.841619134 0.006957618 0.095003381
0.890196025 0.003922000 0.098039001
0.000000000 0.006957613 0.003036387
0.003036387 0.003922000 0.000000000
0.014674226 0.005186613 0.000000000
0.029474935 0.004807161 0.002529999
0.040354453 0.003036387 0.005692549
0.049462065 0.003415935 0.003415935
0.058570318 0.006451677 0.003922000
0.071853317 0.008602321 0.007210997
0.084630102 0.009994000 0.010120291
0.096015401 0.009994000 0.009361001
0.117141262 0.009994000 0.009614000
0.137760982 0.009108387 0.012523869
0.163187638 0.007969743 0.015812999
0.188614652 0.006704645 0.018722387
0.204553992 0.003668971 0.018975416
0.231245786 0.003036387 0.022011193
0.257431984 0.003036387 0.025932806
0.291461140 0.002403811 0.028083576
0.331562012 0.000000003 0.031752393
0.365718096 0.002783356 0.035041034
0.399240971 0.003036387 0.040859994
0.439468443 0.002024259 0.045160998
0.480201960 0.000000000 0.051106513
0.522706807 0.000000000 0.054269418
0.569765508 0.000000000 0.062618896
0.616065562 0.000000000 0.068058319
0.661100507 0.000000000 0.070208676
0.704111278 0.000000000 0.073750995
0.744338751 0.002656833 0.082479820
0.797090113 0.003036387 0.093358964
0.845920146 0.003921779 0.100189999
0.890196025 0.000885613 0.101075388
0.000000000 0.012143999 0.001771226
0.009487612 0.015559613 0.003036387
0.012524000 0.014674226 0.000000000
0.025173936 0.013915000 0.001265161
0.036812451 0.010752773 0.006451773
0.049462065 0.012523999 0.008728936
0.056420092 0.012903450 0.008223000
0.072106473 0.012650065 0.009867288
0.086021781 0.015433225 0.013915226
0.093738496 0.018216226 0.012270514
0.116635092 0.020366998 0.009993774
0.137887478 0.016319003 0.012017514
0.160910636 0.014927356 0.015053870
0.185958073 0.012143999 0.020113999
0.206831187 0.011005647 0.023908999
0.229474783 0.008223000 0.028462965
0.262871563 0.003668811 0.033016771
0.293864757 0.001771226 0.035420582
0.325742990 0.000253033 0.035420973
0.363947093 0.000632583 0.038456649
0.399240971 0.003668966 0.039595000
0.437697232 0.002909872 0.045160998
0.480328470 0.000126512 0.051233027
0.524857581 0.002150774 0.056293678
0.567615271 0.000000000 0.061733283
0.616191983 0.000000000 0.068058319
0.660974085 0.000000000 0.071094066
0.700189829 0.000000000 0.074130446
0.744338751 0.002656833 0.082479820
0.789120317 0.003922000 0.088045761
0.842124999 0.003922000 0.099936813
0.885895014 0.002150774 0.106261998
0.003795161 0.020746322 0.002529999
0.009614000 0.025553161 0.003036387
0.016571613 0.028589323 0.001771226
0.022137998 0.028589323 0.003795161
0.032005388 0.022896772 0.006831451
0.047185224 0.024161933 0.012017839
0.059835482 0.024667999 0.013029839
0.070335694 0.023023615 0.014674449
0.088551901 0.022264320 0.016951161
0.095129855 0.028336324 0.016951159
0.117393993 0.027704032 0.014041711
0.140923411 0.028463002 0.017583901
0.162175804 0.024667999 0.020619804
0.183428198 0.021758191 0.023403160
0.206704825 0.020746322 0.027451156
0.232258156 0.018342808 0.030993158
0.262871563 0.012270810 0.034535158
0.300442934 0.003795006 0.040607154
0.325996041 0.002529997 0.039468970
0.361670107 0.000000000 0.041998647
0.401771307 0.000632579 0.045667000
0.440227568 0.002656839 0.047691256
0.482605785 0.000000000 0.053636804
0.525869727 0.001897743 0.058570642
0.567868352 0.001644712 0.062112831
0.609361231 0.000000000 0.069323480
0.656926095 0.000000000 0.072359093
0.694876850 0.000000000 0.075395286
0.741808712 0.001391671 0.085009821
0.787855446 0.003922000 0.090575762
0.834661305 0.003922000 0.093611605
0.879823029 0.003922000 0.107273996
0.011765000 0.033270452 0.008981547
0.009108162 0.035926614 0.005945838
0.012523548 0.038203772 0.003289225
0.019481160 0.039974999 0.004554160
0.029348547 0.039974999 0.012144452
0.044528931 0.036938611 0.015180064
0.062238999 0.037191547 0.016065547
0.076407313 0.035547163 0.016571708
0.088931449 0.034029450 0.019608000
0.098039076 0.040101450 0.019607998
0.118405864 0.036053549 0.018216224
0.142061964 0.035294287 0.021758251
0.165212095 0.036812000 0.028210096
0.186211526 0.037318062 0.031246487
0.207337409 0.034661971 0.031373002
0.233776227 0.032005291 0.032511450
0.264895827 0.026312357 0.032891002
0.300822496 0.017457101 0.033396993
0.331182569 0.011385086 0.039469004
0.364326537 0.005313090 0.042378195
0.402656943 0.001138547 0.046931997
0.444402695 0.000379548 0.052245162
0.487160414 0.000253036 0.058444407
0.527387917 0.000000000 0.061986096
0.566476822 0.000000000 0.063883543
0.607083976 0.000000000 0.066919662
0.647059143 0.000000000 0.075775027
0.689563870 0.000000000 0.078810640
0.739278734 0.000000000 0.089057654
0.787349522 0.001391669 0.096268311
0.832005143 0.003542452 0.100063056
0.874509990 0.003542452 0.103099450
0.011765000 0.048450064 0.018089935
0.011765000 0.048450064 0.015053547
0.015559935 0.046805773 0.014168063
0.021631934 0.046046998 0.014927160
0.029348547 0.046046998 0.018216452
0.044528931 0.046046998 0.015180064
0.062238999 0.050600931 0.018216323
0.073876999 0.050727226 0.015812937
0.083997324 0.048450064 0.014295001
0.101075463 0.049209069 0.019608004
0.118911929 0.055281803 0.028336870
0.143706247 0.053257674 0.027324613
0.168247700 0.051233292 0.027450999
0.189247131 0.049462061 0.028210098
0.207463890 0.055534828 0.031246481
0.235799968 0.055281930 0.038583186
0.265654415 0.051739484 0.043137256
0.298292190 0.044528529 0.045034997
0.334218949 0.035673860 0.045541000
0.367362291 0.029601865 0.046046998
0.402656525 0.017837133 0.048450191
0.440101326 0.008222936 0.050980002
0.478052050 0.003289423 0.052371636
0.526628852 0.000253031 0.061480030
0.564579546 0.000000000 0.069576286
0.607084215 0.000000000 0.072991937
0.653131127 0.000000000 0.076028064
0.695635855 0.000000000 0.084883407
0.740796745 0.000000000 0.090575852
0.787349522 0.000000000 0.097659983
0.832005143 0.000506065 0.104111306
0.874509990 0.000506065 0.112207063
0.006705001 0.066160642 0.024667999
0.009234678 0.063630320 0.024161933
0.015686452 0.065781094 0.021125548
0.023403160 0.066034161 0.023276322
0.031499323 0.067298993 0.026818775
0.044528931 0.067298993 0.023782386
0.059709322 0.064769320 0.020746000
0.077925310 0.067552321 0.023782386
0.089057319 0.067678645 0.023402994
0.103731655 0.071220644 0.029474998
0.129538000 0.069449417 0.025806548
0.145730257 0.075522184 0.030866934
0.169892281 0.074003994 0.031119676
0.193295389 0.071220644 0.032764032
0.220620140 0.072738826 0.035800416
0.250854105 0.076407798 0.041239996
0.281340629 0.075016126 0.047185127
0.311701119 0.069955647 0.049588677
0.344338983 0.062745288 0.049588684
0.375458688 0.061480314 0.054649319
0.418342769 0.057305574 0.054649319
0.457305551 0.046679445 0.058064643
0.493738294 0.038583629 0.061100643
0.532701135 0.023529414 0.062998228
0.579000533 0.011385038 0.069829315
0.618975282 0.007337008 0.078684658
0.664769173 0.004048000 0.083112314
0.709298134 0.000000000 0.090196438
0.754459023 0.000000000 0.094117664
0.799999833 0.000000000 0.101960875
0.846426427 0.000885608 0.112333968
0.892220318 0.002530322 0.126375318
0.005566289 0.079443701 0.032384705
0.003668616 0.081341021 0.029095709
0.011005776 0.080961473 0.030233931
0.020113841 0.082732700 0.027197868
0.030740131 0.085009411 0.031373002
0.046679288 0.085009411 0.029601775
0.061353609 0.085768312 0.029854383
0.078178696 0.084376991 0.028462706
0.095635608 0.085136086 0.032257996
0.108665012 0.090322703 0.038329996
0.135357276 0.089310542 0.037697703
0.154585242 0.090701796 0.036053248
0.170904279 0.094497278 0.039089352
0.194940031 0.092473023 0.041871995
0.226692080 0.093864702 0.043516703
0.254522800 0.096268088 0.047311991
0.290955186 0.097786278 0.051866189
0.322327226 0.096141562 0.054269418
0.353699982 0.093105689 0.054269422
0.387349725 0.089310691 0.056546714
0.420872748 0.089057669 0.063757285
0.467425555 0.087033406 0.065781280
0.505249798 0.080076173 0.071600288
0.543200791 0.069449574 0.071600288
0.586464226 0.058443818 0.074509993
0.629221916 0.048829779 0.081973657
0.671979785 0.043010805 0.090069927
0.717520535 0.036938809 0.095003285
0.759772480 0.034535099 0.100063145
0.806957543 0.032890391 0.108285904
0.852498531 0.035546988 0.116508693
0.900316298 0.040101383 0.131688714
0.007843000 0.093106091 0.041492902
0.001771000 0.098418996 0.035420902
0.004174680 0.099431098 0.034282327
0.014041839 0.100949094 0.037824064
0.023908546 0.099810548 0.034408901
0.044401936 0.098672003 0.033649903
0.063630320 0.101201877 0.035420679
0.078178316 0.104111195 0.035294004
0.097912900 0.103352092 0.036812000
0.113092527 0.106388479 0.042884003
0.138393417 0.107274093 0.047564872
0.158380821 0.110815831 0.048576999
0.177735373 0.111954190 0.049715545
0.197217122 0.112460189 0.052245159
0.230613470 0.116002508 0.051739100
0.257558584 0.119038478 0.052624710
0.287919164 0.120556287 0.056420196
0.325490117 0.120556287 0.060088996
0.358760118 0.123466156 0.060341999
0.394180745 0.120430082 0.061859999
0.430233926 0.118153088 0.065275349
0.465907365 0.118153088 0.073371097
0.508538544 0.118153088 0.079443090
0.549272656 0.115749285 0.080708094
0.590259373 0.111195289 0.082985379
0.634534836 0.108032770 0.088045657
0.674004078 0.106009156 0.097153932
0.719038486 0.100696191 0.100695543
0.761543453 0.097280361 0.104869992
0.805566192 0.096521065 0.115243308
0.853257656 0.094749793 0.126375988
0.898798108 0.103858188 0.132447988
0.007842998 0.120430499 0.050600521
0.001771000 0.123466104 0.044528522
0.000000001 0.122327790 0.040607300
0.005439515 0.123213500 0.042884331
0.017836541 0.127134949 0.049588524
0.033016928 0.118026569 0.043516524
0.058570307 0.119418345 0.042757522
0.075521708 0.124098986 0.039595015
0.088804521 0.127640888 0.036812011
0.113092527 0.124604493 0.042884011
0.134091869 0.127640873 0.051865872
0.153573558 0.134598225 0.054649003
0.176217780 0.138899148 0.055787645
0.206325516 0.136748984 0.058317933
0.239721864 0.142820984 0.055281557
0.268311292 0.146363303 0.052371692
0.298545182 0.147881463 0.054142911
0.331562132 0.147881463 0.060089003
0.361922979 0.147881463 0.066161007
0.395192862 0.150790632 0.071980007
0.432511210 0.151549503 0.074004009
0.471727103 0.151549503 0.076407492
0.511574924 0.151549503 0.082479484
0.557115376 0.151549518 0.088551484
0.593295336 0.149146289 0.092093766
0.632764101 0.148766801 0.096521474
0.677039742 0.151549578 0.103225939
0.716508806 0.154585958 0.112333536
0.764200032 0.151929170 0.113219008
0.810626090 0.154205978 0.122327186
0.856293321 0.158127487 0.135610119
0.901834488 0.158507004 0.144592002
0.004933871 0.144844994 0.053889871
0.001771000 0.147881359 0.053636868
0.002150774 0.148766741 0.049715094
0.004174709 0.149019718 0.049209289
0.011005549 0.152687997 0.054269418
0.021125939 0.151169926 0.055787742
0.043896001 0.152182192 0.052245416
0.072485529 0.155218154 0.055154864
0.095003098 0.157748088 0.054901965
0.121441886 0.154712245 0.054522742
0.137001738 0.157494858 0.054775741
0.164326370 0.158506989 0.059835609
0.187223524 0.161542863 0.059582643
0.212271005 0.160784036 0.059329998
0.243010506 0.164199859 0.064263456
0.269196749 0.167868674 0.066034064
0.302087188 0.173940673 0.070082061
0.337634116 0.178114995 0.075648427
0.367994964 0.178114995 0.074889138
0.398355752 0.178114995 0.078178488
0.431625575 0.181024611 0.082226738
0.470082402 0.183048606 0.084250741
0.511322021 0.185072377 0.088298514
0.548513770 0.187855750 0.091587871
0.591777444 0.185578465 0.093105868
0.631246269 0.186717346 0.096900992
0.674763024 0.190765619 0.103478938
0.716635287 0.191398203 0.112586536
0.761416733 0.191777736 0.127007812
0.806198478 0.194307595 0.126502097
0.850600779 0.201264977 0.133965850
0.896142006 0.207336739 0.145098001
0.003922000 0.171157241 0.058949992
0.000885613 0.180265889 0.058949992
0.000126518 0.179127246 0.052751224
0.001897744 0.179127246 0.050980002
0.003795004 0.181404054 0.054775290
0.007969687 0.183048755 0.064389668
0.027704010 0.183554828 0.066413924
0.061859407 0.181657091 0.065022245
0.093738198 0.184313431 0.068817250
0.122327760 0.185072988 0.067046478
0.142062128 0.185831890 0.066919990
0.167362243 0.190891758 0.068943731
0.196584374 0.188614756 0.070840992
0.220113829 0.187096715 0.069196768
0.248703465 0.190132663 0.073497988
0.276280850 0.199240789 0.075142443
0.305123448 0.199241176 0.078178443
0.341682374 0.204427496 0.083744682
0.372043252 0.204427510 0.080708295
0.406451464 0.208475500 0.085262358
0.438709944 0.210373238 0.090195999
0.472106367 0.213409364 0.093358867
0.511574984 0.216445014 0.096394733
0.551802814 0.219481409 0.099430636
0.590765238 0.224035472 0.104237735
0.633270025 0.223782063 0.102846414
0.675774872 0.228716046 0.107020989
0.718279541 0.230234236 0.114610791
0.765464723 0.234282225 0.122959815
0.812776268 0.236053452 0.136368960
0.854016185 0.241872489 0.139025941
0.896141708 0.249841750 0.151170254
0.002783356 0.207589924 0.066160642
0.000885613 0.216319039 0.066160642
0.000000000 0.217710510 0.066540152
0.001138644 0.214800626 0.060088284
0.000759096 0.215180174 0.059329286
0.000000000 0.218216583 0.069196574
0.010879326 0.220999628 0.073118322
0.043643404 0.219987497 0.076787002
0.087666191 0.214674011 0.079064094
0.120303988 0.219608232 0.080202639
0.144212872 0.220999628 0.077925645
0.176091269 0.222770616 0.081088029
0.205312923 0.224288642 0.084123641
0.232131317 0.219228640 0.084376670
0.257685214 0.223149851 0.087413058
0.286148131 0.229980916 0.088045642
0.313093156 0.236811832 0.088425189
0.346489519 0.235041201 0.090828992
0.377356350 0.235547274 0.088298678
0.416698337 0.239974648 0.093611643
0.452371866 0.245288014 0.098544993
0.486780643 0.248324141 0.103605129
0.520430028 0.251486272 0.106641509
0.560910821 0.255534530 0.109677382
0.601138592 0.258570641 0.112713277
0.640859902 0.264389575 0.118026316
0.683364749 0.267425358 0.116002567
0.725869477 0.270461708 0.121441990
0.773687243 0.275015622 0.130929619
0.821125567 0.281593829 0.141682237
0.865274847 0.286401242 0.151169881
0.901454628 0.292726278 0.162555635
0.000000000 0.257432073 0.075521998
0.000000000 0.260721415 0.075015999
0.000000000 0.258950233 0.080708742
0.001012129 0.256672889 0.086527832
0.003542452 0.254142582 0.082353033
0.000506065 0.257178962 0.076281033
0.002277290 0.262239009 0.076533996
0.024162304 0.265528023 0.078810997
0.069450118 0.265022069 0.084630094
0.118026920 0.261986464 0.093738474
0.147754878 0.264263183 0.089310996
0.184187442 0.265781045 0.090575963
0.221505642 0.264263034 0.095256351
0.248830035 0.258444041 0.098292030
0.270082384 0.264516026 0.101328418
0.298797995 0.268437862 0.102213971
0.326881379 0.271220863 0.102213971
0.353067577 0.273750603 0.102467000
0.386464089 0.276786983 0.102467008
0.430234075 0.280075729 0.108286038
0.469829470 0.284503490 0.112713322
0.506262004 0.290069908 0.115496159
0.542694032 0.293232024 0.118532509
0.579126835 0.299304038 0.121568874
0.618089795 0.301075041 0.122833967
0.657558620 0.303858042 0.125110954
0.698039114 0.309677124 0.130929992
0.740543842 0.312713474 0.133965597
0.787855625 0.315749258 0.147121802
0.833902538 0.322580248 0.162302181
0.876660526 0.331182659 0.174699575
0.910056949 0.340291053 0.177735955
0.000000000 0.287792802 0.087665990
0.000000000 0.293864816 0.081593990
0.000000000 0.288551599 0.081087999
0.000000000 0.287033409 0.090575583
0.000632584 0.290448785 0.100189529
0.000506065 0.290575296 0.085389413
0.000000000 0.291081369 0.097027086
0.007210577 0.295635402 0.097532980
0.038583063 0.298924387 0.094750091
0.099810176 0.298418462 0.093738489
0.145477802 0.295382857 0.099936999
0.177102983 0.299683809 0.097406730
0.211132094 0.303352147 0.097406581
0.242758036 0.303984404 0.098292030
0.270082384 0.300948769 0.101328418
0.300948799 0.307020783 0.104364187
0.333712608 0.309424400 0.105249576
0.365211695 0.309424222 0.105882153
0.398608863 0.307146937 0.108539008
0.434787869 0.312966675 0.116888359
0.471220791 0.314611226 0.123466402
0.506262004 0.318912268 0.126881823
0.542694032 0.326628357 0.127640888
0.579126835 0.332700372 0.130676508
0.620113552 0.336495668 0.135989562
0.660594583 0.340290785 0.138013572
0.701581538 0.346362799 0.140290707
0.749652267 0.352181822 0.146110371
0.792157054 0.355218232 0.154458970
0.832384765 0.363567173 0.168374181
0.872485936 0.372422397 0.182668969
0.913092613 0.376723796 0.192915559
0.000000000 0.325363755 0.099809989
0.004806995 0.321821779 0.091334797
0.000505996 0.325743020 0.093864806
0.000000000 0.323972106 0.093105637
0.000000000 0.329664826 0.101454549
0.000000000 0.331688583 0.098418921
0.000000000 0.329285383 0.098924674
0.000000000 0.329285383 0.104237713
0.019734196 0.332321405 0.102719702
0.078557692 0.332321405 0.106261663
0.129664809 0.331815481 0.102340184
0.171157435 0.332827330 0.104364187
0.204933286 0.336242795 0.106261641
0.239342257 0.338266581 0.110056795
0.268817395 0.341682196 0.110942408
0.305755794 0.338646561 0.116381980
0.336116195 0.341682583 0.120935790
0.367741704 0.342947572 0.122706786
0.401138932 0.345224410 0.123971954
0.434914827 0.348133683 0.127767354
0.471347272 0.350410968 0.131182984
0.506262004 0.352435231 0.135230854
0.542946994 0.360025376 0.136875212
0.583933830 0.366097391 0.142188698
0.622643888 0.369892120 0.145224303
0.666413426 0.374319762 0.152561471
0.707906425 0.380897850 0.156609595
0.750790834 0.388867587 0.162681878
0.798861623 0.392283440 0.164199933
0.837824345 0.398861349 0.178620741
0.875142574 0.409487396 0.191777200
0.916128814 0.415559769 0.200885609
0.000000000 0.364832163 0.110436186
0.003036003 0.361796170 0.107400566
0.006577997 0.357621610 0.104490995
0.000505998 0.363187522 0.106767833
0.000000000 0.368754178 0.104110993
0.000000000 0.370651454 0.106008738
0.000000000 0.370145500 0.107526675
0.000000000 0.370272368 0.113345698
0.001518006 0.369513273 0.111068994
0.044022638 0.368754178 0.117899701
0.103352427 0.367235988 0.117014378
0.157495230 0.372296095 0.116508178
0.200379267 0.373055011 0.114231177
0.237824067 0.372675568 0.121188991
0.268184811 0.376217574 0.123718992
0.305755764 0.375078976 0.131562382
0.342188179 0.375079364 0.131561980
0.370777696 0.375711769 0.137001559
0.404174924 0.380898178 0.137887195
0.437571377 0.385705024 0.139152348
0.471347272 0.388361573 0.141809195
0.507780075 0.389373451 0.144845068
0.544465184 0.394940019 0.148892701
0.586969972 0.401012361 0.153573811
0.627197623 0.404807091 0.158886895
0.666666746 0.407843053 0.160531193
0.710942268 0.414294511 0.168248057
0.750411093 0.423402607 0.173308179
0.793295562 0.427198023 0.178620994
0.837824345 0.436812311 0.183174938
0.876913548 0.444148928 0.201391205
0.917647004 0.451992184 0.209993988
0.000000000 0.403668106 0.120809563
0.000000000 0.404300690 0.123845786
0.003668584 0.401264697 0.121948212
0.005945577 0.399620265 0.119544402
0.001012027 0.407969564 0.116508111
0.001264991 0.408222526 0.116255149
0.000000000 0.408855110 0.115622573
0.001264990 0.409234673 0.119291283
0.000253010 0.413282990 0.126754984
0.006325044 0.410246611 0.126754984
0.067425914 0.405312836 0.129664853
0.131435916 0.409740359 0.133965880
0.187602699 0.414927155 0.133585989
0.235926524 0.412397534 0.128273025
0.268184811 0.412777096 0.133965567
0.306388348 0.410373300 0.144212589
0.342820764 0.411005735 0.148513764
0.375584722 0.413409501 0.143073574
0.408981949 0.416445136 0.146109968
0.443010956 0.420999110 0.148260564
0.477672309 0.424541265 0.149525732
0.511448264 0.427577585 0.153320864
0.548007488 0.430613190 0.162428498
0.590006411 0.436179787 0.166476890
0.628968835 0.441239834 0.171157569
0.671599925 0.444908202 0.176976547
0.710563064 0.448450506 0.178494617
0.749904990 0.457431674 0.181783989
0.788741410 0.463124335 0.189500272
0.829348743 0.470714718 0.196837112
0.870208979 0.483618081 0.204553768
0.915749431 0.486653686 0.222770557
0.000000000 0.440101027 0.135989994
0.000000000 0.443137407 0.139025599
0.002150772 0.443769991 0.135610059
0.004174965 0.443264008 0.132321030
0.004048419 0.444402456 0.131688565
0.007084029 0.447438061 0.128652945
0.002277000 0.450221330 0.125869647
0.003288994 0.449715286 0.126375705
0.005818998 0.450221181 0.129917890
0.000253011 0.458823502 0.132827029
0.049968563 0.447059035 0.135736898
0.112966470 0.447817951 0.142821282
0.172422305 0.451865971 0.145730674
0.220746130 0.451866031 0.140417084
0.266287237 0.454902440 0.143453449
0.308159590 0.452878207 0.151549786
0.345857173 0.454396009 0.156357020
0.378621131 0.458950043 0.155218393
0.408982009 0.458950043 0.152182013
0.445161790 0.459203005 0.160784394
0.483238727 0.459708989 0.163441002
0.520177126 0.460974157 0.164705902
0.554079533 0.464010447 0.168500528
0.593548775 0.467046052 0.177608937
0.628716290 0.474889338 0.181657314
0.672359228 0.482099950 0.189120978
0.722707093 0.487919003 0.199747071
0.759139836 0.493991017 0.208855450
0.795825601 0.505628943 0.214800984
0.834282100 0.511701226 0.221125931
0.872232616 0.517520607 0.228083551
0.906641066 0.526122928 0.237950996
0.000000000 0.504364431 0.153953016
0.000000000 0.507400155 0.154205993
0.000000000 0.510436535 0.157242149
0.002403804 0.509803951 0.158127725
0.003922000 0.507526755 0.160784185
0.004554417 0.503352165 0.157747954
0.002530030 0.506388426 0.157242015
0.000000000 0.507780075 0.151170090
0.002276998 0.508159459 0.150411367
0.000253011 0.515243590 0.155471250
0.018848522 0.509551108 0.155724242
0.094750144 0.501455128 0.164832368
0.170271903 0.503352463 0.172422662
0.232637435 0.505249739 0.171537057
0.270588219 0.508286119 0.169512793
0.316128761 0.511321902 0.167742178
0.357495219 0.507526755 0.173814356
0.394054472 0.507906318 0.176344365
0.428716362 0.510057092 0.175458774
0.467425764 0.510057092 0.180771723
0.498165727 0.513852060 0.186084628
0.534092367 0.515623093 0.188994288
0.571157634 0.516761720 0.193928078
0.607969403 0.517141163 0.200379640
0.645161211 0.522454083 0.207210720
0.680455327 0.529664755 0.213536039
0.723719120 0.535736740 0.222770661
0.760151863 0.541808724 0.227324456
0.804553747 0.547880709 0.236432850
0.843137205 0.558000982 0.242631346
0.885262489 0.563946724 0.251359969
0.928146780 0.571157396 0.264263362
0.000000000 0.548386991 0.170271739
0.000000000 0.547628105 0.170271739
0.000000000 0.552561522 0.168627515
0.000000000 0.554332733 0.174193576
0.002783259 0.552308440 0.180138990
0.005819256 0.549272478 0.178620785
0.003289418 0.550790787 0.174319729
0.000253032 0.553826749 0.174319729
0.000000000 0.554838777 0.171283975
0.000000006 0.559772432 0.179632977
0.007969748 0.554206431 0.172295988
0.070840761 0.553826690 0.176596999
0.153194085 0.548893332 0.186463997
0.227071390 0.550664186 0.190259293
0.276660532 0.555344880 0.190512314
0.316508532 0.550790608 0.187476054
0.359012932 0.556862652 0.192030638
0.399114370 0.553320587 0.198861718
0.438077241 0.553826690 0.201391727
0.475395381 0.555977464 0.201264992
0.511068761 0.555977464 0.207336992
0.541429281 0.560025454 0.208348870
0.580012739 0.560151935 0.212017968
0.618216455 0.561922729 0.221631989
0.654648542 0.566476703 0.225806728
