Assets/Shaders/EldamarStudio/100 Sci-Fi LUTs Pack/LUTs/cube/Nebula LUT.cube
LUT_3D_SIZE 5
DOMAIN_MIN 0.000000 0.000000 0.000000
DOMAIN_MAX 0.903226 0.903226 0.903226
0.027450999 0.054901998 0.129411995
0.104616992 0.085641995 0.139531717
0.201391831 0.135357410 0.167994574
0.316888124 0.212903127 0.214800864
0.473624617 0.332320809 0.297026813
0.134724990 0.147754416 0.167995006
0.170651421 0.160531700 0.178115278
0.245540693 0.197469994 0.201644719
0.353447139 0.262238830 0.243896246
0.490196109 0.379379958 0.327007979
0.263504416 0.304743797 0.251739413
0.288045675 0.319797814 0.255028397
0.342694819 0.354458958 0.287792772
0.416571975 0.402530253 0.321062803
0.537002087 0.504996777 0.416065812
0.395319134 0.531688988 0.401265115
0.407083958 0.539531946 0.410752833
0.448956132 0.558886945 0.436306238
0.513978302 0.598355293 0.478810996
0.616824746 0.669070244 0.567109227
0.588741601 0.773054600 0.645034552
0.611385047 0.779253602 0.657811463
0.642378628 0.791271627 0.669070244
0.699936748 0.811891079 0.703099191
0.777102768 0.842251599 0.752308547
0.068311289 0.076154292 0.165085703
0.123592407 0.102972701 0.171283990
0.218089700 0.156609714 0.199367419
0.334471703 0.238330126 0.249462530
0.474509925 0.350916922 0.329284936
0.153953284 0.158886984 0.193168715
0.186337993 0.176217705 0.204933703
0.259962112 0.219734401 0.229854703
0.361290127 0.282858700 0.270714998
0.488298506 0.391144633 0.350917101
0.275268555 0.321062386 0.272612005
0.299810082 0.331182718 0.281467289
0.354079694 0.367236078 0.313219398
0.425047249 0.415306836 0.352182269
0.538267195 0.511448622 0.437950492
0.395951718 0.536622107 0.421884835
0.417836815 0.541809082 0.428209960
0.455154836 0.563061297 0.455534518
0.516635060 0.599999964 0.490195960
0.617710173 0.670335114 0.570651352
0.594939888 0.775584936 0.657684743
0.613156497 0.780138910 0.662618577
0.645667195 0.790639043 0.679570079
0.701581061 0.811891079 0.710056901
0.779759586 0.844908416 0.757495403
0.119038828 0.105249576 0.233396411
0.164452702 0.128146574 0.232131824
0.245919973 0.180518821 0.255028814
0.342314720 0.249841988 0.294623524
0.478052199 0.364326388 0.379379809
0.195192695 0.191271693 0.249462694
0.219734401 0.199114695 0.258949965
0.280202270 0.237697691 0.279190421
0.364199877 0.298545539 0.318405986
0.499304086 0.408475667 0.411764503
0.287033379 0.332194805 0.323719382
0.308918238 0.347248793 0.335736662
0.364199400 0.381909966 0.366856366
0.433523387 0.434914410 0.408728808
0.543453395 0.526502192 0.485262632
0.408349276 0.538266838 0.467299134
0.425426722 0.554332554 0.481340796
0.465907544 0.579126954 0.506515086
0.530044556 0.622264564 0.547374785
0.632131815 0.687666118 0.619734526
0.605060041 0.778874218 0.678305089
0.617583632 0.786464334 0.684882760
0.653510213 0.795825183 0.705123603
0.710436583 0.817457199 0.737128198
0.787602603 0.848829746 0.783681273
0.192283258 0.160910994 0.347248256
0.228209838 0.178241700 0.352182120
0.292346388 0.225300118 0.371157557
0.386464268 0.289437145 0.406198263
0.492852509 0.389879793 0.474889219
0.238330111 0.235420406 0.364326417
0.269070536 0.249209404 0.377103150
0.324604690 0.283870965 0.393042415
0.403415412 0.340796828 0.432258248
0.510183573 0.438583195 0.494244188
0.324604541 0.378368109 0.430360228
0.335989565 0.389120638 0.442125440
0.381910384 0.416318923 0.457811385
0.448576808 0.464010119 0.491840810
0.552308500 0.536622167 0.557242334
0.432511121 0.559266269 0.550411105
0.438457131 0.576723278 0.555218220
0.477419227 0.595446110 0.575205564
0.544465363 0.636685431 0.613156140
0.643643200 0.700442791 0.665907621
0.612270594 0.776976585 0.732447624
0.618216574 0.786717355 0.731182635
0.652751207 0.803415477 0.739658177
0.722201169 0.833775818 0.776976824
0.804553807 0.865780950 0.822390914
0.255028814 0.241998971 0.545477808
0.278937697 0.260720938 0.556356490
0.345350981 0.304237366 0.568500996
0.434281975 0.382036805 0.593295634
0.539025784 0.478937626 0.634661555
0.292599708 0.313345790 0.562934875
0.312586814 0.324857473 0.570777714
0.365844548 0.364705503 0.581530631
0.449842006 0.431752205 0.607589781
0.553699911 0.511195481 0.646552742
0.365591377 0.460594624 0.607590020
0.374066800 0.463757217 0.608222306
0.418468982 0.491208196 0.619987607
0.494750291 0.539658606 0.651106954
0.596584558 0.604427636 0.693358600
0.490575641 0.649462223 0.688172221
0.494497240 0.650221288 0.695382833
0.529158652 0.665528119 0.705755770
0.575964510 0.686021268 0.722454071
0.675141990 0.737760603 0.754079759
0.651486576 0.810878932 0.805692732
0.660088539 0.811891019 0.803035915
0.694749713 0.825300574 0.820113778
0.760151684 0.856419742 0.848197639
0.849082708 0.894623518 0.888171613
