Assets/Shaders/EldamarStudio/100 Sci-Fi LUTs Pack/LUTs/cube/Nebula LUT.cube
LUT_3D_SIZE 8
DOMAIN_MIN 0.000000 0.000000 0.000000
DOMAIN_MAX 0.903226 0.903226 0.903226
0.027450999 0.054901998 0.129411995
0.060721450 0.063883543 0.133712545
0.116761193 0.091714002 0.139532089
0.174319640 0.119923994 0.159140006
0.236558989 0.159012988 0.181024805
0.299683720 0.199746996 0.207717001
0.374446571 0.254522264 0.244401991
0.473624617 0.332320809 0.297026813
0.085009545 0.100316092 0.145477548
0.108159088 0.107779540 0.153320551
0.148134097 0.123845994 0.161543012
0.190765649 0.145350650 0.175585002
0.245161384 0.174319744 0.191777363
0.312207729 0.213029981 0.219860539
0.386590540 0.274889290 0.260847569
0.470967770 0.348766804 0.309424073
0.155976996 0.162176102 0.177102998
0.166476652 0.163694009 0.180265903
0.190385982 0.183302090 0.184946194
0.231878370 0.206072092 0.203035995
0.278810978 0.231119379 0.217963085
0.347122103 0.266287088 0.245161071
0.412144214 0.317900270 0.281341076
0.496521056 0.391271055 0.333585978
0.219228283 0.253383636 0.226944640
0.241366193 0.258064747 0.224161997
0.256926179 0.270588636 0.229601279
0.287539274 0.290954918 0.243770003
0.335357279 0.312839806 0.267173082
0.379886359 0.342568040 0.287159741
0.443896323 0.391397566 0.321821570
0.517646968 0.460341632 0.378368080
0.304744184 0.358760178 0.280581981
0.311701536 0.369006991 0.284503192
0.321189076 0.374446392 0.296268195
0.350663722 0.391271561 0.308792084
0.389500350 0.416698188 0.325869352
0.428462982 0.446426392 0.351296633
0.480202258 0.483238280 0.389120668
0.554459035 0.546362996 0.450221360
0.376091003 0.499304205 0.375964463
0.381530285 0.496774286 0.377229542
0.395192742 0.505123436 0.386464119
0.416318834 0.518152833 0.397090375
0.447438180 0.536116004 0.422137976
0.485641986 0.563946486 0.444402188
0.537001729 0.592536032 0.485009730
0.603162527 0.646046579 0.542061806
0.462998271 0.630613565 0.492725998
0.468057811 0.638330460 0.501201570
0.482353091 0.641492724 0.506514609
0.500063181 0.648576856 0.518026590
0.527767360 0.658696949 0.536369503
0.563061476 0.677545547 0.557495296
0.603794992 0.701834559 0.584187567
0.663630784 0.737001956 0.626818359
0.588741601 0.773054600 0.645034552
0.604427576 0.775584936 0.654142737
0.611131966 0.779759765 0.662112772
0.633016944 0.788488269 0.670967758
0.654395819 0.796710849 0.677798927
0.689816475 0.805565774 0.695761740
0.727514207 0.824920893 0.718785584
0.777102768 0.842251599 0.752308547
0.047059000 0.067425996 0.152181998
0.079569548 0.075648546 0.146236554
0.129285097 0.099936545 0.162681550
0.181783885 0.133586451 0.178368449
0.237697542 0.167235836 0.195951998
0.307780176 0.214674294 0.225300729
0.386210978 0.266666710 0.262112737
0.469070047 0.336622357 0.304996818
0.097153991 0.107779540 0.165464997
0.120683089 0.112460539 0.155597553
0.147248209 0.132827535 0.174446553
0.199367642 0.156736106 0.186970457
0.250727355 0.190385908 0.206957817
0.319923729 0.235041276 0.236685991
0.393169284 0.281467557 0.267425805
0.479822904 0.357368827 0.322580665
0.169639543 0.173181102 0.190512091
0.177482650 0.181404456 0.195572540
0.202150196 0.195066199 0.203036100
0.237697721 0.211891457 0.209234908
0.285895169 0.239342526 0.229601279
0.342315018 0.274130195 0.247438282
0.409234703 0.328525901 0.288298279
0.490575701 0.395319372 0.344845116
0.224288642 0.261985928 0.225173742
0.248070657 0.259962291 0.233523101
0.264010221 0.276913643 0.244528994
0.293738306 0.294497281 0.258190721
0.334472060 0.318785369 0.271853268
0.381151021 0.349778652 0.296141893
0.449589282 0.397469819 0.335483909
0.522327363 0.469070315 0.394939810
0.297659904 0.367362201 0.300063074
0.309171528 0.368880391 0.292219996
0.323592395 0.379886299 0.303985000
0.353826612 0.394054204 0.316508412
0.389879793 0.416698158 0.333333641
0.430107296 0.445667297 0.359898716
0.481973648 0.491334915 0.396457821
0.553826451 0.552055538 0.456293643
0.374066740 0.496141762 0.376976520
0.381530493 0.502087474 0.386590749
0.399114758 0.507526994 0.391144812
0.418216348 0.519670784 0.400885373
0.448576719 0.535736442 0.424415141
0.482099891 0.558507323 0.448703289
0.534597993 0.594560266 0.485009730
0.601138592 0.646046579 0.538266778
0.465654552 0.631625533 0.500569284
0.472106278 0.635673583 0.499430597
0.480455726 0.639595091 0.510057032
0.500063181 0.648197174 0.523339629
0.527767360 0.661100388 0.535104215
0.564958811 0.679443240 0.559772432
0.609740794 0.709677577 0.594307244
0.671853304 0.742188156 0.637697935
0.595698893 0.771663606 0.642884314
0.600379348 0.776470423 0.647058785
0.615686059 0.780897915 0.651739299
0.630739808 0.786210954 0.665654719
0.654902041 0.793042183 0.684756219
0.688551307 0.808095813 0.694496930
0.729664743 0.823656023 0.719038367
0.771663189 0.845920324 0.755471110
0.072865099 0.079190098 0.176470995
0.096774444 0.087792896 0.174066991
0.141050085 0.112081096 0.183427989
0.190006644 0.140670642 0.194434002
0.249083087 0.177862093 0.217078090
0.314231396 0.225932822 0.246679261
0.387729168 0.280455500 0.282099992
0.473750651 0.352435052 0.336369336
0.114357993 0.119924091 0.178747997
0.132827446 0.121062540 0.191777468
0.159013093 0.141050085 0.195572540
0.206072092 0.165338084 0.206957906
0.264010072 0.200632289 0.225047290
0.324351251 0.243643284 0.251106739
0.402530074 0.297533095 0.290575475
0.483617812 0.371916652 0.346742511
0.167615086 0.177102998 0.205313087
0.184566557 0.182922542 0.205313087
0.207590193 0.199747190 0.216319010
0.247565091 0.222896636 0.229601175
0.296900988 0.248323992 0.247564897
0.356989324 0.288677722 0.280075848
0.414421260 0.339911103 0.313345879
0.496647537 0.406830907 0.369386345
0.236938730 0.263883293 0.244022727
0.248324081 0.270209104 0.250727177
0.278178275 0.289816380 0.266793519
0.311828077 0.311321735 0.284882724
0.346236348 0.335230976 0.301328540
0.392536283 0.366982758 0.324731022
0.451992482 0.413156182 0.363820553
0.525236845 0.478810906 0.416445315
0.307906300 0.368121207 0.306261986
0.319797158 0.376343936 0.316128731
0.333839297 0.390892118 0.321948200
0.360025465 0.408475816 0.339152277
0.393422186 0.427704096 0.361163974
0.434408635 0.456546366 0.383048475
0.487160087 0.501960635 0.421379060
0.555344760 0.560151756 0.477039874
0.384060979 0.505249977 0.403415471
0.390512645 0.507906497 0.408601999
0.406957746 0.516508758 0.414294481
0.424288630 0.527134478 0.423656076
0.451233476 0.544844806 0.445540756
0.486527383 0.566603065 0.466413826
0.537760973 0.597216904 0.497659832
0.606324911 0.649335682 0.554459393
0.471600384 0.635167539 0.514611065
0.473371089 0.636053205 0.513978541
0.484883219 0.645414352 0.529411614
0.502846241 0.650853872 0.538772523
0.531688571 0.667299271 0.554585516
0.571283996 0.686148107 0.577862024
0.617204309 0.712840319 0.611638367
0.677292705 0.745098233 0.650474250
0.592156887 0.774826050 0.664515734
0.597976029 0.779253304 0.655660808
0.616445422 0.779632986 0.671220660
0.635041177 0.787982285 0.675774872
0.658570409 0.796710849 0.688424945
0.690448761 0.808095992 0.706767857
0.731562018 0.825173914 0.727514148
0.779759586 0.844149351 0.759772301
0.100315996 0.099177644 0.206830993
0.121062540 0.104617447 0.204553992
0.160531178 0.125363991 0.219860733
0.208475992 0.149652004 0.229727998
0.264769197 0.190006450 0.245288089
0.322833478 0.231119469 0.265022010
0.390132993 0.285388917 0.302719623
0.478937596 0.358254015 0.364579409
0.145350650 0.135989636 0.222644001
0.153194562 0.139405295 0.204301178
0.182163432 0.153194457 0.223782539
0.223655730 0.179380193 0.239089087
0.275016069 0.211511895 0.253131002
0.329032183 0.251486361 0.275016099
0.402277023 0.306514740 0.315623105
0.486527532 0.377735674 0.380898178
0.185325742 0.194686741 0.242251992
0.199747100 0.199367553 0.244528994
0.228462726 0.217078000 0.252751559
0.259329289 0.232257724 0.259708822
0.304364532 0.260088354 0.283238530
0.357621729 0.295256257 0.308159411
0.425427109 0.354079664 0.352182120
0.495762140 0.421252221 0.400379807
0.245540634 0.278052002 0.280202627
0.256546527 0.280708551 0.287918717
0.284882754 0.297280550 0.292220086
0.313345999 0.318405926 0.301075637
0.349399179 0.336748987 0.323845625
0.397596627 0.374699622 0.350031465
0.455660939 0.424920648 0.390638620
0.529411674 0.487919152 0.449082613
0.319038182 0.381783843 0.339152187
0.324478090 0.384187043 0.342694640
0.342820734 0.401517749 0.350158095
0.370145530 0.420999557 0.372422636
0.405819178 0.450853825 0.394813359
0.448197275 0.477798998 0.419481426
0.498671651 0.520050406 0.460847616
0.560784400 0.575585127 0.507779717
0.389626890 0.510436594 0.425300479
0.397343278 0.511575162 0.437444836
0.413282752 0.526502192 0.443643004
0.433270007 0.538899481 0.456925988
0.465022117 0.561290205 0.479443461
0.500695884 0.582036436 0.502846360
0.547248602 0.609867215 0.529411674
0.611385286 0.660341322 0.580392361
0.479317009 0.640733540 0.543326557
0.473497719 0.647438169 0.543074012
0.486780524 0.649335742 0.548513710
0.517393887 0.661480188 0.565085232
0.539278865 0.676027536 0.581151366
0.575964630 0.694370568 0.600252926
0.624541163 0.719797552 0.633523345
0.684756041 0.753193855 0.670335233
0.606071889 0.778620899 0.675774634
0.608728468 0.781024575 0.674889505
0.617330968 0.788867831 0.683870792
0.636685610 0.791271627 0.687665939
0.665148675 0.801011980 0.702846110
0.695635557 0.812017560 0.719797492
0.737507641 0.827197671 0.745477319
0.783681273 0.844908416 0.774446547
0.143326998 0.116761386 0.257685184
0.153953359 0.126502350 0.257052392
0.187223285 0.148893088 0.265654892
0.231498837 0.173940375 0.275774986
0.286653966 0.207590178 0.290575385
0.343073964 0.251486182 0.312713623
0.400253296 0.296774268 0.346995354
0.483744621 0.370651811 0.406071991
0.173560828 0.153067544 0.261353731
0.184187189 0.166476741 0.262365282
0.211511895 0.178621098 0.270714611
0.248323992 0.199367538 0.278178275
0.297280341 0.228336632 0.302466869
0.350158155 0.269449979 0.321441829
0.410373181 0.316761523 0.357874781
0.491460979 0.389373779 0.415306807
0.217837006 0.221885100 0.289057374
0.233523071 0.223276183 0.289943069
0.246805981 0.236686081 0.293738097
0.282858968 0.252245277 0.310310096
0.324351370 0.275774986 0.320303291
0.367488980 0.309677601 0.346995264
0.424541563 0.360151470 0.382163078
0.501580954 0.427956998 0.434787899
0.265148818 0.293738276 0.323212743
0.282605648 0.300822198 0.327893734
0.296901077 0.310942173 0.330929726
0.325110465 0.330550194 0.348892808
0.355597466 0.353699803 0.366097629
0.402656257 0.388108730 0.392789632
0.460721284 0.433523118 0.424920827
0.533459425 0.490322411 0.477672458
0.325237215 0.397090167 0.386843383
0.337381542 0.402276754 0.393548638
0.351802379 0.414421290 0.397090375
0.375332177 0.429222286 0.410878927
0.406704187 0.455914140 0.430866390
0.449715197 0.483238190 0.453889906
0.501455009 0.519291341 0.488804191
0.567488849 0.575711370 0.542061925
0.395192921 0.516634941 0.466919661
0.403162539 0.520936072 0.469702631
0.413282752 0.528779447 0.473877370
0.432890534 0.544339120 0.489183724
0.468943924 0.567615569 0.513852179
0.507653296 0.596078396 0.534218669
0.554205954 0.628969133 0.567741513
0.621505380 0.672485888 0.609614015
0.480202466 0.641492546 0.563187659
0.483491451 0.649335682 0.572169721
0.491081476 0.655787468 0.572549105
0.513472617 0.668184817 0.587729156
0.548893154 0.686148226 0.606198728
0.588614702 0.706514835 0.630740166
0.629728198 0.730803370 0.656293333
0.692979157 0.762175858 0.690322518
0.608348906 0.779380083 0.691460907
0.607590139 0.785325766 0.685768425
0.618089795 0.786843896 0.698544919
0.645161211 0.795825601 0.711195648
0.669323325 0.805059791 0.722706795
0.701075256 0.819101810 0.739785075
0.743327022 0.834535062 0.760910809
0.789247572 0.853889763 0.785452127
0.182163253 0.150790736 0.322959721
0.193421990 0.159013182 0.327766836
0.226438984 0.175964728 0.332953990
0.263251007 0.204047725 0.340290815
0.310183167 0.232257724 0.352308452
0.366223723 0.270208985 0.373813719
0.420999438 0.321062267 0.411005735
0.492346704 0.383807540 0.458443791
0.206957817 0.187982276 0.327008009
0.213029996 0.191524357 0.327640712
0.241239995 0.201264992 0.338772833
0.279696405 0.227197990 0.350917190
0.317267388 0.254142851 0.359898806
0.370904714 0.294497013 0.386464208
0.428842723 0.341429263 0.423782289
0.499430507 0.405945599 0.474004090
0.242378429 0.248324081 0.350664079
0.259329468 0.250601083 0.356862605
0.274130076 0.250474185 0.366730064
0.301581174 0.277419180 0.371663719
0.341556102 0.305123419 0.383048475
0.390512645 0.334724814 0.412270814
0.441113383 0.382036656 0.443263739
0.509930491 0.442884117 0.482858926
0.290954739 0.321442127 0.391650885
0.297280520 0.327008009 0.394940108
0.315117091 0.335231066 0.397090375
0.340923369 0.354079455 0.409234613
0.378114909 0.377861917 0.429601520
0.419987261 0.412397027 0.449589103
0.468943626 0.453130931 0.477798998
0.539025843 0.507526815 0.530929565
0.342314988 0.415812433 0.440227479
0.345477164 0.421252191 0.446426362
0.366730094 0.433902502 0.452371687
0.385958463 0.448830098 0.463630468
0.420493424 0.470334947 0.475521982
0.459455937 0.497659892 0.502466917
0.506135523 0.534597993 0.533839226
0.572295725 0.581656873 0.570651591
0.409234732 0.528905451 0.512966454
0.412776679 0.536622524 0.516255498
0.422011644 0.547121823 0.525616527
0.445035011 0.558507442 0.533712804
0.472359389 0.574952483 0.553320706
0.511068761 0.597216666 0.575711489
0.559392750 0.631752014 0.594433725
0.624667764 0.670841396 0.637571454
0.490701824 0.652498305 0.601391554
0.485895008 0.653636992 0.604300797
0.498545021 0.660088778 0.609740794
0.519924164 0.671600163 0.620999396
0.548639834 0.690955162 0.641619265
0.594433546 0.714484215 0.661354005
0.647564590 0.744971573 0.693611443
0.714231253 0.778367817 0.733586133
0.607716382 0.779506624 0.722074509
0.604553998 0.787349641 0.717141092
0.620999515 0.789500535 0.726628721
0.636432469 0.798228741 0.730170846
0.666919589 0.808475435 0.737001717
0.712080836 0.825679779 0.765591323
0.754585803 0.843769848 0.789626539
0.799493551 0.863250971 0.814800799
0.226439282 0.193421990 0.420493275
0.235041291 0.201264992 0.426438987
0.258697301 0.212270692 0.431499004
0.297659695 0.234914571 0.439595222
0.340796888 0.270082384 0.448830068
0.390385747 0.309171259 0.470841289
0.448956579 0.359392554 0.501834571
0.505249679 0.421505094 0.530550122
0.242504731 0.225806534 0.429221839
0.247564793 0.231625736 0.430739999
0.275395334 0.239595085 0.443643302
0.306767642 0.264769197 0.446679205
0.353194088 0.292093277 0.463504285
0.401138484 0.336369723 0.484756559
0.451992303 0.382036358 0.504996836
0.515749514 0.437697649 0.543200493
0.274257004 0.276407182 0.444655448
0.279316843 0.282226741 0.445540845
0.301834106 0.293611586 0.455028564
0.328399718 0.314357817 0.461606741
0.370651275 0.340544075 0.479949445
0.414800823 0.376217633 0.500695884
0.466160566 0.423529267 0.525490046
0.521315813 0.471853077 0.552940965
0.316128939 0.362681985 0.481594265
0.316635013 0.363314271 0.480455637
0.337760985 0.373181552 0.486021638
0.362049282 0.391271323 0.495508939
0.399620175 0.416571647 0.511322200
0.437191397 0.446805745 0.529411674
0.490449280 0.487665921 0.555091858
0.546363056 0.533333182 0.589373767
0.366603374 0.462745249 0.528273463
0.370651394 0.466666669 0.527640939
0.385578990 0.473750591 0.531688750
0.404806823 0.480455518 0.539278924
0.434914261 0.498924434 0.553700209
0.471979916 0.530550003 0.571157277
0.523972273 0.560025334 0.596837521
0.581024826 0.596837342 0.627577364
0.429348290 0.565338433 0.582669497
0.434155256 0.567488849 0.590512455
0.443769753 0.573687792 0.589247167
0.461227059 0.585452080 0.596710563
0.487919182 0.604174733 0.607337236
0.521568477 0.619861066 0.623276234
0.573687434 0.648071051 0.650727272
0.633269846 0.682605803 0.683364749
0.504490972 0.674383521 0.660974264
0.507779777 0.670841098 0.651866019
0.519165218 0.676660299 0.659329534
0.539405286 0.688930929 0.672738850
0.569259882 0.708032846 0.683744371
0.614295006 0.732447565 0.713092923
0.661606789 0.752814531 0.736116230
0.718405783 0.782289743 0.760657549
0.620493174 0.788741589 0.751802325
0.611891150 0.790512323 0.749905229
0.631751895 0.796205044 0.756989181
0.653257251 0.802529991 0.768753886
0.681087732 0.814927161 0.779000521
0.718405783 0.833649576 0.798482060
0.762555480 0.851992428 0.818342924
0.814927459 0.875521779 0.846046567
0.255028814 0.241998971 0.545477808
0.264896005 0.248956352 0.549146056
0.286780655 0.265021920 0.558127642
0.324731022 0.287286460 0.564958990
0.366856337 0.325236797 0.574193239
0.421378851 0.367109448 0.589247406
0.478178412 0.420746088 0.611132085
0.539025784 0.478937626 0.634661555
0.267046094 0.282732666 0.557621777
0.281467825 0.280202657 0.562049568
0.300063282 0.289184093 0.563567281
0.332574636 0.317394108 0.570018649
0.380265623 0.348766714 0.581783533
0.433902651 0.392156541 0.597722769
0.486654103 0.440607339 0.617204070
0.547501624 0.495382637 0.638582885
0.300189912 0.333079994 0.570777595
0.304111362 0.336242914 0.563061118
0.327261150 0.347375005 0.577608705
0.353826851 0.367109150 0.578241587
0.394054264 0.395699084 0.594307423
0.443010807 0.435546994 0.604300618
0.496267915 0.477672547 0.627577245
0.558506906 0.525869906 0.653130591
0.335357279 0.412650228 0.587349653
0.341429442 0.416192114 0.590891778
0.362428725 0.427577376 0.595698655
0.386211455 0.443137467 0.602782607
0.423529625 0.466666639 0.614041567
0.468184739 0.497912556 0.634028971
0.520050526 0.538393378 0.654395998
0.576723576 0.579000592 0.675015628
0.394813389 0.517394364 0.620493174
0.398481756 0.518406153 0.632511079
0.407716602 0.516255736 0.627197862
0.422517449 0.523086667 0.632005155
0.461479962 0.544592023 0.644402266
0.499683648 0.570777714 0.661353707
0.549019337 0.601518095 0.682099879
0.608855009 0.637064993 0.702846169
0.470335424 0.623908520 0.672232747
0.469702542 0.622896850 0.676154375
0.480328739 0.627197623 0.683997154
0.494117349 0.632005215 0.684376717
0.511448324 0.633143842 0.685009778
0.545856953 0.654395759 0.701707602
0.603795171 0.682605803 0.721694887
0.658190846 0.714231491 0.741935492
0.561416507 0.722959995 0.745098054
0.553447187 0.724098504 0.743453205
0.564705908 0.725490093 0.740417182
0.582795620 0.737001956 0.747880757
0.612270534 0.746489525 0.761922777
0.648829520 0.763946772 0.777482748
0.688171625 0.778367877 0.787982285
0.741555750 0.803668201 0.809487760
0.651486576 0.810878932 0.805692732
0.655787587 0.811385334 0.807842851
0.664136529 0.810372829 0.803795040
0.683997571 0.821378767 0.814927399
0.706894636 0.830866814 0.820493460
0.746742547 0.850600719 0.840101361
0.793927550 0.870335519 0.867426038
0.849082708 0.894623518 0.888171613
