Assets/Shaders/EldamarStudio/100 Sci-Fi LUTs Pack/LUTs/cube/Nebula LUT.cube
DOMAIN_MIN 0 0 0
DOMAIN_MAX 1 1 1
LUT_3D_SIZE 32
0.027450999 0.054901998 0.129411995
0.030487388 0.051865615 0.126375601
0.039974999 0.055281550 0.129790992
0.050854161 0.060088836 0.133332998
0.060721450 0.063883543 0.133712545
0.075901061 0.072991937 0.136748940
0.091081321 0.079570003 0.139784679
0.104616992 0.085641995 0.139531717
0.116761193 0.091714002 0.139532089
0.128905982 0.097786009 0.148640484
0.146869004 0.103857994 0.151929125
0.161036998 0.111954249 0.154965267
0.174319640 0.119923994 0.159140006
0.189247057 0.126249030 0.164958969
0.201391831 0.135357410 0.167994574
0.218342990 0.146868989 0.173434600
0.236558989 0.159012988 0.181024805
0.254775137 0.169892147 0.188867584
0.272991955 0.175964952 0.191903979
0.285642028 0.187603012 0.200506359
0.299683720 0.199746996 0.207717001
0.316888124 0.212903127 0.214800864
0.338013977 0.227956980 0.223908499
0.356229991 0.240101010 0.233016908
0.374446571 0.254522264 0.244401991
0.395445973 0.271094322 0.256546319
0.419734150 0.289816916 0.268184930
0.444022894 0.311068535 0.277292550
0.473624617 0.332320809 0.297026813
0.498671710 0.355344385 0.314737171
0.519038200 0.379633188 0.332574189
0.537254989 0.403921992 0.356862992
0.033523001 0.057938386 0.123339996
0.033523001 0.060973998 0.135483995
0.043010615 0.066540159 0.134598389
0.056419775 0.072232842 0.136369392
0.069829158 0.075268552 0.136369392
0.085009441 0.079063937 0.136748940
0.097659379 0.085641995 0.149905324
0.112333700 0.091713995 0.154965058
0.124351382 0.097027093 0.153953016
0.131941602 0.100822397 0.151676103
0.149905369 0.109803513 0.163693592
0.164073393 0.113978252 0.165084988
0.177356035 0.121062644 0.165970609
0.192283392 0.129285350 0.167994648
0.204427451 0.138393030 0.171030968
0.218975410 0.147501424 0.174067199
0.235041186 0.157495201 0.179506987
0.251106948 0.167488962 0.187729359
0.266919971 0.175964952 0.197975978
0.287919372 0.190385655 0.203795001
0.302719623 0.202783093 0.210752621
0.318911850 0.214927390 0.216824606
0.338266969 0.228209972 0.224161491
0.362302005 0.246172994 0.239088908
0.378241271 0.258317560 0.248197287
0.398481905 0.274130374 0.259582371
0.422770381 0.292852670 0.271220684
0.447058499 0.314104944 0.280328959
0.468690395 0.335357189 0.297406375
0.497912556 0.358380765 0.312966406
0.522074401 0.382669359 0.331309348
0.540290654 0.406957597 0.359898597
0.046046771 0.069576226 0.123719223
0.048197545 0.072612390 0.133712992
0.056799546 0.075648546 0.145857006
0.070208706 0.082226612 0.145857006
0.083871000 0.084882773 0.145098001
0.091966935 0.086147934 0.141555995
0.104617000 0.091714002 0.147754550
0.115116701 0.096141711 0.153067946
0.128526002 0.101707771 0.155091673
0.137381002 0.106135488 0.153193995
0.152940974 0.114990674 0.162428781
0.167109728 0.122074544 0.168500498
0.179253772 0.127514124 0.170904279
0.193674996 0.136369288 0.173181504
0.209613994 0.143580124 0.176217407
0.224161789 0.152687803 0.179253802
0.237823978 0.163314372 0.186843991
0.252371788 0.172422767 0.191651016
0.267552257 0.180012971 0.194687024
0.288298607 0.192536429 0.207716793
0.305755973 0.205818757 0.213788778
0.321947753 0.217963487 0.217836767
0.340164244 0.230234236 0.221884757
0.360404789 0.246426001 0.235040918
0.382163048 0.262238801 0.247817501
0.401517749 0.277166575 0.258317560
0.424794376 0.295382768 0.271473765
0.445793748 0.314990431 0.285515428
0.471726567 0.331941813 0.296141744
0.494749665 0.360278130 0.321441680
0.521694839 0.386590809 0.337634414
0.541176021 0.412144005 0.362934768
0.063757159 0.084756166 0.131815150
0.066793546 0.085262552 0.137128383
0.071221158 0.089563772 0.144592166
0.084629998 0.092599832 0.152941003
0.098671831 0.096014991 0.152941003
0.102593057 0.097785994 0.148639992
0.113219321 0.101581156 0.150158003
0.124983862 0.106008872 0.155091554
0.134092242 0.109804153 0.152814835
0.145730332 0.115876161 0.155344516
0.158253863 0.121062867 0.161669880
0.171410501 0.129411831 0.167994902
0.184693635 0.136622474 0.172169164
0.197470158 0.145477161 0.178494871
0.215686142 0.151549667 0.183554739
0.227703795 0.158760190 0.185325801
0.243896306 0.168121219 0.186590835
0.257305294 0.180265814 0.198734984
0.273118138 0.187602848 0.196458176
0.291334540 0.196711183 0.207337216
0.308791906 0.208855152 0.216824830
0.323972046 0.222011283 0.223908961
0.342188001 0.234661967 0.225173980
0.362681836 0.250980258 0.237318009
0.381910115 0.266160429 0.249462321
0.402024120 0.280202180 0.260341167
0.425806224 0.299430966 0.272991925
0.444781899 0.319165140 0.290448993
0.470967770 0.337254971 0.301960677
0.496520907 0.359266132 0.315876067
0.520809174 0.388235182 0.347121716
0.542441189 0.414421171 0.367236018
0.085009545 0.100316092 0.145477548
0.087666377 0.097280383 0.146995544
0.088172443 0.100316547 0.148007780
0.093358830 0.105123386 0.149525836
0.108159088 0.107779540 0.153320551
0.114231087 0.113851540 0.153320551
0.125363633 0.117773317 0.154459000
0.137128547 0.120809704 0.156609550
0.148134097 0.123845994 0.161543012
0.157242492 0.129917994 0.161543012
0.167109221 0.130929992 0.164832428
0.178241506 0.137001827 0.170271993
0.190765649 0.145350650 0.175585002
0.205693007 0.154206008 0.181151003
0.223655984 0.160277992 0.189879864
0.233396545 0.167109102 0.191777453
0.245161384 0.174319744 0.191777363
0.262998492 0.184060529 0.191524148
0.281214565 0.196204573 0.203668952
0.297027379 0.203921720 0.213029653
0.312207729 0.213029981 0.219860539
0.327387959 0.225806564 0.226565123
0.342947066 0.240986943 0.235926494
0.367235810 0.258949995 0.248323545
0.386590540 0.274889290 0.260847569
0.405186325 0.289057523 0.270082295
0.423909068 0.302846134 0.280961066
0.445161432 0.327134907 0.296141416
0.470967770 0.348766804 0.309424073
0.497280002 0.371789932 0.322327435
0.521568179 0.395066202 0.339532137
0.545857012 0.413283020 0.372928560
0.106261931 0.118532866 0.148513943
0.106261931 0.115496479 0.160657942
0.104617223 0.116761774 0.157874942
0.105882064 0.120303772 0.152055845
0.114231095 0.122959927 0.147248551
0.126375854 0.122959927 0.156356946
0.137507871 0.129031926 0.163946614
0.148007691 0.132953703 0.164958715
0.156862929 0.135231003 0.164958850
0.163314506 0.135989994 0.167614996
0.178241879 0.142061993 0.173434734
0.190385863 0.149146259 0.181024656
0.201391637 0.155977234 0.186210990
0.211765006 0.160278007 0.187223002
0.223908991 0.166349992 0.187223002
0.239468798 0.177229598 0.188741058
0.253131121 0.185325861 0.193295255
0.268817574 0.193168908 0.200379506
0.284250945 0.205312952 0.209740952
0.302466929 0.220240295 0.219101653
0.318279743 0.228209987 0.224414736
0.333460152 0.237317979 0.228968933
0.349019855 0.250094563 0.235926494
0.373307884 0.265275002 0.251106918
0.390765280 0.280961275 0.265781194
0.409234583 0.296141654 0.272106320
0.429981083 0.311827987 0.275142074
0.451233417 0.333206892 0.296141416
0.472485781 0.354838789 0.313978642
0.500063360 0.377861917 0.331182808
0.527640820 0.402150184 0.350158185
0.551928997 0.425427020 0.375964940
0.117394321 0.134218678 0.159140006
0.119923994 0.131182939 0.161164001
0.124224998 0.134598315 0.169007003
0.126122311 0.136748999 0.164453000
0.132573858 0.138519868 0.158507332
0.142567873 0.140670642 0.165464923
0.149652004 0.140670642 0.169513315
0.161796421 0.146742642 0.175331920
0.171031311 0.151423320 0.176343992
0.177103326 0.154965326 0.181150839
0.184313878 0.155724332 0.184566736
0.199494258 0.163820580 0.188614741
0.212144315 0.171790317 0.194433644
0.223150030 0.176217601 0.195825323
0.237571314 0.180012316 0.195825323
0.249715313 0.188488126 0.198229134
0.266287386 0.200505987 0.202909440
0.281847298 0.208601981 0.210752577
0.295130014 0.216951013 0.216065973
0.310563326 0.229348689 0.222643971
0.328779310 0.240733564 0.229854316
0.343579978 0.250474125 0.235547125
0.357368678 0.264136344 0.243263826
0.376850337 0.276913553 0.253637224
0.398861587 0.292093337 0.264263034
0.417330950 0.308665335 0.277546018
0.438583374 0.325996399 0.283744633
0.459835738 0.347248733 0.302972734
0.481088132 0.365970790 0.316508323
0.502340496 0.387223154 0.332953840
0.529538572 0.411637872 0.351296574
0.555471361 0.437570989 0.373940676
0.134724990 0.147754416 0.167995006
0.134472027 0.148007378 0.171283990
0.141302690 0.149778694 0.173940703
0.144844696 0.150790706 0.174952701
0.150157690 0.151549697 0.170019165
0.158000916 0.158380926 0.174825996
0.166223705 0.162175983 0.180012599
0.170651421 0.160531700 0.178115278
0.181277990 0.166603699 0.181909993
0.187349990 0.172675699 0.187981993
0.198355705 0.177861989 0.191144869
0.207210541 0.180645257 0.195825458
0.221252576 0.188614994 0.197722718
0.233143657 0.194434032 0.200253040
0.245540693 0.197469994 0.201644719
0.258317679 0.205312788 0.207337096
0.273497671 0.212903365 0.210373476
0.290449262 0.224794388 0.218595698
0.302593321 0.232890427 0.222643971
0.322454363 0.241239712 0.228463009
0.336243004 0.253130943 0.237823978
0.353447139 0.262238830 0.243896246
0.366603196 0.276154220 0.252498686
0.386337817 0.289816797 0.263124883
0.401897579 0.304238111 0.270588428
0.424541593 0.319417715 0.281087697
0.446047068 0.337381423 0.293738335
0.467299432 0.357495427 0.310815990
0.490196109 0.379379958 0.327007979
0.511448443 0.396078169 0.345856875
0.533586502 0.420872808 0.359266311
0.560151994 0.449715406 0.377482712
0.155976996 0.162176102 0.177102998
0.154459387 0.165211722 0.179380089
0.157748327 0.167488784 0.184060767
0.165338203 0.168248013 0.185578912
0.166476652 0.163694009 0.180265903
0.172928095 0.175079003 0.182922065
0.178494409 0.179886088 0.184693098
0.185072720 0.183301717 0.188741088
0.190385982 0.183302090 0.184946194
0.196457997 0.189374089 0.191018194
0.210499957 0.196837217 0.193421960
0.221631840 0.202656269 0.198482081
0.231878370 0.206072092 0.203035995
0.243770063 0.212144092 0.203035995
0.252877653 0.215686426 0.205566317
0.264389694 0.222770289 0.211891279
0.278810978 0.231119379 0.217963085
0.295762151 0.237191990 0.223529458
0.307906240 0.249083012 0.229981020
0.329664707 0.257179022 0.236052990
0.347122103 0.266287088 0.245161071
0.359519124 0.278937250 0.255281150
0.374699473 0.288045615 0.261353880
0.394686908 0.301961005 0.272232920
0.412144214 0.317900270 0.281341076
0.428336322 0.333080471 0.290196091
0.452119052 0.349272251 0.302846164
0.473371446 0.367742002 0.318026543
0.496521056 0.391271055 0.333585978
0.518279195 0.410246283 0.356862366
0.540417194 0.429221720 0.377482504
0.564706028 0.462618917 0.386590898
0.168121010 0.183428496 0.195318997
0.171157405 0.186464116 0.186211377
0.171790004 0.187349498 0.188488483
0.175964653 0.187476009 0.193168834
0.184693426 0.187982023 0.195445523
0.193801045 0.194054022 0.195445538
0.192662820 0.192789331 0.187982336
0.195066497 0.195066497 0.191018477
0.202530012 0.201518103 0.200126588
0.214673996 0.210626498 0.203162983
0.226565734 0.213788629 0.203415990
0.236812234 0.219101489 0.207590491
0.247058779 0.223908648 0.212523848
0.258950442 0.227324501 0.215180010
0.268058062 0.233396500 0.215180010
0.279570073 0.239342004 0.217710316
0.293232292 0.247058690 0.220999300
0.307906151 0.255407989 0.226565093
0.320050955 0.261480033 0.241745517
0.337760955 0.273370981 0.248197004
0.354332745 0.283364743 0.256166726
0.368374497 0.294623613 0.264389485
0.380771488 0.309297979 0.270461529
0.395951927 0.318406373 0.276533544
0.418216556 0.334598452 0.287413090
0.439215928 0.351296633 0.299304456
0.458191067 0.367489040 0.311954558
0.479443431 0.388741374 0.327134937
0.500695825 0.412523419 0.337001652
0.520303428 0.431498647 0.358886361
0.540417194 0.450221032 0.383680969
0.564706028 0.477798492 0.395698518
0.183174863 0.204680875 0.196078002
0.186211258 0.204807371 0.195698515
0.189247087 0.207842976 0.190891907
0.195066318 0.209867030 0.197217003
0.205439880 0.211511731 0.205186427
0.212017804 0.212523744 0.207716748
0.211005419 0.216065422 0.207716748
0.214547694 0.218722403 0.204680875
0.222643957 0.224035636 0.210246876
0.232637733 0.228842482 0.215433478
0.236052871 0.232131869 0.215559989
0.250221372 0.239215463 0.217583746
0.261100501 0.245034501 0.222770408
0.271474004 0.248323873 0.227324739
0.283238441 0.254395872 0.227324739
0.289942861 0.260467887 0.227324739
0.304111511 0.268058062 0.234408870
0.320683151 0.276533872 0.242884308
0.335104108 0.282605857 0.253510714
0.347248852 0.291461229 0.260341763
0.359519124 0.301580995 0.264515996
0.373687387 0.311701238 0.270588011
0.389753342 0.324731350 0.276660025
0.404933780 0.333839029 0.282732725
0.422390848 0.347501397 0.293358743
0.442631453 0.365085304 0.305502981
0.460847855 0.382289857 0.318659008
0.479696423 0.401138425 0.336242557
0.506261826 0.422390759 0.351422936
0.529791415 0.442884266 0.368121028
0.551170290 0.461859703 0.390638590
0.573434830 0.487159848 0.404806852
0.198355258 0.227956980 0.210246250
0.205439642 0.229981244 0.208222508
0.206451729 0.226059735 0.206071764
0.213282511 0.230360493 0.205566153
0.223149985 0.233776242 0.213915259
0.222644001 0.233776242 0.215306938
0.227197930 0.238330185 0.219861001
0.230739951 0.241366208 0.218216270
0.239089251 0.245541245 0.218595833
0.246932477 0.247312024 0.223402977
0.252245367 0.254395843 0.223655999
0.261353254 0.259455979 0.229728252
0.275395274 0.267425537 0.231625512
0.285389215 0.271347463 0.235673964
0.295762002 0.275648236 0.237444729
0.309171259 0.281720221 0.245541245
0.315243244 0.289310426 0.247059047
0.330170870 0.297786236 0.257052571
0.343959600 0.303858280 0.266160965
0.356356740 0.310689330 0.270461708
0.370398730 0.319797754 0.274636477
0.381783664 0.329917490 0.278684258
0.399114728 0.342061996 0.285009235
0.418090165 0.353067368 0.294876546
0.433522999 0.368753761 0.303479016
0.450347662 0.383934140 0.317014635
0.467931867 0.401518255 0.329791248
0.486148238 0.419734240 0.344971240
0.510309815 0.438583314 0.364579052
0.534092188 0.461606413 0.379759431
0.557242334 0.481214583 0.400505841
0.578494728 0.504364252 0.417963266
0.219228283 0.253383636 0.226944640
0.226059377 0.256420046 0.226186022
0.229854628 0.256420285 0.223149866
0.230360642 0.253131270 0.221505165
0.241366193 0.258064747 0.224161997
0.237571269 0.257305652 0.224161997
0.241619289 0.262365639 0.226944998
0.247058690 0.266793340 0.230360568
0.256926179 0.270588636 0.229601279
0.263757288 0.271347642 0.233017132
0.269829273 0.278937399 0.234281987
0.276533633 0.284882635 0.238077253
0.287539274 0.290954918 0.243770003
0.299683988 0.297027647 0.244529039
0.309677213 0.300948858 0.249335870
0.323592424 0.306388289 0.258443952
0.335357279 0.312839806 0.267173082
0.342694253 0.320683211 0.270841271
0.354838967 0.326249272 0.279443592
0.366982996 0.333459646 0.282985270
0.379886359 0.342568040 0.287159741
0.393042505 0.351676166 0.291207999
0.407969832 0.363693655 0.297533005
0.427198261 0.375837952 0.309677303
0.443896323 0.391397566 0.321821570
0.462491930 0.408222616 0.332574308
0.477672219 0.423403054 0.347754717
0.495256245 0.440986633 0.360531271
0.517646968 0.460341632 0.378368080
0.541302800 0.480961561 0.398355454
0.561669648 0.504364252 0.415306866
0.582669020 0.525616646 0.436559290
0.248324037 0.280455053 0.236559033
0.251359612 0.283491403 0.239089355
0.253636777 0.286021799 0.238330260
0.256926060 0.288298994 0.237824067
0.256293535 0.288172483 0.236559033
0.259329915 0.285136104 0.236559033
0.265149027 0.289437056 0.236053035
0.270082325 0.294117749 0.238962710
0.274383187 0.297407031 0.242251992
0.286527932 0.303479046 0.248323992
0.293105990 0.309298009 0.251739144
0.297912747 0.313598752 0.254775286
0.303225666 0.317773312 0.256673038
0.312334061 0.324099004 0.257432073
0.324478060 0.330170989 0.266540438
0.338519782 0.335990041 0.274889261
0.351170182 0.342315048 0.282226354
0.360404968 0.348007590 0.288298965
0.372549027 0.351043999 0.294370979
0.384440035 0.359392703 0.297659665
0.396331489 0.370145500 0.302846044
0.408222884 0.381277919 0.308918059
0.417583525 0.390638530 0.315369546
0.432763934 0.402909786 0.327640831
0.447944283 0.417077720 0.341809273
0.466793269 0.432510704 0.356103987
0.489563972 0.447691113 0.368248075
0.504743576 0.462871492 0.383428425
0.525489867 0.483111829 0.399114817
0.547754347 0.504364192 0.417078137
0.570524991 0.525616646 0.439342618
0.588741004 0.546869040 0.460595042
0.263504416 0.304743797 0.251739413
0.266540021 0.307779402 0.248703018
0.263124406 0.306514740 0.251233339
0.269070327 0.308538973 0.258064568
0.280076265 0.312586993 0.266287267
0.271473914 0.312460482 0.251739413
0.279570311 0.314484715 0.246679410
0.288045675 0.319797814 0.255028397
0.293611377 0.323719412 0.265527993
0.295635521 0.324731410 0.266539991
0.304870427 0.327893496 0.272611976
0.315369964 0.333585978 0.276027650
0.324478030 0.339025676 0.277925402
0.333586425 0.345351368 0.278684437
0.342694819 0.354458958 0.287792772
0.352435023 0.358127803 0.289690375
0.365844160 0.364832580 0.293105602
0.377861947 0.372675806 0.297406554
0.384692997 0.378368378 0.303478599
0.394054353 0.384187400 0.306767941
0.403795153 0.392789543 0.313599139
0.416571975 0.402530253 0.321062803
0.432763904 0.411890894 0.327514321
0.447944313 0.427071303 0.342694730
0.463124692 0.439341992 0.354965419
0.479696393 0.454901725 0.370524973
0.498671651 0.471979886 0.385958046
0.513852000 0.487160236 0.395572424
0.537002087 0.504996777 0.416065812
0.555344582 0.525616586 0.430739939
0.574193180 0.546868980 0.450980365
0.594812989 0.568121374 0.481847376
0.283491790 0.331435770 0.266919792
0.281720400 0.329664379 0.266287208
0.286906779 0.332700551 0.261100590
0.288171917 0.335230917 0.265907645
0.300316453 0.341303051 0.276533753
0.295256048 0.339278787 0.269449860
0.294117510 0.341809094 0.273877591
0.299936891 0.344845057 0.272738874
0.306767792 0.349399090 0.281846881
0.310056806 0.351043791 0.280202597
0.316381842 0.356356710 0.286021590
0.327513993 0.359392852 0.292093605
0.337381274 0.363946766 0.293232143
0.345224768 0.369007021 0.292726040
0.354332596 0.378115147 0.301834404
0.368247986 0.384819597 0.306135178
0.375837773 0.389373779 0.307653368
0.387096554 0.397596568 0.311954379
0.394939780 0.405439794 0.319797605
0.403795153 0.411511809 0.325490147
0.414800793 0.417583793 0.328526020
0.425426990 0.427197963 0.337634444
0.440733492 0.437697291 0.346616268
0.455913901 0.448323697 0.357242107
0.471094251 0.463504046 0.372422457
0.489057660 0.477166235 0.387476325
0.509297788 0.494370788 0.404680610
0.530170441 0.511448383 0.415686220
0.536495864 0.526881754 0.428209782
0.566097319 0.545097768 0.454775333
0.586843371 0.563061178 0.471600175
0.608095765 0.579759777 0.495888978
0.304744184 0.358760178 0.280581981
0.304743797 0.358760178 0.285136193
0.302087188 0.355471164 0.277799189
0.303099185 0.361037225 0.275522023
0.311701536 0.369006991 0.284503192
0.315496475 0.367109269 0.287159920
0.314990401 0.367615312 0.286654115
0.316634685 0.370651662 0.292473465
0.321189076 0.374446392 0.296268195
0.328020185 0.378241688 0.295509458
0.332574397 0.382669389 0.296647787
0.339658350 0.388235450 0.302719802
0.350663722 0.391271561 0.308792084
0.357115865 0.394813210 0.307400346
0.364958972 0.403921574 0.313978374
0.374319971 0.410626173 0.319797367
0.389500350 0.416698188 0.325869352
0.396204799 0.422770172 0.328273177
0.405312955 0.430992961 0.334724963
0.414421350 0.438836187 0.342568189
0.428462982 0.446426392 0.351296633
0.440607250 0.452498376 0.356356531
0.452624857 0.463503897 0.367868662
0.465021908 0.472612292 0.376976281
0.480202258 0.483238280 0.389120668
0.498165607 0.498418659 0.404301047
0.517899990 0.514105141 0.422391176
0.538139999 0.532321334 0.436559170
0.554459035 0.546362996 0.450221360
0.564579129 0.563314140 0.462365538
0.593548238 0.584186733 0.490955174
0.614168227 0.599493980 0.508032978
0.322833985 0.386717111 0.293358564
0.326502174 0.390385926 0.303099364
0.324351579 0.388235539 0.298418999
0.321442127 0.386590987 0.292599976
0.316129118 0.394560128 0.296015143
0.330044508 0.394560128 0.307653159
0.333206981 0.395192713 0.306514531
0.334851444 0.396837234 0.304111242
0.338140070 0.400000125 0.307273984
0.347248465 0.406072140 0.313345969
0.350537837 0.409234852 0.311954260
0.356230557 0.414294988 0.314357549
0.362808496 0.419861078 0.320429832
0.372169167 0.422896683 0.325996548
0.379000813 0.431245953 0.328652710
0.385072976 0.437950552 0.334092140
0.394434154 0.444022536 0.341049731
0.407716990 0.450094700 0.349525541
0.416824609 0.456166714 0.349525541
0.426565349 0.464389503 0.357874900
0.439468592 0.473497748 0.368247956
0.456293255 0.481593966 0.379380107
0.468564481 0.487918973 0.388614953
0.478684247 0.497533441 0.398228645
0.492978841 0.506641269 0.409614116
0.509677231 0.518532217 0.423150212
0.530423582 0.534218669 0.438836545
0.542820573 0.552435398 0.457052529
0.564326167 0.565338552 0.472612381
0.583428085 0.580392122 0.486148149
0.597975791 0.599999726 0.499051511
0.616192579 0.627324164 0.523339570
0.328906029 0.417077988 0.308539033
0.334978014 0.423150003 0.320683002
0.336495996 0.424668044 0.319671035
0.339785159 0.424162030 0.316888213
0.346489966 0.424921006 0.320303977
0.346489966 0.424921006 0.326375991
0.350284696 0.427451313 0.330423623
0.353067726 0.430234253 0.329411685
0.356103867 0.433270127 0.328399897
0.359392524 0.436432987 0.331562012
0.362681895 0.439595103 0.334724873
0.369766295 0.444655061 0.337254703
0.377483010 0.450727344 0.341682285
0.384313971 0.456293911 0.347249001
0.396457970 0.459329545 0.347249031
0.403289020 0.465274990 0.352308989
0.410879195 0.471346974 0.358380973
0.419861019 0.477419138 0.364705980
0.425933063 0.483491927 0.370777994
0.437824011 0.489563942 0.379127353
0.447817773 0.497786283 0.388235241
0.459709138 0.505882084 0.397596151
0.474636525 0.512207031 0.406830996
0.489816934 0.524351835 0.418975025
0.506767929 0.533965707 0.430866569
0.523339629 0.545856714 0.444402635
0.539532006 0.561543167 0.460088998
0.557747960 0.579759896 0.478304982
0.575458586 0.592663050 0.493864775
0.595952153 0.606578231 0.510815918
0.616445541 0.623782575 0.529158592
0.637444973 0.645540953 0.550664067
0.354459375 0.461353362 0.345983386
0.357748032 0.464642733 0.349778742
0.359519035 0.466413736 0.353320748
0.359519035 0.466413736 0.351043761
0.362934679 0.466413736 0.352182388
0.362934679 0.466413736 0.353447378
0.365464985 0.468944043 0.356989056
0.370145351 0.468691021 0.358380377
0.374320090 0.469449848 0.358001113
0.377356231 0.472486228 0.361037254
0.385957867 0.478305221 0.366856217
0.388994277 0.481340826 0.367868364
0.396584660 0.485515386 0.371283740
0.404301405 0.489943385 0.377356023
0.411385357 0.495509326 0.382416010
0.423529357 0.498544931 0.387223661
0.428842574 0.502719581 0.391777545
0.435420781 0.507526755 0.395319372
0.443643034 0.513598919 0.397090375
0.455281734 0.525237024 0.408728361
0.469323426 0.529411793 0.415939480
0.481214702 0.537760735 0.425174057
0.494497359 0.547374725 0.436053246
0.507020950 0.554205835 0.445541084
0.524478018 0.564073324 0.457685083
0.541302681 0.575964391 0.471221030
0.556483030 0.590638757 0.485895365
0.572422326 0.604300857 0.499557376
0.587982178 0.619860888 0.515117168
0.609614372 0.633902550 0.532068312
0.632764339 0.648197353 0.552940905
0.655914009 0.663757026 0.577988386
0.376091003 0.499304205 0.375964463
0.375332087 0.496647358 0.377103120
0.383807480 0.499430746 0.385578722
0.382542312 0.496900737 0.379253566
0.381530285 0.496774286 0.377229542
0.380012482 0.501328468 0.381783724
0.382542312 0.505756021 0.382416159
0.388867706 0.507147729 0.385452181
0.395192742 0.505123436 0.386464119
0.399367481 0.507021189 0.389500201
0.404427588 0.511069000 0.393548459
0.413282722 0.515117168 0.393674731
0.416318834 0.518152833 0.397090375
0.423656017 0.521442056 0.403921485
0.429728001 0.527514458 0.409993470
0.436811984 0.533080459 0.416065603
0.447438180 0.536116004 0.422137976
0.453130960 0.539784729 0.426818281
0.463503778 0.545856714 0.430613458
0.471600443 0.555597425 0.434155464
0.485641986 0.563946486 0.444402188
0.497786254 0.565970719 0.449462593
0.508159280 0.574572802 0.458950013
0.520303726 0.584187210 0.469829619
0.537001729 0.592536032 0.485009730
