Assets/Shaders/EldamarStudio/100 Sci-Fi LUTs Pack/LUTs/cube/Nessa LUT.cube
LUT_3D_SIZE 8
DOMAIN_MIN 0.000000 0.000000 0.000000
DOMAIN_MAX 0.903226 0.903226 0.903226
0.003922000 0.000000000 0.000000000
0.086148098 0.029348547 0.016445000
0.203668192 0.081467196 0.039216001
0.359392554 0.108158998 0.062744997
0.574572742 0.110688999 0.100189991
0.814547420 0.055408016 0.146742731
0.988488257 0.000000000 0.195066288
1.000000000 0.081593759 0.245919973
0.003542452 0.138266638 0.110436089
0.059456091 0.142188549 0.066919543
0.193422079 0.188867986 0.084629998
0.360151559 0.204174548 0.101454541
0.583175361 0.203036100 0.133206889
0.815433443 0.176470608 0.169892475
0.990132987 0.152055815 0.216571540
0.997090399 0.178241357 0.259962261
0.068311378 0.300063103 0.257685184
0.123972379 0.309044719 0.260467738
0.251866281 0.294624090 0.193422183
0.434408367 0.314231187 0.182163551
0.653004289 0.337887168 0.209994003
0.860974491 0.321694851 0.230360463
0.993422031 0.313472390 0.254522294
1.000000000 0.328779072 0.299936980
0.472612113 0.483871281 0.418342888
0.526502311 0.487792552 0.449462295
0.549651921 0.491081268 0.392536104
0.610246837 0.439468265 0.297153622
0.755977154 0.423529446 0.280455202
0.901960850 0.452877879 0.299178004
0.996584356 0.459708989 0.320682943
1.000000000 0.473497808 0.357874662
0.811638355 0.648071170 0.589247167
0.865148365 0.650474370 0.623529673
0.866666496 0.652878165 0.604048133
0.878304720 0.640354395 0.531815350
0.906641364 0.575964332 0.426945001
0.978620946 0.524098694 0.374825716
1.000000000 0.558760405 0.401011974
0.996078014 0.612523556 0.454649001
0.980139017 0.776217461 0.733079970
0.992536426 0.784946144 0.754459023
0.997216702 0.785452187 0.765211821
1.000000000 0.775079131 0.721441805
1.000000000 0.760657966 0.663503826
1.000000000 0.701454997 0.569892764
1.000000000 0.640227556 0.504111707
0.993421853 0.685515523 0.542694569
0.996078014 0.852245569 0.831625283
0.996457577 0.856166959 0.847438335
0.998481870 0.864642560 0.860721171
1.000000000 0.860720992 0.846932530
0.998355269 0.852119267 0.817457139
0.996457517 0.849842191 0.760531127
1.000000000 0.799620271 0.682226539
0.997722745 0.749778569 0.628083587
1.000000000 0.903351963 0.912586987
1.000000000 0.912460566 0.920936227
0.998102307 0.910689235 0.935357094
0.997216642 0.911321759 0.931815147
0.998861313 0.908412337 0.922454000
0.996837080 0.911194980 0.891587675
0.999241054 0.908665001 0.854142904
1.000000000 0.878684640 0.803035975
0.007084001 0.070461996 0.144971088
0.055154640 0.024667548 0.150031537
0.203668192 0.066540092 0.162176087
0.359771997 0.104237907 0.177103087
0.569639206 0.112586550 0.193927541
0.807084024 0.073371530 0.222517088
0.985199273 0.004933716 0.252878249
0.998734832 0.076660320 0.279822707
0.000379548 0.156736091 0.163820103
0.007716997 0.165338099 0.161417082
0.179632738 0.181783989 0.177103087
0.362555236 0.200632185 0.197090447
0.582542598 0.201897442 0.211638108
0.798987925 0.180392101 0.230740026
0.981656849 0.157369003 0.261986107
0.998734832 0.188741177 0.302087545
0.024415283 0.300822198 0.261733115
0.144085839 0.311828107 0.298924655
0.231119737 0.292599678 0.234661639
0.412397385 0.324857652 0.245667547
0.640101016 0.331436098 0.259835452
0.846552789 0.318911970 0.269449979
0.988108695 0.309044927 0.296774268
0.999240994 0.322833657 0.326248914
0.433143377 0.470588386 0.410879374
0.493991017 0.478431284 0.447185397
0.519038737 0.476533830 0.409487367
0.583680987 0.428336263 0.319038719
0.741429627 0.424288630 0.314610839
0.894623458 0.456040382 0.327134728
0.998355269 0.462239087 0.351802379
0.997722805 0.472359210 0.382542819
0.794687033 0.630107284 0.587349892
0.829601467 0.632384360 0.602530181
0.856420338 0.640227377 0.614041805
0.867045939 0.631245911 0.543833196
0.883997381 0.569386542 0.430486947
0.965085089 0.523845613 0.390385926
0.997722983 0.565211892 0.422517508
0.997596204 0.608602166 0.467172831
0.972169518 0.767489195 0.732700467
0.983807445 0.767868757 0.742314696
0.993927717 0.777861834 0.764326274
0.991904020 0.767995000 0.724478126
0.996457577 0.754712045 0.662491977
1.000000000 0.693484962 0.574446738
0.998481810 0.641240001 0.512587011
0.998734832 0.684250653 0.555977464
0.998355269 0.850727320 0.839847803
1.000000000 0.854901850 0.837065279
0.999620438 0.853763461 0.850854039
0.998355269 0.856673062 0.850348294
0.999240875 0.850727618 0.816951215
0.999620438 0.845288038 0.759645820
1.000000000 0.802529931 0.693990946
0.997469962 0.758507252 0.640480697
0.999620438 0.905755758 0.919418097
1.000000000 0.909550726 0.929285109
0.995825469 0.912207425 0.933965445
0.998734832 0.910562992 0.935989678
0.997723043 0.909424186 0.929411590
0.996837080 0.911194980 0.900189936
1.000000000 0.907906055 0.854775727
0.997343183 0.881340802 0.803035975
0.000000000 0.182542995 0.289057195
0.000758999 0.055408187 0.285895079
0.180898100 0.061859995 0.278937101
0.360910475 0.097153902 0.288298279
0.577103257 0.081846908 0.304111183
0.805945575 0.001517998 0.313598990
0.981910288 0.003289004 0.323466182
0.990765035 0.034029149 0.344971091
0.000000000 0.271473646 0.302467078
0.001138547 0.202150196 0.296142012
0.167741835 0.172801629 0.291461110
0.364452809 0.182922438 0.290702194
0.582163155 0.172169551 0.302846432
0.802150607 0.139658183 0.315749288
0.983174980 0.129032254 0.339658558
1.000000000 0.170904532 0.368247807
0.010247002 0.302467078 0.284503192
0.000000002 0.299683660 0.293864995
0.200126380 0.307147175 0.307147205
0.410499930 0.314231277 0.318153083
0.634282351 0.314357996 0.337760925
0.839089394 0.299430966 0.345224440
0.988488257 0.294624120 0.365085393
0.998734832 0.318279415 0.394433826
0.288045615 0.456166834 0.389247179
0.391145080 0.463250905 0.412270814
0.512587190 0.471094012 0.458191276
0.541809201 0.423023373 0.373307735
0.717899680 0.443137556 0.377609164
0.887160003 0.454396158 0.388994634
0.998355269 0.452878147 0.406578094
0.999240935 0.467931718 0.437065095
0.744085729 0.619102180 0.568754196
0.783301473 0.624541283 0.588488162
0.850094676 0.637950480 0.626945138
0.857179165 0.623908997 0.576723397
0.865148485 0.558760405 0.472359270
0.956356823 0.535863400 0.446932644
0.999240935 0.576597154 0.476913273
0.998861372 0.613788605 0.517014265
0.955344617 0.765591621 0.723086715
0.977862179 0.763061643 0.737128556
0.989879727 0.768880427 0.762555361
0.990765393 0.768754065 0.740417361
0.996837080 0.754458904 0.685009360
0.995952010 0.692726076 0.594433665
1.000000000 0.654649079 0.554332495
0.999240935 0.699810088 0.584819794
1.000000000 0.849588990 0.830613554
0.999620497 0.851612806 0.835294247
0.998481870 0.855281413 0.849715471
0.996457577 0.860341489 0.864389539
0.998355269 0.856673062 0.831372321
0.998355269 0.847185373 0.779126942
0.998355269 0.804047942 0.711954474
0.999620438 0.765591443 0.659582317
0.996584296 0.909297705 0.919544756
0.999620438 0.909930170 0.922454119
1.000000000 0.910689235 0.925237060
0.999240935 0.912966549 0.948260546
0.996837080 0.912460148 0.934092224
0.997343302 0.910562754 0.911195457
1.000000000 0.908159375 0.869196534
0.997975767 0.883870840 0.817836523
0.000000000 0.290954918 0.450094908
0.000758999 0.214927629 0.439974755
0.028842742 0.088425092 0.424668193
0.360025287 0.085136354 0.405819267
0.593928039 0.051486529 0.415812641
0.816318512 0.001138644 0.416824967
0.982415915 0.000000000 0.428209931
0.998861372 0.000000000 0.435673654
0.002783356 0.349778742 0.435547292
0.002783356 0.298924655 0.440354288
0.019481648 0.186084643 0.412396908
0.374446809 0.172928438 0.408981264
0.599114537 0.156103805 0.412523657
0.805818856 0.106767997 0.419481516
0.982415915 0.042378098 0.427450925
0.998481810 0.100442663 0.442504644
0.006325002 0.471727014 0.454775721
0.001518095 0.459582657 0.454269379
0.040480565 0.337381572 0.435293823
0.436559021 0.290322751 0.423150003
0.645414531 0.286527485 0.427198082
0.837191761 0.260974109 0.420240611
0.984946012 0.252878100 0.440227568
0.998481810 0.289057553 0.460847586
0.011132004 0.451233268 0.427704275
0.055155180 0.445794076 0.427324742
0.288677990 0.440354288 0.435293913
0.508665562 0.430486917 0.447817624
0.693738282 0.433270276 0.455155283
0.869829118 0.433396280 0.459076285
0.998355269 0.437191546 0.484756351
0.998734832 0.458570421 0.507400632
0.531435549 0.594054401 0.525869310
0.606831312 0.602276862 0.537508130
0.749399006 0.606324971 0.584186852
0.837318122 0.611638010 0.614800930
0.833649457 0.549778521 0.522707224
0.942947388 0.560657918 0.522707283
1.000000000 0.592789531 0.553194284
0.998734832 0.611764371 0.570777893
0.926248968 0.741176605 0.701960802
0.947122097 0.743074000 0.711321652
0.970651507 0.756103814 0.737381279
0.993674994 0.767236114 0.772295773
0.995572448 0.754079461 0.721821249
0.998861372 0.690828621 0.633270025
0.995319307 0.671979666 0.600126386
0.998861372 0.717014432 0.635547042
0.998861372 0.848450661 0.825553656
0.999620438 0.850094855 0.829095304
1.000000000 0.854016602 0.842631221
0.991144717 0.864642262 0.866413891
0.997722745 0.856925905 0.858696997
0.997216642 0.849968493 0.807084203
0.996711016 0.807589948 0.736622155
0.996584356 0.778873980 0.698039472
0.997722983 0.906008780 0.922074616
0.993927598 0.912333667 0.924351513
0.995951772 0.914231598 0.928146541
0.997216642 0.913093030 0.947122037
1.000000000 0.915622771 0.951296628
0.995445669 0.915116966 0.928905547
0.998734832 0.909803927 0.890702069
1.000000000 0.889183760 0.830107808
0.003035997 0.404300988 0.601012170
0.000000000 0.359646112 0.591524184
0.000000000 0.200506076 0.583681285
0.323086619 0.107779741 0.549019516
0.604427516 0.024035627 0.540670395
0.819987655 0.000379548 0.539658368
0.989373922 0.000000000 0.536749184
0.996204793 0.001518192 0.541555941
0.001138644 0.449335933 0.599873543
0.000379548 0.411637932 0.592030525
0.000379548 0.282352954 0.582542777
0.334218532 0.187350094 0.547627747
0.614294887 0.142568365 0.536369503
0.826692104 0.069829270 0.542188287
0.985704899 0.014294929 0.538267195
0.998861372 0.092346519 0.546236396
0.000000000 0.565718174 0.608728468
0.003542452 0.532574475 0.602023959
0.000000022 0.437191576 0.593801379
0.384440273 0.305629075 0.576091170
0.666666448 0.260847270 0.540670156
0.849209487 0.245288000 0.543453395
0.990132987 0.238836095 0.546869099
0.999240935 0.266034067 0.558254182
0.000000000 0.635800004 0.604174435
0.022643922 0.635040939 0.604427755
0.248450473 0.609234631 0.609360993
0.448576897 0.449589193 0.571790278
0.710183680 0.403162718 0.555850685
0.872359216 0.401897371 0.544085920
0.993042469 0.403415382 0.556736171
1.000000000 0.422138065 0.571663558
0.298292339 0.588615000 0.554838598
0.376723707 0.585831702 0.563061655
0.480581671 0.576849997 0.560404897
0.642378271 0.556483209 0.569892347
0.786590517 0.555724204 0.575079381
0.912460506 0.559898794 0.589753568
0.998355269 0.560910583 0.597723186
0.998734832 0.583807409 0.613789022
0.765211821 0.710562944 0.652624965
0.794180691 0.711701393 0.653636992
0.865148544 0.715243638 0.673877299
0.950537741 0.727640688 0.723972321
0.987855971 0.745604038 0.747248709
0.989500165 0.674636483 0.658190966
0.999240994 0.690322578 0.662112653
1.000000000 0.727640629 0.677039921
0.971410394 0.827704251 0.790638626
0.980012476 0.834408581 0.796078384
0.998355269 0.839342237 0.812776327
0.999620497 0.851360202 0.848956048
0.998355269 0.868437648 0.894497037
0.999620438 0.852371812 0.837191880
0.996963978 0.808602154 0.759139597
0.997975767 0.796078324 0.732953489
0.998481810 0.908538759 0.896774173
0.997596204 0.908159494 0.909930408
0.997343183 0.911195159 0.919923961
0.999620497 0.920556545 0.934977710
0.998734832 0.917520463 0.961163819
0.996710896 0.919544756 0.950284541
0.999620438 0.913978636 0.915749729
1.000000000 0.889310598 0.854522586
0.000000000 0.499557227 0.725110471
0.000000000 0.465275168 0.719544888
0.001897741 0.372548997 0.718279660
0.000000000 0.200885743 0.696774065
0.593295693 0.038962726 0.655281484
0.826312423 0.000000000 0.654269516
0.983301520 0.002277288 0.648830175
1.000000000 0.001265167 0.645161510
0.000000000 0.536749184 0.724857688
0.001518192 0.504617274 0.726755142
0.002024260 0.419102103 0.711321950
0.003542258 0.261480153 0.692093670
0.607210815 0.143453196 0.659835458
0.837318301 0.029854368 0.649082720
0.990132987 0.006072091 0.655281484
0.998734832 0.089184321 0.651866138
0.003415642 0.623276711 0.728146493
0.000759096 0.603668571 0.730423450
0.005186659 0.528779089 0.722833693
0.031499017 0.374067008 0.699177861
0.635800302 0.273877531 0.660721183
0.853004396 0.222644195 0.652751386
0.990132987 0.221125931 0.655155122
0.997216821 0.262491912 0.650348008
0.006578255 0.749019265 0.742567837
0.079316735 0.733586192 0.738899469
0.329285353 0.666413784 0.728020132
0.445034742 0.550031364 0.708159447
0.693485022 0.417584091 0.674256861
0.896647751 0.383681446 0.657558441
1.000000000 0.393295288 0.656799376
0.998734832 0.425300360 0.667046130
0.410499811 0.747628272 0.706767976
0.468184471 0.744844973 0.716255486
0.576343894 0.736242712 0.720177174
0.705756009 0.715623200 0.716255248
0.755850494 0.563693941 0.682353020
0.916761637 0.533586144 0.661353469
0.999620378 0.532827377 0.674004018
0.998861372 0.551802814 0.678937554
0.606577933 0.703605235 0.662112415
0.630740225 0.705376446 0.665401280
0.689184070 0.697786033 0.676913381
0.754206419 0.681720436 0.671094239
0.860594392 0.666919708 0.682606161
0.958001196 0.667931676 0.695382714
0.997975767 0.686654031 0.698291957
0.996837080 0.697533011 0.713472664
0.860468328 0.793928266 0.735863328
0.879949570 0.796584547 0.742062151
0.914611161 0.803668559 0.754459381
0.961037457 0.815812647 0.778368115
0.997975707 0.833902597 0.838836253
1.000000000 0.859455824 0.877039850
0.999240994 0.799620509 0.784313500
0.997975767 0.817457438 0.785325706
0.986717045 0.903984904 0.865528047
0.996331394 0.902213931 0.875521898
0.999240935 0.904237688 0.888551831
1.000000000 0.909803867 0.917646945
0.998481810 0.915875971 0.942188203
0.995572209 0.924225152 0.971283853
0.994939804 0.918405950 0.947248757
0.998734832 0.894244015 0.885641932
0.000000000 0.584566236 0.844022870
0.003542452 0.559266269 0.835547268
0.003162904 0.495256096 0.833902359
0.002783356 0.352055639 0.822137952
0.360404909 0.211764619 0.800000072
0.832764089 0.002024260 0.759645820
0.991777301 0.000000000 0.763314545
0.998355269 0.000000000 0.761669874
0.000000000 0.617457271 0.837571323
0.000000000 0.596204877 0.834535003
0.000379548 0.531309187 0.833017290
0.003668553 0.403542280 0.830740273
0.388108790 0.262745112 0.811005533
0.851992190 0.025553379 0.770145416
0.993422031 0.005439805 0.766603291
0.998734832 0.075648323 0.762049437
0.001644713 0.685768366 0.835294127
0.000000000 0.666793346 0.844022810
0.001644712 0.613535464 0.835294127
0.002277022 0.504490852 0.830233991
0.432764351 0.363693893 0.810246646
0.858317614 0.223529533 0.765970767
0.993548095 0.206578091 0.769639313
0.999620438 0.257558584 0.758001268
0.166476816 0.785705209 0.858570635
0.264136374 0.764832258 0.848956287
0.348007739 0.722074509 0.844149232
0.438330114 0.641113281 0.832258284
0.558381021 0.496267945 0.812902927
0.888551533 0.384946018 0.776976526
0.997216642 0.379000574 0.767235994
0.999620438 0.415939182 0.762934685
0.583554626 0.868690908 0.855028510
0.619987309 0.863883257 0.857305527
0.676280737 0.848070979 0.857305467
0.763820052 0.781404197 0.844022989
0.783934534 0.670588434 0.825553298
0.912081122 0.539911151 0.784060836
0.998355269 0.528779328 0.781910241
1.000000000 0.547248781 0.768500745
0.734724522 0.846426547 0.830234051
0.751170456 0.844908357 0.830992997
0.790765405 0.841745436 0.825806618
0.845161200 0.835547209 0.834914505
0.908032715 0.828842580 0.842631161
0.937761009 0.689690053 0.806577802
0.996204972 0.660088718 0.785452306
1.000000000 0.671853185 0.780897796
0.802150309 0.812650263 0.782922029
0.808475554 0.808981717 0.774193287
0.834408402 0.805439293 0.779380322
0.870334923 0.801518261 0.784693182
0.923339248 0.789879560 0.787349641
0.970271707 0.784819782 0.792915881
1.000000000 0.788108587 0.820113540
0.997469962 0.812270701 0.827704251
0.907779694 0.884629786 0.835799932
0.919544578 0.889183760 0.838709474
0.931562126 0.885389268 0.845793605
0.970777988 0.892726243 0.871473789
0.995698810 0.903478563 0.895002902
1.000000000 0.911448359 0.947880805
0.997343183 0.928272963 0.979253650
0.994687021 0.896015286 0.913345873
0.002656833 0.653889775 0.944212615
0.003922000 0.632131815 0.945857227
0.000000000 0.592030585 0.945477784
0.000000000 0.499051154 0.939026177
0.007084201 0.326502204 0.936874986
0.677546024 0.204680383 0.913851857
0.994433939 0.000000000 0.896774054
1.000000000 0.000000000 0.889310598
0.000758999 0.677925348 0.954711735
0.002277285 0.656546831 0.950031757
0.000379548 0.621125996 0.942568123
0.000000000 0.532827199 0.940670192
0.003415638 0.371916294 0.934345245
0.698418975 0.259329230 0.920176864
0.991904020 0.019607760 0.893864572
1.000000000 0.104743749 0.892093599
0.000000000 0.737254858 0.943832874
0.000758999 0.720809698 0.943579853
0.001897737 0.683997810 0.943706393
0.001518209 0.608601809 0.940164566
0.053636767 0.467678428 0.939152360
0.721315742 0.358001262 0.922200918
0.996078312 0.227071404 0.886147797
0.994307041 0.269576162 0.895256042
0.258949518 0.810879111 0.948513746
0.282605946 0.801897228 0.953194201
0.355344474 0.772422612 0.946869135
0.449336022 0.713725626 0.946616173
0.532194853 0.610119760 0.940544248
0.772422314 0.489183784 0.928779244
0.998102486 0.387982190 0.898797929
1.000000000 0.414800435 0.903605223
0.660973966 0.899177790 0.953699946
0.679822862 0.888930976 0.954079509
0.724098623 0.869323194 0.957494795
0.764326453 0.822390974 0.949272633
0.788994372 0.746362984 0.950284779
0.835293949 0.623782039 0.933080077
0.996204913 0.532574177 0.903605223
1.000000000 0.542315006 0.901707828
0.795698762 0.933712959 0.945983529
0.805945694 0.931056440 0.941935480
0.828463078 0.929538369 0.952687919
0.866287231 0.926628649 0.956862628
0.913599253 0.881720543 0.955217838
0.927134752 0.794813275 0.942947447
0.993042409 0.680961072 0.918026567
0.997469962 0.665275395 0.906767666
0.860847712 0.925742924 0.932953775
0.868817091 0.921062410 0.925236762
0.882605970 0.919544399 0.934092343
0.909297824 0.919291615 0.937887490
0.948260784 0.915875852 0.954459012
0.975964308 0.920050561 0.962682009
0.998861492 0.833270073 0.943200529
0.997343183 0.794433892 0.920050800
0.894370675 0.907526970 0.903604984
0.898671508 0.911069036 0.901328027
0.911448359 0.908665597 0.903731763
0.928399980 0.903984785 0.899557114
0.952181876 0.901201487 0.908791780
0.985199153 0.896014750 0.921315551
0.997090399 0.885895014 0.924730718
0.994687021 0.895761907 0.941555738
