Assets/Shaders/EldamarStudio/100 Sci-Fi LUTs Pack/LUTs/cube/Nessa LUT.cube
LUT_3D_SIZE 5
DOMAIN_MIN 0.000000 0.000000 0.000000
DOMAIN_MAX 0.903226 0.903226 0.903226
0.003922000 0.000000000 0.000000000
0.173307985 0.067046285 0.039216001
0.459835351 0.117014416 0.079190403
0.867172241 0.032131877 0.157874867
1.000000000 0.081593759 0.245919973
0.019734401 0.262871414 0.219734401
0.192663103 0.261227101 0.161543399
0.521062493 0.306008965 0.182163104
0.901455104 0.286021292 0.222011700
0.998734832 0.295382679 0.291334540
0.684123755 0.581277430 0.525110364
0.743073583 0.589500070 0.529411912
0.793927848 0.511321843 0.359645844
0.973813653 0.501201689 0.343959391
0.996710598 0.548007667 0.400885373
0.989247143 0.792409956 0.754332364
1.000000000 0.802150249 0.791777194
0.997722745 0.796584129 0.733333170
1.000000000 0.726755142 0.602277219
0.996711016 0.705502987 0.565970957
1.000000000 0.903351963 0.912586987
0.995825231 0.909170985 0.933585942
0.998734832 0.907273769 0.929537952
0.995319188 0.911194980 0.883238792
1.000000000 0.878684640 0.803035975
0.000000000 0.155977115 0.257937700
0.149778396 0.051992707 0.247817978
0.466413349 0.101961002 0.266160399
0.857305288 0.010120134 0.293864876
0.993801117 0.057052888 0.331561983
0.009487708 0.269070089 0.255660981
0.141682103 0.270714372 0.275268972
0.508285761 0.290954947 0.296521097
0.888677835 0.264516264 0.322706938
0.998987913 0.286906809 0.371663690
0.592915893 0.557368696 0.499557406
0.732574165 0.569512784 0.560404360
0.754079580 0.500822425 0.412903100
0.958886802 0.509930372 0.412903517
0.995698750 0.546363115 0.462745070
0.984187305 0.785831869 0.747375250
1.000000000 0.794433951 0.778747857
0.996078432 0.792409837 0.744086266
1.000000000 0.720556617 0.622770131
0.993168712 0.710436523 0.591144800
0.997090101 0.907274008 0.918279648
0.998987913 0.907906234 0.925996125
1.000000000 0.911574900 0.941302955
0.997343183 0.911321759 0.898545086
0.998987913 0.883618057 0.820113599
0.003289416 0.347880989 0.519164979
0.003288997 0.164832398 0.508791804
0.474889606 0.075775005 0.465527952
0.854016662 0.000632584 0.473750532
0.996710598 0.000632584 0.484503388
0.002909714 0.496015072 0.530929804
0.000000000 0.376344085 0.526755095
0.534092069 0.251359701 0.485894799
0.875648439 0.213409126 0.480202526
0.999367416 0.226438791 0.498924553
0.115116984 0.523086786 0.486400962
0.344591886 0.512586951 0.493991077
0.651359737 0.489690393 0.514611244
0.932068527 0.496647656 0.529664397
0.996710598 0.525869608 0.563061357
0.904490590 0.757115960 0.697912753
0.958001137 0.762681723 0.725110829
0.998735011 0.790765166 0.802909672
0.992789388 0.713345945 0.666666925
0.999367416 0.742188394 0.671853364
0.997343183 0.906008780 0.915876210
1.000000000 0.908285856 0.930043936
1.000000000 0.917773783 0.954333007
0.998355269 0.915876210 0.927640855
0.994687021 0.890448987 0.843643486
0.001012128 0.521821260 0.750411093
0.000632580 0.435547411 0.746363103
0.262871414 0.183428153 0.722580671
0.877925336 0.000000000 0.683618128
0.998987854 0.000000000 0.668944001
0.002909707 0.619481683 0.763061225
0.000632580 0.551549554 0.756736159
0.303099066 0.316888154 0.729285121
0.901834667 0.170271859 0.675775051
1.000000000 0.216445491 0.676407516
0.261353374 0.801897526 0.764326453
0.491967261 0.773813963 0.767362535
0.640101433 0.586211145 0.731688678
0.940923274 0.451233804 0.682099819
1.000000000 0.479317218 0.689816415
0.664263129 0.724857390 0.693485141
0.714737236 0.726375818 0.705502987
0.827071369 0.700948954 0.706515074
0.986338019 0.700316250 0.727767229
0.997343183 0.723845243 0.739784956
0.974572778 0.897912621 0.854648948
0.991903841 0.901454568 0.877925336
0.998735011 0.905755639 0.920556784
0.995066166 0.923972130 0.968753815
0.998987854 0.899050772 0.895508945
0.002656833 0.653889775 0.944212615
0.000000000 0.605439663 0.946489632
0.003289416 0.420493394 0.943580031
0.787349820 0.139151990 0.906514764
1.000000000 0.000000000 0.889310598
0.002530012 0.719544530 0.946615815
0.002656833 0.677672565 0.945730507
0.001012124 0.524098516 0.940796971
0.809614301 0.293737888 0.913851857
0.998355329 0.227071449 0.898797929
0.542694092 0.860341787 0.953193963
0.594939590 0.827704191 0.946742773
0.658190787 0.727767169 0.940923214
0.867299139 0.532068074 0.921947777
0.998734832 0.478810787 0.898544908
0.814674199 0.932447672 0.937887311
0.839595079 0.928273261 0.946362913
0.903731704 0.924984276 0.964958787
0.953700483 0.804933786 0.941935301
1.000000000 0.697407126 0.916887939
0.894370675 0.907526970 0.903604984
0.903858304 0.910689533 0.907273889
0.942694783 0.897659421 0.909551084
0.987729132 0.895508945 0.926122606
0.994687021 0.895761907 0.941555738
