Assets/Shaders/EldamarStudio/100 Sci-Fi LUTs Pack/LUTs/cube/Nessa LUT.cube
DOMAIN_MIN 0 0 0
DOMAIN_MAX 1 1 1
LUT_3D_SIZE 32
0.003922000 0.000000000 0.000000000
0.019101612 0.006072000 0.009108387
0.036432549 0.012143999 0.009614226
0.058444161 0.019481160 0.010372999
0.086148098 0.029348547 0.016445000
0.116508871 0.044528931 0.022516999
0.144339323 0.054649319 0.033649646
0.173307985 0.067046285 0.039216001
0.203668192 0.081467196 0.039216001
0.234028995 0.093611971 0.039216008
0.273118615 0.097027130 0.047944129
0.314610988 0.102086991 0.057052251
0.359392554 0.108158998 0.062744997
0.408223033 0.113978028 0.064010032
0.459835351 0.117014416 0.079190403
0.513851583 0.115243196 0.089563802
0.574572742 0.110688999 0.100189991
0.640101075 0.103352010 0.112333983
0.700821996 0.091207974 0.124478012
0.758760095 0.076280631 0.133839354
0.814547420 0.055408016 0.146742731
0.867172241 0.032131877 0.157874867
0.915622532 0.011385496 0.161669493
0.961163759 0.002277095 0.182921916
0.988488257 0.000000000 0.195066288
1.000000000 0.000000000 0.205565974
1.000000000 0.006072123 0.218216062
1.000000000 0.042504862 0.233396441
1.000000000 0.081593759 0.245919973
0.998228788 0.117520124 0.263377160
0.996078014 0.150916785 0.280202210
0.996078014 0.184313998 0.286274999
0.003922000 0.030360773 0.021252386
0.006957611 0.033396386 0.018215999
0.026438771 0.041619159 0.023023386
0.048070934 0.054901935 0.023023386
0.074762993 0.070714772 0.024794385
0.110436097 0.077925317 0.025553385
0.138267189 0.085515387 0.031625386
0.165591702 0.094117701 0.042757608
0.197596580 0.104237765 0.047564715
0.237065390 0.111827970 0.045288008
0.273245126 0.115243867 0.054016870
0.314610988 0.122327507 0.063124508
0.359392554 0.129411384 0.071093999
0.408729017 0.134471387 0.075395070
0.465907335 0.129158407 0.082226783
0.517520368 0.132194802 0.095003381
0.574572742 0.130423576 0.103225991
0.637697279 0.125869393 0.112333983
0.700821996 0.118532360 0.124478012
0.764326096 0.103605017 0.136622012
0.813029468 0.088425137 0.145983353
0.865148485 0.070588648 0.158886731
0.921442270 0.053637277 0.170651361
0.961163759 0.038709868 0.188993916
0.986211002 0.036432773 0.203415573
0.998355269 0.041998751 0.213282704
0.998987973 0.052118834 0.223782122
0.993928015 0.075901248 0.236432835
0.999241054 0.101708017 0.254269332
0.998228788 0.133965686 0.270714790
0.996963620 0.165211573 0.287160158
0.999114394 0.196457997 0.295382619
0.006072226 0.062871777 0.048956543
0.002656613 0.068058163 0.048070934
0.014294775 0.075395323 0.034281775
0.043137155 0.081973381 0.034788162
0.072232775 0.096774094 0.035420772
0.103351988 0.106388547 0.042504773
0.130044192 0.114610769 0.047564771
0.162302628 0.120682769 0.047058776
0.191903993 0.129285097 0.053889874
0.228842452 0.136748776 0.053637262
0.276280969 0.137760863 0.060088869
0.316761732 0.144845262 0.067172989
0.362681687 0.151675895 0.076154418
0.412777066 0.155976802 0.083491519
0.468564123 0.151802555 0.091461055
0.521442175 0.150790587 0.102340214
0.576090932 0.149272785 0.112966418
0.637444258 0.145603970 0.121568561
0.702719748 0.141049758 0.135230795
0.762175858 0.128779188 0.143073782
0.818342507 0.117393807 0.149525508
0.863630235 0.103731997 0.160151899
0.919164956 0.090069778 0.175205752
0.962681949 0.080961645 0.189373776
0.986211002 0.077166542 0.203035802
0.996078014 0.078557864 0.212397218
0.998355269 0.088424899 0.222264126
0.997217000 0.104743972 0.237697884
0.993168950 0.128652632 0.250853986
0.999240935 0.151170164 0.269069940
0.998228788 0.178620964 0.286401033
1.000000000 0.206451774 0.298038989
0.006578161 0.098798156 0.079316996
0.001771000 0.102340154 0.083112158
0.008222775 0.109297775 0.071473770
0.030993160 0.113346159 0.049462158
0.070841089 0.116381764 0.046426546
0.102593087 0.125869706 0.054143157
0.124857478 0.141808987 0.063757159
0.156989396 0.150537476 0.068311162
0.194181085 0.156609476 0.063757159
0.226059183 0.165211797 0.066287488
0.271726757 0.165591329 0.069702998
0.317267329 0.170398414 0.078304991
0.362049371 0.176091164 0.084376991
0.414548099 0.179000348 0.093358867
0.472232938 0.177988738 0.102466732
0.523213387 0.176091164 0.112713315
0.581657290 0.175585166 0.120809190
0.639341831 0.169513166 0.129917562
0.704237938 0.165844351 0.143832982
0.762682080 0.154459298 0.153193995
0.815306902 0.145477414 0.161163896
0.865907431 0.137381151 0.167236149
0.914610624 0.125869691 0.182036981
0.962428927 0.118659317 0.194181010
0.987476170 0.115876161 0.206324995
0.997343183 0.117267802 0.213155985
0.996331155 0.121315420 0.221252114
0.997090459 0.132700890 0.239468873
0.997217000 0.151676118 0.253637135
0.995698988 0.174193323 0.266793102
1.000000000 0.195445746 0.286780119
1.000000000 0.219355002 0.303098977
0.003542452 0.138266638 0.110436089
0.000885613 0.138266638 0.119164929
0.005692774 0.142188087 0.111827865
0.024162160 0.145983249 0.093105480
0.059456091 0.142188549 0.066919543
0.101960860 0.145224154 0.063883930
0.126881540 0.163314179 0.071220994
0.155091569 0.179380238 0.080075994
0.193422079 0.188867986 0.084629998
0.232890517 0.194939986 0.084629998
0.273498058 0.195952088 0.084250547
0.314990520 0.200379536 0.091966987
0.360151559 0.204174548 0.101454541
0.409741044 0.203921586 0.107779570
0.473371625 0.206704959 0.116887957
0.527388096 0.205313280 0.126755342
0.583175361 0.203036100 0.133206889
0.648070693 0.201771006 0.137128115
0.705755949 0.195698977 0.146236524
0.763820529 0.185199529 0.158886567
0.815433443 0.176470608 0.169892475
0.863251269 0.170777634 0.181277990
0.911701441 0.164832130 0.193168998
0.962808609 0.156230450 0.204807013
0.990132987 0.152055815 0.216571540
1.000000000 0.151802778 0.225806087
0.999746978 0.155092031 0.227324128
0.993674994 0.164199635 0.245540887
0.997090399 0.178241357 0.259962261
0.999620438 0.196204707 0.274130493
1.000000000 0.217457131 0.289436966
1.000000000 0.238709539 0.313724995
0.000506065 0.177735806 0.146868870
0.000506065 0.177735806 0.152940869
0.002150774 0.179886013 0.148766711
0.016319159 0.185958028 0.136116639
0.047312096 0.190765321 0.118532702
0.095888861 0.181656927 0.100315928
0.135863319 0.184693187 0.094750002
0.165211633 0.194560632 0.098291993
0.195319250 0.205186829 0.102845997
0.226818517 0.219227985 0.102845997
0.275015742 0.225300729 0.099936873
0.318026572 0.232384592 0.105502665
0.363946825 0.237570941 0.112839639
0.415813059 0.237317979 0.116887964
0.476533771 0.234282345 0.125996336
0.542568207 0.234661937 0.139911726
0.598735094 0.231119871 0.149525926
0.654142678 0.226059705 0.155091867
0.711827934 0.219986990 0.161416933
0.772295773 0.216698349 0.178873956
0.823023260 0.208349198 0.186590672
0.868058264 0.201771006 0.192157000
0.911701441 0.198229298 0.199240997
0.957241893 0.195192903 0.205313012
0.987855673 0.193421930 0.214674279
1.000000000 0.194307551 0.229854584
1.000000000 0.197343811 0.245034873
0.999746978 0.200632408 0.251612872
0.996331155 0.212396845 0.259202957
0.996584058 0.226818115 0.273877472
0.997469664 0.244781524 0.291967273
1.000000000 0.266033947 0.313724995
0.000000000 0.222264320 0.183301643
0.000000000 0.222264320 0.189373642
0.006451774 0.224415094 0.195445642
0.024162319 0.228715956 0.189500317
0.056799863 0.235800192 0.176976651
0.098924868 0.235294342 0.154459417
0.142441645 0.223655641 0.131182641
0.183554724 0.221758321 0.121821642
0.217583835 0.226439089 0.121821538
0.251486629 0.238077179 0.123592317
0.289183736 0.254648745 0.130803183
0.337761015 0.264769495 0.137887314
0.385831922 0.270967960 0.144085646
0.439595371 0.270967960 0.146236345
0.500316083 0.270209074 0.155344725
0.563440681 0.271979839 0.164453119
0.627071738 0.270588517 0.173308119
0.682353020 0.265528470 0.177102998
0.738140583 0.259455681 0.179380015
0.791018128 0.253636688 0.191524670
0.844149292 0.252498329 0.202150643
0.891334891 0.244275659 0.207843184
0.936243176 0.236685812 0.215433016
0.967362583 0.233649403 0.221505642
0.987855613 0.232890308 0.232131630
1.000000000 0.234281987 0.242884293
0.999493957 0.238330394 0.259202987
0.997469664 0.245414510 0.269322991
0.999873519 0.256419957 0.277925313
0.998608351 0.266793162 0.289310485
0.998608351 0.282226533 0.307653576
1.000000000 0.303478956 0.328905642
0.019734401 0.262871414 0.219734401
0.026312394 0.266160399 0.230740115
0.044275865 0.269955456 0.230234116
0.049589090 0.269196689 0.231245786
0.081847236 0.272991687 0.223655686
0.121315628 0.274762899 0.201897696
0.161670044 0.275015771 0.182542756
0.192663103 0.261227101 0.161543399
0.234408796 0.255154908 0.147122309
0.271726996 0.259835482 0.143073931
0.314737409 0.274383396 0.151928857
0.359265983 0.286906809 0.159772396
0.407843262 0.299051553 0.168500781
0.461733073 0.301834673 0.170271739
0.521062493 0.306008965 0.182163104
0.580898046 0.306767881 0.187982500
0.643137038 0.305249691 0.194054499
0.702593386 0.302087575 0.197722688
0.757242262 0.297027171 0.199746713
0.807463825 0.290954679 0.207589999
0.853889942 0.287033409 0.215939701
0.901455104 0.286021292 0.222011700
0.948640287 0.276280701 0.230233893
0.977482915 0.274762481 0.234788090
0.993422031 0.272359103 0.243769988
1.000000000 0.272359103 0.257305622
1.000000000 0.275648415 0.269196779
0.998102307 0.283618122 0.280202419
0.998734832 0.295382679 0.291334540
1.000000000 0.305755913 0.305629164
0.999114394 0.316635281 0.317267597
0.998355269 0.336369693 0.333966017
0.068311378 0.300063103 0.257685184
0.081214473 0.305376172 0.269829392
0.103225827 0.309171110 0.275269091
0.121695384 0.313978195 0.267678946
0.123972379 0.309044719 0.260467738
0.160784215 0.309424281 0.242631197
0.197217062 0.312966287 0.226944879
0.231372789 0.309044808 0.210879102
0.251866281 0.294624090 0.193422183
0.291334718 0.288551301 0.172169790
0.338772833 0.294623733 0.173940405
0.385072678 0.303984821 0.177988604
0.434408367 0.314231187 0.182163551
0.483238190 0.325869977 0.185705155
0.539911330 0.334471762 0.199873403
0.596837342 0.340164095 0.205439806
0.653004289 0.337887168 0.209994003
0.711827636 0.334345162 0.213029623
0.766350091 0.331689060 0.218975097
0.813915312 0.326628476 0.223529086
0.860974491 0.321694851 0.230360463
0.902973115 0.317141175 0.236432984
0.947880983 0.314104795 0.242631495
0.978241861 0.313472182 0.246932298
0.993422031 0.313472390 0.254522294
0.999240935 0.312587202 0.264895648
0.999746978 0.312587202 0.280076057
1.000000000 0.318153173 0.289690435
1.000000000 0.328779072 0.299936980
0.999240935 0.339911371 0.314864039
0.999873459 0.350031674 0.329411596
0.996837080 0.365212083 0.332448006
0.153320998 0.339531511 0.300190002
0.168501377 0.342567891 0.303225636
0.185705483 0.341429204 0.315369815
0.198102683 0.343832672 0.318279535
0.202909991 0.351549536 0.306008935
0.221125990 0.354585916 0.290828556
0.247817814 0.354965478 0.275521696
0.282226205 0.350284755 0.260341287
0.315622717 0.340164512 0.245034605
0.333839506 0.328020513 0.229854971
0.379126847 0.319038630 0.214421600
0.420746267 0.320935994 0.206325486
0.465148628 0.329411477 0.203036502
0.516634583 0.341049582 0.203921944
0.568247736 0.347122341 0.213029549
0.622517049 0.360531151 0.217583820
0.674256325 0.365970701 0.223656207
0.723971665 0.364705980 0.231246397
0.775584996 0.370777994 0.234282017
0.818975270 0.368121147 0.234661505
0.867425740 0.363061011 0.240607232
0.914611161 0.356103629 0.248576999
0.953952968 0.347501963 0.254775494
0.984313786 0.344465554 0.263883919
0.996457994 0.348387003 0.272738665
0.998608351 0.352688193 0.281846642
0.996710598 0.355091989 0.292220056
0.999746978 0.355091989 0.307400405
1.000000000 0.363314152 0.314357996
0.998228788 0.374319911 0.325996161
0.997090161 0.386337966 0.338646472
0.999873459 0.398608506 0.344591975
0.247058600 0.381909728 0.336875737
0.262238979 0.384946138 0.337002218
0.277419388 0.385831743 0.355091602
0.292346478 0.388614774 0.364958882
0.301075131 0.396205068 0.358128071
0.311701447 0.394180775 0.348007679
0.327387810 0.397217184 0.325236946
0.349905163 0.397596747 0.312207460
0.377988458 0.394560605 0.297280282
0.400505692 0.391018599 0.275648326
0.418722481 0.370145738 0.248829991
0.456166863 0.350917101 0.229601622
0.499557137 0.349272519 0.223655999
0.552181780 0.358886719 0.226945043
0.595825076 0.362301975 0.225427315
0.642631233 0.373181731 0.232131734
0.695762098 0.383301735 0.237191856
0.745224237 0.388235420 0.244908556
0.787729025 0.401138723 0.252498776
0.836559474 0.401644737 0.258317739
0.877419412 0.394939870 0.254775733
0.920936108 0.389879733 0.259835869
0.959772050 0.386843860 0.269829363
0.984566808 0.386590838 0.278937757
0.996711016 0.383554459 0.285768837
1.000000000 0.384945869 0.292852730
0.998987854 0.386464059 0.301454931
0.999620438 0.388867855 0.316635281
0.997343183 0.396837711 0.326501995
0.997090161 0.404174596 0.339911401
0.996963620 0.414041847 0.354459226
1.000000000 0.426185876 0.362554997
0.349272221 0.428463012 0.371284246
0.360404611 0.431498885 0.373307973
0.379633009 0.432384491 0.382416517
0.394813389 0.432384491 0.401644498
0.406577915 0.438077241 0.401644707
0.412396878 0.436685562 0.392536312
0.418469310 0.440733552 0.376849830
0.432004988 0.442125231 0.354205787
0.453636795 0.441366315 0.343580097
0.479189992 0.440101504 0.325616747
0.497659743 0.431878626 0.302466869
0.507780015 0.404553980 0.269070268
0.540037990 0.379126847 0.251233488
0.586843789 0.377103031 0.251739472
0.631119251 0.380139083 0.252245396
0.674003601 0.392409861 0.252371967
0.713472426 0.400000066 0.253890187
0.762681663 0.406831115 0.259076655
0.804933548 0.420620233 0.268184692
0.844655454 0.425933242 0.274510235
0.885641992 0.431625515 0.280582249
0.921948016 0.425300360 0.277040243
0.958254039 0.424035519 0.285009712
0.990132809 0.420240492 0.294117630
0.990638733 0.422011226 0.300948739
0.998102427 0.421758175 0.309804052
1.000000000 0.423402756 0.317647189
1.000000000 0.427956939 0.329791158
0.999367416 0.432258338 0.337634653
0.998102248 0.439595491 0.352055430
0.998102248 0.445667505 0.368500948
1.000000000 0.455534518 0.378747255
0.472612113 0.483871281 0.418342888
0.480581850 0.485768527 0.422517151
0.496015221 0.486653924 0.432004809
0.513598979 0.487792552 0.439595282
0.526502311 0.487792552 0.449462295
0.528019905 0.487792552 0.441112995
0.529917479 0.489436924 0.426944584
0.536748827 0.491081268 0.410752505
0.549651921 0.491081268 0.392536104
0.575458348 0.488425106 0.383428365
0.594054282 0.485389024 0.356989413
0.604174495 0.469829053 0.331309408
0.610246837 0.439468265 0.297153622
0.639089525 0.412396908 0.284503609
0.674889266 0.407463670 0.281340837
0.716887832 0.412144423 0.280834645
0.755977154 0.423529446 0.280455202
0.789373398 0.427830219 0.278052002
0.832890570 0.439468950 0.285641670
0.868943989 0.444908649 0.291967064
0.901960850 0.452877879 0.299178004
0.936368883 0.461985767 0.306262136
0.965591192 0.460088611 0.306894630
0.990891814 0.460088640 0.314990371
0.996584356 0.459708989 0.320682943
0.992409647 0.460467935 0.327260941
1.000000000 0.463504225 0.339911699
1.000000000 0.468943626 0.350284487
1.000000000 0.473497808 0.357874662
0.997722983 0.477166623 0.368754208
0.999493957 0.485895216 0.387855858
1.000000000 0.492726266 0.400758922
0.617331088 0.547881067 0.485642046
0.623656094 0.547628045 0.491208017
0.636179864 0.547628045 0.501581132
0.649589121 0.549146235 0.509424090
0.662618577 0.551803052 0.509677052
0.659582198 0.551803052 0.503605068
0.658064127 0.549778700 0.489942789
0.662238777 0.547248363 0.474762768
0.671853185 0.543706059 0.460088968
0.687033594 0.543706059 0.450980544
0.704870164 0.541302979 0.417204320
0.715749145 0.530676842 0.390132844
0.721568346 0.511068821 0.365211755
0.727135122 0.480961055 0.335357040
0.739279091 0.456673086 0.317141086
0.771030784 0.444529057 0.309424251
0.808475435 0.444528848 0.307147026
0.843769610 0.454395652 0.307653040
0.877166092 0.463504046 0.307653040
0.910057127 0.467299402 0.312966079
0.939405680 0.473877311 0.320682764
0.966982961 0.482985139 0.329538137
0.996204555 0.492220014 0.338519990
0.999240935 0.504364073 0.344592005
1.000000000 0.508159041 0.348893285
1.000000000 0.507273734 0.353574038
0.999746978 0.505502999 0.360658020
0.999746978 0.508538663 0.375838399
0.999746978 0.513978124 0.385705173
0.996710956 0.518532276 0.396331400
0.993421972 0.525110662 0.411132574
0.999494016 0.540291071 0.432384998
0.684123755 0.581277430 0.525110364
0.693232119 0.578241765 0.525110364
0.706008971 0.577988803 0.534977913
0.717394173 0.580518782 0.545857072
0.727767229 0.585199416 0.552687764
0.756736457 0.585199416 0.558253765
0.746109724 0.587729096 0.544592083
0.743073583 0.589500070 0.529411912
0.745730281 0.586717129 0.512713671
0.750790715 0.574066818 0.493485272
0.765971065 0.576976657 0.475648046
0.781783879 0.570651531 0.445540786
0.790512383 0.558001161 0.415939271
0.793927789 0.538646221 0.383933783
0.793927848 0.511321843 0.359645844
0.808475614 0.479822993 0.339026034
0.836306155 0.464263231 0.327640623
0.867299318 0.464642525 0.323592395
0.895382822 0.481720775 0.328905374
0.923213184 0.488045812 0.331688732
0.949904978 0.493485391 0.337254822
0.973813653 0.501201689 0.343959391
0.996204555 0.510435998 0.350663990
0.999240935 0.522580743 0.356736004
1.000000000 0.532447577 0.365085274
1.000000000 0.536875069 0.372928619
0.999493957 0.539152443 0.381404310
0.996710598 0.544971406 0.391017973
0.996710598 0.548007667 0.400885373
0.996710598 0.553447247 0.409993589
0.994560242 0.561543405 0.423276573
0.993421972 0.576723814 0.444528997
0.750917137 0.614674389 0.557368577
0.762428761 0.611638129 0.564579368
0.775838137 0.612903535 0.568880379
0.792283356 0.614421427 0.581783950
0.802150369 0.618595779 0.592030406
0.812270641 0.618595779 0.594054401
0.819228530 0.621126115 0.592030108
0.812017441 0.622517407 0.575205743
0.811258376 0.623276532 0.559266448
0.812650025 0.614674091 0.541303098
0.817710459 0.612144411 0.527767420
0.824794292 0.611132324 0.501454711
0.839595258 0.602782905 0.476786941
0.849462390 0.589626551 0.450980127
0.855914176 0.566603184 0.420240402
0.853510380 0.544085741 0.393548608
0.862618744 0.510689378 0.366223812
0.885009706 0.493864626 0.349398822
0.914105058 0.494370908 0.344844788
0.941429377 0.499051183 0.350537330
0.964958727 0.508918643 0.353573740
0.983680904 0.517014623 0.360151947
0.998481810 0.526122272 0.367615610
0.999240935 0.535989761 0.373687595
1.000000000 0.543579996 0.379759580
1.000000000 0.556736112 0.392915756
0.999493957 0.567362607 0.406072050
0.996457577 0.581024587 0.418975145
0.996078014 0.579632819 0.423276395
0.997849226 0.586211205 0.443010718
0.998481810 0.594686806 0.453257591
0.996963978 0.608348966 0.463883787
0.811638355 0.648071170 0.589247167
0.823782384 0.646552980 0.602909744
0.835041106 0.644781768 0.603795350
0.848956347 0.647818148 0.609867334
0.865148365 0.650474370 0.623529673
0.867425382 0.650474370 0.626945019
0.868437529 0.651486516 0.625932872
0.869702637 0.652878165 0.620746136
0.866666496 0.652878165 0.604048133
0.865907609 0.650600910 0.589626908
0.865781009 0.646047056 0.574320376
0.876407444 0.644529104 0.562175870
0.878304720 0.640354395 0.531815350
0.893991351 0.632131577 0.514231503
0.905629396 0.618469179 0.485895157
0.905123591 0.595698535 0.454269767
0.906641364 0.575964332 0.426945001
0.908412576 0.541935444 0.392283052
0.929032087 0.522707224 0.372169375
0.952055573 0.516888022 0.367615402
0.978620946 0.524098694 0.374825716
0.992789209 0.534219205 0.377862126
1.000000000 0.542694390 0.385831982
1.000000000 0.550411105 0.391903967
1.000000000 0.558760405 0.401011974
1.000000000 0.566223741 0.408475637
1.000000000 0.584060907 0.425300181
0.997975767 0.602277219 0.439468414
0.996078014 0.612523556 0.454649001
0.997849226 0.613535583 0.456672937
1.000000000 0.623529375 0.483997375
1.000000000 0.635673404 0.489689976
0.866287112 0.678937554 0.623908699
0.875268698 0.679569960 0.640227735
0.885262311 0.678051770 0.639974952
0.894370556 0.678810716 0.642125487
0.904237509 0.681467533 0.648197532
0.909297526 0.681467533 0.657052159
0.912839711 0.680834949 0.656040132
0.914104700 0.680202544 0.654016137
0.912713230 0.680834949 0.647691071
0.909677625 0.680834949 0.635547101
0.906008661 0.675648510 0.616951525
0.914611042 0.673624516 0.606198609
0.927893937 0.671979964 0.594813108
0.928652942 0.665907979 0.565465033
0.943073690 0.662492096 0.544592083
0.945097923 0.646426082 0.514990687
0.947881103 0.625173688 0.485895097
0.950790524 0.604427576 0.456040144
0.947754145 0.567994773 0.416571677
0.962934673 0.551296532 0.398988068
0.981783748 0.545477688 0.393801391
1.000000000 0.554206550 0.400885105
1.000000000 0.560405076 0.404174477
1.000000000 0.566982985 0.410752535
1.000000000 0.574699640 0.420113564
1.000000000 0.585705459 0.432763785
1.000000000 0.594813228 0.442378134
1.000000000 0.612650454 0.454522133
0.997343183 0.630233943 0.474130213
0.997849226 0.642757773 0.486906916
1.000000000 0.648450553 0.490195692
1.000000000 0.660594523 0.517520130
0.920935988 0.700190008 0.663377941
0.917900324 0.703225672 0.672485530
0.924731195 0.703858078 0.667299092
0.932573974 0.707400203 0.669576228
0.937633991 0.714864016 0.687665999
0.931562006 0.714864016 0.693737984
0.941682696 0.712333679 0.684882998
0.949525952 0.709550798 0.680329025
0.952055931 0.708285928 0.678305030
0.946110487 0.711195052 0.671979964
0.940164268 0.708285928 0.651107132
0.942441523 0.707020998 0.638203740
0.950664401 0.705882370 0.628209949
0.959013104 0.702340066 0.614041924
0.968121469 0.696268022 0.595825195
0.972928762 0.690448999 0.570145249
0.980012953 0.676786959 0.545350850
0.987223327 0.656040847 0.519797444
0.978114963 0.625679970 0.480329007
0.988993943 0.600379169 0.451992631
0.995951772 0.577103078 0.429728270
1.000000000 0.566730142 0.419101864
1.000000000 0.575585485 0.422390550
1.000000000 0.584693134 0.431498945
1.000000000 0.591271043 0.438077003
1.000000000 0.603162348 0.450221360
1.000000000 0.619102001 0.466666967
1.000000000 0.628210425 0.478810966
0.997343183 0.643390119 0.488298804
0.997849226 0.660594404 0.503984988
1.000000000 0.675774992 0.519544601
1.000000000 0.687918961 0.535736978
0.958886743 0.749272346 0.708412349
0.961417139 0.749525368 0.717520654
0.964832783 0.750410736 0.722327292
0.972043097 0.750410736 0.718405724
0.977356076 0.753826380 0.726375401
0.976091087 0.753826380 0.727640390
0.977608740 0.753826380 0.736242712
0.982416034 0.754332483 0.729158759
0.983934164 0.753573656 0.724604666
0.979886413 0.752561271 0.716508389
0.982163072 0.752561212 0.709803879
0.982163012 0.745477617 0.692599535
0.984060764 0.743200719 0.679696381
0.985831380 0.741809070 0.665908039
0.987349451 0.738266766 0.652751327
0.991650820 0.732194781 0.636938334
0.993169010 0.727640569 0.611131907
0.997090399 0.714484453 0.584819555
0.992282987 0.688425124 0.549652100
0.994307339 0.669197083 0.529665112
0.996963620 0.639215648 0.500442982
0.998228729 0.613282621 0.478558004
1.000000000 0.604554057 0.470714599
1.000000000 0.611005485 0.469196975
1.000000000 0.622390926 0.476028085
0.998608351 0.628083408 0.483491421
0.997216642 0.638836026 0.496015102
0.997216642 0.652498484 0.505882382
0.994560480 0.666919827 0.515370190
0.993295372 0.682099938 0.528020501
0.996204972 0.696647763 0.546110332
1.000000000 0.706893981 0.565085709
0.980139017 0.776217461 0.733079970
0.985072672 0.778114736 0.744086087
0.984566987 0.781909764 0.748892903
0.988108993 0.784440100 0.751928866
0.992536426 0.784946144 0.754459023
0.994054258 0.781909764 0.762049198
0.996584415 0.781909764 0.762049019
0.997975767 0.781909764 0.769512713
0.997216702 0.785452187 0.765211821
0.994180739 0.785831749 0.758380711
0.996963859 0.780012488 0.744591713
0.998102248 0.779632986 0.734345198
1.000000000 0.775079131 0.721441805
0.997722745 0.775332034 0.708033025
0.996078014 0.770651340 0.695888638
0.998481810 0.765211761 0.683238447
1.000000000 0.760657966 0.663503826
1.000000000 0.756989062 0.637823939
0.998228788 0.740290701 0.609487474
0.996963620 0.723466456 0.593801439
1.000000000 0.701454997 0.569892764
0.997975767 0.668058038 0.539531946
1.000000000 0.643390179 0.519418001
1.000000000 0.635293722 0.502213895
1.000000000 0.640227556 0.504111707
