Assets/Shaders/EldamarStudio/100 Sci-Fi LUTs Pack/LUTs/cube/Nillama LUT.cube
LUT_3D_SIZE 8
DOMAIN_MIN 0.000000 0.000000 0.000000
DOMAIN_MAX 0.903226 0.903226 0.903226
0.035294000 0.035294000 0.035294000
0.108918093 0.032132000 0.040354453
0.200632200 0.054901998 0.062744997
0.296521634 0.072865002 0.092473000
0.403415382 0.092346996 0.126754984
0.516887963 0.121441990 0.172295988
0.647944272 0.151929289 0.222517282
0.782162786 0.191017970 0.268184811
0.051739097 0.124984547 0.068184994
0.121442094 0.127767086 0.076027997
0.212776646 0.131688997 0.095635995
0.310310096 0.137128189 0.114737637
0.408601910 0.150411084 0.149019808
0.519797742 0.174319923 0.188741088
0.642378569 0.197343290 0.231498837
0.777356029 0.234788343 0.271853358
0.079949193 0.233523190 0.135483995
0.139911443 0.235420629 0.130803093
0.237444997 0.235800087 0.151170179
0.327893734 0.243263736 0.173560739
0.431752205 0.255408108 0.203668192
0.544465482 0.267552346 0.232637465
0.666666627 0.286021203 0.264895976
0.796331465 0.322580636 0.310942084
0.112080999 0.351549268 0.211891636
0.164073631 0.355091721 0.206198737
0.251486182 0.365338653 0.223529637
0.355976909 0.371663630 0.237697631
0.457811832 0.379127085 0.256926000
0.561669469 0.379886180 0.283618003
0.676660299 0.397469908 0.313978255
0.805312932 0.424288273 0.357368797
0.137002185 0.482732385 0.278178185
0.189500183 0.496774197 0.286400735
0.275774986 0.495129555 0.292979002
0.375584811 0.501454949 0.304364622
0.490575373 0.508412361 0.318026364
0.597090244 0.511701167 0.337381661
0.703605354 0.519418061 0.372169465
0.815812409 0.545983315 0.415812641
0.209614247 0.636811733 0.368247986
0.248956367 0.642251909 0.371537209
0.323466182 0.638583481 0.377609074
0.418722540 0.641745567 0.387096912
0.521441936 0.642504454 0.399240911
0.628842771 0.646299481 0.417330742
0.737381279 0.656546235 0.443011045
0.843390286 0.674130261 0.483617812
0.334851265 0.756103516 0.450601280
0.359645814 0.758127809 0.465401590
0.414674550 0.760025561 0.469070464
0.482732624 0.761669576 0.475395560
0.564579129 0.762302279 0.484124064
0.656673193 0.765970767 0.502087295
0.750537276 0.774067223 0.527640820
0.855408072 0.784313500 0.561416507
0.503858566 0.872232616 0.578114986
0.521821499 0.881088078 0.582795620
0.548766613 0.883997619 0.590132833
0.599873424 0.882732809 0.596457779
0.653636932 0.885136008 0.603162408
0.725869715 0.887792647 0.619101882
0.801264822 0.890196264 0.643010914
0.878810763 0.891840637 0.663250923
0.000758999 0.046679452 0.153573990
0.137507632 0.027830547 0.154333100
0.204806745 0.063124552 0.166476637
0.297280639 0.092852645 0.195825189
0.403415382 0.116381735 0.230360374
0.520809472 0.138266549 0.256167293
0.645793855 0.158253998 0.288298368
0.774952173 0.190512225 0.317267388
0.038457002 0.152814999 0.170778096
0.116002090 0.129285082 0.188488543
0.222896725 0.126122981 0.191524535
0.301707983 0.145730183 0.215559989
0.403035730 0.161416903 0.233902723
0.512334228 0.180645347 0.258949995
0.644275844 0.199367553 0.292979270
0.780897915 0.236053199 0.330170721
0.088931441 0.231119186 0.215433195
0.143453106 0.235420629 0.226439089
0.230360284 0.239342541 0.234661639
0.325110376 0.243643194 0.246426538
0.427324653 0.254649103 0.269576162
0.537001789 0.265655100 0.279949427
0.656799734 0.282099992 0.318532556
0.789626896 0.314105093 0.352814525
0.112080999 0.350790352 0.272865534
0.159772187 0.352435291 0.271347553
0.240860552 0.353953272 0.274130285
0.349272251 0.362175912 0.291713715
0.449841946 0.369259834 0.310183257
0.560404778 0.377609193 0.331815422
0.677925169 0.399494141 0.361163795
0.806577981 0.429221988 0.394054443
0.143453196 0.478304833 0.324351251
0.180771649 0.479317188 0.335357159
0.259708822 0.487286359 0.330170631
0.368247986 0.491587639 0.343200177
0.478304833 0.500696182 0.359772176
0.592789769 0.504490972 0.376723260
0.697280228 0.516508818 0.409614086
0.817077875 0.547375083 0.451865971
0.197216988 0.624668002 0.401897460
0.242884204 0.627704024 0.407084018
0.317141265 0.631878614 0.410499394
0.402909815 0.636179686 0.419102192
0.516255379 0.636179566 0.434408695
0.626438916 0.640860260 0.454901844
0.730170727 0.647437990 0.460088730
0.837824225 0.668184400 0.514231563
0.326249301 0.747248292 0.483364999
0.354459107 0.751928985 0.481340826
0.400000095 0.749778569 0.488931298
0.470967799 0.753320575 0.497026831
0.558001220 0.757495522 0.508791864
0.651992023 0.758380830 0.528526425
0.756483078 0.769006968 0.553700030
0.853637040 0.786970317 0.584187269
0.508159161 0.871347368 0.596964061
0.522960067 0.876027882 0.592789173
0.547501445 0.878431380 0.608728588
0.594054043 0.879569888 0.609740794
0.654269218 0.881467640 0.617077649
0.725363612 0.886274338 0.638456345
0.795951784 0.887033343 0.645793915
0.874889433 0.894496799 0.671600282
0.001517998 0.054016192 0.292979211
0.099936545 0.055661097 0.297786206
0.255408078 0.043896094 0.311069191
0.360405087 0.050221100 0.311448663
0.412903309 0.119164988 0.315749288
0.522959769 0.146109834 0.361923099
0.644655287 0.175458282 0.395699084
0.775584936 0.207463562 0.424035430
0.000000000 0.158633634 0.300442636
0.060341995 0.137507632 0.307906181
0.233016744 0.135610089 0.322833210
0.360025525 0.125743449 0.326755077
0.416825116 0.163820103 0.331436098
0.523718834 0.188361734 0.365844280
0.647058785 0.213156283 0.407843113
0.784060419 0.247564986 0.428462893
0.007842999 0.292220086 0.334472090
0.103478998 0.282352775 0.343579739
0.202024087 0.248324186 0.351802200
0.370651275 0.235041186 0.367868632
0.435547084 0.253890127 0.365844280
0.543833077 0.263630807 0.397722930
0.657179117 0.285895079 0.414548188
0.787982523 0.323339760 0.444149166
0.105502635 0.381783813 0.378241360
0.155850902 0.383427948 0.387729287
0.241619438 0.381783813 0.390385747
0.345351279 0.373940736 0.397469819
0.453384161 0.362682074 0.400632620
0.558001220 0.375964463 0.424668133
0.680835187 0.397469908 0.448197216
0.799494088 0.435294449 0.482352823
0.153573990 0.478684276 0.423909009
0.190385997 0.482226640 0.430993080
0.262365460 0.486527294 0.438836098
0.359646082 0.490069538 0.443517178
0.476407409 0.490449071 0.443516970
0.579379916 0.502087176 0.463377535
0.690955162 0.522327602 0.492726147
0.810372889 0.555724204 0.523465872
0.210246637 0.626059353 0.492093444
0.245287731 0.627577364 0.492472827
0.308791846 0.629474819 0.492472827
0.407716632 0.627197742 0.497280538
0.507653415 0.632637739 0.507273853
0.614927471 0.636938453 0.522580564
0.717899919 0.645540595 0.537128389
0.823023438 0.671347499 0.573561072
0.334471524 0.747375190 0.542947412
0.356862366 0.747501433 0.544592142
0.406198382 0.752941310 0.551043630
0.480328918 0.750157893 0.558253884
0.558127701 0.755218208 0.567741871
0.656040430 0.763440847 0.583175004
0.755470991 0.773181438 0.605692685
0.852498531 0.790512323 0.636053085
0.513725281 0.870967805 0.632384777
0.529791296 0.872612178 0.635673523
0.561795950 0.876786768 0.645794094
0.600126266 0.878178656 0.649082541
0.663504243 0.878051877 0.658190966
0.722580612 0.877166450 0.663250983
0.798608124 0.885009527 0.676154017
0.874889433 0.895508885 0.697912514
0.000000000 0.085768647 0.450600982
0.008475996 0.086527549 0.452245712
0.233902544 0.074003644 0.463377655
0.391271651 0.054901998 0.470841289
0.533586323 0.001897546 0.485388935
0.576470554 0.103731737 0.472106457
0.655787289 0.166476637 0.489310622
0.787729204 0.206831187 0.535990000
0.000379548 0.171283737 0.456546456
0.001518095 0.160278454 0.464516193
0.214674205 0.157115653 0.477925181
0.386717558 0.136748537 0.485388905
0.522707224 0.108159095 0.483365059
0.573814034 0.153953254 0.481467724
0.661859453 0.204047844 0.495508999
0.787349463 0.241745830 0.539405584
0.002783357 0.322453827 0.493105650
0.007337450 0.305503070 0.495888293
0.162302092 0.270714730 0.510436773
0.361923069 0.253510565 0.510816216
0.517520547 0.228716195 0.518026292
0.593928099 0.246426448 0.504491031
0.669449747 0.289563566 0.519923866
0.789626658 0.321189284 0.557874501
0.003415642 0.468057930 0.531435907
0.036052730 0.470082283 0.534977496
0.216825187 0.448071271 0.536242843
0.324098259 0.385704935 0.532574296
0.497533172 0.359013110 0.542821288
0.606704593 0.358001262 0.537761033
0.682732642 0.398608267 0.556609929
0.807084143 0.432637632 0.584187329
0.116761729 0.544592142 0.567995071
0.181277528 0.545730591 0.565718174
0.270208895 0.550537705 0.574446499
0.377988636 0.548513472 0.581910074
0.483111829 0.520682812 0.580645204
0.601644456 0.499051183 0.579127073
0.691587508 0.525110722 0.591144860
0.810625970 0.556230187 0.616065621
0.246299744 0.639974713 0.601138294
0.287286639 0.639089048 0.606198668
0.349019617 0.640607059 0.612776399
0.428589284 0.638330162 0.614800692
0.520556688 0.634661436 0.612396896
0.617710114 0.632637680 0.621125698
0.713346004 0.650727451 0.634408891
0.824667871 0.677292705 0.653763592
0.333206564 0.750537515 0.635040879
0.356356919 0.753826261 0.629475117
0.409993619 0.751043677 0.637571156
0.482226253 0.751043677 0.636685610
0.567362070 0.754459262 0.646679401
0.659835875 0.762175560 0.658444226
0.755091846 0.772928596 0.675521970
0.852625012 0.786590517 0.695003152
0.507526755 0.866919637 0.689183772
0.521568418 0.874130368 0.688931048
0.568500936 0.874762833 0.699051142
0.607843220 0.876407266 0.704617023
0.663377702 0.876786828 0.710562766
0.732068241 0.881846905 0.719038725
0.799620628 0.886654079 0.728779435
0.876027822 0.891714096 0.748893142
0.000000000 0.124604993 0.624541163
0.000000000 0.121062540 0.620999634
0.192030102 0.118279189 0.634661496
0.372169465 0.103352189 0.635420561
0.537634373 0.064895995 0.643263578
0.673624516 0.000000000 0.637950361
0.750158072 0.048324183 0.637824357
0.802150607 0.185072795 0.635547161
0.000000000 0.187096894 0.631625473
0.002403808 0.190006539 0.640606999
0.158001289 0.186211348 0.650094807
0.362428755 0.167235732 0.637824297
0.515496373 0.144465744 0.642631352
0.662491977 0.094244257 0.632258177
0.752182364 0.131056637 0.649968565
0.803668320 0.226691693 0.639974356
0.003162904 0.330677003 0.655914187
0.000000000 0.322074175 0.651992261
0.067931809 0.289057374 0.666919470
0.339278996 0.278178215 0.659835577
0.503858328 0.264010191 0.659202993
0.655155182 0.235041082 0.655155241
0.760151446 0.238077193 0.657305658
0.804553926 0.303858191 0.650474310
0.000000000 0.489563465 0.672738731
0.041492902 0.482985526 0.674256742
0.198608443 0.454648912 0.672738731
0.301328301 0.409740269 0.675015807
0.480581820 0.387602657 0.678178549
0.631751955 0.372043192 0.673877180
0.766729772 0.363061458 0.681340694
0.817077637 0.412650466 0.675142348
0.145350739 0.617330313 0.692726374
0.206198558 0.623782158 0.706894338
0.300442666 0.616698205 0.702972949
0.395066828 0.590132952 0.698292375
0.470082343 0.539785028 0.703858197
0.614547729 0.517141223 0.698292136
0.756103754 0.494117618 0.695129514
0.822264016 0.540669978 0.689563155
0.313598722 0.699051380 0.727134585
0.336622268 0.701960623 0.728905499
0.398228943 0.699430883 0.735610366
0.463883340 0.700189829 0.729284942
0.549905181 0.693990707 0.728146672
0.628589749 0.673497915 0.726755023
0.745477736 0.643263459 0.724984348
0.820493340 0.681973636 0.732700527
0.384187371 0.770398259 0.744592130
0.400253117 0.773561001 0.742061675
0.433143318 0.770272195 0.737508118
0.496900707 0.764073551 0.735736787
0.576470494 0.766350508 0.738267183
0.666540504 0.763441026 0.739785016
0.755344510 0.768500566 0.746110201
0.844149292 0.790891826 0.763187826
0.473877013 0.874003828 0.752687812
0.492599547 0.878051996 0.743073940
0.535736680 0.878051937 0.745350957
0.596457720 0.879570007 0.758507252
0.665148616 0.877292991 0.771916211
0.737128437 0.881973803 0.780139089
0.806071937 0.881340802 0.787855685
0.879063785 0.891966760 0.805819154
0.002024260 0.164579004 0.762175739
0.003922000 0.170271739 0.761922717
0.086401016 0.167489082 0.757368803
0.334092528 0.163187832 0.763946474
0.493611366 0.147501737 0.764958978
0.644402206 0.117267467 0.762175739
0.784060597 0.047564916 0.769639313
0.888172030 0.069702692 0.779759467
0.001897740 0.222643986 0.760657489
0.002024260 0.220240280 0.763314307
0.054522458 0.217710078 0.762934923
0.318405926 0.211511999 0.759266376
0.489057362 0.197217181 0.767236173
0.640227675 0.179253459 0.768880486
0.782036364 0.141176626 0.770272136
0.897785783 0.152941182 0.789373994
0.002783356 0.334472179 0.768627465
0.000000000 0.318659186 0.781151295
0.022011276 0.314864099 0.778874338
0.305503070 0.307273746 0.774699628
0.479063928 0.296901017 0.771157503
0.629095435 0.281973213 0.778241456
0.771916389 0.260721177 0.776470482
0.897279978 0.254775524 0.790892005
0.040986542 0.495508909 0.794054508
0.058064729 0.480582029 0.791651189
0.144338906 0.465780824 0.785199165
0.297406554 0.427198023 0.793295383
0.469955564 0.424920827 0.788361669
0.621884823 0.405313015 0.787982225
0.765718162 0.389374077 0.788994491
0.899303794 0.384566635 0.802403688
0.261733085 0.638203800 0.797469854
0.291334540 0.632258177 0.803035915
0.348513782 0.624035478 0.804680526
0.419734478 0.601265013 0.799494088
0.475395173 0.555850804 0.800632477
0.610499918 0.545224547 0.808601737
0.759519279 0.523339510 0.808601737
0.886907279 0.509550750 0.808728456
0.401012182 0.748386979 0.819101989
0.423402548 0.743074179 0.826565564
0.463630468 0.753194034 0.828716099
0.518406212 0.741303086 0.820113897
0.577356160 0.722454071 0.819860995
0.630487442 0.677798986 0.819101989
0.754585326 0.656925976 0.811384976
0.870335281 0.649841726 0.807083845
0.482353270 0.809993505 0.844276011
0.485262543 0.808475673 0.837191284
0.516381919 0.811891258 0.836811900
0.568121076 0.815053463 0.837065160
0.623655975 0.817077994 0.834281802
0.705755532 0.817077994 0.835167408
0.774067283 0.808602273 0.838962734
0.862492085 0.791903853 0.838203728
0.538140297 0.885642052 0.856166959
0.551802516 0.885768354 0.850980639
0.569639385 0.882353127 0.843516827
0.604427576 0.880076170 0.842631280
0.653131008 0.880329132 0.832131505
0.728652656 0.881973743 0.839721739
0.811385512 0.884630024 0.851486623
0.884882867 0.892093778 0.861986101
0.008855297 0.223782271 0.873118579
0.000000000 0.224794567 0.870841265
0.018216573 0.226312369 0.866034091
0.288677901 0.224288628 0.875268936
0.458444089 0.219228283 0.868564010
0.605439425 0.213915005 0.868943512
0.751549602 0.199240983 0.871473789
0.880708337 0.171536744 0.870461702
0.003794996 0.272106230 0.872612000
0.000000000 0.266287118 0.867678404
0.017077833 0.269829452 0.868816912
0.285515547 0.267805189 0.870335162
0.454396188 0.262618542 0.864769161
0.607842684 0.257558376 0.875522196
0.749651790 0.245667279 0.879443288
0.878557742 0.227703989 0.873750925
0.000000000 0.355597466 0.868564367
0.000758999 0.354459137 0.880581975
0.026818475 0.347628385 0.874763072
0.287539601 0.347628385 0.878937721
0.457685173 0.343706369 0.877166510
0.599367440 0.337381184 0.877545953
0.739658475 0.331815273 0.878431439
0.873750567 0.315749854 0.878052235
0.047817826 0.504996955 0.883111894
0.052751467 0.493105650 0.878684282
0.153194025 0.473877281 0.885009527
0.310815901 0.457937896 0.882606268
0.458823651 0.464136630 0.881847084
0.606451392 0.455534548 0.887033582
0.737507999 0.451865971 0.887160003
0.870967686 0.434029281 0.886147857
0.377735436 0.657305658 0.885895252
0.384060562 0.654269457 0.884124219
0.403415442 0.642504454 0.882353127
0.427324355 0.611005425 0.885768235
0.493864447 0.580518365 0.891967058
0.611005485 0.574952662 0.890575409
0.737254858 0.567994952 0.888804555
0.864136517 0.547880948 0.895003021
0.487919033 0.775458455 0.892726004
0.492726207 0.773561180 0.899304211
0.522074461 0.764705598 0.895508945
0.563820362 0.752561688 0.898418844
0.610373020 0.737760961 0.896521091
0.644655168 0.698292017 0.896268010
0.745857298 0.686654031 0.896268070
0.874383569 0.673750758 0.901707768
0.575964808 0.851233304 0.909044981
0.580012858 0.847564816 0.900695980
0.605945528 0.847312272 0.910816193
0.640227914 0.855155230 0.908918619
0.691461444 0.858191073 0.912587166
0.747627974 0.844781876 0.904617071
0.786464334 0.821125805 0.913346291
0.883238137 0.800379753 0.906641483
0.636432528 0.910689533 0.933839440
0.651233435 0.903858244 0.929664254
0.661353469 0.906388402 0.923213243
0.696774244 0.908791780 0.923718870
0.727767408 0.913851976 0.931182444
0.781783760 0.917141020 0.928146601
0.839595079 0.915496290 0.923086405
0.897280276 0.914231479 0.915370107
0.001265167 0.286653757 0.950537801
0.001644715 0.286907077 0.956736088
0.018722450 0.286527634 0.946995616
0.262871474 0.291967154 0.954712152
0.429728031 0.297280133 0.950410962
0.578368008 0.299683630 0.956356585
0.713093221 0.304617047 0.955850780
0.836938620 0.304996610 0.955850780
0.002530012 0.326375335 0.955850780
0.000000000 0.321062356 0.943579793
0.024288561 0.322959900 0.954079568
0.278178453 0.327134341 0.950410903
0.440607011 0.332320988 0.958507359
0.580265760 0.338013828 0.956230223
0.712713778 0.339152366 0.954712212
0.844781697 0.336875170 0.960025430
0.001897736 0.400505930 0.951802671
0.000759000 0.397469729 0.954206049
0.075900927 0.398355335 0.957242012
0.299177825 0.400885642 0.956103623
0.452751458 0.403541982 0.958127797
0.582036614 0.406325161 0.955976963
0.712207437 0.411005735 0.958760202
0.838076711 0.403795123 0.961669505
0.124731138 0.523972273 0.958507359
0.157115474 0.513093114 0.958001256
0.229095504 0.504870474 0.964959145
0.354712099 0.504490793 0.956610024
0.477798909 0.504743814 0.961669505
0.600379586 0.507526755 0.960657597
0.718659043 0.507526755 0.963567257
0.842884123 0.497027308 0.957242131
0.422643900 0.673371017 0.957242191
0.427957028 0.667931557 0.956230104
0.426438749 0.650980353 0.951928914
0.446932465 0.626059353 0.962428629
0.521821737 0.615306795 0.963566959
0.625426769 0.609361231 0.962049186
0.728905797 0.610626101 0.963440895
0.851233184 0.596837103 0.960784316
0.571916521 0.793548763 0.955724001
0.583428383 0.787982285 0.958380818
0.600252986 0.786337852 0.960784316
0.616698205 0.777229667 0.959266126
0.622137666 0.748386979 0.961796403
0.661227405 0.723086476 0.966096997
0.755724251 0.717014432 0.964579463
0.864389777 0.706008911 0.965591252
0.659708738 0.883365214 0.962428629
0.669449627 0.882099807 0.963314116
0.679949522 0.878558278 0.955344498
0.710183382 0.877419710 0.966476500
0.742567837 0.874636471 0.966729879
0.778621256 0.864009857 0.965844274
0.802529812 0.834155440 0.960531235
0.887918830 0.821505368 0.972042978
0.726122737 0.932320774 0.976723611
0.724984169 0.931055903 0.963187516
0.735483587 0.925742924 0.969512939
0.767615378 0.924225152 0.959519148
0.790512204 0.933333337 0.966223836
0.836685658 0.942567825 0.967489004
0.881340683 0.940164804 0.973687351
0.916761637 0.925869823 0.976723671
