Assets/Shaders/EldamarStudio/100 Sci-Fi LUTs Pack/LUTs/cube/Nillama LUT.cube
DOMAIN_MIN 0 0 0
DOMAIN_MAX 1 1 1
LUT_3D_SIZE 32
0.035294000 0.035294000 0.035294000
0.047438003 0.035294000 0.038330387
0.063883550 0.035294000 0.039216001
0.084629998 0.034029163 0.039216001
0.108918093 0.032132000 0.040354453
0.133206859 0.038203999 0.049462065
0.154965326 0.046805676 0.056040645
0.177861989 0.052624710 0.060468286
0.200632200 0.054901998 0.062744997
0.218848974 0.054902006 0.062745005
0.239974871 0.063630871 0.074382998
0.267299503 0.068690740 0.084503256
0.296521634 0.072865002 0.092473000
0.323592991 0.078431003 0.098798029
0.347880989 0.078431003 0.107906409
0.374572784 0.083238609 0.114610992
0.403415382 0.092346996 0.126754984
0.433143556 0.103225991 0.142441154
0.460467994 0.109298006 0.148513958
0.485009730 0.115370005 0.160152018
0.516887963 0.121441990 0.172295988
0.552308381 0.127513990 0.183428124
0.585705459 0.133712500 0.192915976
0.619101882 0.142820910 0.211132005
0.647944272 0.151929289 0.222517282
0.679443300 0.159645990 0.231625661
0.715370059 0.166730002 0.241239995
0.748766422 0.178873986 0.253383994
0.782162786 0.191017970 0.268184811
0.820872307 0.204933181 0.285135925
0.858064175 0.222770184 0.299809992
0.882353008 0.247059003 0.305882007
0.032258388 0.047438003 0.035294000
0.050474387 0.047438003 0.035294000
0.069070168 0.053889774 0.042631388
0.090701997 0.055281550 0.045288000
0.113472089 0.054143384 0.046806000
0.127134860 0.065528385 0.058570448
0.156482995 0.061480384 0.060088385
0.177609026 0.066413775 0.066793315
0.199114382 0.070082389 0.071094289
0.221884593 0.070082396 0.068817005
0.245920360 0.075901389 0.080455735
0.271347255 0.080835260 0.088551767
0.299557239 0.085009776 0.097786382
0.326375633 0.090828747 0.107400358
0.347880989 0.093611389 0.110942021
0.374572784 0.096015193 0.122454211
0.401897192 0.102972806 0.129791379
0.430107325 0.112333767 0.141302943
0.457432389 0.118406400 0.154585958
0.487539411 0.127261043 0.166224003
0.516129076 0.131688729 0.178367987
0.549272478 0.137634516 0.189500123
0.582669079 0.145857245 0.198734984
0.616065502 0.154964909 0.211132005
0.647185147 0.161795989 0.220239997
0.679443300 0.170145273 0.229980931
0.715370059 0.178873986 0.241746068
0.748766422 0.191017985 0.256420374
0.784819603 0.200505823 0.273877352
0.818595529 0.214041576 0.285895199
0.854648769 0.229221985 0.299430758
0.885389388 0.247059003 0.311953992
0.039974999 0.070335321 0.043896001
0.049589001 0.070335321 0.039595000
0.078557774 0.070335321 0.043896001
0.094750166 0.078178547 0.051739547
0.114610769 0.077799223 0.054269772
0.133839101 0.081087999 0.062871769
0.156862766 0.082352996 0.067046002
0.180644765 0.082858995 0.070335001
0.201138511 0.088172093 0.077419326
0.226818562 0.089563780 0.077166304
0.251106739 0.095382772 0.084376968
0.271347493 0.097406775 0.092473224
0.299430758 0.100316346 0.098545223
0.327514052 0.105376288 0.108665287
0.350664169 0.110310130 0.117394127
0.374572784 0.115496576 0.127640605
0.401897192 0.117014773 0.136748984
0.428589135 0.123592541 0.144085974
0.454396158 0.129664943 0.157748207
0.486654013 0.138520196 0.167995006
0.515116751 0.143832803 0.176343992
0.546236575 0.147881001 0.188994125
0.579886258 0.155850738 0.200758979
0.617330670 0.164958879 0.216950998
0.648450315 0.169639543 0.224541545
0.680202425 0.178494528 0.233396530
0.715370059 0.187855765 0.245540991
0.748766422 0.196710765 0.259076655
0.786970377 0.206198603 0.272612184
0.823402643 0.224161699 0.292599410
0.854522169 0.241366208 0.301454842
0.884124219 0.257811785 0.311574757
0.048323840 0.097660154 0.056040321
0.056926161 0.097660154 0.051233158
0.081087776 0.097660154 0.052498318
0.104364164 0.098924994 0.058570322
0.115370095 0.104237996 0.064263448
0.139658317 0.102087222 0.069449842
0.162681803 0.102846317 0.072991841
0.186211154 0.103605315 0.078937322
0.205186263 0.108159319 0.083491325
0.231499299 0.110689647 0.086021647
0.254648983 0.114105150 0.089437164
0.279949486 0.117393993 0.098039158
0.299304634 0.118532635 0.105249807
0.328526199 0.121315323 0.111701287
0.351802796 0.125363827 0.122833662
0.378620982 0.131435990 0.134978145
0.403162360 0.137001991 0.140290990
0.431119293 0.138266981 0.147627980
0.456673115 0.144339010 0.159772024
0.486780554 0.151929200 0.171663359
0.516381919 0.158507586 0.181403995
0.545730293 0.162555322 0.190512121
0.579000831 0.168500811 0.205312997
0.615053952 0.175331905 0.218975008
0.647691548 0.182416275 0.229348406
0.679443657 0.187096983 0.238203824
0.712840080 0.198735058 0.249841914
0.746236444 0.205566153 0.261226982
0.783681273 0.216824993 0.272106141
0.822643876 0.229728088 0.288298160
0.859076202 0.251359731 0.307779580
0.884882987 0.269197017 0.312334001
0.051739097 0.124984547 0.068184994
0.064642772 0.124605000 0.066287160
0.087033547 0.124225549 0.066413768
0.110436156 0.126249388 0.070335545
0.121442094 0.127767086 0.076027997
0.145730868 0.127767086 0.079063609
0.167489320 0.131056309 0.083238319
0.190006539 0.132068545 0.088425152
0.212776646 0.131688997 0.095635995
0.234029040 0.131688997 0.095635995
0.256040424 0.132447988 0.096394993
0.282985508 0.134851277 0.104490988
0.310310096 0.137128189 0.114737637
0.331309527 0.139911547 0.123592995
0.352435380 0.139911547 0.132574126
0.381277531 0.144718543 0.143706605
0.408601910 0.150411084 0.149019808
0.433396608 0.156483084 0.149146080
0.463757426 0.162555113 0.161290124
0.492093801 0.168627098 0.176217362
0.519797742 0.174319923 0.188741088
0.548007667 0.180392534 0.201517671
0.581277549 0.186464533 0.216318533
0.611638248 0.189753190 0.222390547
0.642378569 0.197343290 0.231498837
0.674130619 0.204680532 0.240480527
0.708286047 0.212017611 0.252877623
0.741682410 0.221125990 0.261985987
0.777356029 0.234788343 0.271853358
0.814800680 0.248576969 0.285515487
0.853383780 0.261227131 0.303605109
0.889816582 0.276407540 0.318785548
0.057811871 0.152308941 0.080329001
0.076027870 0.149272546 0.086400993
0.086780772 0.146742761 0.082352936
0.105755933 0.149272770 0.081594162
0.127514094 0.155091494 0.085136384
0.151802868 0.145983875 0.088171996
0.173561320 0.153573558 0.098797932
0.194813699 0.155091718 0.102845997
0.215054035 0.152561843 0.105123155
0.230993435 0.149904996 0.107780002
0.258064806 0.155723989 0.113598995
0.284377187 0.160783991 0.122706994
0.311068982 0.162934586 0.131435633
0.334345132 0.161163941 0.135737002
0.352561891 0.161163941 0.141808987
0.383301795 0.165970922 0.150790736
0.411638319 0.170525119 0.157368809
0.435926884 0.174699858 0.161290139
0.460721046 0.180771887 0.173434883
0.493864477 0.186843872 0.188361526
0.524351537 0.191018134 0.197849482
0.552182198 0.195572332 0.206957862
0.578241885 0.201644927 0.219354928
0.608601928 0.207716942 0.225426942
0.641239882 0.215559572 0.238330215
0.674130619 0.221884668 0.245540932
0.708539069 0.227450997 0.250095010
0.747754395 0.242378384 0.265022367
0.781150758 0.251486748 0.279443741
0.815053642 0.265148669 0.291840881
0.850348115 0.278937221 0.307653517
0.886780918 0.291587919 0.327893943
0.063883997 0.179633319 0.095003322
0.074509680 0.179127246 0.098544993
0.092726231 0.180391863 0.102466770
0.106767997 0.179380000 0.100063317
0.128905535 0.183554322 0.101834446
0.155344546 0.180897936 0.104870059
0.179633319 0.181910321 0.107906319
0.204174697 0.184439927 0.115117028
0.229475185 0.182922095 0.119038641
0.253510833 0.183428153 0.127387807
0.267678887 0.181530327 0.130802989
0.290955245 0.185578585 0.138899252
0.317267627 0.190006286 0.147121966
0.342947364 0.190512642 0.150411323
0.365718156 0.195066646 0.156483322
0.393548310 0.192662835 0.164959118
0.423782200 0.199873507 0.174067125
0.448450238 0.204933733 0.180391893
0.470841020 0.209108010 0.190638959
0.500948727 0.215180650 0.197975978
0.534345031 0.219354898 0.209361061
0.564326108 0.222390771 0.218089983
0.590385616 0.226818800 0.229980990
0.620746315 0.230487004 0.236053005
0.653383553 0.238836288 0.244402289
0.685388982 0.246552631 0.256293654
0.718153119 0.252245307 0.262239397
0.755597711 0.265401423 0.277419746
0.792283416 0.275268823 0.290069818
0.827450991 0.287919164 0.305250168
0.859835863 0.302213609 0.318153292
0.891335011 0.314357996 0.334472001
0.071600288 0.206957698 0.113472700
0.082353026 0.206957698 0.114864014
0.096267834 0.205818921 0.114610761
0.114484608 0.208854869 0.116381988
0.133080244 0.208854854 0.117140986
0.157874659 0.207589701 0.121441759
0.184313640 0.211764723 0.126122311
0.208602414 0.211511686 0.129158705
0.234408796 0.209993497 0.133713096
0.262112975 0.213029891 0.144971699
0.279949695 0.213535532 0.151675820
0.299810261 0.212902963 0.153826237
0.321062624 0.215939343 0.160657629
0.347881019 0.219228700 0.164706022
0.376344085 0.225300699 0.174952701
0.402150691 0.225806594 0.180139080
0.427956909 0.225806206 0.189247474
0.455660850 0.234029129 0.197722688
0.479949415 0.238077149 0.205818966
0.509550750 0.240607411 0.212144002
0.540164471 0.244781956 0.221758440
0.571536839 0.247817829 0.229854688
0.599114180 0.251107186 0.240607202
0.630992830 0.257178783 0.248197407
0.663630664 0.259835273 0.254902005
0.694244027 0.270335317 0.265401691
0.725363731 0.277419329 0.275269002
0.761796117 0.288424700 0.289310694
0.796584606 0.299557239 0.301834255
0.831372619 0.307273865 0.312460452
0.868690848 0.322454274 0.327640861
0.899051309 0.335357398 0.340543985
0.079949193 0.233523190 0.135483995
0.089816682 0.233523190 0.133965999
0.106388412 0.232131511 0.130297229
0.120556228 0.233143255 0.130803093
0.139911443 0.235420629 0.130803093
0.161922842 0.232384339 0.136116102
0.185958326 0.236179635 0.142947197
0.213156402 0.236559376 0.147374719
0.237444997 0.235800087 0.151170179
0.258697391 0.238836482 0.160278574
0.281467766 0.241872311 0.167868212
0.303985000 0.243643090 0.173181191
0.327893734 0.243263736 0.173560739
0.349399090 0.246047094 0.177103132
0.381277382 0.251107097 0.191271499
0.408981591 0.253890097 0.197596386
0.431752205 0.255408108 0.203668192
0.454269528 0.257811278 0.212144151
0.484503865 0.263631016 0.218216211
0.514105022 0.265655100 0.224288195
0.544465482 0.267552346 0.232637465
0.574573219 0.271347135 0.242757991
0.602277040 0.274383515 0.249209493
0.636305928 0.282226294 0.259582877
0.666666627 0.286021203 0.264895976
0.699557543 0.290828437 0.273750961
0.727388024 0.302467018 0.285389066
0.763314068 0.311574608 0.297280073
0.796331465 0.322580636 0.310942084
0.832764149 0.331942081 0.322074175
0.865654707 0.339911580 0.329917580
0.905123115 0.355091989 0.345097989
0.086021975 0.257811993 0.159772024
0.089057595 0.257811993 0.153700024
0.107527070 0.257811993 0.145730242
0.125110805 0.261480331 0.144465178
0.136875048 0.268817067 0.152055502
0.164199442 0.265781462 0.152055502
0.183681160 0.267805159 0.159898818
0.208855405 0.266034037 0.165591270
0.237444997 0.263124496 0.169386193
0.261733025 0.269196540 0.175458983
0.288804382 0.272232890 0.178747624
0.311827779 0.275268734 0.186084747
0.334345281 0.275901139 0.191397980
0.358507484 0.273371518 0.192283541
0.382795483 0.273371518 0.201391906
0.412270606 0.278431535 0.208349481
0.437824190 0.282732725 0.215812787
0.460341543 0.285136491 0.224288166
0.487666011 0.285136491 0.230360970
0.515116870 0.290955514 0.236432984
0.544465482 0.294876754 0.242504984
0.574826300 0.298924506 0.248830006
0.605313420 0.304743558 0.255281508
0.641745448 0.307779938 0.270461887
0.666666210 0.313345999 0.274003983
0.695382297 0.320556641 0.279822975
0.730423629 0.329791427 0.291461080
0.760784388 0.338899046 0.300569445
0.791398108 0.348007321 0.317773461
0.830740094 0.357242227 0.332194448
0.871347129 0.367109507 0.341555595
0.902087510 0.379379988 0.345097989
0.095003128 0.287918985 0.172422737
0.106767610 0.287918985 0.169259876
0.111954547 0.287918985 0.173940644
0.126628995 0.291714132 0.169386446
0.140037954 0.299304217 0.168627426
0.169892669 0.296267927 0.176217735
0.192157060 0.298292309 0.178747416
0.214041859 0.299683750 0.187096700
0.241113216 0.298418641 0.191144645
0.267552018 0.302339882 0.190765098
0.288930863 0.305502772 0.193927988
0.320303231 0.308539152 0.198987871
0.343959272 0.310436606 0.204933643
0.364706010 0.309171706 0.206704870
0.388993979 0.306514859 0.207843423
0.413282603 0.306514859 0.216951191
0.441113204 0.311574876 0.229601502
0.465781152 0.315369993 0.242884308
0.490828842 0.315369993 0.251233816
0.520935893 0.320935994 0.257305890
0.546489477 0.323212981 0.257685125
0.575838149 0.325237006 0.261733145
0.607843161 0.329285234 0.269576341
0.633143842 0.332320899 0.273624033
0.665021837 0.339911282 0.288804382
0.692346275 0.345224559 0.294749975
0.726249039 0.350790858 0.304870129
0.763819993 0.357495308 0.321189314
0.791524589 0.369259715 0.324984014
0.825173855 0.380391806 0.336622179
0.861985922 0.390638590 0.346742481
0.890322983 0.400758862 0.353826851
0.104111254 0.316255242 0.190639243
0.114231512 0.316255242 0.187602848
0.128146276 0.318279505 0.187096760
0.136749059 0.318279505 0.189879999
0.150031805 0.325110793 0.184187248
0.175458848 0.328652829 0.194939926
0.198229313 0.330676556 0.198988184
0.221125990 0.330423951 0.200379506
0.244655102 0.330044508 0.206072256
0.269449532 0.331815273 0.204301029
0.297027111 0.334851116 0.209108114
0.320303231 0.337887526 0.214168251
0.352561265 0.339785248 0.219101891
0.374826044 0.340038210 0.222138211
0.399114490 0.340543836 0.223908991
0.421378851 0.341935515 0.231119692
0.444149464 0.340417325 0.238709494
0.470461816 0.343706250 0.251739591
0.496142000 0.343706250 0.258064985
0.525996029 0.347248524 0.268437982
0.548766494 0.347627759 0.270714998
0.574826300 0.348513395 0.270841241
0.607210755 0.351929247 0.279064000
0.637191832 0.360657573 0.287792325
0.668058276 0.366223544 0.299936533
0.699809909 0.372548938 0.310942233
0.731309175 0.376091242 0.317520320
0.767741919 0.382163256 0.331182897
0.798608184 0.393548220 0.344212651
0.829475343 0.403921425 0.350790262
0.863883436 0.415812492 0.360784203
0.892346740 0.426059246 0.371031255
0.112080999 0.351549268 0.211891636
0.121189378 0.352687895 0.208855242
0.135736868 0.352561384 0.210246637
0.151928961 0.355471283 0.211132288
0.164073631 0.355091721 0.206198737
0.183048934 0.361163914 0.216065645
0.203162670 0.364073306 0.219481319
0.227197975 0.366097361 0.222011641
0.251486182 0.365338653 0.223529637
0.273118168 0.366097629 0.224288642
0.306514740 0.366730034 0.225553632
0.332827270 0.369765908 0.230486989
0.355976909 0.371663630 0.237697631
0.386084676 0.371916652 0.240734026
0.411258817 0.374952495 0.243769869
0.435420781 0.376850098 0.250474453
0.457811832 0.379127085 0.256926000
0.480329186 0.376723289 0.263630569
0.507653654 0.376723289 0.267678976
0.535483658 0.379506618 0.275648624
0.561669469 0.379886180 0.283618003
0.582922339 0.377861917 0.286654145
0.612903595 0.380645275 0.292726159
0.643263876 0.388741285 0.301834285
0.676660299 0.397469908 0.313978255
0.707779646 0.402150333 0.327261269
0.741682112 0.406198710 0.334851205
0.775711656 0.412903279 0.345224440
0.805312932 0.424288273 0.357368797
0.838582933 0.434661478 0.372422695
0.871094525 0.446426272 0.381530315
0.901454628 0.459076285 0.393422008
0.118406028 0.397849023 0.232890993
0.126755387 0.400632411 0.230613634
0.143074036 0.400379300 0.233523026
0.160531327 0.399620175 0.237065166
0.178748026 0.402150512 0.240354493
0.190892041 0.399114132 0.243390098
0.208349049 0.398861080 0.244149059
0.230739728 0.401011735 0.245540753
0.257305205 0.403542042 0.249082997
0.281594038 0.409614056 0.255155027
0.319417894 0.407463878 0.251107007
0.349272490 0.408728749 0.250853747
0.372422606 0.410373062 0.255407631
0.395193070 0.410373032 0.264516026
0.422517449 0.413409442 0.267552435
0.449335814 0.414042026 0.271980017
0.475395381 0.415559828 0.276533872
0.500822544 0.418469101 0.280834585
0.528146982 0.418469101 0.289942980
0.552182019 0.420493364 0.294497371
0.578367770 0.421631992 0.300822318
0.605692327 0.422138065 0.309677184
0.633017480 0.422391057 0.318785518
0.657432020 0.422644049 0.322074860
0.687792301 0.428716302 0.329664707
0.718911707 0.435547352 0.339911312
0.747248113 0.439342141 0.352055997
0.783680856 0.448450506 0.367235631
0.812649846 0.459709048 0.377608806
0.844781339 0.470588207 0.391271353
0.879443169 0.482100010 0.407843381
0.909803987 0.500316024 0.416951030
0.127514407 0.419101387 0.251106977
0.127514407 0.419101387 0.257178962
0.148766771 0.426185757 0.257052392
0.166603580 0.428968817 0.253257394
0.179127544 0.429601401 0.246553004
0.200000420 0.429474890 0.252498478
0.219734728 0.431499124 0.255534708
0.238709822 0.437191516 0.256293833
0.260341614 0.440480500 0.257685304
0.284630418 0.433902800 0.261227012
0.311828285 0.437064916 0.273117959
0.343706399 0.440859973 0.273370981
0.369386226 0.442884028 0.274003386
0.392156690 0.440733820 0.276660025
0.431625813 0.440733820 0.285768390
0.454143196 0.441366404 0.281593978
0.479696602 0.442884207 0.282606184
0.507653534 0.446552545 0.286907226
0.540290952 0.451866239 0.296014965
0.559265971 0.446299523 0.310689360
0.584440231 0.445919991 0.315749705
0.611764967 0.447944254 0.321062803
0.639089525 0.452751815 0.327893883
0.666413903 0.458823830 0.337001503
0.690828443 0.459076792 0.344844848
0.721188962 0.465148687 0.353953063
0.752814829 0.472485483 0.363694072
0.783680856 0.478811234 0.373308390
0.817457438 0.485262811 0.388487965
0.847817719 0.497912526 0.398861170
0.879443169 0.511827528 0.413409144
0.909803987 0.527640402 0.432131410
0.129411995 0.452371597 0.264515996
0.136622190 0.452371597 0.263377815
0.147374973 0.454522371 0.269449800
0.168627352 0.461859614 0.271220624
0.181530744 0.463377595 0.265907526
0.202783138 0.459329605 0.265907794
0.224035516 0.461859286 0.269449502
0.246932611 0.463250965 0.272485882
0.268184781 0.467804790 0.275522053
0.292473197 0.463630438 0.281847090
0.319671065 0.466160715 0.281593800
0.342947453 0.469196856 0.287666053
0.371030629 0.471473753 0.286906958
0.395572066 0.469196796 0.286147773
0.428589404 0.473497778 0.293105394
0.463250965 0.473497778 0.299809992
0.486021578 0.475015968 0.301328182
0.512460530 0.477419406 0.306135565
0.542315066 0.479949713 0.311701626
0.569006801 0.482099891 0.319165170
0.591018260 0.479822606 0.326755047
0.615813136 0.480834723 0.333839327
0.640607476 0.485262781 0.344085991
0.672485888 0.486780763 0.350916892
0.697532952 0.490575492 0.360025078
0.724604309 0.494876653 0.369133443
0.756989241 0.503478587 0.378241718
0.789246976 0.509550869 0.387349606
0.815053642 0.515622973 0.399367750
0.846679509 0.525237381 0.414547771
0.877039790 0.538899422 0.425806582
0.907400191 0.552561641 0.442504793
0.137002185 0.482732385 0.278178185
0.147627994 0.487286180 0.278178573
0.153446972 0.490955144 0.280075967
0.173687354 0.491461217 0.283617973
0.189500183 0.496774197 0.286400735
0.207336932 0.495256186 0.285642117
0.228589311 0.493738234 0.286148071
0.251486421 0.495129555 0.292219669
0.275774986 0.495129555 0.292979002
0.300063014 0.495129555 0.298292279
0.324224859 0.498039037 0.298798293
0.352055430 0.499557257 0.301328272
0.375584811 0.501454949 0.304364622
0.402656227 0.499304205 0.302087367
0.430487007 0.504111350 0.304364175
0.460214972 0.505376339 0.311954379
0.490575373 0.508412361 0.318026364
0.515496552 0.509551167 0.325869590
0.542821050 0.507780194 0.328905761
0.570145369 0.510562837 0.333206981
0.597090244 0.511701167 0.337381661
0.624415159 0.512713313 0.341429383
0.647944689 0.515749633 0.354965180
0.678558171 0.517140985 0.363820165
0.703605354 0.519418061 0.372169465
0.729285002 0.521062374 0.381277472
0.758507192 0.530297220 0.391397864
0.788867414 0.538393140 0.402529746
0.815812409 0.545983315 0.415812641
0.846679151 0.551043630 0.429728150
0.877039969 0.564959168 0.445793957
0.907400191 0.578368187 0.459202975
0.149652421 0.510183513 0.292725980
0.161796421 0.518658698 0.295762360
0.167868569 0.523086488 0.299430788
0.176091164 0.526628971 0.302466542
0.202277005 0.524351597 0.302087098
0.214927003 0.530170560 0.304617494
0.234028906 0.529285252 0.306388557
0.257558405 0.527893960 0.308791846
0.281846970 0.528526545 0.316002131
0.306134999 0.528526545 0.309930146
0.328146428 0.530170679 0.312586844
0.354206085 0.531815112 0.317014575
0.384060621 0.531815112 0.321948051
0.410879016 0.531815112 0.324731410
0.434788227 0.534471929 0.322074562
0.462745368 0.535736918 0.328020364
0.489437193 0.537507951 0.335610569
0.516129136 0.542314947 0.340417564
0.543453634 0.536242902 0.343453199
0.571410358 0.539152324 0.347754329
0.599367321 0.540290713 0.350790709
0.627450764 0.540670276 0.354838967
0.660594940 0.543706596 0.360784471
0.687919319 0.546742260 0.371410578
0.711954653 0.549778402 0.380645275
0.734725058 0.552688122 0.391650856
0.763061583 0.554206192 0.401770622
0.787729144 0.566223681 0.416951001
0.814673960 0.575078905 0.432131380
0.845413923 0.581910133 0.447311729
0.878810585 0.588109076 0.462745130
0.909171402 0.606325150 0.480961144
0.152688071 0.549652040 0.304870069
0.164832056 0.555724025 0.307906449
0.176976621 0.553447008 0.313093066
0.188109010 0.552182257 0.318911999
0.202277049 0.554712474 0.323339552
0.220493034 0.557748079 0.320303947
0.238203689 0.558507025 0.325363994
0.261606723 0.558254063 0.325996310
0.287919015 0.559013188 0.325490087
0.312207013 0.561923027 0.328146964
0.336495727 0.559013128 0.330803066
0.360531509 0.560531318 0.333839267
0.387603015 0.562175989 0.337128371
0.416951060 0.562175989 0.339911073
0.438203394 0.562175989 0.339911073
0.469323456 0.564832270 0.344465643
0.497659981 0.566097081 0.350791007
0.522201180 0.566603065 0.355598003
0.546490014 0.566603065 0.355598003
0.576597035 0.571663797 0.364199638
0.606704473 0.573687911 0.369006753
0.635800123 0.573687911 0.373055011
0.663630545 0.574067473 0.379000515
0.690954924 0.577103138 0.382036924
0.718279302 0.580139279 0.388108969
0.742314696 0.584567010 0.399999976
0.766097188 0.590639055 0.416951060
0.799494326 0.599747419 0.432131410
0.826818705 0.606451929 0.447311819
0.854143023 0.614547729 0.462492198
0.881340921 0.624035239 0.477672577
0.906135023 0.636686027 0.493106008
0.189121097 0.603035748 0.342062086
0.195699096 0.603541791 0.345097780
0.205692306 0.605312765 0.348134160
0.219734341 0.604300916 0.351043761
0.234914735 0.606578171 0.353700191
0.248323724 0.604806840 0.355470955
0.266540378 0.605312765 0.354965031
0.284756720 0.603668451 0.355597734
0.308665454 0.602530062 0.354838729
0.334977716 0.603542209 0.359898865
0.353699744 0.606324911 0.354585856
0.380012780 0.605312765 0.361669987
0.405060381 0.606451392 0.366224110
0.431625426 0.606451392 0.369006723
0.455408096 0.606451392 0.369006723
0.483870715 0.606451392 0.373813719
0.513851881 0.607589781 0.378368199
0.538772583 0.606957376 0.383175343
0.560910642 0.604807079 0.387476385
0.593548775 0.607589781 0.393042386
0.622011483 0.611764789 0.396457732
0.650474489 0.613662541 0.399620354
0.677798867 0.615560234 0.405818880
0.705123246 0.618595898 0.414168298
0.727893591 0.621632040 0.417204678
0.754206002 0.623276770 0.424162030
0.779253364 0.627071679 0.437697440
0.808095932 0.636179447 0.452877820
0.836179435 0.645287812 0.468058199
0.861733019 0.651486397 0.481467336
0.889816582 0.656925738 0.501834214
0.919797361 0.661480069 0.530297399
0.209614247 0.636811733 0.368247986
0.213788986 0.638709486 0.358001351
0.227703959 0.638709486 0.372422487
0.233016729 0.639974654 0.371663719
0.248956367 0.642251909 0.371537209
0.270208746 0.639215529 0.377608806
0.285515636 0.640607238 0.378114730
0.303731978 0.640607238 0.381403714
0.323466182 0.638583481 0.377609074
0.349652231 0.638583481 0.377988756
0.370145470 0.637697577 0.380012721
0.392536044 0.640607238 0.380265504
0.418722540 0.641745567 0.387096912
0.443263769 0.642504454 0.390385747
0.469196796 0.642504454 0.393674731
0.492599726 0.642504454 0.394686699
0.521441936 0.642504454 0.399240911
0.548766315 0.643137038 0.403542131
0.572548747 0.642631412 0.410878986
0.599241138 0.643263817 0.413156003
0.628842771 0.646299481 0.417330742
0.655155003 0.648323715 0.420366853
0.681720257 0.650600970 0.427324474
0.710815907 0.655407846 0.434661627
0.737381279 0.656546235 0.443011045
