Assets/Shaders/EldamarStudio/100 Sci-Fi LUTs Pack/LUTs/cube/Nillama LUT.cube
LUT_3D_SIZE 5
DOMAIN_MIN 0.000000 0.000000 0.000000
DOMAIN_MAX 0.903226 0.903226 0.903226
0.035294000 0.035294000 0.035294000
0.177861989 0.052624710 0.060468286
0.347880989 0.078431003 0.107906409
0.552308381 0.127513990 0.183428124
0.782162786 0.191017970 0.268184811
0.071600288 0.206957698 0.113472700
0.208602414 0.211511686 0.129158705
0.376344085 0.225300699 0.174952701
0.571536839 0.247817829 0.229854688
0.796584606 0.299557239 0.301834255
0.127514407 0.419101387 0.251106977
0.238709822 0.437191516 0.256293833
0.431625813 0.440733820 0.285768390
0.611764967 0.447944254 0.321062803
0.817457438 0.485262811 0.388487965
0.225806251 0.662112355 0.386464238
0.318912119 0.667932153 0.396584123
0.479696542 0.672865272 0.413662136
0.657179296 0.680708289 0.437571257
0.844149351 0.701960981 0.497532994
0.503858566 0.872232616 0.578114986
0.547501802 0.877925515 0.590638757
0.623276353 0.882732809 0.600379646
0.742820799 0.888298512 0.622897089
0.878810763 0.891840637 0.663250923
0.002277292 0.050980002 0.261859715
0.226565704 0.038582996 0.276913702
0.359012991 0.101707697 0.277292788
0.554585636 0.158254415 0.351802856
0.779885888 0.206704661 0.399240851
0.010120291 0.259582400 0.294244409
0.178494409 0.223276719 0.311574697
0.384566784 0.220999405 0.329917699
0.570904255 0.248197287 0.366856396
0.790259540 0.298292398 0.415559679
0.152308583 0.414168119 0.377229810
0.231119707 0.427324533 0.386717141
0.417836815 0.434535116 0.397596389
0.601264715 0.445919991 0.428589523
0.805313110 0.491840780 0.475395381
0.225426704 0.656167150 0.472359270
0.316635251 0.656546235 0.484630227
0.468311220 0.665022194 0.493738234
0.653890014 0.675142527 0.524098694
0.835420609 0.699430943 0.566982806
0.510942459 0.872232616 0.623529494
0.549398959 0.880075991 0.632637680
0.630233884 0.879443407 0.644781768
0.744592011 0.886021376 0.653383911
0.872359455 0.897785783 0.691840768
0.000000000 0.107273981 0.531055808
0.159266114 0.095129706 0.549652100
0.460341811 0.051612586 0.559139371
0.653383791 0.040480629 0.559139371
0.788741589 0.195572391 0.577356219
0.000000000 0.292979419 0.572169423
0.055913702 0.246173695 0.576090813
0.444655418 0.224288404 0.579379857
0.658443928 0.201391414 0.577988625
0.795193017 0.289437115 0.594054520
0.001897590 0.549272776 0.617204010
0.204174802 0.540417492 0.622137666
0.404807240 0.463630378 0.630993247
0.661353528 0.423782796 0.624794662
0.814927578 0.484630227 0.636938632
0.279696107 0.685262382 0.668184340
0.359772265 0.688551784 0.671726823
0.490828693 0.682605982 0.678557813
0.650348127 0.672865391 0.684882939
0.828589380 0.705249906 0.700569093
0.493358612 0.870967805 0.711954415
0.536495626 0.874257028 0.716002345
0.631878614 0.878810823 0.729664803
0.754712224 0.881467402 0.747628093
0.876280785 0.891208231 0.770904243
0.001012128 0.176723242 0.791524112
0.004427576 0.184439987 0.795319557
0.409993798 0.168753847 0.791777253
0.672738969 0.134472132 0.790512204
0.898292124 0.047438271 0.798987985
0.006831295 0.304364711 0.803795278
0.000000000 0.301707715 0.804174781
0.391144782 0.289689988 0.801644266
0.658696711 0.267551810 0.800506115
0.906641304 0.217583761 0.813156366
0.209740445 0.574446559 0.816825151
0.280834764 0.561037362 0.817836940
0.395319223 0.501580954 0.826438963
0.642125368 0.479443371 0.818595886
0.899051428 0.437191665 0.826818466
0.443516970 0.775711119 0.842378139
0.484629869 0.779000461 0.842631280
0.570271850 0.770904243 0.849209309
0.672991991 0.711195409 0.842378199
0.881720543 0.680202186 0.833649278
0.566223800 0.894749939 0.881467342
0.585072696 0.897280276 0.875395298
0.643263936 0.893738270 0.870208979
0.756229937 0.887286782 0.863503993
0.887412906 0.892599761 0.873877108
0.001265167 0.286653757 0.950537801
0.001265167 0.287539512 0.945983648
0.359771788 0.297026813 0.957748234
0.611005545 0.301960677 0.954585612
0.836938620 0.304996610 0.955850780
0.001644708 0.376976699 0.953826666
0.032890391 0.377102941 0.953193963
0.372548908 0.376470506 0.957115769
0.613662183 0.385325789 0.954459012
0.840606868 0.384060621 0.960151672
0.292219728 0.598482013 0.952435374
0.318532318 0.574572861 0.960278332
0.440354168 0.557241917 0.955724001
0.638962805 0.553953230 0.962681651
0.847438633 0.544845045 0.964326382
0.592409790 0.816571832 0.953700006
0.616445363 0.813409209 0.955723763
0.661227286 0.798355401 0.960278392
0.696394980 0.751676083 0.964579105
0.870461762 0.734598100 0.963566959
0.726122737 0.932320774 0.976723611
0.729917586 0.923465908 0.967741728
0.774319768 0.933585942 0.963567138
0.849335968 0.944085836 0.971031129
0.916761637 0.925869823 0.976723671
