Assets/Shaders/EldamarStudio/100 Sci-Fi LUTs Pack/LUTs/cube/Nilneya LUT.cube
DOMAIN_MIN 0 0 0
DOMAIN_MAX 1 1 1
LUT_3D_SIZE 32
0.082353003 0.043136999 0.047059000
0.082353003 0.043136999 0.047059000
0.088804774 0.045287773 0.047059000
0.097912833 0.048323840 0.048323840
0.106640995 0.051739097 0.051739097
0.112712994 0.057811871 0.057811871
0.121315315 0.061353676 0.063883997
0.132067993 0.066033997 0.068311289
0.143453091 0.071347095 0.072105996
0.152561486 0.074383482 0.078178003
0.158760011 0.077419132 0.075521871
0.170904249 0.082479514 0.076533742
0.187223285 0.088551998 0.081846647
0.204680964 0.094370969 0.090701997
0.213788569 0.097406581 0.096773997
0.225300595 0.105249800 0.100442804
0.240480989 0.114358187 0.106514804
0.258696973 0.122833990 0.115622565
0.276913017 0.128906012 0.124730960
0.292346358 0.134977996 0.128273353
0.311321735 0.142947733 0.133206993
0.333586246 0.151043996 0.139278993
0.358254462 0.157368988 0.145730495
0.391650915 0.169513002 0.160910904
0.420493275 0.177102998 0.164706007
0.450600624 0.183174983 0.168880671
0.483997166 0.191271126 0.178494990
0.517394304 0.209487885 0.190638989
0.553446949 0.222390980 0.197469994
0.593421340 0.234534964 0.207083955
0.636811793 0.247564584 0.220999196
0.682353020 0.262744993 0.239216000
0.085389383 0.052245386 0.047059000
0.088424996 0.055281773 0.050094616
0.092726007 0.055281773 0.056546386
0.102213606 0.054902226 0.060468160
0.112333544 0.055534385 0.063504227
0.115749381 0.066919483 0.066919483
0.121821381 0.067931615 0.067931615
0.132067993 0.073750705 0.069702610
0.142694190 0.078937292 0.070588000
0.149525881 0.077419102 0.072106004
0.161543384 0.083365351 0.081087872
0.171916381 0.090575509 0.082606256
0.186084643 0.095382616 0.086780772
0.202150643 0.097912639 0.093485355
0.216824964 0.106514961 0.096773997
0.223529384 0.107147381 0.100442804
0.238962784 0.114358187 0.106514804
0.258064568 0.124098979 0.114990152
0.273877412 0.134977996 0.121695355
0.294876784 0.138266638 0.125237033
0.318153113 0.144086093 0.133965597
0.340670377 0.152055874 0.142314881
0.361163586 0.160278127 0.148387387
0.391650915 0.169513002 0.154838905
0.420493275 0.181656986 0.165464699
0.450600624 0.190638661 0.173307940
0.483491123 0.199367389 0.183554992
0.514357924 0.212523490 0.190638989
0.550411224 0.225427270 0.205439806
0.593927681 0.237571359 0.212650374
0.637191594 0.249715373 0.223149985
0.676281035 0.262744993 0.239216000
0.086274996 0.063503996 0.053510774
0.091461383 0.066540383 0.054396164
0.094497003 0.069576226 0.059582546
0.099304162 0.070841387 0.064895771
0.108791769 0.068817228 0.067046449
0.117140934 0.068563998 0.070082061
0.124857768 0.079190545 0.070588000
0.132574052 0.079190545 0.072232708
0.142694190 0.085262671 0.073497675
0.148766980 0.085009299 0.074889004
0.162808225 0.088551745 0.077166095
0.172928482 0.096647732 0.086274482
0.183807641 0.103478640 0.088425227
0.197217003 0.104996771 0.092726260
0.214294627 0.112207413 0.099557355
0.230866760 0.118405998 0.104743801
0.238456562 0.119924188 0.109297998
0.258443952 0.127134994 0.117140763
0.279696792 0.136243016 0.123213157
0.296141624 0.142188415 0.126502424
0.315496713 0.150916770 0.131435767
0.340038151 0.156483367 0.141049773
0.359898716 0.163440764 0.147375211
0.390259027 0.174572900 0.157495230
0.416192293 0.181656986 0.163693696
0.446299642 0.192409664 0.170018673
0.480708182 0.202530071 0.180898219
0.516002655 0.216318756 0.193548217
0.549525619 0.226312652 0.201138809
0.594813526 0.240227729 0.218089953
0.641113341 0.253636807 0.228336588
0.678811014 0.267046005 0.243516997
0.091334999 0.076913163 0.062618837
0.091081835 0.078684382 0.058823999
0.095003389 0.080455393 0.064389840
0.101834163 0.082226165 0.069196999
0.105250001 0.085642003 0.069955997
0.115622997 0.080961220 0.073877223
0.126502156 0.084503479 0.073118001
0.134345278 0.090069838 0.074762709
0.144212186 0.090828933 0.078557998
0.151296973 0.093864679 0.082099684
0.163567126 0.098165862 0.082226165
0.175964415 0.102719732 0.087033257
0.185072511 0.110689282 0.092726000
0.194939896 0.113852128 0.093485028
0.213156149 0.118911996 0.102593414
0.231372431 0.124983996 0.109297998
0.245034963 0.130803019 0.112839997
0.257305294 0.134471983 0.120176978
0.283997923 0.140544176 0.127513990
0.300189674 0.147881016 0.130803347
0.316002309 0.153953165 0.134471834
0.338267088 0.166097164 0.142568097
0.360531479 0.170145512 0.149272636
0.389753163 0.181151167 0.160278007
0.414294571 0.187475994 0.164073154
0.441492796 0.197469667 0.172548667
0.476407290 0.205566064 0.176090986
0.516635299 0.217710435 0.191270992
0.550790787 0.231372654 0.200126499
0.589753211 0.244022891 0.214547947
0.636938870 0.258317113 0.230992973
0.676027834 0.273118019 0.245793834
0.101581454 0.092093542 0.070967548
0.094370611 0.092093542 0.063377835
0.093864769 0.091713995 0.066793315
0.099936992 0.091713995 0.072232611
0.110942543 0.092093542 0.075268999
0.117014542 0.098165549 0.081340998
0.128146544 0.100316092 0.080581777
0.137001544 0.099936545 0.080455258
0.144212186 0.100695640 0.084250547
0.156356975 0.103732035 0.090322547
0.165591121 0.109677538 0.090575546
0.176723510 0.113725282 0.094623543
0.188108891 0.117140733 0.098418549
0.197469547 0.122960478 0.098924547
0.215433270 0.125996128 0.107906409
0.232890531 0.132194534 0.114610992
0.247691199 0.137887090 0.118785545
0.259582609 0.143959150 0.120176978
0.283871442 0.150031954 0.132321000
0.300569206 0.158886760 0.136495814
0.316128731 0.164199740 0.140290812
0.335230678 0.169133544 0.145603716
0.365464926 0.181277528 0.157368973
0.392789364 0.190638915 0.165970653
0.416698277 0.195951805 0.167488843
0.442125320 0.203794658 0.169892520
0.473751128 0.218089595 0.181783542
0.516255856 0.221125990 0.187855542
0.551549792 0.236305952 0.196963832
0.588108659 0.252371728 0.212776706
0.627071202 0.267046064 0.231751978
0.663504004 0.279190093 0.243896008
0.098545067 0.107273929 0.074003935
0.104617067 0.107273929 0.077039547
0.106008768 0.105123155 0.080202609
0.110309996 0.103857994 0.081720546
0.117014542 0.104237542 0.078304611
0.120050929 0.107273936 0.081340998
0.131182939 0.115876257 0.084883317
0.140037939 0.116888158 0.085262865
0.146869034 0.115876026 0.087286927
0.156356975 0.118912421 0.093358934
0.165591121 0.124857925 0.093611933
0.176723510 0.128905669 0.097659931
0.188868001 0.130802929 0.101454936
0.200505942 0.132068098 0.101960935
0.212649927 0.135104477 0.108032927
0.225806653 0.145350918 0.114610992
0.241998941 0.151929125 0.122201189
0.259329557 0.156103864 0.128526345
0.280835062 0.162175953 0.132321015
0.302340448 0.171031356 0.138899013
0.320682913 0.176344126 0.146362796
0.339405119 0.179380134 0.153446928
0.362428546 0.184313923 0.160404578
0.389752984 0.196457952 0.163440973
0.419354618 0.205819294 0.172043219
0.448197305 0.213915184 0.174952924
0.479570150 0.224541128 0.179000929
0.516255856 0.236306384 0.190891936
0.556103766 0.244655073 0.202276915
0.592789352 0.257052422 0.217457399
0.630613506 0.270588517 0.235294297
0.669575989 0.285262883 0.249967992
0.103098996 0.119923994 0.089690000
0.104111001 0.122454315 0.085135929
0.112333775 0.122454315 0.088172093
0.116129160 0.122327477 0.092599839
0.120936319 0.123592317 0.091460869
0.126122937 0.124477930 0.094497256
0.131688997 0.127514318 0.092472993
0.143832996 0.133333281 0.097153664
0.152435094 0.134345189 0.100442670
0.161543489 0.139152810 0.106514670
0.170651764 0.134977683 0.101707675
0.181783631 0.143073931 0.105755672
0.195066646 0.147121966 0.111827962
0.208855361 0.148766607 0.114611320
0.223276630 0.151802421 0.116129316
0.235420629 0.157241985 0.119797505
0.250600994 0.166097373 0.127261192
0.269449562 0.170145735 0.135104418
0.290701985 0.174320012 0.138140053
0.311954379 0.183175370 0.146489322
0.331309468 0.194180995 0.152561322
0.350537777 0.199114457 0.159013137
0.371916622 0.202530310 0.163693830
0.396837234 0.214674324 0.171537220
0.426438868 0.224541605 0.176850319
0.458190948 0.232258305 0.185705304
0.491208047 0.240227699 0.191144809
0.529664516 0.250348210 0.203289315
0.568754077 0.259835482 0.212902963
0.611764371 0.272485495 0.228589401
0.652245164 0.287159979 0.242378384
0.693358302 0.303984672 0.250979990
0.105881996 0.137001693 0.104616992
0.104237713 0.136749089 0.100189701
0.110689066 0.140923694 0.092346773
0.118532613 0.140923694 0.092852838
0.122707449 0.142441407 0.095129550
0.130044281 0.139911413 0.098165937
0.136116281 0.144086018 0.101075388
0.142188713 0.145477697 0.101327993
0.155091614 0.148513317 0.107400000
0.165970773 0.153700247 0.113472000
0.175079152 0.153067678 0.114484414
0.186211273 0.155470952 0.114863694
0.197216928 0.160025060 0.117520347
0.211385325 0.162555322 0.122327968
0.226565689 0.168374285 0.126502290
0.242631271 0.173813701 0.128905892
0.257811666 0.181403890 0.133459687
0.276027679 0.187602982 0.141808987
0.296267986 0.191650748 0.145856753
0.314231396 0.195319355 0.152814358
0.336875468 0.203035980 0.160025001
0.357115984 0.213155985 0.166097254
0.379127294 0.217330784 0.169766188
0.403415710 0.230993003 0.175838187
0.433902532 0.239215568 0.185958281
0.464263290 0.248323947 0.190638959
0.498924822 0.255660981 0.200252786
0.539531827 0.265907705 0.213535875
0.577355683 0.276660532 0.223023564
0.617077827 0.284376889 0.234155402
0.662618279 0.301328301 0.251486599
0.705882013 0.320303410 0.257558405
0.105881996 0.155976996 0.114484094
0.105123281 0.153700292 0.110689387
0.110689320 0.157116085 0.103478901
0.117773317 0.159898996 0.096647933
0.123845994 0.160658002 0.095509090
0.132574156 0.156103998 0.099683926
0.139152095 0.157875091 0.102214001
0.145983413 0.161417007 0.107400380
0.152814895 0.162176102 0.110436186
0.167994514 0.165211722 0.116508193
0.178114966 0.168247879 0.121821642
0.189247087 0.172549099 0.126628727
0.200252742 0.177482545 0.128146544
0.210120097 0.175205186 0.125616923
0.225806400 0.183807507 0.133712664
0.242631078 0.188994095 0.138772801
0.260847300 0.195825189 0.142568082
0.278431475 0.204300985 0.147375092
0.296521008 0.210373014 0.153194115
0.313472390 0.213156104 0.160784110
0.332827479 0.216951102 0.166097194
0.356357098 0.222264186 0.169892162
0.381024569 0.228462696 0.176217884
0.407210827 0.242378101 0.181151092
0.436812282 0.251486093 0.190259084
0.469576210 0.258190632 0.199746773
0.500949025 0.268311054 0.204301089
0.542947769 0.280708075 0.219228432
0.579379916 0.292093635 0.227577820
0.619860470 0.303731948 0.240734056
0.660341561 0.311954677 0.251486599
0.705882013 0.333207101 0.266667008
0.105881996 0.168121010 0.117520489
0.111953996 0.168121010 0.111448497
0.119797289 0.172296077 0.107653238
0.126375645 0.174573332 0.106767684
0.129917994 0.172802016 0.110689484
0.135989994 0.178874016 0.122833475
0.142188489 0.176850334 0.119418010
0.149905190 0.177482784 0.120430008
0.158886895 0.180392101 0.125616595
0.167994529 0.183428496 0.128652960
0.180265740 0.186464101 0.131815091
0.192283481 0.189500272 0.137001514
0.203289136 0.193801492 0.140670002
0.213156492 0.199493989 0.140796542
0.231372476 0.205565989 0.143832937
0.247058794 0.206957504 0.149525478
0.263883471 0.210246503 0.153953195
0.281467080 0.216444999 0.156483486
0.296647519 0.222517028 0.156483501
0.317520380 0.231372371 0.167868495
0.336622477 0.238203496 0.174067214
0.356104136 0.243263632 0.175205827
0.377988964 0.246679485 0.173181504
0.411385387 0.255787879 0.185325518
0.439848274 0.265148669 0.194813281
0.470208615 0.272738457 0.204048157
0.503984630 0.280455053 0.213409483
0.540417373 0.295635402 0.225553468
0.574446321 0.305376291 0.229854822
0.616824329 0.319923908 0.243770152
0.663250685 0.335863203 0.260215461
0.705882013 0.348387480 0.266667008
0.108791865 0.186084747 0.123466000
0.111953996 0.194813609 0.129031986
0.120176770 0.188361838 0.125110760
0.126755163 0.189373836 0.122074574
0.130171001 0.190765098 0.121821538
0.136243001 0.196837753 0.126375869
0.147375003 0.197849751 0.130929545
0.155850708 0.198482156 0.132573992
0.164959103 0.201517969 0.136369094
0.174067259 0.204554364 0.135104477
0.186084747 0.201770991 0.138140112
0.198228985 0.208855122 0.141176254
0.210372984 0.212523863 0.145224512
0.221758157 0.214800835 0.146995738
0.237317979 0.218216002 0.147375286
0.250727594 0.224288613 0.152814865
0.263883859 0.229854554 0.160404667
0.280581832 0.236685455 0.166223690
0.302593023 0.240480751 0.168500990
0.317773372 0.246552736 0.171284348
0.336875468 0.253636867 0.177356124
0.360152125 0.259708881 0.182416245
0.389120966 0.264895499 0.187223345
0.414168030 0.274003923 0.191018015
0.440733671 0.280834973 0.194054008
0.467425615 0.289310515 0.202656463
0.499304116 0.297912747 0.214295074
0.540543854 0.310689300 0.228842854
0.574319780 0.325869679 0.235673860
0.614800572 0.335484058 0.244275957
0.660468042 0.350284725 0.259456098
0.702972889 0.366476983 0.269576132
0.117899984 0.204300985 0.131562248
0.120936118 0.211385131 0.133586258
0.122201025 0.211638480 0.137254506
0.128779098 0.208855242 0.135483727
0.132194743 0.212270498 0.133965537
0.138266742 0.215053856 0.137001932
0.149399266 0.218090251 0.142061934
0.161543250 0.218090251 0.145097971
0.170271993 0.219987512 0.148513421
0.178115219 0.221758738 0.145477474
0.188108996 0.225047633 0.150284380
0.200252995 0.226059258 0.151296258
0.213535637 0.232890636 0.153193995
0.226565257 0.234029204 0.155597731
0.239974409 0.237064824 0.159139723
0.256799608 0.242504850 0.163947240
0.270462185 0.247059047 0.166983247
0.285009652 0.253889829 0.173307925
0.307906032 0.256926239 0.176343948
0.325869620 0.262745261 0.179380357
0.342947245 0.268817246 0.182416260
0.363187969 0.274889261 0.185452133
0.393295467 0.281087756 0.192536503
0.419481277 0.290196151 0.199367613
0.445793569 0.301075280 0.206198245
0.474256635 0.309930235 0.213155895
0.503858209 0.320177138 0.224920988
0.541809082 0.332321495 0.235547170
0.580392063 0.343073785 0.242757723
0.619101584 0.356483400 0.252372146
0.662618577 0.366730243 0.265401840
0.703984737 0.382669240 0.278684527
0.126628637 0.231625274 0.144085988
0.129664749 0.234281927 0.144085988
0.132827342 0.236179411 0.143959507
0.132953838 0.234661624 0.145730287
0.136748552 0.239974633 0.146109745
0.143579647 0.239974633 0.149145946
0.152435005 0.242504954 0.153573647
0.164579630 0.243896633 0.155724078
0.175964549 0.244655535 0.159519359
0.182415992 0.245034978 0.157621503
0.194813520 0.249715641 0.164452642
0.204806983 0.251486361 0.165338293
0.218089640 0.254522294 0.167615294
0.233017057 0.258064687 0.167868257
0.245161280 0.262871474 0.173054636
0.262112617 0.267172605 0.177988604
0.278811187 0.271727085 0.181024998
0.295256555 0.275395274 0.181657419
0.316508353 0.278937608 0.184693038
0.334977716 0.284756660 0.188868001
0.356609643 0.289690256 0.190765545
0.376849890 0.294750154 0.195825145
0.400885612 0.300822139 0.199114501
0.425173879 0.309930533 0.206198901
0.453636914 0.321315646 0.215306982
0.483744264 0.332321256 0.223782286
0.517646730 0.344465256 0.238456637
0.551676333 0.356609881 0.245793641
0.589247346 0.368374437 0.254142642
0.631625295 0.380392045 0.266034037
0.674130142 0.391651243 0.280835211
0.713851631 0.403542280 0.296521634
0.129664958 0.272106081 0.160784006
0.132700652 0.269323438 0.160784006
0.137633994 0.270335317 0.159645781
0.141176000 0.272612065 0.158128038
0.142567590 0.272359043 0.159013495
0.151675969 0.272359043 0.162049100
0.158254042 0.274889350 0.164073363
0.168121383 0.276281029 0.164579347
0.179506928 0.277039945 0.163314059
0.188614562 0.280075550 0.169386059
0.205439702 0.282858878 0.177861869
0.218342796 0.282605767 0.179380253
0.229727641 0.281593651 0.179759994
0.244908035 0.284883082 0.185579017
0.257052809 0.293991446 0.188614637
0.274256974 0.298292220 0.191397846
0.290702164 0.301075190 0.192916036
0.306894541 0.304744005 0.194054455
0.328146994 0.310815990 0.197090089
0.346363038 0.316635013 0.202150717
0.370018721 0.321062744 0.204934001
0.396331251 0.324604928 0.207463861
0.420619965 0.328020036 0.216571495
0.439089000 0.337254912 0.219860896
0.466919541 0.348134041 0.227451280
0.498418659 0.359139651 0.235167980
0.532574117 0.368501037 0.242505029
0.569006860 0.380645007 0.254649013
0.605439603 0.395192832 0.266793013
0.646426082 0.410626203 0.281973362
0.691334128 0.424541622 0.301075548
0.733838975 0.433650017 0.322327971
0.132700577 0.290322810 0.160784006
0.135736972 0.290322810 0.160784006
0.138772637 0.289690375 0.167235777
0.141176000 0.292852819 0.171284154
0.142694101 0.296521246 0.174446851
0.154712349 0.293611377 0.183301464
0.161290422 0.296141714 0.176217720
0.173940405 0.297533393 0.177862406
0.188614666 0.298292309 0.180518821
0.197722927 0.301327914 0.181530833
0.203921407 0.301454395 0.184692949
0.220620096 0.306134969 0.188994259
0.235800177 0.308032393 0.191903993
0.250980020 0.309171051 0.197723031
0.266160429 0.315243810 0.200759411
0.285515368 0.319544584 0.201391831
0.301580966 0.321062386 0.202024415
0.315622717 0.322959960 0.203921825
0.334218979 0.329031944 0.212270439
0.349905372 0.332321316 0.209740758
0.371410400 0.337887406 0.214295000
0.396331251 0.344339103 0.218089849
0.420619965 0.352308780 0.222643495
0.444908023 0.364452809 0.231751904
0.477039546 0.371410370 0.239595279
0.509424269 0.381530344 0.247311980
0.541935503 0.392536044 0.254902065
0.581150830 0.401897371 0.269829392
0.617583573 0.414041370 0.281973392
0.654016316 0.430360377 0.294117361
0.695002973 0.447058976 0.310183167
0.739911020 0.460974395 0.331435561
0.138139993 0.313345969 0.175205603
0.141176388 0.310942769 0.180012599
0.139911219 0.315243781 0.173560828
0.147501156 0.317014635 0.182415992
0.152814344 0.320809543 0.187729180
0.154838875 0.317773670 0.186717063
0.171536997 0.322201103 0.190259308
0.174319997 0.323592782 0.186084986
0.187223107 0.324351698 0.189120993
0.199620500 0.327387303 0.189120993
0.210626006 0.327513784 0.192030117
0.222770244 0.329538047 0.193041995
0.238330185 0.334092230 0.194560200
0.253004044 0.335357398 0.198355228
0.274636209 0.337128609 0.205692619
0.287412792 0.340796977 0.208728999
0.305629194 0.343832970 0.208728999
0.321188956 0.345983565 0.211258978
0.342947751 0.352055579 0.222137839
0.365591347 0.355344325 0.224921137
0.382669449 0.364073455 0.225680053
0.405945599 0.370145470 0.230234116
0.430360466 0.376470476 0.233523071
0.456925809 0.386337787 0.242630899
0.483491093 0.398481786 0.247185290
0.515369654 0.406198442 0.254648983
0.545730293 0.417330593 0.261732996
0.583301425 0.428336203 0.275015622
0.627324402 0.437697560 0.289942980
0.660215139 0.448070765 0.305629402
0.697153747 0.466160744 0.320809573
0.741176009 0.485894978 0.340543777
0.144212380 0.336116195 0.190385997
0.145730585 0.339152575 0.196457997
0.144465417 0.338013977 0.194813609
0.147754192 0.344085991 0.189500377
0.161163554 0.347374707 0.198734835
0.160404935 0.346616119 0.193801194
0.172042996 0.346616000 0.195319518
0.186463997 0.350917190 0.199747190
0.189500198 0.350917190 0.198988095
0.203921691 0.353193909 0.198229000
0.216192201 0.353320390 0.201138511
0.228842244 0.356862456 0.203668192
0.246299624 0.358760178 0.205945194
0.259329230 0.361163974 0.206704184
0.277292818 0.361163974 0.212017402
0.295002967 0.365085393 0.216318801
0.308665186 0.368121386 0.217836991
0.325110555 0.371157587 0.218469575
0.348513782 0.376343966 0.227957204
0.369766206 0.381151199 0.233270347
0.393295258 0.386843681 0.237824455
0.415560037 0.396964192 0.241872191
0.440986663 0.400758892 0.245667502
0.468311101 0.409867287 0.254775494
0.495635480 0.419734180 0.260847449
0.522959888 0.431878507 0.266666830
0.550284266 0.441619396 0.273877382
0.583680868 0.453763366 0.286021382
0.628083467 0.463251203 0.297785789
0.667805374 0.473877370 0.316255212
0.700822592 0.486527771 0.335357368
0.742694199 0.510183394 0.354205996
0.149020001 0.359898537 0.203162566
0.150284991 0.368374527 0.209234565
0.148766801 0.369512945 0.209487766
0.151422992 0.368374139 0.206451997
0.162808090 0.374446154 0.206451997
0.166097522 0.377735466 0.203668624
0.175458580 0.376976401 0.205692723
0.187602580 0.376596838 0.208475992
0.199746624 0.378241539 0.213535905
0.211891413 0.378241539 0.210499510
0.224035591 0.378874123 0.213282853
0.238077134 0.381657124 0.215686306
0.252371639 0.386717111 0.220493138
0.273118019 0.386970073 0.226059139
0.282985389 0.387349516 0.226059139
0.298671573 0.390891522 0.229095370
0.315369755 0.395445734 0.230613559
0.331815124 0.398482114 0.231878564
0.353067577 0.401517749 0.234914958
0.372169703 0.407337248 0.240101576
0.392915964 0.413409531 0.245540977
0.419228226 0.418848991 0.251612991
0.449462473 0.425047487 0.257811487
0.476786911 0.434155881 0.266919881
0.503478885 0.442631245 0.274383545
0.533333242 0.453763276 0.281847060
0.561669648 0.465907961 0.291461527
0.589246988 0.478051990 0.303605556
0.629348457 0.488172352 0.314357698
0.670208752 0.499051481 0.329284728
0.707527161 0.512587130 0.350537151
0.746995568 0.533839524 0.371789575
0.149020016 0.393295020 0.218342990
0.155092016 0.399367809 0.224414989
0.156357035 0.401391983 0.226185992
0.159898832 0.399873793 0.223403037
0.168880105 0.398735017 0.218596041
0.174952880 0.404807001 0.218596026
0.180771992 0.408096343 0.220872670
0.190638989 0.408981979 0.220619768
0.202782989 0.408475906 0.219860941
0.214927047 0.405566007 0.222643554
0.227071807 0.408475876 0.225426897
0.245288238 0.409235001 0.226439029
0.263504297 0.412018001 0.230107635
0.279190034 0.417330950 0.238203958
0.294370413 0.420366555 0.238203958
0.309044838 0.420746028 0.243010953
0.324478179 0.422770202 0.245793998
0.340923548 0.425806612 0.247058988
0.362176001 0.428842992 0.253131002
0.383428365 0.434661955 0.256167382
0.402530015 0.440733999 0.259456247
0.425300270 0.445793897 0.263757020
0.455534488 0.449335575 0.269955546
0.482858926 0.458443969 0.279063940
0.507906616 0.465275049 0.288172305
0.539405644 0.475774676 0.297027320
0.576849997 0.490196049 0.306641191
0.610246360 0.502340078 0.318785965
0.640480578 0.514484704 0.333586127
0.677419126 0.526376009 0.348260164
0.716634870 0.539405644 0.365717590
0.756103992 0.555092037 0.386970043
0.160152018 0.446173459 0.239089370
0.163440645 0.449462175 0.242377996
0.171663418 0.453384161 0.246299803
0.176091015 0.454016745 0.248197526
0.183301374 0.452878118 0.247059181
0.189373523 0.454143107 0.244655371
0.197975978 0.452624768 0.247185677
0.207589999 0.453510404 0.250221372
0.220493108 0.454269469 0.250221372
0.234661385 0.455281615 0.251233250
0.246806100 0.455281615 0.248703584
0.260974109 0.458317488 0.249715716
0.279569954 0.457938015 0.251992732
0.296394736 0.458823711 0.258950353
0.311575115 0.461859286 0.261480033
0.329158694 0.464895546 0.261480033
0.347754568 0.466793299 0.265275210
0.366729915 0.469829500 0.267172784
0.387982368 0.472865343 0.271093994
0.409234762 0.475901753 0.279949397
0.428589374 0.481973737 0.282985747
0.450853616 0.487033606 0.288045585
0.480961353 0.490195751 0.295888364
0.505629659 0.496647269 0.302339911
0.537508011 0.505755663 0.311448306
0.564706087 0.513725400 0.320556670
0.596584380 0.525110781 0.330170721
0.625426769 0.534978092 0.342314929
0.656166971 0.549778223 0.349146008
0.693611681 0.563820183 0.369259745
0.729664683 0.579632998 0.393674880
0.759645641 0.598608375 0.424415082
0.170398742 0.479949743 0.254648983
0.169639349 0.484883070 0.259582341
0.178873762 0.487918764 0.268311232
0.185452163 0.487159997 0.259962142
0.192030281 0.486654013 0.258823812
0.202656478 0.489690006 0.264895797
0.211258307 0.492852390 0.265022308
0.220366687 0.493105441 0.264769286
0.233775914 0.493358463 0.267299086
0.250094980 0.495256245 0.268437743
0.262365729 0.493484974 0.269323111
0.274636477 0.495509237 0.268311232
0.292093396 0.497406483 0.270588517
0.310562998 0.495635778 0.276154727
0.324098647 0.498671800 0.277546048
0.343579978 0.499810278 0.278178483
0.364832371 0.504364491 0.284250468
0.385199279 0.507780135 0.287792742
0.403921753 0.510815740 0.289563507
0.427071393 0.511954308 0.298165351
0.452118725 0.514990747 0.305376470
0.470334977 0.519038737 0.307400733
0.496900707 0.521315515 0.313725471
0.521189094 0.527387440 0.319797456
0.548513532 0.535736740 0.328146279
