Assets/Shaders/EldamarStudio/100 Sci-Fi LUTs Pack/LUTs/cube/Nilneya LUT.cube
LUT_3D_SIZE 8
DOMAIN_MIN 0.000000 0.000000 0.000000
DOMAIN_MAX 0.903226 0.903226 0.903226
0.082353003 0.043136999 0.047059000
0.106640995 0.051739097 0.051739097
0.143453091 0.071347095 0.072105996
0.187223285 0.088551998 0.081846647
0.240480989 0.114358187 0.106514804
0.311321735 0.142947733 0.133206993
0.420493275 0.177102998 0.164706007
0.553446949 0.222390980 0.197469994
0.101581454 0.092093542 0.070967548
0.110942543 0.092093542 0.075268999
0.144212186 0.100695640 0.084250547
0.188108891 0.117140733 0.098418549
0.247691199 0.137887090 0.118785545
0.316128731 0.164199740 0.140290812
0.416698277 0.195951805 0.167488843
0.551549792 0.236305952 0.196963832
0.105881996 0.155976996 0.114484094
0.123845994 0.160658002 0.095509090
0.152814895 0.162176102 0.110436186
0.200252742 0.177482545 0.128146544
0.260847300 0.195825189 0.142568082
0.332827479 0.216951102 0.166097194
0.436812282 0.251486093 0.190259084
0.579379916 0.292093635 0.227577820
0.126628637 0.231625274 0.144085988
0.136748552 0.239974633 0.146109745
0.175964549 0.244655535 0.159519359
0.218089640 0.254522294 0.167615294
0.278811187 0.271727085 0.181024998
0.356609643 0.289690256 0.190765545
0.453636914 0.321315646 0.215306982
0.589247346 0.368374437 0.254142642
0.144212380 0.336116195 0.190385997
0.161163554 0.347374707 0.198734835
0.189500198 0.350917190 0.198988095
0.246299624 0.358760178 0.205945194
0.308665186 0.368121386 0.217836991
0.393295258 0.386843681 0.237824455
0.495635480 0.419734180 0.260847449
0.628083467 0.463251203 0.297785789
0.170398742 0.479949743 0.254648983
0.192030281 0.486654013 0.258823812
0.233775914 0.493358463 0.267299086
0.292093396 0.497406483 0.270588517
0.364832371 0.504364491 0.284250468
0.452118725 0.514990747 0.305376470
0.548513532 0.535736740 0.328146279
0.669449627 0.581277549 0.377229452
0.243010551 0.625679851 0.342694283
0.262871563 0.629601240 0.348007560
0.306641370 0.632637680 0.356736571
0.363440901 0.636306226 0.366729915
0.433523268 0.643137276 0.376597166
0.511321962 0.650094569 0.390892029
0.600505531 0.663251579 0.417836845
0.710183501 0.688298523 0.466160536
0.429474741 0.786211610 0.510436416
0.447691411 0.792915881 0.504870355
0.472106338 0.795319438 0.525363624
0.516381800 0.795066416 0.531309605
0.572801769 0.798102379 0.538266540
0.638583183 0.807590008 0.559139669
0.710815609 0.814547837 0.582542717
0.791524589 0.824035585 0.617710412
0.078810550 0.051359549 0.079190098
0.102340452 0.052118547 0.079949096
0.143832639 0.076407552 0.100695543
0.182542980 0.099557094 0.109297641
0.236938536 0.118658736 0.125743449
0.312839895 0.151170194 0.152435258
0.408855259 0.180139288 0.180645242
0.542821050 0.217204124 0.207463652
0.087033994 0.095635995 0.084630005
0.107400090 0.099936545 0.102720000
0.146995544 0.108918086 0.110942543
0.185325548 0.126628548 0.122707352
0.242125198 0.144212201 0.137887090
0.312460303 0.166476548 0.158254102
0.416445285 0.200506285 0.186464101
0.556103766 0.241492808 0.227071658
0.107400090 0.159519449 0.120682999
0.127008095 0.156356543 0.124984451
0.155218005 0.162555546 0.135230646
0.200632289 0.175078735 0.140670538
0.260467768 0.191903993 0.157115728
0.329285026 0.215812653 0.178241536
0.426312715 0.246426359 0.199367553
0.566223741 0.287286371 0.233143628
0.124604903 0.232511178 0.149778634
0.139911458 0.231372625 0.153447092
0.167994738 0.239215732 0.165591538
0.217710182 0.254142731 0.176976174
0.276407272 0.265780926 0.187097088
0.346363008 0.291714013 0.200506091
0.460721076 0.326122731 0.236938626
0.600379407 0.367741913 0.267931998
0.134724990 0.336116403 0.189500183
0.155597657 0.341555983 0.213915199
0.189627007 0.343074083 0.209487647
0.243643165 0.352181852 0.224541649
0.303985000 0.360657811 0.233902544
0.383301795 0.379000574 0.246426538
0.490828484 0.412523568 0.269449800
0.624035418 0.462998182 0.312460363
0.164452985 0.475521982 0.261353552
0.184187278 0.476533711 0.260468006
0.229727909 0.482732534 0.272865534
0.288551658 0.487412721 0.279570162
0.360151559 0.497280389 0.293990910
0.438330472 0.507400274 0.304491162
0.540164471 0.531815290 0.331941545
0.667805195 0.577735424 0.383934200
0.235420555 0.618216276 0.350158274
0.259709090 0.617077589 0.344339252
0.295382798 0.626185834 0.357621551
0.355597734 0.628463149 0.365212023
0.426059306 0.638709903 0.380012691
0.512966216 0.642884493 0.404807210
0.606072247 0.665275276 0.432764262
0.707906306 0.692725778 0.478937328
0.417204231 0.780897915 0.510689139
0.444528729 0.790765464 0.520176768
0.464389682 0.788867712 0.523339391
0.508412600 0.791144848 0.532700598
0.565338194 0.795825422 0.540291071
0.634408593 0.802150309 0.554459155
0.706008792 0.808096170 0.583048642
0.786590874 0.822770417 0.619354963
0.087033898 0.054901998 0.115243196
0.106641091 0.064263090 0.121062547
0.136369184 0.079190098 0.132447988
0.184566543 0.104237996 0.141809091
0.239721894 0.128525987 0.163820192
0.316128820 0.156609997 0.190765455
0.409487545 0.184187099 0.212270692
0.546615839 0.215812817 0.247691318
0.089690447 0.099177547 0.127767086
0.117647000 0.101075090 0.128526092
0.141050100 0.112460539 0.141049996
0.182922542 0.128526002 0.157495096
0.240480900 0.146868750 0.170018896
0.312713623 0.173181474 0.191018090
0.413788825 0.205692559 0.221378818
0.554712176 0.241239786 0.255028337
0.108286001 0.154333100 0.149651989
0.124605000 0.157495201 0.163820103
0.153573990 0.169260010 0.166856200
0.198608637 0.182543099 0.177862078
0.256926090 0.198988095 0.192789182
0.334598184 0.221378833 0.214800999
0.425047487 0.246806011 0.231119558
0.569386423 0.288677931 0.269323081
0.127893999 0.232131630 0.189120635
0.141935095 0.238456726 0.189500183
0.170398548 0.245920286 0.196584180
0.213029996 0.254901826 0.207210645
0.270082384 0.268184632 0.217330635
0.347501457 0.292472929 0.234535009
0.458064646 0.324604928 0.259329557
0.595192909 0.367615610 0.297026902
0.137128085 0.333713174 0.232511073
0.150917456 0.335990191 0.233016819
0.188108906 0.348640114 0.238962993
0.239342526 0.348133802 0.244402185
0.303985089 0.359519243 0.254522294
0.383681267 0.382163197 0.274130166
0.493105561 0.416571647 0.302213877
0.625047445 0.462239087 0.341303259
0.165338099 0.471979707 0.297660083
0.182163447 0.475395262 0.293358535
0.222137734 0.479190469 0.301581085
0.285135984 0.486274362 0.309803635
0.356483042 0.493358463 0.317267388
0.436432719 0.506261826 0.332447737
0.537001669 0.530297399 0.362934798
0.663124561 0.573434293 0.406577826
0.236306176 0.614421368 0.368627459
0.255408049 0.618342996 0.376343817
0.294244349 0.620240450 0.380518556
0.353573620 0.625300050 0.395319372
0.427071542 0.636685729 0.407084167
0.512207031 0.647564530 0.427577287
0.607336819 0.665654719 0.456166834
0.711827755 0.696900666 0.503352344
0.416571558 0.778367817 0.529664695
0.432510883 0.782036543 0.526881635
0.460594684 0.784439862 0.531941593
0.505629301 0.788235307 0.543832839
0.562175930 0.793421686 0.560404599
0.629095554 0.799240887 0.567488849
0.704364300 0.809360981 0.598861277
0.785578549 0.824794471 0.626818538
0.088551998 0.065021999 0.169259995
0.105882093 0.075648353 0.172422186
0.139911547 0.090955094 0.181024998
0.179380000 0.107020639 0.186084643
0.242125094 0.131309345 0.211132437
0.318026364 0.154838741 0.237697735
0.409234643 0.183301702 0.260088563
0.552941144 0.214674175 0.294496983
0.104870357 0.105755992 0.186211362
0.113978639 0.108538635 0.175837725
0.143073633 0.117140733 0.183681533
0.182922438 0.130044192 0.198229089
0.241240084 0.152814895 0.222137824
0.320050657 0.173055097 0.239342436
0.421252280 0.201644629 0.267425835
0.557115495 0.236179829 0.303352535
0.116508551 0.159899101 0.198608547
0.128146544 0.165717646 0.198102176
0.164326355 0.168374091 0.219481081
0.203415647 0.182922557 0.223655730
0.262112558 0.199367642 0.238963082
0.330929726 0.222137734 0.258190840
0.435673743 0.249968290 0.281214297
0.577735603 0.279696077 0.316381872
0.125489995 0.236559272 0.238203987
0.128020450 0.244402274 0.230234176
0.173181176 0.252245277 0.243263632
0.222011641 0.263503909 0.256166995
0.280328989 0.274889261 0.264389813
0.356736034 0.295635730 0.280455381
0.464263260 0.323466271 0.306135297
0.596331537 0.366476983 0.346742451
0.139152452 0.336875200 0.274383217
0.158001348 0.342694551 0.280834824
0.186464295 0.352561295 0.287539184
0.238962978 0.354838580 0.292219996
0.307020992 0.365718186 0.296394825
0.388488293 0.384060949 0.318785191
0.495003074 0.418089658 0.347374886
0.632131219 0.462998211 0.385578811
0.153194353 0.475268841 0.335736752
0.175078824 0.477798998 0.344212651
0.220114097 0.481720477 0.344971746
0.280708730 0.487918973 0.350537628
0.359772116 0.497406483 0.364959002
0.436938554 0.510309815 0.377609104
0.543326497 0.535357296 0.402403474
0.666666746 0.577988327 0.448956281
0.230107620 0.617836535 0.418848574
0.251106977 0.619481564 0.416824996
0.288678169 0.623023093 0.421631902
0.352182269 0.632384658 0.427197933
0.426565468 0.640986919 0.446173459
0.513345659 0.650348008 0.460594624
0.599999905 0.665528536 0.486780554
0.715243280 0.696647584 0.533080220
0.411385208 0.778494775 0.551549554
0.426818579 0.787476122 0.550284386
0.453510582 0.787602961 0.556736112
0.501834035 0.790259361 0.570145428
0.556989014 0.791524231 0.579253316
0.627450883 0.799620450 0.591271460
0.704490662 0.810499609 0.621378899
0.790512085 0.825047433 0.648829758
0.092599809 0.081467383 0.231119186
0.106640995 0.084630191 0.231878176
0.140290990 0.093991093 0.239721894
0.183681443 0.113978639 0.247058824
0.242884189 0.137002185 0.264642566
0.311321735 0.160151541 0.285895169
0.413409352 0.188868001 0.317900062
0.554206312 0.214674175 0.370018810
0.099556997 0.117520384 0.236685723
0.116761185 0.119544543 0.244402379
0.147754535 0.126502544 0.243137628
0.186464190 0.143453196 0.256926179
0.241999179 0.156356543 0.269829631
0.317267358 0.179380178 0.292852283
0.418469191 0.209614456 0.330929846
0.563061357 0.233776018 0.374699503
0.115369909 0.171537101 0.262365460
0.123592444 0.177482635 0.267173082
0.156736091 0.181024998 0.273371190
0.204933539 0.193168744 0.279316753
0.258444101 0.205313087 0.289057165
0.335610658 0.220493451 0.312966526
0.439215660 0.250727177 0.345477372
0.574825943 0.282352746 0.385072649
0.122960165 0.243896440 0.298165649
0.137381092 0.246299729 0.294117630
0.167741895 0.255281359 0.299557626
0.214548096 0.266287267 0.306514829
0.278304696 0.275648177 0.321948141
0.355724096 0.297660083 0.340290934
0.465022266 0.321568549 0.364832282
0.605945408 0.354712248 0.401770979
0.123086803 0.337634385 0.324984372
0.151423007 0.345097810 0.337254733
0.187349811 0.354965091 0.341555983
0.242504820 0.362302631 0.353320360
0.310183376 0.377482533 0.364199996
0.398987710 0.393548638 0.377862096
0.504870355 0.418216199 0.398482084
0.634535015 0.454775542 0.441872209
0.153194457 0.473245203 0.401011974
0.170904174 0.480581909 0.399494171
0.216192186 0.481593996 0.408096164
0.280455202 0.491460830 0.410879016
0.355471194 0.506388664 0.421758652
0.440354198 0.511448264 0.432258397
0.550031781 0.535610199 0.459962100
0.674509645 0.579127014 0.497153819
0.219101995 0.619354606 0.460341632
0.238077015 0.623529375 0.474509537
0.280076176 0.628969312 0.472865373
0.339531660 0.632890284 0.479949355
0.424794644 0.639848292 0.493232459
0.509930253 0.649588823 0.506893992
0.608096123 0.669449866 0.533839405
0.720176876 0.701581299 0.575585067
0.389879584 0.779632747 0.588741183
0.413409233 0.783680975 0.593168795
0.442251772 0.786084771 0.593674839
0.492093444 0.789626896 0.603289008
0.552055478 0.794180810 0.607969940
0.625300288 0.801644444 0.622770250
0.707653522 0.815306604 0.648829818
0.786464214 0.828083396 0.673244596
0.086274996 0.092093736 0.317140967
0.105123192 0.096015260 0.316761523
0.143453091 0.109297730 0.327007741
0.194686741 0.120683089 0.330803216
0.255028635 0.142188638 0.345351011
0.326881707 0.164453000 0.360151470
0.415307015 0.189120546 0.390765280
0.558507204 0.218975246 0.446173549
0.089563809 0.124984249 0.319797724
0.109677263 0.129032269 0.321821451
0.141935110 0.133206800 0.329285026
0.194307193 0.147248387 0.339785069
0.256293535 0.162555352 0.346742272
0.331309289 0.183301806 0.366856724
0.427071542 0.209487543 0.403415293
0.573687375 0.236052990 0.452751398
0.094371006 0.184187099 0.340796828
0.109930195 0.183681548 0.341935277
0.149778724 0.189879835 0.350790530
0.203668371 0.195066184 0.359013110
0.266919643 0.210373446 0.365970790
0.342947364 0.229221836 0.380897909
0.437823981 0.251865625 0.410500020
0.584313810 0.283870846 0.460720897
0.095509358 0.254775643 0.371410638
0.116255708 0.260341823 0.369386375
0.152435258 0.263883471 0.376217812
0.213915378 0.272991627 0.384819746
0.287413180 0.286274433 0.400379837
0.365338624 0.298798531 0.411511719
0.470209032 0.324730814 0.441619366
0.615686297 0.362681776 0.490954965
0.105629452 0.349146366 0.404553741
0.122454002 0.353067547 0.411764473
0.167362452 0.362682194 0.412523538
0.229980826 0.369006991 0.422137976
0.305755913 0.379379928 0.432004720
0.403289169 0.395825446 0.453004539
0.511322081 0.419354707 0.477545589
0.641366005 0.457305461 0.510815918
0.137127981 0.475774735 0.462238997
0.159898818 0.476533711 0.469829470
0.205313101 0.483491719 0.471600473
0.267046273 0.492599368 0.471853226
0.351676196 0.500822008 0.491081297
0.452118725 0.514863729 0.503099203
0.557115734 0.539278746 0.521568477
0.676154494 0.572042763 0.552814543
0.213029817 0.625173807 0.536748707
0.227198020 0.618216276 0.533712804
0.269829184 0.624920607 0.541176260
0.337128252 0.633523226 0.549272835
0.422517359 0.645034850 0.561796248
0.516635180 0.656925857 0.571663260
0.616192579 0.674636066 0.594054043
0.731688797 0.705629349 0.629474759
0.385325581 0.775711417 0.639342248
0.404300600 0.784060538 0.634661674
0.429348677 0.780898094 0.641366303
0.475521803 0.784693360 0.643263817
0.538266540 0.791777313 0.649462342
0.616698503 0.797216654 0.664263248
0.705629349 0.814800799 0.687918901
0.795319557 0.828209758 0.712586701
0.053004429 0.104870282 0.447564542
0.085136257 0.108538732 0.448956281
0.138646096 0.116887905 0.447691470
0.207463562 0.132194653 0.457052261
0.280328989 0.148260906 0.468058348
0.365212023 0.168121457 0.480581850
0.459329575 0.190512285 0.499177545
0.573308051 0.221378535 0.534345090
0.046046726 0.136748835 0.446046859
0.087539718 0.140796840 0.455407530
0.135989845 0.148134187 0.456925720
0.209108278 0.156356737 0.467931837
0.288045287 0.169639647 0.477672160
0.372928411 0.189247549 0.494370610
0.473750800 0.214168549 0.511448085
0.586084604 0.243896410 0.533839464
0.022770440 0.190385804 0.465654552
0.064136550 0.193168640 0.466666818
0.131815389 0.198861375 0.464642853
0.209487826 0.207210734 0.477925301
0.289690167 0.221631899 0.489184201
0.378747761 0.238963082 0.502340555
0.480328649 0.260721177 0.524225533
0.593168914 0.290575445 0.549398839
0.001138644 0.275268614 0.493990958
0.025680095 0.267046392 0.493485212
0.123212807 0.277672440 0.498292029
0.210119992 0.283111930 0.502972901
0.301455081 0.296900898 0.519417882
0.399367273 0.313725352 0.530803323
0.500822246 0.334724903 0.548386931
0.620746315 0.364199996 0.574826241
0.003162710 0.378874093 0.522074521
0.026818544 0.378747761 0.523339629
0.120176904 0.376470476 0.526881576
0.209361285 0.381783634 0.536242485
0.315496445 0.388361573 0.547248483
0.416824698 0.406704634 0.559772134
0.525110602 0.428969294 0.574699461
0.650474489 0.463883728 0.604933619
0.058823608 0.497659922 0.567236006
0.098545462 0.502340019 0.566223860
0.170904294 0.502340198 0.572422564
0.250600994 0.503858268 0.576723754
0.343580186 0.513219535 0.581277788
0.448703229 0.523086727 0.595445991
0.562428832 0.545350969 0.614674449
0.687412918 0.575838268 0.644781768
0.208349556 0.633523285 0.625300527
0.222517267 0.631878495 0.611258864
0.271220833 0.635800540 0.620999336
0.337128252 0.639721811 0.625173926
0.419354439 0.650727272 0.636559486
0.520177186 0.664769232 0.651992261
0.628589571 0.689057291 0.677292883
0.743579626 0.708791912 0.698039293
0.394054413 0.775078714 0.700189769
0.396711051 0.781530440 0.699177623
0.422011465 0.784313798 0.695509076
0.473371208 0.787223160 0.705882370
0.538899362 0.794180810 0.717140675
0.611511707 0.808981478 0.721948028
0.703985035 0.818089783 0.739531755
0.808728874 0.837191582 0.773307860
0.002656833 0.115116984 0.632004738
0.006578023 0.119418114 0.627324283
0.120936021 0.124984249 0.630739570
0.222643808 0.131941631 0.637318432
0.322327554 0.150410995 0.647564888
0.424414814 0.173560828 0.656166792
0.536369085 0.201644450 0.670461714
0.649082720 0.236811802 0.682985425
0.000379548 0.146742821 0.635041118
0.007084001 0.145097718 0.640986562
0.117393970 0.147248372 0.640986919
0.223529533 0.164452896 0.645920396
0.323845655 0.179380268 0.650727153
0.430739909 0.200126633 0.662365496
0.537507594 0.227703974 0.676154315
0.651486158 0.262871325 0.686274409
0.002024263 0.202656269 0.643263519
0.001644715 0.208349377 0.641366124
0.090069294 0.210499942 0.648576736
0.214547992 0.219734251 0.651106894
0.324731380 0.234535113 0.655787587
0.434282362 0.252877980 0.669449508
0.543073833 0.279190242 0.683238566
0.660847425 0.309550792 0.696900487
0.001265167 0.285642177 0.654142737
0.003415538 0.287412792 0.657178998
0.020113859 0.290195823 0.656420112
0.206072286 0.302593619 0.670208633
0.325363547 0.316761434 0.675774932
0.439848363 0.330803275 0.682605684
0.553952932 0.357748151 0.695508957
0.672991514 0.387855798 0.711701632
0.001138640 0.400000364 0.678431451
0.000000000 0.398988217 0.682352781
0.002277101 0.396078348 0.683617949
0.180265635 0.397849381 0.686400592
0.322580576 0.410246551 0.684503257
0.448829710 0.428842634 0.699810386
0.573308051 0.452371836 0.713219404
0.686147988 0.483237982 0.721441984
0.000000000 0.541176379 0.708918452
0.004933637 0.537381053 0.712713242
0.109424353 0.530929685 0.712966323
0.232637659 0.535104275 0.713092685
0.338393092 0.532827020 0.716255307
0.465907604 0.542567551 0.728526175
0.593295395 0.565717876 0.736369371
0.713472307 0.593042195 0.749145746
0.229348361 0.675268829 0.749652028
0.247311831 0.680202246 0.748766422
0.292726070 0.674003661 0.750284553
0.354965299 0.680076063 0.752181888
0.433776289 0.681973279 0.757495046
0.535230577 0.686147749 0.764073253
0.638203621 0.695382535 0.771283925
0.754712164 0.716761053 0.787223160
0.404807389 0.804553747 0.780771792
0.420746118 0.799746990 0.794939876
0.443010569 0.801770568 0.792536616
0.488931030 0.800632417 0.788741171
0.543959439 0.808854997 0.800885379
0.623782337 0.816318750 0.805059731
0.713092864 0.832510591 0.823782265
0.816445231 0.845034599 0.838456810
