Assets/Shaders/EldamarStudio/100 Sci-Fi LUTs Pack/LUTs/cube/Nilneya LUT.cube
LUT_3D_SIZE 5
DOMAIN_MIN 0.000000 0.000000 0.000000
DOMAIN_MAX 0.903226 0.903226 0.903226
0.082353003 0.043136999 0.047059000
0.132067993 0.066033997 0.068311289
0.213788569 0.097406581 0.096773997
0.333586246 0.151043996 0.139278993
0.553446949 0.222390980 0.197469994
0.105881996 0.137001693 0.104616992
0.142188713 0.145477697 0.101327993
0.226565689 0.168374285 0.126502290
0.357115984 0.213155985 0.166097254
0.577355683 0.276660532 0.223023564
0.132700577 0.290322810 0.160784006
0.173940405 0.297533393 0.177862406
0.266160429 0.315243810 0.200759411
0.396331251 0.344339103 0.218089849
0.617583573 0.414041370 0.281973392
0.179506868 0.507274151 0.265781134
0.234534949 0.525489986 0.280961543
0.335863113 0.533080399 0.293358862
0.486527234 0.548387110 0.327640980
0.676533759 0.609867096 0.399494112
0.429474741 0.786211610 0.510436416
0.465781271 0.796331286 0.523845434
0.539785028 0.797849476 0.535230756
0.656546712 0.809361100 0.564958870
0.791524589 0.824035585 0.617710412
0.090829000 0.054901998 0.104616992
0.128778994 0.076154292 0.120303407
0.210246697 0.111827984 0.141555712
0.332574129 0.165717870 0.184693128
0.551170051 0.218089864 0.241619274
0.112080708 0.137634695 0.138266712
0.142188698 0.153320700 0.149398699
0.220366567 0.173307985 0.170018986
0.344971538 0.214800701 0.198102400
0.565591395 0.275015831 0.253383875
0.140543580 0.279822975 0.203289002
0.174193710 0.292978972 0.210499987
0.257305682 0.309297979 0.225933120
0.393421710 0.344339103 0.252751261
0.611005604 0.410752803 0.310056955
0.180518419 0.501075387 0.302213848
0.221126005 0.513093114 0.310689420
0.333333075 0.526881576 0.321568519
0.476154417 0.542188644 0.347628117
0.673497856 0.603036225 0.420999110
0.418089688 0.780898035 0.518279612
0.453510433 0.785452187 0.530423701
0.534598589 0.794307292 0.548892558
0.648323894 0.804806828 0.573307991
0.785325527 0.825047433 0.623529434
0.094117999 0.073877417 0.196837410
0.132067993 0.089563578 0.205692679
0.209234834 0.119671412 0.219733983
0.335230708 0.166729569 0.273371398
0.551549196 0.210499838 0.332953542
0.109803997 0.148766279 0.222643703
0.143832982 0.155597985 0.229221687
0.223276287 0.181783408 0.249462277
0.346615821 0.214801118 0.282226533
0.571789563 0.263883531 0.342061818
0.125489995 0.285135955 0.271347404
0.161796287 0.295256078 0.287792355
0.263504416 0.317141384 0.314611226
0.402276993 0.343959391 0.333839089
0.613029838 0.406198353 0.392536610
0.161290541 0.501328111 0.373181134
0.212903112 0.510816276 0.382289976
0.323466271 0.523845255 0.396331221
0.472359419 0.545477271 0.420619667
0.679316878 0.605692685 0.487033516
0.391524434 0.778874218 0.569133639
0.440480590 0.783807456 0.574699521
0.520177186 0.787349641 0.579506636
0.643137217 0.805818737 0.612397432
0.792915583 0.831372142 0.660847545
0.083238870 0.096141994 0.344465375
0.131056130 0.109803997 0.350284398
0.228589684 0.131056130 0.364706099
0.355218232 0.172548994 0.389500111
0.559772491 0.218468979 0.462871909
0.079949461 0.167994842 0.364579529
0.140923545 0.176470414 0.371536821
0.238330275 0.192536280 0.383680940
0.366982967 0.223655820 0.408222258
0.577735603 0.270714819 0.475648046
0.075268723 0.310942262 0.408096254
0.141808987 0.312966555 0.420619816
0.258697093 0.324351817 0.436938822
0.407590240 0.346363097 0.456293523
0.624794424 0.398988217 0.518785238
0.141176000 0.510183275 0.494623244
0.196204826 0.517647028 0.497153848
0.318912238 0.529791296 0.515116990
0.491587341 0.557368577 0.544592083
0.687792659 0.603415489 0.587728918
0.380518407 0.777988434 0.654775620
0.420240164 0.785199165 0.654775381
0.506135285 0.792030156 0.662618637
0.633396447 0.803289056 0.683238447
0.798102379 0.829727888 0.725490153
0.002656833 0.115116984 0.632004738
0.090828590 0.123466007 0.630739570
0.268817216 0.142567828 0.639848471
0.452498347 0.181151152 0.661732733
0.649082720 0.236811802 0.682985425
0.000000000 0.183428109 0.636685610
0.058950063 0.191271529 0.646046877
0.270840973 0.209613949 0.648703337
0.459329635 0.243263990 0.668943763
0.655281305 0.294117510 0.693105340
0.000000000 0.335610211 0.666034400
0.000632584 0.336242974 0.670967698
0.258949965 0.349272788 0.676407635
0.470841348 0.384313673 0.693105459
0.681087971 0.427198201 0.719670713
0.023276364 0.577609241 0.719291747
0.137507945 0.573434412 0.724098802
0.308412224 0.570145547 0.718911767
0.508665323 0.579253316 0.736875474
0.721315563 0.621125758 0.755217910
0.404807389 0.804553747 0.780771792
0.436179399 0.801011860 0.785958171
0.517773151 0.804553747 0.796837389
0.645793557 0.819607556 0.809361100
0.816445231 0.845034599 0.838456810
