Assets/Shaders/EldamarStudio/100 Sci-Fi LUTs Pack/LUTs/cube/Paige LUT.cube
DOMAIN_MIN 0 0 0
DOMAIN_MAX 1 1 1
LUT_3D_SIZE 32
0.054901998 0.000000000 0.000000000
0.057938386 0.000000000 0.000000000
0.065275222 0.000000000 0.002150774
0.073118001 0.001265161 0.006452000
0.079569548 0.004681000 0.012144452
0.088677935 0.010753000 0.015180064
0.100315996 0.016825000 0.023276320
0.114104696 0.021252289 0.030739997
0.128525987 0.024288097 0.035294000
0.140670002 0.027324487 0.035294000
0.149904877 0.033269998 0.035294000
0.161036998 0.039341994 0.041366253
0.174319640 0.046552639 0.048197355
0.189247057 0.055407997 0.051739033
0.201391831 0.061479993 0.060847409
0.213535994 0.067551993 0.065148801
0.227198184 0.075142190 0.072738998
0.243010983 0.083617993 0.082985580
0.261227012 0.089690015 0.086021975
0.273877025 0.098545365 0.089057647
0.289816469 0.107653253 0.097785987
0.309045136 0.117773250 0.108918123
0.330297500 0.129791468 0.118026502
0.351549894 0.138899103 0.127134904
0.375078976 0.150284573 0.136242703
0.402150303 0.158254325 0.143959343
0.432511151 0.163314074 0.150031999
0.462871879 0.178494439 0.156103998
0.498544902 0.193674803 0.167488977
0.538519323 0.205313206 0.181404173
0.581909776 0.213535994 0.195698977
0.627451003 0.219607994 0.207843006
0.057938386 0.003036387 0.003036387
0.060973998 0.006072000 0.003036387
0.061859611 0.012523774 0.007337387
0.072106324 0.013915226 0.008728839
0.084503770 0.013788612 0.010246612
0.085642323 0.019860614 0.021252066
0.099810064 0.023402935 0.026818644
0.114104696 0.027324710 0.030487388
0.127767086 0.030360678 0.032258388
0.137634397 0.033396490 0.032258395
0.152688250 0.042251870 0.040986516
0.162049130 0.046426129 0.041366000
0.173181280 0.052624643 0.047438253
0.186464414 0.061479997 0.054522384
0.201391831 0.067551993 0.060847409
0.211132184 0.073623993 0.067551993
0.227197781 0.079696380 0.072738610
0.244781762 0.087286793 0.081214182
0.258191407 0.095762014 0.089057587
0.270841420 0.107400008 0.094876617
0.288678139 0.116761349 0.100062989
0.309045136 0.125869513 0.109930255
0.330297500 0.135863498 0.121062860
0.351549894 0.144971877 0.130170524
0.377356261 0.154079482 0.139278904
0.403795034 0.164073288 0.148387060
0.432005078 0.171410456 0.155597940
0.459835500 0.181530833 0.159139618
0.498165369 0.191397533 0.173181430
0.534977317 0.207589999 0.183934197
0.576723158 0.221378967 0.197469965
0.624414623 0.231751993 0.213914990
0.054522451 0.018975774 0.006072226
0.061859611 0.019861162 0.014674226
0.069196776 0.020746548 0.014674226
0.072991937 0.026059775 0.016951388
0.086274996 0.025426999 0.015812773
0.086274996 0.033269770 0.027956773
0.098924674 0.036812097 0.026438870
0.112460412 0.038203772 0.030866934
0.125616670 0.040733904 0.032891002
0.134724721 0.043769520 0.035674009
0.151802868 0.048323870 0.044402126
0.166983247 0.057432253 0.049462255
0.174066901 0.060720902 0.050727416
0.183175221 0.067805037 0.057558771
0.196457863 0.075774774 0.063630767
0.213282958 0.079696544 0.071852997
0.222390965 0.085768551 0.074889004
0.241113320 0.092473410 0.079696156
0.257811964 0.101581044 0.087286748
0.272106230 0.111321785 0.093611777
0.288045704 0.119670764 0.101581022
0.309045136 0.128526121 0.108918123
0.330423981 0.137760982 0.120050721
0.353700131 0.148893133 0.133206874
0.375205487 0.155850708 0.140164286
0.403921515 0.164958671 0.146489680
0.432005078 0.174067065 0.154079944
0.459329426 0.183175445 0.160404548
0.495129555 0.198734909 0.176217586
0.538139820 0.207842961 0.187855527
0.576596797 0.224035591 0.197849438
0.621378779 0.237444773 0.213535771
0.056040321 0.038962997 0.011638161
0.062618382 0.037697840 0.021252163
0.067931615 0.037697840 0.027324161
0.078305162 0.040228158 0.027324161
0.087413445 0.039848611 0.024288548
0.090069838 0.045414224 0.032005161
0.101454675 0.050727319 0.031499162
0.113725252 0.053384159 0.031625707
0.125869840 0.054902159 0.035420999
0.135483518 0.058443841 0.041493006
0.148260757 0.060215030 0.047944129
0.161922932 0.064769089 0.054269418
0.178241968 0.072739124 0.058444157
0.182922199 0.076154321 0.062112965
0.196078315 0.084250577 0.069196835
0.210499600 0.088551648 0.076407507
0.225427032 0.093105830 0.078431003
0.237065390 0.099810407 0.080961145
0.258317828 0.108918205 0.088298939
0.274003834 0.118026525 0.094371006
0.291081309 0.125237152 0.102340251
0.307274103 0.131309152 0.111448124
0.327893972 0.140290976 0.120682985
0.352182001 0.152435005 0.134724751
0.375458449 0.160025001 0.143074170
0.399620295 0.167488664 0.150284514
0.429981142 0.176597059 0.152308896
0.458064586 0.185705438 0.158380702
0.492093593 0.200252965 0.176723644
0.531309068 0.216951355 0.187096760
0.575964153 0.226059526 0.198861212
0.615812838 0.240480840 0.211765006
0.067046449 0.056419998 0.020746548
0.070082158 0.054142710 0.026439000
0.070967548 0.053257097 0.031751998
0.075648323 0.055028323 0.036432546
0.088172443 0.060721450 0.035673548
0.097280063 0.057685062 0.032637935
0.108158998 0.061479997 0.032511450
0.118279248 0.065907702 0.035420995
0.128525987 0.068943992 0.041492999
0.140670002 0.075015999 0.047565002
0.147754744 0.076027997 0.050727226
0.155850738 0.078051835 0.055787511
0.167994753 0.081846736 0.061100997
0.185452491 0.087666474 0.067172997
0.200379863 0.093611993 0.076154120
0.212776989 0.098418735 0.082479514
0.225679994 0.102593087 0.084377162
0.239342093 0.108918115 0.081720144
0.260594547 0.118026525 0.093864940
0.276280820 0.127514347 0.100443006
0.292979002 0.133965999 0.108032800
0.310309708 0.140417546 0.117140673
0.322960436 0.146489546 0.126122534
0.347248554 0.158127561 0.137760550
0.371537000 0.166476548 0.145730570
0.397217065 0.174319655 0.152435303
0.424668133 0.183428064 0.161416516
0.455028892 0.192536443 0.158380911
0.488425195 0.204300970 0.174699783
0.525363684 0.218848854 0.186084762
0.565338194 0.235167921 0.193548203
0.607842982 0.244275555 0.211765006
0.070082061 0.068563998 0.029854935
0.073118448 0.071600385 0.032890547
0.074003935 0.071473867 0.034281999
0.077799097 0.071473867 0.039089162
0.088172443 0.072865449 0.044781934
0.103352062 0.075901061 0.038709935
0.109930001 0.075395003 0.040733676
0.117014416 0.078051709 0.043263771
0.125869840 0.080329001 0.047564998
0.140670016 0.081088006 0.053637002
0.152814746 0.087159991 0.056799870
0.161922738 0.090196252 0.061859868
0.173307642 0.093232222 0.065655001
0.188488096 0.096774094 0.067172997
0.197596475 0.099810481 0.073244996
0.207716867 0.110562995 0.077419132
0.221884996 0.116635121 0.083997324
0.239089131 0.120809861 0.090575501
0.257558912 0.127134904 0.099936947
0.273244590 0.139025941 0.106515005
0.288424790 0.143074006 0.112586997
0.306135118 0.147122130 0.120177060
0.325996071 0.155597925 0.129158929
0.350284874 0.161669940 0.135230944
0.374572903 0.173307940 0.144592226
0.400252700 0.184439912 0.150411323
0.427577257 0.195572078 0.155976996
0.455028892 0.204680443 0.167488515
0.490701944 0.216444969 0.172422722
0.528399646 0.226818204 0.182795748
0.567868531 0.239215657 0.193548203
0.607842982 0.253383934 0.211765006
0.073118322 0.088298321 0.044022676
0.081214704 0.088804387 0.047058932
0.082100317 0.089690000 0.047944319
0.084630318 0.090955161 0.046679158
0.092093997 0.092220321 0.049968224
0.100822382 0.093105704 0.050347999
0.110941999 0.096141316 0.051866323
0.120303407 0.096141316 0.053257644
0.128905907 0.098292090 0.056167319
0.140543520 0.100063324 0.062239327
0.150284424 0.103352003 0.067931868
0.162428662 0.107400253 0.072991990
0.175458282 0.111574993 0.077925645
0.191524357 0.116255313 0.079823315
0.200632736 0.121568412 0.085895315
0.216951311 0.127007991 0.089563511
0.230992988 0.134345189 0.095635511
0.248576552 0.138013989 0.103478737
0.264895648 0.144086018 0.108791649
0.280328989 0.153194338 0.115117326
0.297406316 0.161543325 0.119291574
0.314231247 0.164832309 0.124730997
0.333839297 0.172295988 0.132068187
0.353320479 0.178368002 0.135737002
0.379885942 0.186717287 0.148640275
0.407210290 0.197216988 0.158254310
0.436685383 0.208222643 0.165591061
0.468057990 0.219354764 0.179759309
0.500822604 0.228589624 0.184060663
0.535483778 0.238962382 0.193674967
0.576091170 0.253383785 0.201770931
0.620493293 0.275142640 0.211765006
0.079443701 0.107906409 0.052624710
0.083618388 0.106261700 0.055661093
0.087919287 0.107906409 0.061479993
0.092979282 0.107906409 0.060215153
0.099430829 0.109804153 0.057178866
0.104237996 0.108538993 0.057684928
0.114484377 0.114358082 0.060721315
0.118658699 0.115749404 0.065401994
0.130044371 0.115749404 0.066160895
0.139152229 0.117900178 0.071347289
0.153193876 0.122580536 0.075774997
0.161036998 0.125616252 0.076913290
0.174319640 0.127513990 0.082985580
0.191524342 0.132827029 0.086527966
0.202024415 0.140290692 0.091208287
0.216698274 0.143073693 0.096521191
0.234914660 0.149145693 0.101074994
0.252498269 0.154206142 0.110689431
0.267678708 0.162302420 0.116761446
0.281214386 0.164579362 0.117647007
0.301580995 0.173434690 0.123466253
0.319797248 0.180518568 0.129538000
0.338266969 0.187223017 0.136875018
0.359519005 0.193295419 0.141429603
0.384566694 0.201644272 0.150284559
0.411891043 0.212144315 0.161290273
0.442504764 0.220999703 0.170145065
0.475901097 0.230866686 0.183048442
0.510942459 0.243643522 0.194180831
0.545983791 0.252751440 0.204174668
0.583807826 0.263630271 0.214547694
0.632384717 0.287919283 0.218342990
0.087033898 0.125363901 0.058697093
0.087033898 0.123086609 0.060215291
0.089943230 0.123592675 0.066034317
0.093737997 0.125363901 0.070841163
0.106261544 0.125743449 0.068944000
0.110815927 0.123466164 0.067046158
0.120683089 0.128273323 0.069070414
0.126249090 0.132448003 0.070714906
0.128525987 0.133965999 0.076787099
0.137634397 0.133965999 0.079822719
0.154712006 0.138266996 0.083617970
0.167109087 0.142314941 0.083364941
0.175078735 0.145730197 0.083744287
0.190259129 0.145730197 0.089310996
0.202909827 0.153320506 0.091840677
0.216698274 0.157495201 0.098038994
0.232637376 0.159772083 0.103352092
0.250853986 0.165211663 0.110056661
0.266160935 0.176976934 0.122074932
0.279317021 0.179000735 0.124098733
0.298292071 0.182036832 0.125996187
0.320556164 0.190386072 0.131815091
0.338899404 0.199493676 0.143706083
0.362555027 0.206198722 0.149778709
0.388361752 0.214547798 0.158127800
0.415686518 0.223529220 0.165085182
0.444022954 0.235674024 0.172169179
0.477419317 0.242252082 0.181530535
0.514231563 0.255534798 0.194433898
0.550664306 0.269449830 0.208855182
0.591398001 0.278810680 0.222138077
0.639974892 0.293991089 0.228210092
0.090069517 0.140543535 0.073877499
0.090069525 0.140543535 0.070841111
0.094370529 0.140417010 0.072359301
0.097786009 0.140543535 0.074383490
0.100189552 0.140923083 0.075016007
0.115369931 0.143959463 0.081088006
0.124984317 0.144212499 0.084250808
0.129285485 0.144592017 0.082353078
0.131562397 0.146110013 0.079822727
0.140670016 0.152182013 0.085895501
0.155597389 0.152182013 0.091840975
0.170904249 0.154459283 0.093738489
0.183428124 0.158633992 0.095888972
0.193295524 0.163946986 0.101455010
0.208475903 0.163946986 0.101455010
0.221125990 0.171537295 0.108791679
0.234914675 0.177229777 0.114737198
0.250853986 0.180392072 0.119165055
0.269070029 0.183428466 0.128273472
0.284376889 0.195193008 0.140291005
0.303225756 0.201012239 0.146110222
0.323592484 0.205313504 0.149272829
0.341935009 0.211638466 0.152814478
0.363187432 0.220746085 0.158886492
0.386843562 0.229727820 0.167235792
0.412650138 0.237444490 0.173561156
0.440986574 0.244781658 0.178241953
0.474382907 0.256926417 0.190385953
0.513092935 0.268817455 0.199747309
0.550664306 0.284629911 0.210879445
0.591524482 0.299810082 0.222264588
0.643010497 0.309171468 0.231246486
0.093105868 0.158633739 0.094876871
0.101833999 0.155723870 0.094750352
0.101833999 0.157874644 0.087412961
0.105123162 0.157368571 0.083618000
0.107906416 0.156862423 0.082226545
0.118026800 0.164958805 0.095888875
0.128146544 0.162934542 0.096900873
0.135610119 0.162554994 0.099557281
0.141176313 0.163314089 0.098797865
0.152435258 0.167235866 0.100569099
0.158633739 0.170398742 0.103731990
0.169766128 0.172422484 0.105756000
0.183175221 0.175458640 0.108033001
0.196331158 0.179506838 0.113599002
0.211511537 0.182163000 0.113599002
0.221884936 0.184566811 0.118405998
0.236558989 0.194180995 0.127008051
0.253130704 0.200758874 0.133459851
0.269070029 0.201517969 0.140290961
0.281720728 0.204554364 0.141049996
0.300569117 0.214421123 0.148892999
0.320809394 0.220493391 0.152941257
0.339278847 0.226692349 0.155977353
0.363313913 0.235799968 0.159266010
0.386843562 0.242630854 0.165337995
0.411132306 0.252498329 0.173813790
0.437444866 0.262618750 0.181404114
0.468437403 0.274762899 0.193548113
0.509803593 0.278937817 0.208348930
0.545983255 0.292093575 0.219734535
0.583934009 0.309171200 0.229222253
0.631498992 0.324351877 0.234282121
0.096141741 0.172802001 0.108032733
0.103225611 0.177862108 0.101961002
0.105881996 0.181151018 0.103605211
0.108411998 0.179127082 0.099557146
0.112586834 0.175331801 0.096141696
0.120050937 0.181151181 0.101454668
0.131182939 0.184186921 0.108032733
0.138646260 0.182795241 0.109677441
0.144718260 0.183554336 0.111195154
0.154332727 0.186590731 0.109930001
0.164705724 0.189627111 0.114864118
0.172802001 0.194687247 0.115876250
0.183048740 0.196584508 0.115876250
0.196837038 0.198735207 0.120177254
0.208475411 0.201770827 0.123719253
0.228969052 0.204807058 0.132574245
0.239595249 0.207843050 0.137128443
0.256166816 0.215938985 0.143327251
0.271347255 0.215939000 0.146616265
0.285768718 0.222770348 0.149145991
0.297912985 0.225806728 0.152940989
0.318785399 0.234661371 0.156989008
0.338266969 0.241745740 0.159266248
0.362555027 0.248956606 0.166097358
0.390891552 0.257811248 0.173434511
0.416571617 0.265274912 0.180897817
0.443010896 0.276786983 0.190512121
0.474889487 0.288930982 0.202656507
0.511827588 0.299177557 0.213408798
0.552561522 0.309297889 0.225047201
0.587349713 0.323592454 0.236938715
0.629475236 0.339532256 0.243389994
0.099177644 0.195192918 0.117140643
0.106388003 0.200885668 0.112587020
0.110436283 0.205566272 0.112080865
0.112966284 0.208728760 0.113978148
0.118658736 0.200379372 0.115875989
0.123972222 0.201897576 0.112080701
0.132827356 0.204933599 0.115496285
0.143959641 0.207463279 0.118785352
0.150790542 0.208222374 0.122580640
0.157242000 0.211258769 0.120682806
0.169133291 0.213156506 0.125237092
0.178114891 0.215939626 0.128399998
0.189500287 0.220872998 0.129538640
0.201391250 0.220872998 0.129791602
0.210499406 0.223023206 0.134977981
0.228209957 0.227197796 0.142441630
0.247565001 0.230234087 0.148893192
0.260341555 0.233269855 0.152561992
0.275522023 0.233775929 0.153574005
0.291840702 0.240986645 0.156356633
0.308538973 0.248576730 0.161290288
0.323719114 0.251613110 0.167362288
0.344971478 0.260467768 0.167868286
0.368247658 0.267552435 0.175964549
0.394813210 0.274762988 0.181657284
0.424920917 0.283870637 0.191903949
0.453257352 0.293485135 0.200505644
0.486654311 0.305629253 0.211385235
0.522707224 0.318911910 0.220872790
0.562049210 0.331688434 0.233396187
0.602403820 0.346868843 0.246932179
0.639342666 0.359266639 0.260088265
0.102719970 0.232890993 0.126755029
0.111574680 0.233144030 0.129285350
0.118279517 0.232890993 0.132068217
0.123845972 0.233396992 0.134092033
0.129538491 0.233270481 0.135104060
0.132574096 0.230234087 0.129032061
0.138393000 0.231246278 0.129538313
0.147754416 0.234788314 0.130170956
0.159139901 0.237318128 0.131689027
0.168247521 0.240354523 0.137761027
0.180012703 0.240481034 0.140923157
0.188868001 0.240733996 0.143959299
0.198102608 0.241872430 0.147248641
0.213030025 0.244908035 0.150031999
0.222137630 0.244908035 0.153067619
0.236052796 0.249462068 0.155850813
0.250980198 0.254016191 0.157875001
0.266160578 0.257305622 0.158887029
0.281341016 0.260342002 0.164959043
0.299557030 0.265908003 0.168753684
0.319164723 0.273371309 0.173181430
0.340164155 0.280708164 0.178747952
0.361669511 0.284124017 0.184946463
0.383174926 0.293358922 0.191145003
0.407210588 0.300190002 0.193168998
0.434029281 0.308412403 0.198228985
0.464896083 0.317520171 0.209614038
0.498292416 0.329664946 0.215686023
0.534345567 0.344465852 0.224667817
0.574320316 0.358380973 0.239089012
0.616825163 0.371157587 0.257811159
0.659330010 0.386337996 0.282099992
0.111827567 0.251106977 0.141935408
0.117900342 0.254143357 0.138899013
0.122454055 0.252245635 0.139278576
0.124857575 0.253636986 0.141176164
0.126502126 0.257684976 0.145097956
0.129538476 0.257558435 0.159392804
0.137634099 0.249462068 0.150790483
0.147754416 0.252751261 0.144212276
0.159139901 0.257558495 0.140796766
0.168247506 0.255534887 0.146869406
0.177355871 0.255661398 0.150031537
0.191144839 0.257685125 0.153067678
0.203288987 0.260088623 0.157242417
0.216065630 0.263124794 0.162175998
0.228210405 0.266160399 0.162175998
0.242125005 0.268564194 0.162808418
0.255787373 0.272232622 0.166476995
0.269196987 0.275901109 0.170651570
0.284377396 0.281594366 0.174067423
0.305123061 0.284630030 0.182922065
0.321947694 0.288298696 0.185072407
0.339405239 0.293611825 0.186337575
0.358633906 0.299304396 0.187982082
0.385958344 0.311448425 0.197090492
0.414294958 0.318405956 0.203289002
0.441999018 0.330044299 0.208095983
0.470968068 0.344339222 0.215939060
0.504364431 0.350917280 0.224794403
0.540417612 0.365718216 0.236179382
0.580392361 0.382669330 0.251233399
0.622897208 0.397849381 0.266793191
0.665401995 0.410625994 0.279063582
0.111321807 0.271726787 0.145098001
0.117393970 0.269955575 0.149272412
0.123466201 0.270841181 0.150537580
0.129285157 0.273118138 0.154585436
0.133080259 0.278431237 0.158000991
0.136116132 0.272358984 0.154965132
0.141809285 0.276787072 0.161922678
0.152561605 0.272612393 0.159392715
0.163187996 0.277166605 0.156356499
0.170651317 0.275775254 0.160784140
0.184566677 0.278051972 0.163946912
0.191650793 0.278051972 0.166983053
0.204553992 0.279569775 0.167742148
0.216951028 0.281341016 0.170019001
0.231246024 0.284377158 0.174319997
0.248197779 0.289816588 0.176723793
0.258823603 0.291334778 0.175205603
0.270461977 0.292852610 0.178620979
0.287413210 0.295382917 0.183428153
0.303352445 0.303478628 0.187223464
0.328399509 0.310309738 0.194433808
0.347627908 0.314358115 0.196457937
0.367362469 0.319291770 0.197976083
0.390132904 0.331435800 0.202529907
0.415180534 0.339025795 0.204806998
0.445287943 0.349272430 0.210625991
0.475142330 0.364959061 0.218216062
0.510436416 0.372928768 0.231119439
0.548892796 0.384566814 0.250094771
0.580012798 0.397975951 0.253384024
0.622897148 0.414927185 0.269829571
0.671473980 0.430107594 0.288045585
0.112839997 0.294496983 0.154205993
0.118911989 0.291460991 0.157241985
0.126502186 0.290575385 0.159645572
0.130044192 0.293105394 0.162681967
0.138014004 0.300822198 0.171663180
0.142188251 0.295129448 0.168627173
0.147754446 0.295635641 0.164073378
0.154079810 0.298418999 0.165464714
0.165464908 0.299178094 0.168501094
0.172296003 0.299937189 0.171536893
0.184060872 0.299810320 0.171536863
0.197723180 0.302340388 0.176091060
0.207210541 0.303478748 0.177988797
0.219734043 0.303858191 0.175332025
0.233649597 0.305629402 0.177609190
0.249715596 0.308032960 0.182795808
0.266413778 0.314104974 0.188867807
0.273750961 0.314104974 0.186463997
0.290196210 0.314104974 0.190764993
0.305629164 0.319418043 0.192536160
0.325363517 0.328526139 0.197470188
0.350663930 0.337634265 0.203542188
0.372169316 0.341935486 0.207463980
0.396205097 0.352688193 0.214674294
0.419734359 0.360278159 0.215433195
0.444023103 0.369133145 0.219607860
0.474636257 0.383681118 0.226818368
0.510056853 0.393801630 0.240986630
0.549145758 0.407084376 0.253889799
0.589120388 0.419228345 0.268564045
0.622643948 0.432257980 0.269955993
0.676027775 0.449842185 0.294117987
0.118911989 0.318152547 0.171789557
0.125616565 0.315749377 0.171789557
0.131941766 0.314863980 0.171789557
0.139152572 0.317394137 0.171157166
0.139911562 0.322327584 0.174572989
0.145983577 0.322074562 0.186210990
0.152055576 0.322074562 0.183175310
0.158127576 0.322707146 0.178621262
0.164326087 0.322201073 0.175205499
0.173434466 0.325237453 0.178241894
0.183807850 0.323719263 0.176091120
0.195699245 0.325363815 0.179126993
0.211511925 0.327767491 0.182921991
0.226438567 0.330803096 0.183428049
0.238583237 0.331182539 0.181530967
0.251866221 0.331182539 0.184440553
0.267046392 0.333586127 0.190132961
0.282226145 0.339025527 0.197343156
0.294370949 0.339025527 0.197343156
0.310562819 0.341808885 0.199240565
0.328905314 0.348007709 0.202403456
0.350157708 0.355851024 0.208475977
0.371536583 0.364832133 0.214294985
0.398355693 0.373434454 0.224415004
0.423402965 0.381530523 0.229348570
0.450853854 0.391018093 0.234155655
0.476154536 0.403162122 0.243769988
0.509424388 0.415306866 0.255913973
0.547501326 0.429475367 0.264010131
0.586843312 0.443516910 0.273624092
0.628589153 0.456546575 0.286400765
0.677165985 0.471726984 0.298545539
0.124984011 0.339405030 0.186969995
0.134092376 0.339405030 0.186969995
0.136495978 0.339152068 0.186969995
0.141050175 0.341682404 0.184440002
0.149019971 0.346616447 0.180645034
0.155091971 0.343580067 0.186717033
0.161163986 0.343327016 0.190765351
0.167235985 0.344971716 0.192789316
0.173307970 0.346236914 0.193042040
0.179506510 0.343453526 0.187349543
0.194433883 0.346489906 0.187476054
0.205060288 0.351043999 0.191271037
0.218090028 0.354586005 0.195066035
0.235546976 0.355091959 0.195572093
0.247690976 0.358127564 0.201644853
0.257431865 0.358507007 0.202151000
0.270082265 0.360025197 0.202656999
0.285262585 0.363314420 0.203415960
0.300442994 0.366350025 0.203415960
0.320936412 0.369133383 0.211764589
0.339784980 0.374066979 0.216318727
0.359266132 0.379380167 0.220620021
0.380644977 0.383048981 0.226439029
0.404933810 0.389120996 0.226439029
0.429475009 0.400000036 0.234282315
0.460720986 0.413029671 0.244022980
0.497406989 0.427450985 0.255914032
0.527766943 0.439594954 0.268058032
0.563693583 0.451739699 0.280202687
0.598608136 0.465907753 0.291840911
0.633649290 0.480834633 0.304870546
0.671094060 0.496015072 0.319797993
0.131056011 0.388488084 0.204933733
0.134598389 0.385705441 0.204933733
0.141555995 0.385705441 0.207083955
0.146616161 0.385705441 0.208981529
0.154965460 0.387982726 0.207463741
0.158633649 0.387350172 0.203921735
0.167235956 0.386844099 0.207463399
0.173561007 0.388488382 0.210499734
0.180392087 0.391524494 0.212776721
0.188488364 0.392536610 0.210752726
0.208855227 0.389753222 0.210499719
0.222011358 0.388741672 0.212523460
0.234155655 0.391398102 0.215559363
0.249968410 0.393042386 0.215306401
0.259582728 0.393548310 0.213788837
0.274130523 0.396584570 0.219861001
0.287033528 0.398481905 0.220620006
0.302846164 0.400885403 0.221252590
0.320177406 0.401770800 0.223403364
0.335357755 0.410373122 0.226186022
0.356610119 0.409613997 0.233396366
0.377735704 0.413029641 0.238330007
0.400758862 0.418090224 0.244402021
0.422390819 0.426818401 0.249715716
0.448956281 0.435167670 0.254269719
0.477925003 0.445414394 0.260088712
0.513092756 0.457305729 0.268058121
0.543453336 0.469449729 0.280202717
0.581783772 0.484250546 0.292346716
0.620113790 0.500063300 0.308032930
0.659076273 0.517140925 0.324857593
0.701201379 0.534219086 0.343833029
0.133332998 0.415432990 0.213662252
0.138266653 0.418090135 0.221252739
0.149145991 0.417204738 0.229095697
0.151423156 0.417204738 0.224541306
0.158001453 0.417963743 0.223402992
0.164073050 0.420999706 0.220366985
0.168374315 0.422896981 0.219987407
0.179126993 0.422896981 0.223023444
0.188741192 0.425679803 0.226059631
0.201265231 0.428716213 0.227197990
0.214421123 0.427830607 0.229095727
0.229601726 0.426692009 0.227324471
0.244022727 0.424794734 0.231498733
0.259962022 0.427071422 0.233016729
0.272359401 0.428715736 0.231625408
0.288172036 0.429221809 0.233902723
0.303352416 0.430739999 0.239974722
0.319164872 0.434028864 0.241366297
0.337381691 0.436559200 0.244402692
0.352814615 0.439215839 0.243643373
0.369892716 0.444528729 0.250474483
0.391145110 0.444528461 0.253510356
0.414294720 0.450600982 0.256925732
0.433775902 0.457937807 0.262998074
0.463377744 0.465148747 0.270967990
