Assets/Shaders/EldamarStudio/100 Sci-Fi LUTs Pack/LUTs/cube/Paige LUT.cube
LUT_3D_SIZE 5
DOMAIN_MIN 0.000000 0.000000 0.000000
DOMAIN_MAX 0.903226 0.903226 0.903226
0.054901998 0.000000000 0.000000000
0.114104696 0.021252289 0.030739997
0.201391831 0.061479993 0.060847409
0.309045136 0.117773250 0.108918123
0.498544902 0.193674803 0.167488977
0.079443701 0.107906409 0.052624710
0.118658699 0.115749404 0.065401994
0.202024415 0.140290692 0.091208287
0.319797248 0.180518568 0.129538000
0.510942459 0.243643522 0.194180831
0.111827567 0.251106977 0.141935408
0.147754416 0.252751261 0.144212276
0.228210405 0.266160399 0.162175998
0.339405239 0.293611825 0.186337575
0.540417612 0.365718216 0.236179382
0.136369124 0.436685383 0.221758246
0.184187114 0.454269379 0.234155580
0.283238411 0.461479962 0.248197123
0.404301256 0.474889249 0.270714998
0.602909446 0.540290952 0.323086828
0.323592395 0.726122737 0.434661567
0.363693863 0.740417421 0.436812043
0.450980157 0.743706167 0.447691411
0.578747749 0.752940893 0.470588565
0.726249218 0.777102709 0.524857581
0.060468286 0.015686000 0.087286703
0.111827984 0.033017289 0.086653702
0.196204990 0.080455415 0.119038403
0.306388557 0.137001708 0.165085137
0.488425046 0.194560111 0.213282809
0.091840707 0.103984989 0.108538993
0.124224998 0.122959986 0.123592407
0.196204990 0.144845128 0.140291110
0.308286130 0.187349707 0.179506704
0.501201749 0.240354106 0.230866402
0.117647000 0.247817561 0.169006705
0.150031283 0.251739413 0.179126993
0.219354704 0.266160399 0.192915991
0.334471971 0.292978972 0.217710152
0.535863221 0.361669809 0.270208806
0.140543580 0.433649242 0.253130823
0.179885820 0.442125410 0.267173111
0.278304696 0.452625096 0.274383545
0.400632560 0.470335454 0.291713983
0.595066309 0.534977973 0.350663960
0.307147413 0.726375878 0.427577317
0.346236467 0.733586311 0.444275767
0.442125291 0.739152133 0.461732835
0.569259763 0.750284433 0.487159729
0.721948266 0.774446607 0.537634313
0.073877417 0.030740418 0.197469994
0.114105120 0.055281699 0.194560289
0.193547994 0.088298410 0.207337409
0.303478807 0.144591838 0.243263572
0.480202466 0.193548158 0.299556971
0.096773997 0.129158705 0.209614113
0.126881823 0.134092391 0.207969412
0.200379699 0.152688116 0.222644106
0.308665425 0.190259263 0.252118677
0.498165667 0.237065107 0.310942531
0.113724999 0.244528994 0.247817561
0.151675999 0.253763378 0.254396379
0.229475409 0.285135984 0.275900990
0.339785129 0.303478390 0.295635402
0.539152622 0.352561533 0.346742600
0.117647000 0.436305821 0.322074711
0.172928289 0.446805805 0.334471703
0.268184811 0.455534548 0.346615970
0.398734957 0.470968008 0.362428784
0.604174316 0.537381113 0.418975532
0.281593561 0.718912005 0.498039007
0.335483611 0.729032278 0.500695527
0.424668163 0.734598160 0.507021189
0.567362428 0.749019146 0.535230994
0.724351823 0.775837779 0.584439933
0.058823999 0.073624127 0.343453228
0.119038567 0.088931419 0.348387122
0.214547396 0.119038410 0.355218232
0.321821243 0.159898862 0.365085274
0.497279763 0.201138690 0.425932944
0.081720419 0.157242283 0.356483251
0.128778994 0.165085703 0.359772444
0.220366567 0.178874120 0.363061249
0.325743258 0.204047829 0.371157140
0.514990389 0.245920554 0.437318176
0.082226746 0.279570103 0.384946108
0.139152154 0.282859117 0.387476534
0.231498986 0.294623524 0.395698816
0.356230527 0.310056984 0.412523925
0.554206192 0.352182269 0.469702631
0.096900880 0.451360255 0.441619277
0.156609714 0.455787420 0.443137556
0.263504416 0.464769125 0.463377535
0.423023373 0.501455128 0.496521235
0.622896731 0.542947173 0.535483778
0.265654266 0.722833753 0.590765059
0.303858429 0.728146970 0.593042016
0.403542072 0.735863447 0.602150500
0.555976868 0.753320694 0.626818597
0.728526235 0.783681273 0.656546712
0.000000000 0.123086803 0.625679553
0.093105711 0.126628682 0.632004738
0.266919822 0.148513407 0.636053264
0.428589225 0.182795852 0.641872466
0.600758612 0.223782644 0.663504243
0.003542137 0.195951834 0.634028971
0.067805603 0.196584523 0.629095316
0.261733204 0.213282645 0.639595270
0.432258070 0.234914646 0.648703396
0.612523615 0.275774688 0.666160405
0.000000000 0.328399807 0.642504573
0.002909714 0.328020096 0.647817552
0.244654953 0.340164661 0.650347769
0.440733939 0.363820195 0.666666985
0.627577186 0.395192772 0.686400950
0.000000000 0.539279103 0.693358779
0.055154849 0.533206642 0.685768545
0.267425776 0.531941652 0.688551307
0.461606950 0.538772941 0.701960564
0.663504004 0.573687255 0.720556915
0.292473346 0.758886397 0.739152551
0.327008128 0.754838586 0.746362567
0.423023403 0.761543214 0.762934446
0.569386542 0.777861834 0.767362416
0.764073610 0.816445231 0.819101453
