Assets/Shaders/EldamarStudio/100 Sci-Fi LUTs Pack/LUTs/cube/Paige LUT.cube
LUT_3D_SIZE 8
DOMAIN_MIN 0.000000 0.000000 0.000000
DOMAIN_MAX 0.903226 0.903226 0.903226
0.054901998 0.000000000 0.000000000
0.079569548 0.004681000 0.012144452
0.128525987 0.024288097 0.035294000
0.174319640 0.046552639 0.048197355
0.227198184 0.075142190 0.072738998
0.289816469 0.107653253 0.097785987
0.375078976 0.150284573 0.136242703
0.498544902 0.193674803 0.167488977
0.067046449 0.056419998 0.020746548
0.088172443 0.060721450 0.035673548
0.128525987 0.068943992 0.041492999
0.167994753 0.081846736 0.061100997
0.225679994 0.102593087 0.084377162
0.292979002 0.133965999 0.108032800
0.371537000 0.166476548 0.145730570
0.488425195 0.204300970 0.174699783
0.087033898 0.125363901 0.058697093
0.106261544 0.125743449 0.068944000
0.128525987 0.133965999 0.076787099
0.175078735 0.145730197 0.083744287
0.232637376 0.159772083 0.103352092
0.298292071 0.182036832 0.125996187
0.388361752 0.214547798 0.158127800
0.514231563 0.255534798 0.194433898
0.099177644 0.195192918 0.117140643
0.118658736 0.200379372 0.115875989
0.150790542 0.208222374 0.122580640
0.189500287 0.220872998 0.129538640
0.247565001 0.230234087 0.148893192
0.308538973 0.248576730 0.161290288
0.394813210 0.274762988 0.181657284
0.522707224 0.318911910 0.220872790
0.112839997 0.294496983 0.154205993
0.138014004 0.300822198 0.171663180
0.165464908 0.299178094 0.168501094
0.207210541 0.303478748 0.177988797
0.266413778 0.314104974 0.188867807
0.325363517 0.328526139 0.197470188
0.419734359 0.360278159 0.215433195
0.549145758 0.407084376 0.253889799
0.133332998 0.415432990 0.213662252
0.158001453 0.417963743 0.223402992
0.188741192 0.425679803 0.226059631
0.244022727 0.424794734 0.231498733
0.303352416 0.430739999 0.239974722
0.369892716 0.444528729 0.250474483
0.463377744 0.465148747 0.270967990
0.595066428 0.512713552 0.310183734
0.171537280 0.547248244 0.279064000
0.190891996 0.559392810 0.292093575
0.230107263 0.565211535 0.293485075
0.293358564 0.566223860 0.299936682
0.357368529 0.568500578 0.304490983
0.435167730 0.576343954 0.323339581
0.522707522 0.588741541 0.346616268
0.626944900 0.619101644 0.372675359
0.323592395 0.726122737 0.434661567
0.343579859 0.739025772 0.419354916
0.374066859 0.737887442 0.436559021
0.421884954 0.743200421 0.441113591
0.482226223 0.747374773 0.447691411
0.560025334 0.750916600 0.463757157
0.636306226 0.762681603 0.491460741
0.726249218 0.777102709 0.524857581
0.051359549 0.004301451 0.044275545
0.079569548 0.012524000 0.052498095
0.123087004 0.032511454 0.065022089
0.166856185 0.058317639 0.078304999
0.218975648 0.091208346 0.101454735
0.285515547 0.120683186 0.128779352
0.367362589 0.155977294 0.153573796
0.484123766 0.189120829 0.184566826
0.071346998 0.056799546 0.059582997
0.094876997 0.061480545 0.064642541
0.118279189 0.070461996 0.070082545
0.168121561 0.089690343 0.091714092
0.226565376 0.111195087 0.109677091
0.285894990 0.141049802 0.133206800
0.373054832 0.172675744 0.165211797
0.495255798 0.208222657 0.192030385
0.092093542 0.122580543 0.089310996
0.109424450 0.126502454 0.090829000
0.126502544 0.130423635 0.097912997
0.174699187 0.140543640 0.105249636
0.231119275 0.163314462 0.131562084
0.292979181 0.183681548 0.146489277
0.373813808 0.214168355 0.170271829
0.501201749 0.252877980 0.211638093
0.104996994 0.202024087 0.122833282
0.119164996 0.202783182 0.125996083
0.149652004 0.206324831 0.135483980
0.182795644 0.211764738 0.144086093
0.238836169 0.227450818 0.156989530
0.307020962 0.244655535 0.176976368
0.392156661 0.279063731 0.197343200
0.524351358 0.323466182 0.229854733
0.123845801 0.285136193 0.169512749
0.140037566 0.287412971 0.177609444
0.166983008 0.292978972 0.182289645
0.206451640 0.301201642 0.186464190
0.255787641 0.309044749 0.200632393
0.322580278 0.322200924 0.206324920
0.419607460 0.356230259 0.231878564
0.545097768 0.403542191 0.267931998
0.135610193 0.407590002 0.227577537
0.153574005 0.409487665 0.227703735
0.191524535 0.413788736 0.235800087
0.235293925 0.418975383 0.239342451
0.298671871 0.425174177 0.246805996
0.366350263 0.434535444 0.259582520
0.459456235 0.459203005 0.275648475
0.586084723 0.509930193 0.314737350
0.161163792 0.540796876 0.288171977
0.185325369 0.552308738 0.286907107
0.225300580 0.551549792 0.292346746
0.280708283 0.554712176 0.300442368
0.353573740 0.564958870 0.316382259
0.431499183 0.574193299 0.327640742
0.519544542 0.592662573 0.350790709
0.630739868 0.625553548 0.392030358
0.316381574 0.717393994 0.438330323
0.327767223 0.738519609 0.426565111
0.364073277 0.734978020 0.436432391
0.415559769 0.738646328 0.440227598
0.476786941 0.742694199 0.453130841
0.553447068 0.746489465 0.468817145
0.631498992 0.756609678 0.493105143
0.718026102 0.772928119 0.530170560
0.061986096 0.016445097 0.097912900
0.083491549 0.025047097 0.102593094
0.127767086 0.036812000 0.104111187
0.167615294 0.068944000 0.121062547
0.220999286 0.101075187 0.141050085
0.285641819 0.129158989 0.164832339
0.361037254 0.163061291 0.189626902
0.480834842 0.193547994 0.217583984
0.075648546 0.065022089 0.107020549
0.093231991 0.066540092 0.100949086
0.123845994 0.080708094 0.113978542
0.166856185 0.097533442 0.130423635
0.221884996 0.120556377 0.152814791
0.280834824 0.150790542 0.170018896
0.364832461 0.179253474 0.197343379
0.485515147 0.214674085 0.228336543
0.096394904 0.121442094 0.122960091
0.106261544 0.128020540 0.131182626
0.136369184 0.145730197 0.143326998
0.179886341 0.148007274 0.149651989
0.228842288 0.173181191 0.167741999
0.294876665 0.188361838 0.183301985
0.369513094 0.219355002 0.213029996
0.500948608 0.252245069 0.245540917
0.113345645 0.202403635 0.162555441
0.123086900 0.199999824 0.158887088
0.152814895 0.209487632 0.169512630
0.189500287 0.218089640 0.182542995
0.232890636 0.230613619 0.183554634
0.302213907 0.250601083 0.206578180
0.391144842 0.280328989 0.233396560
0.523212969 0.318659067 0.265907824
0.123845898 0.285135984 0.199746981
0.134851098 0.291840613 0.207210526
0.166856185 0.296141893 0.209234893
0.203288823 0.301201731 0.213029996
0.254649192 0.306261986 0.219987184
0.321568549 0.322960019 0.232637361
0.420240432 0.356862664 0.258317381
0.547248483 0.409234732 0.297533274
0.138519645 0.408096075 0.253131092
0.153953359 0.409614265 0.256546646
0.186464086 0.413788825 0.260847360
0.233396366 0.416951180 0.264389753
0.298292309 0.420872718 0.270967960
0.367994994 0.431878626 0.279569983
0.453889549 0.457558721 0.299304008
0.583934486 0.506135345 0.342820883
0.157241985 0.543959260 0.316382259
0.181657284 0.545098126 0.314484358
0.220746100 0.551296353 0.321821481
0.278558075 0.551929295 0.324983984
0.348893374 0.562049270 0.334092349
0.435167432 0.578115284 0.351296663
0.522707522 0.594180763 0.373940557
0.635167599 0.628715754 0.417204559
0.304364562 0.722833455 0.440227777
0.325489849 0.724983990 0.443263769
0.354838669 0.731309593 0.450600594
0.409361124 0.736748815 0.461100221
0.475268841 0.738772810 0.472738743
0.546489239 0.744212210 0.483364701
0.630107582 0.757874787 0.510689259
0.722707331 0.771157563 0.541429281
0.067805350 0.024667645 0.164832637
0.088931449 0.036812093 0.160910636
0.126628533 0.052877743 0.165717736
0.169259995 0.072865002 0.170398638
0.221632197 0.103351995 0.190386087
0.285515726 0.133965895 0.211385369
0.363820642 0.165337995 0.237191573
0.488045752 0.195066184 0.273750633
0.083871000 0.076027997 0.162175998
0.095256448 0.084630094 0.169259995
0.134471536 0.089690439 0.171537086
0.169260100 0.102593184 0.173940286
0.219355002 0.119797379 0.193927839
0.286400735 0.151549742 0.213535637
0.368247986 0.180898279 0.243137449
0.489816606 0.215686336 0.276660532
0.101201907 0.136748642 0.180265903
0.106515095 0.141429454 0.179380089
0.140290990 0.152435362 0.190765530
0.174699187 0.162555560 0.198608547
0.227577537 0.175078824 0.210373446
0.294623882 0.193422094 0.227577537
0.377735615 0.224920899 0.256546646
0.509044886 0.249462232 0.288045377
0.110942349 0.203542277 0.211891636
0.124225445 0.208728731 0.207463279
0.152814999 0.218595996 0.218975544
0.197343290 0.233775929 0.232131630
0.242378443 0.240860447 0.232637286
0.303858280 0.257684976 0.249082893
0.395319551 0.284756631 0.272486001
0.529791415 0.319544464 0.311701477
0.126249194 0.292979181 0.245667636
0.137507647 0.293737978 0.247564986
0.170904085 0.302466899 0.254775405
0.212776542 0.305882543 0.256546646
0.261732996 0.316381991 0.265907824
0.329411596 0.332068205 0.284503281
0.420366466 0.364832461 0.299430698
0.554838598 0.403036147 0.340290636
0.128779009 0.408475637 0.293485343
0.145224810 0.413535565 0.298165649
0.182289630 0.416318715 0.301075637
0.233775735 0.421378970 0.306641519
0.296774060 0.428083509 0.310562849
0.367615730 0.440607220 0.325489759
0.457052469 0.462745368 0.342188448
0.587223232 0.507653177 0.384313554
0.156989351 0.544465184 0.355597913
0.176091090 0.549652159 0.363061547
0.216698274 0.550790727 0.361669540
0.277039975 0.556736290 0.370018899
0.347628087 0.564958870 0.374572814
0.432258099 0.576470554 0.394054115
0.524984241 0.593801200 0.415053904
0.640607297 0.630233705 0.452118933
0.301960737 0.719923735 0.470714748
0.318026602 0.728905797 0.478051692
0.354459137 0.731688738 0.480075866
0.406957209 0.735610425 0.487918973
0.470335245 0.739152253 0.501201749
0.547248304 0.747627676 0.512460589
0.631752312 0.757368624 0.539025903
0.729158759 0.774952590 0.562555373
0.069070198 0.048576806 0.230234176
0.087413445 0.053257190 0.230234176
0.130044177 0.067425899 0.239847988
0.173560828 0.087665997 0.238962799
0.221758381 0.114358187 0.251359999
0.281973481 0.140164375 0.261226743
0.365844458 0.169892579 0.289689988
0.488298416 0.197469994 0.332321018
0.081214361 0.087539181 0.242884189
0.097912997 0.096647739 0.230107263
0.130803078 0.101834185 0.237697631
0.174319640 0.119924091 0.242504627
0.226438999 0.134345353 0.252624840
0.283870846 0.157115549 0.260721087
0.370777994 0.187223196 0.296900988
0.497279972 0.217077896 0.337760806
0.103605099 0.150411084 0.251486301
0.120050803 0.157115549 0.250727296
0.144338906 0.159013182 0.245920181
0.184566543 0.172801644 0.258190811
0.231878281 0.184187099 0.261480302
0.292979121 0.199367538 0.280075848
0.379632980 0.226438910 0.309424281
0.510815859 0.250221342 0.349146158
0.103351995 0.217330828 0.265021831
0.122707255 0.226059437 0.260721266
0.154332995 0.225932628 0.268943697
0.197722822 0.236559272 0.280708551
0.244402185 0.242251828 0.288677812
0.308791816 0.262745112 0.303352416
0.401644558 0.285895199 0.326881826
0.531941772 0.313219249 0.364959180
0.120050803 0.289057195 0.292093158
0.133206785 0.303985000 0.297026992
0.169386089 0.302340209 0.307147354
0.211258441 0.314864188 0.312207639
0.274889380 0.335231155 0.326502174
0.339405537 0.344971448 0.338013917
0.431246340 0.364958912 0.354712069
0.565211713 0.401770979 0.394687146
0.128273264 0.411258459 0.348640203
0.142820910 0.413915098 0.347374886
0.178747907 0.419354737 0.354458928
0.231498927 0.426059365 0.361796170
0.301075637 0.432258189 0.368121177
0.369765699 0.447944283 0.376343727
0.472359002 0.470209002 0.398102522
0.598608613 0.507020712 0.436179668
0.137254998 0.551043749 0.410246462
0.162808463 0.551170230 0.413156360
0.200506106 0.555091619 0.412776560
0.268943906 0.559519172 0.420113802
0.349019647 0.573181272 0.428336263
0.432384908 0.580139458 0.442631006
0.528905809 0.598102391 0.462745279
0.647058904 0.634408653 0.499936908
0.273877561 0.725869358 0.518532753
0.294243962 0.727893770 0.518026292
0.335357308 0.730929732 0.520176888
0.392662704 0.737254977 0.531182826
0.462745160 0.740670323 0.538899183
0.541049957 0.750537157 0.554838717
0.630234122 0.759266198 0.571157455
0.725237072 0.780012608 0.603921771
0.064895749 0.068564259 0.317140967
0.089437187 0.072359249 0.317520529
0.133712634 0.086907089 0.319038719
0.180139080 0.104110993 0.328146368
0.237317979 0.128525987 0.327640742
0.299557239 0.146742731 0.336748987
0.368754297 0.173434541 0.355091721
0.496520847 0.201391667 0.409487575
0.073877200 0.111701541 0.312966734
0.097786263 0.111701541 0.317900181
0.133207098 0.120303541 0.317520529
0.181784004 0.132700726 0.324477941
0.240480989 0.147627831 0.328905374
0.301834524 0.170778185 0.341049910
0.376596987 0.189500093 0.362048984
0.503225446 0.219860822 0.415812880
0.092346743 0.164832339 0.330676734
0.107147455 0.171536893 0.329158902
0.140670359 0.176217377 0.333459526
0.188741282 0.180898190 0.336242944
0.245540828 0.195066199 0.344591975
0.304237843 0.205565825 0.348386973
0.379633367 0.231625646 0.369133741
0.515749395 0.258064628 0.424161732
0.094623648 0.233270362 0.349272370
0.113851905 0.238456726 0.339026064
0.150158256 0.239974722 0.345983356
0.197090551 0.248324007 0.354206085
0.252498627 0.258064538 0.363314182
0.320303380 0.269070506 0.369259834
0.403162539 0.291840553 0.392156690
0.545350611 0.321568727 0.446299553
0.100189745 0.313093156 0.364579529
0.114484191 0.313093007 0.371157259
0.156609565 0.320177168 0.372928798
0.204174444 0.324225157 0.378494799
0.269829631 0.336748987 0.397090375
0.342441529 0.348387390 0.401644439
0.443769544 0.368500739 0.428210169
0.571283579 0.404048085 0.469323307
0.108032748 0.416951209 0.409234732
0.123972192 0.414927453 0.414041430
0.169006750 0.425933063 0.420619965
0.225553393 0.426818490 0.422643453
0.298671931 0.442125022 0.437697440
0.383554459 0.461986423 0.456040710
0.487159789 0.476533711 0.470208943
0.607969582 0.510056734 0.501328290
0.119670987 0.556609571 0.474383265
0.141682386 0.547880828 0.464263260
0.189374000 0.555471241 0.477293015
0.258950382 0.565591276 0.482605815
0.346489459 0.575458586 0.496394664
0.438583285 0.594180822 0.512460709
0.537128329 0.606704831 0.527894020
0.665022373 0.642378271 0.567488909
0.267172426 0.717520297 0.571283579
0.282099932 0.725110292 0.571410537
0.317014784 0.726881802 0.577609181
0.371283978 0.733586609 0.581783593
0.445287824 0.741808891 0.587349951
0.533459544 0.748260558 0.603289187
0.628715873 0.763820350 0.619228542
0.728526115 0.782922208 0.644402325
0.029475013 0.097027287 0.446932554
0.069576256 0.096774258 0.443010569
0.133965999 0.103478998 0.446046770
0.197975993 0.121062636 0.451992184
0.262871772 0.140923381 0.455407530
0.336242735 0.158760265 0.459076524
0.424035549 0.181024998 0.473371267
0.511827886 0.200126827 0.491208106
0.036812462 0.129538253 0.448071003
0.078811005 0.135104552 0.448197544
0.135230839 0.136622548 0.454016387
0.196963638 0.153194353 0.458190918
0.270082384 0.165591553 0.458443910
0.346109986 0.183681354 0.469196796
0.425174057 0.201771021 0.476154089
0.523845553 0.221252248 0.497912973
0.035926722 0.184060797 0.458697349
0.078178719 0.184820101 0.454522550
0.136622190 0.191777289 0.455407947
0.200379372 0.199999839 0.458443940
0.270082355 0.210626200 0.465528429
0.348639905 0.221884742 0.473877102
0.432005078 0.241113201 0.485135853
0.527767062 0.261985809 0.503731966
0.016445441 0.259582639 0.476027548
0.054902025 0.256040156 0.465528548
0.126755163 0.261606455 0.466034204
0.197849348 0.265148640 0.474383563
0.276786804 0.278810978 0.484123886
0.362049103 0.289816558 0.491587490
0.446426213 0.302719653 0.504111230
0.554585814 0.325743169 0.531309307
0.014800729 0.346109986 0.482985437
0.038709547 0.345224559 0.486653656
0.110689193 0.349905282 0.485135853
0.195192993 0.348892748 0.495509356
0.279570103 0.357115448 0.500189483
0.370651633 0.367615640 0.514610827
0.468817443 0.382036537 0.529917777
0.583301604 0.410499901 0.554585636
0.016445441 0.448071003 0.520682991
0.059076279 0.449462265 0.525363624
0.127134815 0.452878028 0.522454083
0.207590088 0.455661088 0.526755333
0.297912925 0.462618560 0.533080518
0.393927693 0.470968008 0.545983255
0.498924702 0.488551259 0.563314021
0.618216157 0.517773688 0.592536449
0.110689268 0.569765568 0.561922550
0.129538074 0.568753958 0.558507085
0.188994363 0.571536720 0.563693702
0.260847628 0.579759955 0.567994893
0.343326807 0.586464286 0.576976538
0.445793718 0.604427576 0.599746585
0.561922550 0.636432528 0.628589511
0.686907053 0.653257012 0.643516839
0.260847420 0.722074091 0.655154586
0.280834883 0.727387547 0.652498305
0.308792025 0.727134824 0.645667493
0.373434573 0.736243010 0.654269159
0.442125142 0.745224357 0.661479950
0.534218788 0.758633614 0.674636245
0.636559069 0.771157622 0.690195918
0.740164161 0.792789459 0.713219047
0.000000000 0.123086803 0.625679553
0.005692727 0.124351650 0.630739570
0.124984354 0.129664823 0.630739570
0.219354808 0.138519779 0.634914637
0.314105004 0.154585630 0.637191653
0.402529776 0.176217467 0.640607357
0.502466917 0.197217256 0.646426558
0.600758612 0.223782644 0.663504243
0.000379548 0.155092001 0.631499290
0.002656833 0.156356350 0.628083467
0.113978259 0.159266233 0.630613267
0.219481632 0.168627530 0.635673404
0.313219309 0.183807731 0.640354156
0.407969892 0.199873522 0.647565007
0.509677172 0.223023564 0.656925857
0.614167988 0.245793670 0.660214901
0.000759096 0.214927346 0.637824118
0.005692726 0.213535652 0.634408832
0.098671868 0.214548096 0.632131457
0.209867179 0.224288344 0.639974594
0.309804082 0.233649805 0.642757416
0.410752535 0.248576909 0.651486456
0.510562778 0.268564075 0.658443928
0.613788426 0.289183915 0.668690443
0.002403811 0.288424820 0.637065053
0.004427559 0.286401272 0.644149542
0.051107019 0.289184004 0.644275665
0.197596624 0.299430817 0.648703575
0.307906598 0.310183287 0.652245224
0.414421290 0.321062356 0.659708798
0.516381741 0.339658260 0.667931736
0.624414802 0.360404819 0.676913559
0.003922000 0.385198981 0.660467982
0.002909561 0.384187162 0.655154765
0.006704656 0.382795572 0.656799197
0.172169164 0.382795632 0.662112594
0.298039377 0.391651005 0.665022194
0.413409352 0.406577915 0.672359526
0.527387500 0.421884567 0.680961370
0.634661555 0.441745996 0.692852616
0.001265167 0.506641269 0.681973338
0.002024167 0.504743636 0.677798629
0.057937760 0.505123258 0.676913500
0.198861524 0.498671651 0.683491290
0.306262016 0.497027159 0.682858765
0.424668014 0.505376279 0.693105400
0.546363235 0.524351478 0.702846229
0.656166792 0.541555524 0.707653582
0.117899798 0.629980922 0.718152761
0.146110058 0.630107522 0.712586999
0.205313191 0.629981041 0.715243399
0.288171917 0.635041058 0.714990258
0.373181283 0.634535015 0.719291270
0.475648254 0.641493022 0.730423570
0.580644906 0.649336040 0.731562018
0.702593207 0.669702947 0.748513281
0.292473346 0.758886397 0.739152551
0.300822049 0.754332423 0.758127511
0.340417504 0.752561390 0.750916600
0.390765220 0.760404587 0.756356359
0.461859763 0.761669755 0.760151565
0.544592381 0.773813844 0.767362475
0.648703456 0.787602544 0.782036841
0.764073610 0.816445231 0.819101453
