Assets/Shaders/EldamarStudio/100 Sci-Fi LUTs Pack/LUTs/cube/Robert LUT.cube
LUT_3D_SIZE 5
DOMAIN_MIN 0.000000 0.000000 0.000000
DOMAIN_MAX 0.903226 0.903226 0.903226
0.031373002 0.031373002 0.031373002
0.121947698 0.058823999 0.062112994
0.235420823 0.088930994 0.085009828
0.444402128 0.147121996 0.135356992
0.698544919 0.222517788 0.206704661
0.079443701 0.129791290 0.074510001
0.133712694 0.135357410 0.085009411
0.264516115 0.170018986 0.117393695
0.462112397 0.218089700 0.161543414
0.706388593 0.290448815 0.227956846
0.177229404 0.283112407 0.154965416
0.226944983 0.297280103 0.160531282
0.327007949 0.311954409 0.170651406
0.503605247 0.364579558 0.212523401
0.732574582 0.433649361 0.282605797
0.312966138 0.524857342 0.255154997
0.356103688 0.532701135 0.267552406
0.447058529 0.534345388 0.282985538
0.581657112 0.553320289 0.308159232
0.772928774 0.609234929 0.406830966
0.546868742 0.779632747 0.500063419
0.575078726 0.792283475 0.505882561
0.632511079 0.793927789 0.517520308
0.742314637 0.802782893 0.547880888
0.863377392 0.818722606 0.594180763
0.047059000 0.047059000 0.085009411
0.110183701 0.063757285 0.092219986
0.231498986 0.106261700 0.129158691
0.426438987 0.165717706 0.178874120
0.682226419 0.231878683 0.240100801
0.094497278 0.131435990 0.106894284
0.137634709 0.139911413 0.125236690
0.254396379 0.173307985 0.149399117
0.443769723 0.220746532 0.187096983
0.695255935 0.289816797 0.265275121
0.176850110 0.279569685 0.180771708
0.224288404 0.287413090 0.185705394
0.318153083 0.308664978 0.200379714
0.494876921 0.356103688 0.238077402
0.721442163 0.433649361 0.316002637
0.317140847 0.513472617 0.280961543
0.350917131 0.519291282 0.296648115
0.444781810 0.529411733 0.307147235
0.572549164 0.544465542 0.334851235
0.763567388 0.605313182 0.419734180
0.532827497 0.782542706 0.496015042
0.563946605 0.787728906 0.514484644
0.630233884 0.788994372 0.525363624
0.733206630 0.796710610 0.553573668
0.863377392 0.813282669 0.612523377
0.066034414 0.066034414 0.173308402
0.121315278 0.080076121 0.169006705
0.226312816 0.115749411 0.191650406
0.421252400 0.164452866 0.245287821
0.671094596 0.233523235 0.319924235
0.115749411 0.144845113 0.179886401
0.154332399 0.153320700 0.182795689
0.254395962 0.179506689 0.212523401
0.438583136 0.218089700 0.257685244
0.683238268 0.296647698 0.337001801
0.190259412 0.288425356 0.245287389
0.227577403 0.295256078 0.252751678
0.323719382 0.315243810 0.270082384
0.490196109 0.356103659 0.304490566
0.712334037 0.435041070 0.387982368
0.316508234 0.506262004 0.345857412
0.359392732 0.518026292 0.354459226
0.442378104 0.524224937 0.365591377
0.567741871 0.544212282 0.390512407
0.765970767 0.611891389 0.474003494
0.511574745 0.776344001 0.547121584
0.551043689 0.779253483 0.550537467
0.622770429 0.785452187 0.563946724
0.726628602 0.797975779 0.584819615
0.857432008 0.826186001 0.624794185
0.094243996 0.098165996 0.294497252
0.157368690 0.111448288 0.298672110
0.265275121 0.135357410 0.309171110
0.429728270 0.166730002 0.345477223
0.674762905 0.238835797 0.434028953
0.131309405 0.172928706 0.301202118
0.186084718 0.175585121 0.307906538
0.283238411 0.194813415 0.321821243
0.446426541 0.224035695 0.362428993
0.683870733 0.306514680 0.445161194
0.199367419 0.304110974 0.349019378
0.247817829 0.317900240 0.355471373
0.351170361 0.337760687 0.381277382
0.509550929 0.370145380 0.414421111
0.714231610 0.439215690 0.489310354
0.328653127 0.517014384 0.443643272
0.370398283 0.526122510 0.454522252
0.456799537 0.538899362 0.468058139
0.577862144 0.554332376 0.491587371
0.768121302 0.609234929 0.564073265
0.532827437 0.777355909 0.617583752
0.550663769 0.778874040 0.629222214
0.600758910 0.784819782 0.629981101
0.717140913 0.798355341 0.647691607
0.857811451 0.822770417 0.695635557
0.133332998 0.129411995 0.577102721
0.225932851 0.134724990 0.567994595
0.374319792 0.150410995 0.573940158
0.543073833 0.186464131 0.578494430
0.738013506 0.265654773 0.603162408
0.136622161 0.209613949 0.568880439
0.223655984 0.214547649 0.568247914
0.379506618 0.224668100 0.572801828
0.552182019 0.253130823 0.582289577
0.739911437 0.323466092 0.614294708
0.171157166 0.363061368 0.578367591
0.245161563 0.365971088 0.587223291
0.398987800 0.377482384 0.588235021
0.568500638 0.400632501 0.602276862
0.758128047 0.460594624 0.637191534
0.312207341 0.573687255 0.627071440
0.355724186 0.575331926 0.629095256
0.453510523 0.573940516 0.638076901
0.604427338 0.584060609 0.654142618
0.791777432 0.635420799 0.691713929
0.531309605 0.782289565 0.715622604
0.556356490 0.790512502 0.723972321
0.622770429 0.796584606 0.739911139
0.733333051 0.814547896 0.768247724
0.856672764 0.847817540 0.813915193
