Assets/Shaders/EldamarStudio/100 Sci-Fi LUTs Pack/LUTs/cube/Robert LUT.cube
DOMAIN_MIN 0 0 0
DOMAIN_MAX 1 1 1
LUT_3D_SIZE 32
0.031373002 0.031373002 0.031373002
0.034408614 0.034408614 0.034408614
0.046046771 0.037444774 0.039595000
0.058697160 0.040480837 0.043136999
0.068564542 0.043895997 0.044275545
0.083744928 0.049968001 0.053383932
0.103984669 0.056040645 0.057432320
0.121947698 0.058823999 0.062112994
0.134850994 0.059582900 0.066666998
0.140923008 0.062618516 0.066666998
0.161542863 0.065654866 0.069576129
0.180771500 0.070714995 0.072612256
0.198987991 0.076787002 0.075648353
0.217204064 0.082859002 0.078937069
0.235420823 0.088930994 0.085009828
0.263250977 0.095002994 0.093485184
0.292093188 0.104110993 0.102593191
0.320050120 0.115622565 0.111068986
0.350410968 0.124730974 0.117141008
0.377988368 0.131056011 0.123213001
0.411005467 0.139025733 0.129284993
0.444402128 0.147121996 0.135356992
0.472105980 0.153446987 0.141555503
0.508538842 0.165591002 0.150663912
0.542694271 0.175458282 0.155218288
0.578873992 0.183174983 0.163820654
0.618849158 0.190259129 0.179000929
0.661353827 0.202403888 0.194180533
0.698544919 0.222517788 0.206704661
0.738519311 0.240227729 0.222390950
0.779253185 0.254522204 0.241492584
0.815685987 0.266667008 0.262744993
0.040480614 0.034408614 0.037445001
0.034408614 0.040480614 0.037445001
0.046046771 0.047817774 0.046932384
0.061227158 0.052625161 0.049715389
0.074256994 0.054902226 0.048070934
0.086780541 0.053004384 0.062492318
0.104490608 0.056546707 0.056420065
0.120303407 0.065401994 0.062365606
0.133333385 0.070208907 0.066666611
0.143959403 0.068690524 0.057558615
0.167489126 0.074635997 0.063377604
0.184819505 0.079823129 0.070588253
0.200885251 0.085895389 0.076787002
0.217963025 0.091461390 0.082226418
0.244528428 0.091967382 0.091081828
0.265148401 0.095635578 0.094750188
0.292093188 0.104110993 0.099557191
0.320682704 0.116255142 0.106894553
0.353447348 0.127767369 0.120177388
0.378241420 0.136875048 0.120683387
0.407210469 0.143200472 0.128146648
0.440354139 0.151170269 0.135356992
0.472105980 0.159392506 0.141682014
0.508538842 0.168627396 0.153700307
0.547248244 0.180771381 0.160531402
0.584945917 0.189246982 0.169892654
0.623909116 0.196837068 0.184060931
0.661353827 0.211511493 0.194180533
0.698544919 0.223656267 0.206704661
0.740290523 0.240227729 0.220620185
0.779632926 0.257178575 0.240227953
0.809614003 0.275774598 0.265781403
0.040986773 0.052498545 0.039216001
0.047817770 0.052118771 0.045667227
0.050347771 0.051739547 0.041366223
0.062998161 0.060847610 0.052245386
0.076786995 0.064895771 0.051739547
0.092473000 0.061859839 0.059835929
0.096773997 0.068184547 0.063377678
0.118279405 0.067931935 0.059202999
0.133965999 0.076028004 0.068564095
0.148893014 0.077166304 0.066160776
0.166223958 0.082858771 0.069322996
0.186464220 0.088930771 0.073371254
0.202909291 0.092726223 0.079949647
0.219607800 0.097027257 0.085009769
0.243137166 0.102720000 0.092220411
0.272106320 0.105123192 0.098671965
0.293358326 0.111195192 0.103225768
0.317520142 0.122706756 0.106894419
0.343327165 0.134851173 0.116002433
0.374826014 0.142062202 0.123719223
0.404806733 0.151169807 0.125616968
0.435420483 0.157495230 0.135230765
0.467931479 0.165464506 0.143579766
0.506388068 0.174572900 0.151676044
0.542947233 0.181656986 0.161417007
0.581024289 0.193801329 0.168880671
0.619734406 0.202909485 0.182542935
0.657811880 0.218089432 0.194939539
0.700695693 0.228462875 0.202403665
0.735356867 0.245920375 0.218089953
0.777608991 0.261859357 0.238077402
0.809993804 0.280581772 0.266667008
0.043010838 0.070461839 0.041745998
0.052625161 0.068690613 0.048323616
0.061733000 0.066919610 0.054269321
0.069070160 0.065148838 0.049462158
0.077419549 0.074256547 0.057811543
0.091208152 0.074762933 0.060847931
0.105629325 0.079316996 0.063883677
0.112460248 0.084376708 0.065274999
0.135231033 0.082099997 0.066792995
0.153447181 0.087160006 0.075395323
0.168754041 0.091967165 0.077419132
0.183428153 0.098039158 0.082985260
0.203921154 0.102972515 0.087160006
0.222643867 0.103605062 0.090322867
0.243896246 0.111701570 0.095382996
0.268564254 0.118532345 0.101454996
0.294370800 0.122074351 0.104996994
0.317520112 0.131182730 0.111701563
0.338266969 0.142694339 0.116002366
0.369133532 0.150537550 0.122074358
0.399999887 0.157242253 0.128652573
0.435420275 0.165338263 0.135736957
0.466666490 0.171536788 0.147754505
0.503857911 0.180644900 0.152688175
0.538519561 0.188741162 0.161037132
0.576217473 0.197596163 0.173940673
0.612650156 0.209234908 0.180012926
0.651359975 0.222896695 0.189120531
0.692346573 0.236558825 0.203921661
0.733333290 0.248956323 0.218343109
0.771157265 0.269323140 0.238330126
0.811765015 0.284883022 0.267931849
0.051739097 0.081087545 0.048197545
0.058950223 0.080708094 0.051233161
0.066034220 0.080328546 0.059961997
0.075142160 0.080708094 0.066540383
0.084250547 0.080708094 0.062744997
0.087286927 0.089816481 0.065781385
0.109045319 0.094244316 0.069576226
0.126881838 0.096900836 0.070588000
0.137507647 0.099556997 0.072105996
0.155724436 0.099556997 0.078178003
0.171410874 0.102846414 0.079190098
0.185705543 0.107526988 0.085262254
0.201264992 0.112080894 0.092473000
0.225300029 0.115622580 0.098545000
0.246552393 0.121821828 0.101707868
0.267425328 0.130297288 0.106388450
0.289436728 0.136369184 0.110183448
0.312207133 0.140291020 0.111701563
0.342567950 0.149399430 0.120809972
0.372928739 0.158507213 0.125110641
0.401771158 0.165717557 0.129664540
0.432384670 0.172169253 0.138393119
0.471600026 0.178368494 0.153067514
0.504996479 0.187476203 0.156103909
0.536495566 0.196204841 0.164452791
0.571030974 0.206704527 0.175837770
0.609993994 0.218722060 0.192536473
0.646425962 0.227830440 0.183428094
0.682858586 0.244149044 0.201644629
0.720682979 0.259582430 0.223782614
0.761670053 0.273118526 0.244781971
0.810246944 0.291334540 0.269069999
0.057811871 0.102339931 0.057305932
0.072991490 0.099304318 0.060341544
0.075901061 0.096774094 0.065527931
0.081214160 0.096774094 0.071347222
0.090322547 0.098924868 0.071853384
0.099430934 0.098924875 0.062744997
0.112587318 0.105502933 0.070841387
0.128146991 0.107779995 0.072359227
0.139784947 0.109044835 0.072106004
0.152688041 0.111701004 0.078178011
0.170904800 0.117520742 0.084250741
0.190639243 0.121062666 0.091334604
0.208096281 0.123465993 0.097027004
0.225300029 0.124730967 0.098545000
0.246552393 0.133839339 0.104616992
0.265401602 0.142441794 0.105376065
0.288678110 0.148513675 0.109424062
0.314990461 0.152181983 0.114484213
0.342567950 0.158507049 0.120809980
0.372928739 0.167615429 0.129917651
0.403288990 0.174825922 0.134218737
0.434155464 0.181910053 0.140796930
0.468564391 0.190512508 0.153067514
0.501960874 0.199620903 0.156103909
0.535357237 0.206451878 0.168248281
0.571030974 0.215812907 0.176850185
0.609993994 0.227956921 0.184440136
0.646425962 0.239974439 0.198608488
0.682858586 0.251739651 0.205439761
0.719291329 0.268437833 0.222390950
0.757115602 0.284756601 0.240227655
0.798102140 0.300442934 0.256926000
0.068944000 0.116002642 0.068944000
0.076533936 0.118026376 0.066919610
0.087413095 0.117140993 0.069955774
0.089816481 0.114484474 0.073118322
0.096773997 0.114611320 0.074130453
0.108032614 0.114611320 0.069323063
0.117140993 0.117140993 0.072865002
0.135610387 0.121568702 0.078684390
0.149652094 0.123213217 0.079696320
0.160025343 0.126248837 0.085768327
0.177988425 0.132194415 0.089310743
0.196205184 0.138267189 0.093358740
0.218089998 0.142947644 0.100315996
0.237697393 0.146236643 0.103604995
0.256673038 0.153067738 0.109676994
0.285135627 0.159772307 0.118152797
0.305376172 0.165718183 0.120050505
0.330676526 0.170019045 0.125110641
0.358001024 0.177988321 0.131182939
0.385579050 0.181783691 0.137507975
0.419734299 0.192789316 0.146616057
0.450347692 0.200126320 0.149905324
0.480835259 0.207716495 0.156103820
0.516634941 0.216824904 0.168754220
0.550031841 0.225933284 0.171790019
0.586211205 0.233649626 0.181783661
0.625174105 0.245161057 0.188488126
0.661606610 0.259329319 0.205692768
0.698039234 0.274003655 0.215559497
0.734471500 0.286147952 0.231751829
0.771789789 0.304617196 0.250727206
0.811258614 0.324731320 0.267552316
0.079443701 0.129791290 0.074510001
0.090448990 0.126249328 0.073118322
0.090449065 0.133712694 0.079316765
0.100822285 0.131182700 0.078557990
0.105376087 0.129285544 0.078178547
0.114990413 0.133080706 0.077672474
0.127893314 0.133966088 0.082226411
0.133712694 0.135357410 0.085009411
0.154965103 0.139152691 0.090322703
0.167615503 0.143073931 0.098165698
0.183807716 0.147374690 0.099683858
0.200379506 0.151802510 0.101075441
0.218595996 0.157875001 0.104111053
0.242125034 0.163946986 0.109930024
0.264516115 0.170018986 0.117393695
0.287412971 0.176090986 0.124224797
0.314737380 0.183681190 0.128778994
0.338013649 0.186970577 0.132321268
0.366349995 0.194054455 0.138393298
0.395319372 0.200885341 0.144465730
0.426691979 0.207969695 0.152435020
0.462112397 0.218089700 0.161543414
0.490828961 0.224541187 0.163820490
0.524224997 0.236685604 0.175964907
0.560025156 0.244149268 0.185325697
0.593421936 0.253257662 0.189753339
0.632384479 0.263377458 0.197849408
0.669955850 0.278557837 0.216065869
0.706388593 0.290448815 0.227956846
0.746110260 0.303858370 0.240859851
0.781656921 0.318659008 0.261226892
0.819607973 0.342188716 0.279443711
0.090828992 0.144971102 0.078305095
0.102972612 0.139658377 0.079823092
0.104617000 0.142568007 0.085389100
0.104617193 0.147881106 0.090701997
0.116761193 0.142947540 0.086527549
0.123592868 0.151296824 0.090322927
0.135736868 0.151296914 0.091334999
0.145097807 0.153574005 0.096394904
0.151170194 0.155092001 0.098671995
0.172422588 0.161164001 0.110815994
0.188614860 0.165085226 0.112081096
0.204554155 0.167362273 0.112081096
0.220113993 0.170778111 0.113219440
0.238836050 0.177103132 0.116002090
0.265654504 0.183681190 0.123592407
0.290448785 0.190512091 0.131056085
0.310942262 0.197343186 0.134850994
0.337128609 0.205186576 0.136748567
0.367615223 0.208222985 0.142947108
0.397975743 0.216824844 0.149778709
0.429474831 0.225932717 0.156230256
0.460594386 0.234029174 0.163820133
0.494244456 0.240227655 0.172801986
0.526502073 0.254142910 0.181277812
0.560657561 0.263251066 0.190385804
0.596457720 0.271473646 0.198861346
0.630360186 0.281087995 0.206451938
0.669576287 0.296015322 0.224414885
0.707147479 0.306641310 0.239594966
0.746363342 0.318279505 0.253510177
0.786211550 0.331562489 0.268058181
0.819607973 0.352814913 0.286274999
0.109045006 0.160151511 0.093485497
0.112080626 0.166223496 0.099557489
0.113472007 0.167362005 0.101075485
0.115749329 0.166603163 0.100316323
0.122833975 0.164199948 0.098671556
0.134977981 0.167235553 0.107779942
0.144339323 0.162934542 0.098925009
0.152055964 0.165338233 0.099051289
0.160278589 0.173308000 0.107779615
0.175458983 0.179380000 0.116888002
0.193801492 0.185451999 0.120303869
0.211890981 0.187349498 0.121189483
0.228842154 0.188614652 0.122327834
0.244908065 0.192283541 0.125110477
0.269196808 0.201391906 0.125110477
0.298418462 0.210373163 0.132700801
0.320809156 0.217836484 0.138646290
0.340164214 0.223402575 0.142820567
0.373561472 0.226438984 0.151928976
0.404047996 0.235041365 0.160910845
0.434408486 0.244149223 0.166097254
0.462871730 0.252245247 0.169386119
0.488172442 0.258444428 0.172801986
0.527640939 0.267552078 0.178874001
0.562175751 0.276913285 0.187349796
0.597090304 0.287286460 0.196458146
0.633396566 0.299303979 0.206451938
0.669829309 0.311447978 0.221631527
0.709044755 0.323719174 0.242251292
0.748387098 0.337508142 0.259582192
0.786211550 0.352561861 0.273877233
0.819607973 0.367994517 0.286274999
0.118532866 0.181150869 0.111575000
0.130297348 0.181403860 0.114737876
0.126881734 0.183174863 0.107906319
0.129158571 0.185704857 0.104870126
0.138013676 0.187981993 0.105376095
0.152688012 0.188487932 0.117014810
0.154712006 0.188993871 0.113472223
0.164326534 0.186969876 0.110309832
0.174446881 0.190765098 0.114610866
0.187476501 0.194686860 0.117267482
0.202656880 0.197849751 0.120556869
0.220872864 0.203921735 0.123592734
0.239089161 0.206831098 0.125616774
0.256546766 0.210119992 0.128652826
0.278178662 0.216571540 0.131309003
0.300063044 0.225679934 0.136115998
0.324351192 0.230233863 0.144718319
0.346109718 0.234155446 0.152434856
0.379506946 0.241745844 0.163819969
0.407337368 0.250348240 0.167362362
0.433775872 0.259456128 0.172422737
0.463124514 0.268564016 0.175458595
0.493358970 0.276533991 0.178747505
0.524478078 0.282858968 0.187602878
0.559392989 0.291967154 0.193674877
0.592789531 0.302466840 0.203541964
0.627704084 0.314104944 0.214674249
0.664136827 0.323845744 0.227451265
0.703225732 0.338646561 0.242630854
0.744465292 0.349272609 0.263377160
0.781530678 0.364832312 0.282605588
0.810879171 0.386084735 0.300822139
0.131688729 0.200379506 0.117647000
0.135736734 0.204427496 0.120683387
0.139025733 0.204427496 0.121062957
0.138014048 0.204427496 0.112713344
0.146362960 0.208222508 0.113092795
0.158253938 0.208222508 0.123592868
0.164831996 0.210246250 0.122580610
0.173054695 0.211890966 0.121441960
0.185578912 0.211511403 0.124478154
0.197723269 0.212017477 0.125742987
0.208728597 0.217078120 0.126628608
0.225933254 0.222138241 0.129664987
0.245287895 0.227071613 0.132700607
0.264643043 0.230613276 0.135989785
0.285895377 0.238456503 0.140797094
0.309171438 0.244908050 0.148260251
0.330423445 0.252498239 0.152814448
0.351675808 0.254142821 0.159645677
0.379506677 0.260468245 0.167614996
0.409361362 0.271600336 0.169386089
0.436685711 0.276913702 0.174320206
0.464136392 0.285768390 0.176470995
0.497280210 0.295002997 0.178747728
0.525743008 0.304870486 0.187855646
0.560404599 0.313219249 0.198735267
0.596584678 0.320935965 0.210373238
0.631246328 0.331815124 0.223782241
0.666160822 0.342441678 0.235926613
0.705249727 0.356863081 0.248703629
0.742947340 0.368501008 0.262112468
0.781404138 0.381150842 0.283491224
0.809867263 0.404300988 0.305882007
0.146868646 0.227704287 0.125616640
0.149145633 0.231499270 0.128653020
0.151422918 0.233270273 0.130676985
0.153952956 0.232131630 0.130550474
0.159646094 0.232131630 0.127134636
0.167235702 0.232131630 0.132447928
0.176090926 0.233522952 0.133712962
0.187096328 0.236558989 0.132827356
0.201517820 0.240354270 0.137381539
0.213662609 0.238456428 0.141176164
0.221758410 0.241872370 0.139025643
0.236938491 0.245667636 0.139911264
0.255155265 0.251739651 0.144086003
0.276154637 0.255281329 0.147374645
0.296521366 0.264389664 0.153447181
0.321315616 0.271094292 0.158507198
0.345224470 0.277166247 0.166856185
0.366476834 0.283238262 0.168627575
0.387729257 0.286780626 0.170651332
0.418469369 0.295888662 0.174319640
0.444655359 0.306894362 0.178114817
0.472991884 0.309930772 0.184187606
0.506261766 0.318785399 0.184820116
0.535610199 0.329917789 0.193927735
0.567488849 0.338646322 0.204174563
0.604174316 0.348639905 0.217963621
0.642631531 0.355217844 0.235167637
0.676028073 0.366729885 0.247311622
0.713598788 0.381530821 0.260594636
0.751296341 0.395446032 0.273877591
0.788614810 0.406324863 0.291334599
0.819734633 0.427071273 0.316128641
0.162049040 0.267932028 0.145857036
0.167362049 0.268944025 0.148134395
0.173687503 0.268185019 0.150664225
0.180266023 0.267678857 0.154206038
0.185705513 0.265022010 0.152941033
0.188741118 0.265022010 0.146869034
0.199367642 0.265528023 0.147881284
0.213409320 0.266666710 0.150537997
0.227071181 0.269956052 0.151549935
0.239215970 0.276028037 0.160657555
0.246300027 0.276533991 0.155977011
0.260215044 0.276787013 0.153953001
0.278178275 0.278811008 0.155724004
0.296647996 0.284630060 0.161543041
0.314863980 0.293738425 0.167615026
0.339784801 0.300696015 0.169639051
0.365591407 0.306768030 0.173434228
0.389500529 0.313093036 0.180771574
0.410752982 0.319165051 0.177735969
0.442884386 0.324984044 0.185578689
0.469196737 0.336242735 0.193295032
0.492979228 0.347881168 0.198861226
0.523466468 0.351044029 0.205060467
0.556862891 0.360025167 0.214168131
0.587982535 0.367109030 0.223529279
0.620872974 0.375964373 0.234661609
0.657052159 0.388109028 0.249588996
0.690449297 0.397216648 0.261732996
0.726502001 0.411131859 0.276533842
0.762934327 0.426059246 0.292979211
0.799493790 0.441745639 0.311574996
0.838962972 0.456926048 0.341935039
0.177229404 0.283112407 0.154965416
0.174193785 0.295256406 0.148893416
0.181657061 0.289816618 0.146869227
0.191397890 0.288930982 0.155218169
0.200759411 0.292346388 0.167868406
0.200885892 0.292346388 0.155977413
0.211511821 0.297406405 0.152435094
0.226944983 0.297280103 0.160531282
0.240733504 0.296268404 0.167235985
0.245287985 0.297280401 0.163693935
0.260341853 0.300442517 0.166982546
0.273624659 0.302846253 0.166096985
0.289437175 0.305249751 0.166096985
0.305755615 0.308917999 0.167615026
0.327007949 0.311954409 0.170651406
0.347627759 0.321062773 0.179127216
0.371663392 0.328020394 0.181783825
0.395951927 0.334724963 0.184946403
0.419860572 0.343453795 0.189879969
0.449462324 0.346742451 0.195192993
0.478557706 0.354206145 0.205692396
0.503605247 0.364579558 0.212523401
0.529538453 0.372296393 0.214168072
0.562934875 0.378368407 0.223276481
0.594054580 0.387349516 0.234661400
0.625806630 0.397216707 0.243389979
0.660341501 0.409867465 0.252877623
0.696521282 0.424541771 0.267804980
0.732574582 0.433649361 0.282605797
0.769006729 0.445793808 0.306641340
0.803668201 0.461227417 0.330297381
0.835926592 0.481214792 0.351043403
0.194813594 0.310309976 0.161669999
0.194181174 0.315243781 0.162808180
0.193295792 0.318785787 0.161037177
0.204174444 0.315496445 0.160784155
0.215939179 0.319670767 0.172928542
0.215939179 0.319670767 0.170904785
0.223655984 0.324730784 0.161543489
0.237444684 0.325869501 0.165085509
0.252624899 0.323592782 0.174193710
0.258950293 0.323592782 0.169766009
0.271220863 0.326501906 0.174825937
0.286401242 0.329538047 0.175837800
0.300442994 0.331435770 0.175837800
0.314863831 0.333206594 0.176090837
0.336116165 0.336243004 0.179127216
0.359772384 0.341682583 0.184566796
0.377988398 0.347754598 0.189120993
0.400252908 0.353573561 0.191018566
0.426312655 0.362681955 0.198861822
0.456166744 0.368627429 0.207336992
0.484629750 0.375458539 0.211511731
0.510942221 0.384566933 0.220113799
0.535610437 0.393548787 0.223402783
0.569006920 0.399620771 0.234787896
0.600126505 0.410246789 0.246173561
0.631878674 0.419481248 0.256925911
0.664769113 0.429601789 0.264515877
0.697406828 0.439089417 0.275901228
0.726628780 0.458570749 0.293484807
0.770145535 0.467678785 0.319291562
0.803794801 0.480961770 0.344971776
0.828083217 0.500696003 0.360151798
0.209993988 0.342188179 0.172296196
0.209993988 0.343706399 0.170777991
0.214548185 0.349146187 0.176217183
0.217078179 0.345351040 0.177482352
0.230360389 0.348133713 0.179380178
0.232637376 0.351549357 0.179000929
0.241745502 0.352055579 0.181024671
0.249588698 0.356229901 0.175711706
0.264010191 0.353194296 0.183301896
0.273877680 0.352435380 0.181783497
0.285895169 0.353826702 0.184440002
0.298545241 0.359898448 0.187982187
0.314863980 0.361796170 0.187982187
0.327767044 0.361796170 0.187729150
0.345224559 0.363567412 0.188235223
0.365844399 0.367489189 0.195192993
0.390133202 0.372042984 0.198229000
0.407210350 0.375711322 0.198861584
0.433649719 0.383934349 0.206198975
0.460721195 0.390259385 0.213788837
0.489183933 0.398228735 0.222137928
0.518532336 0.406325251 0.228210196
0.544465482 0.415054172 0.235420689
0.575078964 0.423909187 0.246173382
0.604680359 0.433017403 0.253763378
0.635041118 0.440986723 0.265907764
0.668311059 0.450854063 0.277166069
0.699683666 0.459962189 0.290322423
0.728905797 0.474762768 0.305882156
0.761037111 0.493485391 0.323845387
0.806071997 0.504364550 0.356357008
0.828083217 0.521947980 0.372296184
0.223402977 0.373687148 0.185579002
0.224667966 0.374952137 0.182669550
0.228589758 0.380771309 0.186084792
0.236432984 0.383554548 0.191397741
0.243263990 0.375964165 0.194813579
0.249841988 0.384566456 0.189753547
0.259708971 0.384187311 0.193168834
0.269829154 0.383175433 0.195698708
0.276786625 0.386590630 0.194813475
0.288931370 0.383555025 0.197849095
0.301075578 0.383428544 0.197343156
0.314484537 0.386970282 0.199999839
0.328905553 0.393927544 0.202529982
0.346868575 0.394180566 0.202783018
0.359392762 0.394560128 0.200505719
0.375079125 0.396963924 0.205186382
0.395698935 0.399367511 0.211005569
0.418722540 0.401770681 0.211005569
0.443010598 0.407843471 0.214041963
0.467931718 0.414547950 0.221758559
0.493485302 0.422517389 0.228463128
0.520936131 0.430613250 0.238583565
0.554206014 0.436812490 0.250348061
0.582036495 0.448450565 0.258444309
0.609993458 0.457685262 0.265528262
0.638709307 0.467805445 0.272738516
0.669070125 0.471853197 0.285894692
0.702340007 0.486780554 0.307020575
0.733712614 0.498671532 0.322959960
0.765844107 0.513092935 0.339405298
0.798228800 0.529158950 0.355850607
0.834661603 0.544338584 0.386211425
0.241619051 0.397976041 0.191651046
0.247691035 0.404047996 0.200759426
0.246805817 0.409613997 0.204301223
0.248577058 0.412144184 0.205313161
0.255408049 0.409361422 0.203922004
0.267552048 0.412397057 0.209994003
0.274130046 0.413409024 0.204934001
0.283997446 0.411511779 0.201771244
0.294876844 0.411258996 0.201012030
0.304111034 0.416951507 0.206957519
0.316255838 0.416825026 0.204174876
0.332448006 0.414800763 0.207463965
0.350157976 0.416192025 0.212144345
0.368121028 0.421505034 0.214927062
0.383301407 0.424541444 0.217963442
0.395825654 0.427324802 0.218089953
0.413030148 0.428842992 0.221884981
0.433902979 0.429095954 0.226185992
0.452119023 0.429095954 0.226186007
0.479190350 0.437950671 0.240354404
0.504364491 0.446805805 0.247185245
0.528905988 0.454901993 0.253763318
0.554206073 0.461100578 0.265528500
0.584566891 0.470208973 0.268564105
0.614674568 0.477293015 0.281214327
0.644781888 0.490575701 0.293990970
0.675142169 0.508286059 0.307147145
0.705502868 0.517394423 0.325363904
0.738772750 0.527008176 0.341176778
0.771916151 0.538140476 0.359899133
0.803541839 0.549905419 0.378874362
0.831625938 0.559518993 0.395319074
0.276533723 0.455660760 0.222770378
0.277039737 0.456166744 0.223529413
0.285262525 0.460088521 0.228336796
0.287286580 0.464263260 0.228842556
0.291460931 0.464263558 0.226186022
0.296394736 0.462492168 0.227451026
0.306009054 0.465528399 0.230993330
0.312334090 0.464136750 0.227324665
0.322201371 0.462618858 0.226565376
0.333333254 0.466667086 0.232637376
0.353700131 0.464136750 0.232763886
0.365844399 0.464136750 0.233776286
0.381404012 0.464136720 0.236812383
0.397469729 0.467805415 0.238203689
0.410119772 0.465781152 0.241239429
0.430107147 0.471220732 0.244275823
0.444908202 0.473118365 0.247691363
0.462365568 0.473750949 0.253130943
0.478431374 0.475901753 0.255281746
0.499430746 0.478684396 0.258064389
0.526755095 0.485894740 0.267552018
0.553953290 0.492093503 0.274509639
0.581783712 0.496394753 0.286401361
0.606830835 0.502846301 0.292093813
0.634914875 0.511954665 0.301960737
0.664769292 0.519924045 0.318026364
0.695129514 0.534092188 0.333965510
0.725490212 0.545477808 0.352182269
0.755851030 0.557242334 0.367742181
0.789120853 0.570018888 0.386464536
0.821631849 0.584061027 0.410373330
0.850854337 0.596964121 0.435040742
0.297785997 0.495508701 0.240986735
0.301580995 0.491713732 0.240986735
0.308032781 0.497659504 0.246932507
0.310815990 0.496900737 0.246173412
0.313472301 0.498418987 0.244022533
0.322580665 0.499936819 0.248576730
0.328779310 0.501961052 0.247312054
0.337887704 0.503352702 0.250348002
0.345730722 0.502087355 0.250094712
0.357874721 0.505123436 0.256166726
0.376849860 0.502340615 0.254522473
0.390132695 0.503225744 0.258443981
0.402276725 0.503225744 0.259203076
0.416698009 0.504997015 0.258697033
0.430486709 0.501961052 0.261733025
0.447944254 0.502340496 0.264768809
0.470714480 0.509930253 0.269323379
0.488298297 0.511068702 0.274130464
0.506008685 0.512839973 0.275901705
0.521062374 0.515876114 0.277040124
0.544212461 0.518911779 0.283870727
0.569512844 0.523971915 0.289942712
0.597090542 0.527261257 0.300442755
0.623149753 0.535104454 0.311827987
0.649715126 0.541556001 0.326249480
