Assets/Shaders/EldamarStudio/100 Sci-Fi LUTs Pack/LUTs/cube/Robert LUT.cube
LUT_3D_SIZE 8
DOMAIN_MIN 0.000000 0.000000 0.000000
DOMAIN_MAX 0.903226 0.903226 0.903226
0.031373002 0.031373002 0.031373002
0.068564542 0.043895997 0.044275545
0.134850994 0.059582900 0.066666998
0.198987991 0.076787002 0.075648353
0.292093188 0.104110993 0.102593191
0.411005467 0.139025733 0.129284993
0.542694271 0.175458282 0.155218288
0.698544919 0.222517788 0.206704661
0.051739097 0.081087545 0.048197545
0.084250547 0.080708094 0.062744997
0.137507647 0.099556997 0.072105996
0.201264992 0.112080894 0.092473000
0.289436728 0.136369184 0.110183448
0.401771158 0.165717557 0.129664540
0.536495566 0.196204841 0.164452791
0.682858586 0.244149044 0.201644629
0.090828992 0.144971102 0.078305095
0.116761193 0.142947540 0.086527549
0.151170194 0.155092001 0.098671995
0.220113993 0.170778111 0.113219440
0.310942262 0.197343186 0.134850994
0.429474831 0.225932717 0.156230256
0.560657561 0.263251066 0.190385804
0.707147479 0.306641310 0.239594966
0.146868646 0.227704287 0.125616640
0.159646094 0.232131630 0.127134636
0.201517820 0.240354270 0.137381539
0.255155265 0.251739651 0.144086003
0.345224470 0.277166247 0.166856185
0.444655359 0.306894362 0.178114817
0.567488849 0.338646322 0.204174563
0.713598788 0.381530821 0.260594636
0.209993988 0.342188179 0.172296196
0.230360389 0.348133713 0.179380178
0.264010191 0.353194296 0.183301896
0.314863980 0.361796170 0.187982187
0.390133202 0.372042984 0.198229000
0.489183933 0.398228735 0.222137928
0.604680359 0.433017403 0.253763378
0.728905797 0.474762768 0.305882156
0.297785997 0.495508701 0.240986735
0.313472301 0.498418987 0.244022533
0.345730722 0.502087355 0.250094712
0.402276725 0.503225744 0.259203076
0.470714480 0.509930253 0.269323379
0.544212461 0.518911779 0.283870727
0.649715126 0.541556001 0.326249480
0.767615616 0.582669437 0.389373809
0.397975981 0.626312256 0.332574546
0.415559560 0.631372571 0.340543985
0.441492558 0.637571394 0.347501278
0.490575641 0.637950897 0.362302542
0.547375202 0.637571394 0.368627459
0.618469298 0.646299541 0.388488293
0.690701962 0.657052279 0.407083988
0.787603080 0.685262263 0.462871671
0.546868742 0.779632747 0.500063419
0.554585516 0.793168783 0.494496793
0.582416117 0.789500475 0.507147491
0.616951406 0.793927789 0.511448205
0.659961820 0.796584606 0.520556390
0.728146613 0.801011860 0.543579817
0.788235128 0.810626209 0.560025394
0.863377392 0.818722606 0.594180763
0.039216001 0.043895997 0.059962451
0.067805447 0.047438450 0.064262994
0.128905639 0.068185002 0.079569548
0.189879730 0.098798096 0.096015349
0.279569983 0.121441990 0.118279383
0.397596270 0.151170194 0.148007289
0.527134359 0.181784004 0.172422275
0.684503317 0.224035367 0.219607532
0.063503996 0.084630005 0.070082545
0.088172443 0.088551991 0.079569548
0.133586556 0.100316092 0.092473090
0.198608637 0.119544543 0.104237996
0.275142550 0.141809002 0.122960083
0.392283440 0.170019001 0.152055815
0.520809531 0.199241027 0.178874016
0.671474040 0.242504537 0.216065839
0.095509090 0.141809106 0.095888540
0.123845994 0.149272561 0.107779637
0.157115638 0.150790632 0.103731640
0.213789091 0.171537116 0.128905639
0.306641638 0.196204647 0.149272531
0.409108013 0.225679904 0.165211886
0.540543795 0.258064747 0.193801343
0.693864584 0.303352356 0.240986630
0.148007199 0.222264290 0.139784649
0.164073646 0.222264290 0.143327102
0.195319623 0.232131720 0.150790632
0.248071179 0.241492733 0.155850902
0.333079934 0.270082295 0.172296092
0.437444448 0.296394736 0.190006360
0.564832211 0.332700551 0.221125647
0.701201737 0.375711262 0.266793162
0.206830993 0.332827210 0.177355736
0.224414736 0.336242825 0.186463997
0.254901707 0.344971538 0.188741192
0.310942262 0.350917101 0.198608547
0.381150901 0.362175703 0.207337439
0.479822725 0.392789453 0.226312384
0.597596347 0.428336471 0.265781015
0.728778958 0.471347451 0.323465943
0.292599738 0.485388756 0.244022533
0.309677720 0.489816487 0.247817919
0.343453556 0.491334736 0.255155087
0.394307643 0.492473364 0.262998253
0.460088789 0.500822008 0.281214267
0.540669978 0.509424508 0.299810261
0.638710022 0.536748707 0.329917938
0.758886695 0.581024647 0.390385836
0.389247298 0.617963314 0.341808558
0.404427528 0.622896791 0.340417355
0.428969353 0.625806272 0.346616089
0.480708271 0.627704024 0.355597824
0.538393199 0.631878555 0.369765788
0.607084274 0.639721632 0.383428276
0.688804686 0.652877867 0.410120279
0.787223518 0.681846797 0.464389801
0.538140178 0.781277478 0.494244069
0.551929295 0.786084771 0.506135285
0.576470494 0.788741589 0.507273853
0.609867334 0.787855864 0.515749514
0.660341620 0.791903853 0.525616646
0.716381729 0.798228920 0.541429400
0.784314096 0.804807007 0.566350341
0.859835327 0.817204118 0.594939768
0.047059000 0.048576996 0.097912900
0.075648546 0.052877646 0.094370544
0.125363901 0.072105996 0.108918190
0.191144988 0.096395001 0.128146634
0.275648266 0.122960091 0.151170194
0.385958463 0.152814999 0.177861989
0.521441996 0.184819892 0.207589999
0.678937614 0.232131705 0.250221342
0.069702998 0.090954997 0.094750091
0.098418549 0.092472993 0.109803900
0.130803198 0.104237996 0.107653543
0.198608533 0.121821642 0.130803093
0.276154518 0.150158450 0.157622010
0.386717379 0.175458282 0.181277543
0.520682991 0.204806834 0.213789001
0.668564558 0.251359969 0.247311756
0.108159095 0.149652004 0.119038098
0.123466447 0.153574005 0.128020540
0.155092001 0.155851081 0.144971102
0.218975633 0.175078630 0.150790632
0.301581323 0.199747190 0.171537101
0.411132455 0.226059452 0.192662984
0.540164351 0.257685184 0.223909006
0.687918782 0.307273895 0.275901198
0.157874644 0.221884832 0.165970996
0.162049189 0.228209823 0.170019105
0.197722629 0.233649626 0.169133291
0.248956278 0.241872177 0.176976278
0.335104316 0.267298937 0.191018179
0.434408367 0.297533303 0.213282734
0.559518933 0.335483849 0.249335825
0.697533429 0.380771816 0.299304008
0.214041904 0.332068294 0.202909291
0.224414736 0.337128520 0.203795090
0.262492180 0.343074203 0.216318995
0.307400405 0.345730633 0.216951191
0.376723468 0.361923099 0.229475081
0.476154447 0.391651094 0.256925970
0.595066547 0.426059395 0.288804352
0.727260947 0.477545828 0.342062056
0.300442636 0.479822725 0.273624212
0.311954528 0.481594175 0.276786745
0.343074113 0.486653835 0.278684378
0.394307554 0.491840273 0.287792742
0.459709346 0.498165578 0.297912627
0.531815410 0.506009042 0.316634715
0.634408534 0.538772643 0.353826344
0.754711986 0.580012619 0.408096015
0.390132993 0.613282859 0.356483281
0.404174566 0.617583871 0.356103569
0.432131380 0.625047266 0.369386554
0.478051990 0.624541223 0.376090914
0.536242723 0.630360305 0.384946465
0.607969940 0.638583183 0.404933751
0.686780512 0.654902041 0.428210348
0.780392289 0.684124053 0.481340826
0.531562507 0.775711417 0.498291880
0.547627866 0.780265510 0.511068642
0.573054612 0.781150877 0.517014742
0.606831133 0.785199165 0.522833467
0.655028224 0.790006459 0.531562150
0.715243459 0.791397750 0.546995640
0.780392110 0.803162396 0.572422445
0.860088348 0.813788593 0.611511409
0.057178997 0.059962351 0.142947644
0.081467286 0.068944000 0.146109745
0.131688893 0.079569645 0.148893103
0.188868001 0.100315996 0.154712349
0.282352835 0.130929798 0.191524446
0.387096703 0.154079646 0.214674100
0.521947920 0.180518627 0.244402289
0.677039802 0.235673442 0.292346805
0.079822995 0.102340356 0.137128189
0.103478998 0.100695640 0.128020450
0.134724990 0.108918183 0.150411099
0.192663088 0.126502454 0.166476637
0.276407272 0.149652109 0.186337993
0.387223125 0.172675535 0.218975440
0.519544721 0.205945477 0.250094742
0.669955969 0.252498507 0.292220086
0.114484094 0.156356648 0.166856289
0.124478094 0.155471548 0.168374196
0.175964534 0.175585091 0.179000631
0.227577537 0.184946194 0.191145077
0.306641519 0.202909291 0.213156089
0.410373360 0.228336528 0.228968918
0.543959558 0.262491971 0.263124377
0.684756100 0.310183376 0.318153083
0.158127993 0.233775914 0.204554006
0.174193546 0.240860537 0.201644540
0.205945283 0.246299729 0.211005732
0.257937908 0.254522264 0.216445655
0.333838999 0.272106618 0.227830261
0.437571287 0.301454991 0.254142731
0.560657561 0.337507993 0.290449291
0.695382416 0.382795662 0.342062056
0.216192275 0.336369544 0.243263736
0.229980841 0.341429293 0.239215627
0.267173082 0.348260641 0.249083102
0.315243542 0.353320390 0.257685006
0.385325581 0.369259715 0.267425627
0.479696512 0.397469729 0.295635641
0.593674660 0.429601461 0.330423564
0.720935941 0.476534009 0.379759341
0.302593112 0.477925479 0.315749496
0.314105004 0.482479393 0.314357817
0.344971627 0.486780733 0.316382080
0.396331429 0.487539738 0.326628357
0.462492079 0.495382756 0.336369634
0.537381411 0.506767988 0.350031376
0.637571454 0.539785147 0.384693205
0.757748365 0.582669437 0.445414424
0.382922292 0.617836535 0.395319283
0.405439556 0.621125579 0.396078348
0.432637632 0.621125579 0.402150720
0.476533890 0.626185954 0.412144184
0.538013458 0.631245971 0.421252370
0.605692744 0.638203740 0.436306298
0.690195918 0.654269218 0.459835619
0.785705209 0.685135663 0.505755782
0.527387559 0.778494358 0.520430028
0.542188406 0.776976585 0.529791236
0.566097260 0.781657219 0.538899243
0.599114656 0.784819603 0.543959558
0.652245343 0.790385902 0.552308559
0.712586641 0.793421686 0.571030855
0.783934534 0.803921223 0.595193028
0.859582186 0.820366919 0.620366931
0.077546000 0.073624000 0.199747190
0.095888637 0.080328740 0.193421990
0.137001991 0.091714188 0.195066288
0.198608637 0.109677188 0.205186382
0.276407182 0.136369005 0.227830380
0.390512466 0.158254191 0.269702733
0.522074580 0.187096789 0.304617465
0.676533759 0.238329992 0.350917190
0.101454541 0.112839893 0.195319623
0.119038187 0.119544543 0.195445836
0.157115728 0.122200988 0.201644540
0.202909291 0.134724990 0.210752800
0.271600187 0.154332787 0.232257828
0.393548727 0.179000631 0.269070506
0.521062553 0.207969740 0.303099096
0.671347201 0.256926000 0.354838789
0.132321090 0.164453000 0.212144375
0.148007393 0.174067006 0.225426644
0.180139184 0.180139199 0.216066182
0.229475081 0.186843649 0.231119379
0.304617286 0.206072196 0.252119094
0.414168447 0.228716075 0.282732308
0.542567730 0.264769286 0.320176989
0.685262382 0.317140996 0.373687387
0.168501005 0.234029263 0.239722088
0.184440538 0.243516982 0.247058734
0.222770631 0.258064747 0.258317471
0.282606274 0.272486001 0.275648266
0.347121805 0.284629852 0.283365190
0.441492647 0.309297979 0.305629611
0.558886766 0.342567921 0.341682523
0.698039234 0.386337608 0.391144723
0.221758381 0.340670377 0.280329198
0.240227550 0.353194386 0.299937159
0.278052092 0.361923099 0.306135267
0.330550283 0.364199996 0.305376381
0.397090167 0.380771369 0.323466152
0.488424927 0.402276725 0.340164423
0.600000262 0.430740088 0.372802079
0.727640629 0.477672368 0.431499004
0.310310185 0.486147940 0.367362201
0.324351251 0.490828663 0.370145440
0.354458928 0.489183933 0.367615640
0.400253057 0.493105531 0.377102941
0.461733103 0.498924643 0.383934170
0.532953978 0.509930432 0.395066559
0.643010736 0.543200731 0.433776408
0.752687991 0.584946334 0.480075985
0.400253057 0.616445541 0.441619456
0.410246611 0.618216217 0.442884088
0.433902383 0.625806332 0.447185367
0.474636465 0.628083467 0.450980276
0.534851253 0.632890284 0.460594267
0.606198549 0.642251611 0.472106457
0.688425303 0.659456313 0.493991166
0.789879799 0.687159896 0.546489239
0.507273614 0.778367639 0.560151935
0.523972273 0.781910121 0.564452827
0.548893154 0.780771434 0.565717876
0.590891838 0.787982166 0.573054850
0.638962865 0.788867831 0.584060788
0.707526624 0.796078146 0.595572472
0.778873920 0.803921282 0.617963254
0.856672764 0.819228590 0.647944391
0.092220262 0.092093736 0.264136732
0.116761282 0.099810250 0.269576013
0.161669731 0.109676994 0.277166367
0.220999628 0.120683089 0.281846970
0.287665904 0.140670449 0.283744723
0.387223452 0.158633739 0.313092977
0.522706807 0.189120546 0.363567322
0.674256682 0.237570897 0.414041638
0.116887808 0.126502439 0.256673187
0.132321283 0.126502439 0.266034454
0.169260100 0.133586347 0.268437654
0.227071285 0.146109924 0.275142610
0.285262525 0.160531089 0.284250289
0.390259206 0.181024998 0.313851982
0.526881754 0.210246548 0.362428576
0.674256861 0.260973811 0.412776589
0.140670449 0.184061095 0.286274612
0.153826639 0.185199350 0.284503728
0.189120829 0.187982082 0.288930982
0.247058719 0.196204633 0.291207969
0.311575085 0.208349198 0.308918744
0.420366466 0.231878474 0.344971627
0.542061865 0.266160458 0.379380107
0.684376597 0.318911880 0.432510972
0.177355722 0.252498537 0.310816079
0.194686636 0.256419837 0.306008965
0.227071270 0.262998164 0.312966347
0.285388917 0.274003983 0.324351728
0.358633488 0.286527455 0.338140279
0.452877998 0.311954618 0.367615610
0.564832091 0.342821181 0.396837443
0.698671639 0.393674463 0.455913991
0.225047439 0.350411117 0.357494920
0.248703644 0.354206115 0.353447109
0.283870816 0.366477191 0.365844190
0.344212651 0.384946108 0.382542700
0.411511898 0.395446002 0.389373899
0.497659743 0.413029701 0.407337070
0.602277100 0.440480918 0.439722031
0.725490034 0.484756470 0.489943177
0.309424460 0.485641986 0.409234732
0.329285026 0.486780524 0.416571468
0.367362499 0.497280478 0.429981083
0.412017494 0.501201451 0.431878597
0.469955653 0.507147670 0.440480709
0.542441726 0.516888022 0.454142988
0.645414472 0.541176498 0.486147970
0.761037290 0.579886317 0.534218788
0.398861527 0.620746315 0.487286747
0.414547890 0.619607985 0.498292297
0.436432630 0.624161661 0.499810129
0.474256545 0.627197564 0.505249918
0.533712745 0.636685729 0.515622795
0.605313420 0.643263996 0.523592591
0.690954983 0.657052279 0.545603752
0.794813275 0.693105221 0.588614523
0.528273404 0.773813665 0.605186582
0.535989881 0.774826050 0.604427457
0.550664008 0.775331616 0.613029599
0.579000592 0.782795608 0.614927173
0.625426829 0.789753377 0.614547610
0.698671639 0.794054627 0.636053383
0.774446249 0.807336867 0.649209321
0.856293321 0.823023558 0.683997631
0.114357993 0.110435992 0.392030567
0.141429245 0.114104547 0.394307286
0.193422005 0.123086996 0.394307464
0.268058181 0.131182641 0.402150273
0.341935188 0.148133993 0.402277172
0.423655719 0.164579004 0.408096105
0.546236515 0.187223285 0.441366285
0.684756458 0.245667249 0.481467247
0.130043998 0.140923291 0.386843830
0.145730287 0.148513734 0.385325998
0.198102206 0.147754550 0.394307375
0.267678559 0.157874748 0.394054115
0.341176361 0.171157539 0.400252819
0.430992842 0.185958549 0.412144303
0.547121823 0.216192275 0.439848572
0.678937614 0.262491912 0.485515356
0.141935289 0.199746802 0.393548548
0.166603372 0.201770827 0.398355275
0.220240191 0.204301387 0.397596449
0.282606006 0.212270796 0.405818820
0.359266311 0.224035293 0.410752535
0.447691262 0.238456726 0.425932974
0.566729546 0.269196570 0.457938284
0.687159836 0.325743258 0.501454830
0.173813999 0.277545631 0.412270814
0.198861554 0.278684258 0.419101983
0.240860343 0.281087905 0.415559560
0.306641340 0.288172007 0.423908919
0.380265564 0.304996610 0.433143616
0.467678726 0.311954439 0.443010569
0.583681226 0.349905252 0.478810906
0.706008732 0.396204978 0.518406272
0.223149896 0.376470655 0.437950730
0.241745532 0.381277472 0.438709915
0.283491254 0.382795662 0.450600743
0.345477253 0.391777486 0.461100549
0.416571468 0.400126368 0.465022355
0.509044945 0.415812463 0.483112067
0.615559757 0.447185189 0.514484525
0.727135003 0.487539619 0.549778223
0.299430698 0.498039484 0.493864745
0.315622836 0.504996538 0.499177933
0.352561384 0.503099084 0.496521205
0.405313104 0.511068821 0.506514728
0.482858926 0.531056404 0.530044436
0.561922729 0.542062223 0.542694449
0.655534267 0.559519351 0.561037302
0.758886814 0.593042433 0.600885093
0.397975981 0.624035597 0.553447485
0.414041847 0.623782098 0.556989074
0.442251861 0.629601300 0.557495415
0.485515565 0.639721572 0.568500578
0.543326855 0.647691488 0.583301783
0.609361470 0.654775560 0.592030585
0.696900785 0.668817282 0.612903535
0.799114645 0.696141541 0.650347769
0.541555643 0.767994761 0.655281663
0.541176438 0.778494358 0.655028641
0.558001280 0.777229428 0.661985993
0.596964002 0.781910002 0.668184817
0.638709843 0.788614690 0.679822803
0.689689636 0.798861325 0.683112085
0.764452755 0.809360981 0.698165834
0.853636563 0.827324510 0.727007866
0.133332998 0.129411995 0.577102721
0.168753535 0.132447705 0.573560894
0.245161191 0.135989830 0.569259763
0.324351817 0.145224825 0.567109585
0.420113832 0.159772187 0.570398390
0.515496492 0.181404158 0.576976478
0.621758342 0.207336962 0.580012321
0.738013506 0.265654773 0.603162408
0.138899297 0.164579391 0.564453006
0.173687652 0.165970698 0.567615151
0.237191468 0.169259802 0.566603541
0.326375753 0.176597014 0.568121374
0.417836845 0.188361734 0.572422445
0.519671261 0.207463458 0.574066997
0.620493472 0.230233997 0.576217175
0.736622572 0.286401242 0.607210457
0.138646170 0.225047231 0.570904374
0.182289541 0.225426778 0.568121552
0.243390262 0.234029055 0.570524573
0.331182450 0.237570912 0.569639385
0.426945001 0.249335825 0.572801709
0.533206642 0.265275061 0.580518663
0.628462851 0.290322661 0.587476015
0.742694378 0.338140160 0.617583632
0.147248462 0.311195433 0.569006681
0.190006346 0.313978165 0.570271552
0.252245277 0.316381991 0.572801948
0.345224261 0.322833627 0.577862263
0.434029013 0.333080113 0.581783473
0.533333421 0.346869171 0.588488579
0.632005095 0.366856605 0.591524363
0.748260319 0.414547801 0.624035180
0.199747190 0.423149824 0.581530809
0.225426853 0.416698456 0.590132773
0.277672082 0.418342918 0.590006471
0.352941096 0.420872718 0.595319450
0.446426183 0.427956820 0.597723007
0.548893154 0.442378372 0.612397015
0.650347769 0.456420094 0.619354844
0.758507252 0.501834154 0.646679580
0.289437085 0.542567492 0.619481325
0.309045017 0.544971406 0.620367050
0.345603913 0.544465303 0.619734168
0.399620742 0.540670276 0.625426590
0.475395381 0.543959498 0.629601598
0.569259644 0.553700387 0.642504692
0.678178430 0.566856563 0.657684624
0.784693360 0.604807198 0.679822624
0.391524374 0.664769530 0.657178760
0.401897579 0.665528417 0.658696711
0.430233836 0.663883805 0.658949733
0.475395262 0.670588374 0.663883626
0.541935205 0.671600044 0.676407278
0.622264326 0.679822803 0.686780334
0.713598967 0.692346275 0.707779884
0.815433502 0.721948266 0.735610366
0.531309605 0.782289565 0.715622604
0.541176081 0.786843836 0.724857569
0.559139788 0.795319438 0.730803251
0.599746644 0.795572400 0.735104382
0.643390059 0.800758958 0.739278734
0.714357674 0.810246706 0.761922657
0.777735353 0.823782325 0.782922208
0.856672764 0.847817540 0.813915193
