Assets/Shaders/EldamarStudio/100 Sci-Fi LUTs Pack/LUTs/cube/Ruby LUT.cube
LUT_3D_SIZE 8
DOMAIN_MIN 0.000000 0.000000 0.000000
DOMAIN_MAX 0.903226 0.903226 0.903226
0.027450999 0.035294000 0.031373002
0.064642541 0.039595451 0.039974999
0.125363901 0.051739097 0.053257093
0.188361645 0.071726643 0.067805350
0.295129567 0.094750188 0.093231998
0.446173459 0.127387732 0.113724999
0.627956510 0.165337995 0.137887001
0.807083726 0.209360808 0.187222794
0.057685453 0.072865091 0.037191547
0.076407544 0.072865091 0.052118547
0.128526002 0.091334544 0.063504092
0.190259188 0.104996994 0.076407455
0.292346835 0.126502544 0.098292448
0.436432719 0.156609803 0.119924188
0.612270594 0.193042248 0.144465744
0.786843598 0.240986630 0.183301792
0.086148098 0.130803093 0.073624194
0.118785545 0.131562099 0.083871096
0.144086093 0.146489099 0.088551901
0.218469277 0.163694009 0.099051349
0.328020364 0.191018194 0.113472186
0.470461547 0.229348466 0.132574439
0.649082780 0.271094263 0.166097090
0.819354713 0.318659186 0.219607815
0.131815642 0.227197915 0.119923994
0.158886999 0.229981273 0.113851637
0.197976187 0.235420465 0.127261445
0.261353284 0.245667279 0.127261341
0.372042805 0.286780626 0.144465446
0.506768048 0.323592544 0.158507630
0.653889894 0.363946557 0.192409977
0.816571534 0.410879254 0.249715269
0.200632200 0.369639188 0.148133993
0.224288732 0.377735794 0.162428632
0.279696196 0.384440184 0.166856378
0.340164840 0.391903728 0.167994738
0.426059365 0.407969564 0.176217183
0.566982448 0.445793897 0.206704184
0.699557304 0.481720299 0.247185171
0.836938620 0.524351835 0.319164932
0.319291741 0.572169483 0.227324471
0.349399000 0.580265522 0.240480796
0.392662704 0.581657171 0.245794073
0.456167102 0.581277490 0.251612842
0.535736680 0.581151247 0.270967722
0.630487442 0.591397464 0.285641998
0.745477736 0.612144053 0.338266999
0.859202802 0.649335682 0.422770381
0.436812282 0.711954236 0.356103539
0.463377565 0.716002285 0.363314539
0.497027159 0.723086298 0.377735645
0.553953171 0.721947908 0.392156899
0.616445184 0.723972082 0.402150273
0.695382476 0.725110531 0.417457283
0.779253840 0.729917586 0.448829532
0.867299259 0.749145806 0.508412242
0.613662601 0.851486564 0.562808394
0.626312613 0.861480057 0.572801888
0.647185385 0.864262938 0.579759598
0.686021626 0.861732781 0.583428264
0.732194781 0.861606598 0.592915952
0.790765285 0.864389658 0.613409221
0.852498472 0.868690550 0.635546803
0.920682967 0.881467640 0.666034222
0.035673548 0.039595451 0.048576999
0.064262994 0.042757548 0.059962448
0.114737540 0.063504092 0.073244542
0.183681533 0.081846647 0.090196095
0.281088203 0.107273899 0.107400090
0.425426811 0.135989740 0.132827356
0.595698833 0.169513032 0.158633560
0.783428192 0.209108278 0.203415349
0.056040544 0.072485544 0.067425996
0.076407544 0.076407544 0.068564542
0.114358090 0.091713995 0.080708191
0.181277633 0.104996897 0.096015349
0.271220833 0.128020361 0.116761185
0.416065902 0.158254102 0.135989740
0.589373529 0.191018090 0.162555560
0.780644894 0.237065062 0.199873805
0.085389003 0.133207008 0.085768551
0.104997002 0.137128204 0.093990996
0.145350650 0.136243090 0.098671995
0.211764634 0.156989440 0.117520280
0.312334180 0.189500302 0.130044177
0.448829979 0.224288628 0.149145931
0.623023391 0.263503909 0.175078914
0.795698881 0.312713295 0.229475081
0.135736734 0.222138181 0.117267177
0.148260549 0.223782390 0.128779545
0.189753622 0.226059258 0.133459643
0.251486629 0.242504567 0.140923291
0.351929337 0.275395364 0.157115653
0.484629989 0.317773342 0.166730195
0.647438586 0.361290008 0.204174474
0.804554045 0.405059814 0.256293416
0.201644629 0.357494920 0.158001363
0.226312369 0.359392583 0.166729987
0.262239188 0.367995203 0.177102983
0.329664379 0.378241450 0.183048636
0.419228107 0.392283380 0.182922348
0.546869040 0.433776200 0.211637929
0.682479143 0.472991675 0.254269391
0.821884811 0.518911898 0.327387691
0.316508263 0.551928818 0.234788537
0.333586276 0.560151875 0.236432284
0.382922083 0.563440800 0.249083012
0.449082911 0.564958811 0.259455919
0.526249349 0.571663439 0.270588368
0.622517467 0.580265462 0.300316244
0.735610485 0.605439425 0.343074024
0.849968493 0.645667255 0.417583793
0.424541086 0.699051142 0.358001083
0.448576659 0.706261992 0.360025078
0.483744383 0.708159268 0.373813868
0.541682482 0.709677517 0.386211425
0.609614193 0.714484513 0.397975743
0.688045502 0.717140973 0.422770381
0.770524800 0.729032099 0.460341573
0.866413653 0.749145806 0.520682871
0.599999785 0.849083066 0.554332674
0.622644067 0.856546640 0.563947141
0.645920515 0.855661213 0.578874052
0.680581808 0.854143023 0.581910133
0.727007926 0.858064413 0.594939828
0.781657457 0.863883674 0.610879183
0.848197103 0.865148664 0.632384360
0.914863765 0.873624623 0.665654361
0.038329996 0.046299905 0.084630102
0.061100900 0.048197448 0.085389100
0.108918190 0.064262994 0.097153999
0.178621083 0.084629998 0.115622647
0.281847000 0.108159095 0.135483995
0.420999467 0.132447898 0.165844455
0.597343266 0.165211901 0.194939986
0.778873861 0.213282809 0.244908139
0.061100997 0.079949096 0.091714092
0.080328546 0.077166542 0.095635995
0.121821545 0.096015446 0.104617544
0.186464190 0.109297544 0.117520191
0.275648385 0.130423740 0.142694190
0.411764473 0.162175894 0.169259995
0.586337864 0.194180995 0.191903889
0.768753767 0.241492808 0.245287895
0.096394897 0.133207098 0.114358000
0.110056639 0.135104552 0.117899649
0.150411099 0.146489099 0.130044177
0.207842723 0.160151750 0.141809091
0.313978285 0.191145092 0.158254281
0.449082851 0.222896829 0.182163343
0.616065860 0.264010191 0.209867105
0.789500475 0.319797814 0.263250917
0.141682193 0.222643927 0.143200278
0.162555546 0.220240727 0.155091986
0.194180980 0.230866268 0.162935093
0.249209628 0.243390277 0.165591657
0.346362740 0.273877263 0.178747728
0.486274272 0.310183614 0.203921631
0.644655406 0.356989264 0.240986660
0.802023888 0.408222437 0.301201642
0.195699081 0.353194296 0.174573094
0.222011551 0.357748270 0.193801641
0.269450009 0.364073277 0.199747190
0.329285026 0.374699801 0.201264992
0.411891162 0.390006274 0.216192082
0.541429341 0.429854482 0.245414540
0.683744550 0.471473485 0.283997387
0.822137833 0.522327542 0.365211785
0.313219458 0.552308440 0.269829422
0.337128669 0.552561820 0.277925462
0.380897880 0.552055478 0.286401093
0.448323816 0.557495236 0.291967094
0.522833884 0.567868292 0.303352535
0.614800453 0.575711489 0.321947932
0.729158580 0.601012051 0.371916085
0.845667243 0.644275784 0.452245414
0.424920559 0.695509136 0.375585079
0.448323816 0.700695813 0.390512556
0.480708569 0.701960623 0.397469580
0.536622226 0.704996645 0.405692607
0.602909744 0.711195350 0.425553560
0.685009658 0.716255605 0.446299791
0.770777822 0.726881802 0.478937387
0.866540194 0.749778569 0.539658070
0.595572591 0.846173644 0.559139609
0.615053833 0.850347996 0.578620911
0.643896461 0.854775488 0.583301544
0.676786661 0.854016602 0.590259433
0.722960114 0.856420100 0.601771057
0.780518770 0.857937932 0.616318762
0.846552789 0.864895642 0.641619027
0.920050621 0.874889433 0.683491349
0.050474640 0.050980002 0.131688997
0.072485641 0.057178997 0.128020450
0.117140740 0.069702901 0.128020450
0.180518642 0.085768647 0.149652004
0.288551629 0.110056639 0.182416275
0.431372553 0.124731094 0.211511984
0.594307303 0.140164286 0.243896335
0.783934355 0.211511791 0.301201642
0.067678638 0.090954997 0.127640903
0.093738444 0.089310996 0.137634352
0.126502454 0.101960994 0.134725004
0.184820101 0.113219544 0.155091897
0.285009205 0.133965895 0.181783885
0.414927363 0.150158450 0.208728537
0.593674839 0.178241432 0.245793983
0.770271957 0.235799894 0.299430817
0.104617350 0.144212201 0.154712439
0.118279189 0.139784649 0.152688101
0.164579183 0.164958745 0.173940271
0.221631989 0.170398548 0.180518731
0.321441948 0.193548188 0.202529728
0.450600833 0.222517088 0.226312175
0.622770071 0.261986017 0.268564284
0.789500296 0.319418281 0.327514291
0.144085988 0.229348272 0.183934271
0.165591642 0.234408632 0.193295181
0.201138273 0.241113275 0.205439731
0.264136642 0.252371907 0.210246637
0.359898657 0.278178692 0.221379265
0.489816368 0.309551030 0.247185379
0.644275546 0.357748270 0.292726278
0.798229039 0.414168268 0.355091631
0.202150390 0.355471373 0.233522996
0.222770646 0.367236078 0.237570822
0.276154429 0.372043073 0.251865625
0.337507993 0.381404191 0.256546617
0.425174356 0.398608357 0.265907824
0.549399078 0.431878835 0.298039436
0.683871210 0.475268573 0.338899195
0.819102049 0.526502192 0.409108341
0.318153083 0.549272418 0.327513993
0.343959481 0.550031364 0.331941575
0.386590719 0.552182436 0.336749077
0.446426362 0.561669469 0.346489638
0.524478018 0.565211892 0.354332834
0.615433097 0.580392420 0.376217723
0.728146970 0.605060101 0.420366645
0.841998875 0.644149303 0.491840601
0.431751907 0.696773946 0.428462923
0.452245653 0.705376267 0.432764351
0.481594086 0.704364479 0.440733582
0.540417612 0.706894159 0.452624917
0.605439603 0.710056782 0.463757187
0.691334724 0.719417810 0.484503448
0.773560882 0.727008224 0.515369952
0.862871468 0.752688229 0.570271850
0.598228574 0.849714935 0.594560385
0.609740734 0.849335611 0.599240780
0.639089108 0.851233363 0.614168346
0.672232985 0.852498412 0.617330968
0.723972201 0.855661213 0.625553370
0.780645013 0.857937932 0.637191653
0.849209487 0.866540194 0.668437898
0.917393923 0.876280844 0.701201677
0.061859995 0.064263187 0.183175176
0.086147994 0.073624000 0.185958534
0.130803078 0.080708288 0.183175176
0.188361838 0.093991190 0.200885534
0.278811008 0.114358187 0.226944998
0.422137916 0.129411995 0.274383605
0.600379467 0.144086286 0.321568668
0.777229249 0.209993601 0.374066949
0.084630191 0.105755992 0.189500377
0.091334276 0.104996897 0.178747728
0.142947540 0.112839893 0.191397727
0.194180980 0.121821642 0.198861375
0.280581832 0.138266727 0.225173846
0.422263980 0.154079542 0.268437624
0.599999964 0.176217481 0.320556790
0.771157146 0.236306161 0.378241986
0.113598898 0.151170179 0.209234893
0.136369094 0.156609982 0.203921720
0.172296181 0.166856200 0.206578270
0.225932628 0.175078735 0.221505374
0.321821302 0.193422005 0.255281389
0.459582448 0.214547902 0.290069640
0.627956748 0.254396170 0.332574338
0.787476242 0.325869918 0.400885165
0.148766384 0.232890725 0.234281823
0.169386640 0.241113186 0.249335721
0.220746398 0.255534619 0.263883471
0.290701807 0.274636477 0.270714462
0.380771816 0.282353044 0.289183825
0.498798192 0.318911821 0.320556611
0.650980473 0.357621461 0.363440901
0.799999952 0.415939391 0.426059216
0.210626185 0.371157378 0.299683362
0.236179546 0.377482563 0.312080711
0.289057374 0.387602478 0.307653278
0.351928800 0.396710724 0.319797844
0.443263561 0.414294362 0.339784980
0.558886945 0.439595133 0.360025346
0.687792480 0.478431463 0.406325072
0.816318810 0.530044317 0.474636197
0.326755166 0.551676273 0.396458000
0.352435082 0.553447008 0.400632620
0.394307524 0.559645891 0.402403533
0.455914170 0.562808096 0.407590091
0.528905630 0.569765687 0.417457372
0.619986951 0.580012977 0.438077003
0.729791284 0.611385047 0.480328918
0.842251539 0.649335682 0.536242604
0.439215660 0.694876552 0.483871102
0.460214943 0.700821996 0.491334528
0.488045484 0.706768274 0.497912556
0.534598172 0.707021058 0.502213717
0.603162587 0.712081134 0.515116990
0.686148167 0.717899978 0.531815171
0.770145237 0.732321382 0.561163783
0.863630593 0.758380711 0.609740674
0.584692776 0.847564578 0.627830803
0.603921473 0.850221455 0.629601240
0.624541342 0.853636742 0.642630994
0.667299211 0.854522765 0.645287633
0.714737594 0.855281770 0.655534446
0.778241515 0.859961867 0.675015926
0.841366291 0.870082200 0.693864286
0.908918619 0.875142455 0.719417930
0.078304999 0.080328740 0.268058211
0.110436089 0.084250741 0.272359252
0.162428826 0.094117999 0.279822707
0.221125633 0.107020639 0.280835092
0.295382917 0.116002291 0.289942920
0.418595463 0.133332998 0.330423713
0.596964002 0.147248283 0.394813299
0.776470363 0.209360942 0.452624679
0.095129542 0.112713277 0.262492031
0.122200988 0.119291611 0.262492031
0.164453089 0.121442184 0.270714551
0.219101980 0.131309539 0.277672470
0.290322244 0.142947644 0.287160069
0.423781991 0.157874554 0.339911014
0.600759029 0.174066827 0.394433558
0.770777941 0.243642971 0.458443999
0.128146634 0.168374091 0.293485075
0.153953448 0.171030834 0.299430728
0.194686741 0.177735567 0.301834315
0.250348061 0.188868001 0.301201552
0.325869918 0.193042547 0.309424639
0.460974455 0.218089744 0.356862545
0.627451003 0.254016638 0.412144005
0.784946203 0.332194716 0.474889427
0.156609893 0.253131032 0.320176989
0.170904532 0.259076476 0.325363368
0.226186067 0.264895529 0.332447559
0.292220026 0.275774926 0.340164453
0.387729198 0.291967064 0.358127624
0.510942400 0.319291264 0.400379717
0.650221229 0.363441020 0.439721763
0.794180691 0.430234045 0.503984571
0.210499659 0.374826372 0.369765908
0.235167623 0.378747374 0.376344353
0.290069818 0.394433677 0.391777098
0.375331938 0.416445345 0.415559471
0.465022355 0.433269918 0.426059186
0.572043180 0.451739550 0.447311699
0.689689815 0.490828454 0.491081715
0.816951334 0.542694211 0.548260391
0.332827479 0.552182436 0.458190978
0.355850726 0.557115734 0.470461458
0.400000095 0.564705551 0.480708390
0.463377714 0.571663439 0.483870983
0.536116064 0.573687732 0.495129704
0.626565456 0.583428502 0.508791447
0.730423748 0.610373199 0.543580174
0.844022632 0.648450553 0.596837282
0.459835738 0.699557304 0.551296592
0.475774825 0.696647704 0.562808454
0.502087057 0.703352273 0.561922550
0.542188227 0.707653284 0.569892406
0.605439782 0.714737713 0.580139220
0.681846738 0.721441984 0.591018438
0.767362297 0.735104322 0.618848979
0.867552280 0.762681723 0.665148497
0.611258507 0.842251658 0.688298523
0.619607925 0.845540702 0.685894608
0.636053205 0.845287740 0.689183891
0.660594642 0.848070860 0.689816356
0.702972770 0.853257537 0.692473054
0.765464664 0.859329581 0.706767499
0.839721799 0.865401506 0.730170786
0.903731763 0.881340623 0.761290371
0.102592997 0.088551708 0.429222137
0.143326998 0.094117999 0.431878537
0.205819190 0.097280286 0.434282362
0.279822648 0.104237996 0.434155852
0.374826372 0.113724999 0.438836336
0.472232997 0.123086706 0.451107025
0.627577901 0.148007289 0.491334558
0.784566879 0.217457443 0.543959498
0.110309996 0.125363708 0.416571528
0.137507826 0.125110745 0.422264248
0.206451640 0.125363708 0.424794525
0.282353282 0.134851098 0.430992931
0.373434305 0.139405280 0.438330203
0.473244548 0.155597746 0.449715257
0.626565278 0.180265531 0.493358821
0.773940325 0.249715447 0.535104394
0.107273899 0.187096998 0.432005078
0.147754550 0.187602833 0.434787840
0.216065794 0.191145092 0.439341813
0.294117481 0.198861286 0.442378223
0.391018480 0.207590193 0.448070645
0.502087235 0.222011447 0.472106189
0.651106834 0.267678380 0.515749335
0.788614869 0.335610062 0.556483388
0.131562367 0.278304845 0.462238818
0.161796346 0.282606006 0.459456205
0.234914288 0.286148041 0.462744921
0.324098289 0.293864608 0.469449550
0.423782289 0.307147503 0.481214464
0.536495864 0.322074533 0.498039097
0.672232866 0.370145261 0.537760496
0.797090113 0.435167640 0.577988446
0.199114189 0.410752743 0.491967142
0.229601383 0.415180117 0.504870176
0.285768390 0.417204261 0.509424388
0.370777816 0.421631902 0.516255617
0.476280928 0.437571347 0.529158711
0.586590588 0.458823562 0.548007727
0.701075494 0.500316203 0.574825943
0.812143981 0.553953171 0.621505022
0.311575174 0.562681735 0.557748258
0.335990191 0.563946784 0.555977464
0.382669002 0.572042823 0.562934518
0.455787361 0.579127073 0.577735662
0.549778581 0.599494100 0.595445752
0.644655168 0.610626042 0.616065800
0.739658594 0.633902729 0.639848292
0.837571025 0.666413546 0.681973338
0.463883549 0.700189829 0.620113552
0.477039814 0.702214003 0.621631980
0.506388366 0.704870343 0.630360305
0.562302291 0.717520535 0.645287573
0.621758282 0.726122677 0.656925738
0.692726016 0.731309295 0.668437779
0.774699271 0.744971573 0.689057231
0.869070292 0.769639075 0.728779316
0.625426590 0.840354502 0.721695006
0.632004917 0.842125356 0.735104322
0.651992440 0.840480685 0.736116290
0.686653912 0.848450601 0.747754574
0.724984109 0.853257537 0.757874608
0.767488599 0.861480057 0.764326513
0.836179793 0.870715022 0.778874159
0.907653391 0.881847024 0.809234738
0.113724999 0.092852831 0.647691429
0.162555262 0.090575546 0.637571156
0.257811904 0.094876900 0.648450315
0.354206294 0.094117999 0.644022763
0.470208824 0.099557191 0.645034552
0.583428383 0.122453831 0.648323834
0.711321592 0.159266248 0.661859870
0.837318420 0.247564599 0.672485530
0.102087297 0.134724706 0.642504573
0.159266233 0.136622533 0.639974594
0.247058645 0.135736823 0.638077438
0.354965210 0.140923083 0.639721572
0.470461845 0.147121981 0.645287931
0.580391943 0.171030909 0.647185445
0.706514716 0.198481962 0.654016256
0.831372440 0.281846583 0.672738910
0.076787174 0.213155910 0.637191594
0.145097807 0.213029817 0.642504692
0.247438088 0.216824993 0.640100896
0.354838908 0.223149985 0.645793498
0.474635988 0.232005104 0.651865602
0.596584320 0.257684886 0.651739359
0.715496242 0.287412941 0.666540325
0.838582993 0.360657603 0.684250534
0.065274835 0.316888034 0.647058964
0.142188743 0.324731171 0.645667553
0.250980645 0.325490177 0.652245462
0.366730094 0.334977955 0.653763235
0.483238280 0.346362889 0.659835577
0.599493861 0.364073277 0.662239015
0.724604964 0.390765280 0.672485650
0.834408224 0.459962100 0.691966712
0.172043055 0.457684994 0.663251221
0.205566227 0.457558513 0.666540265
0.278684288 0.461100429 0.667299032
0.387982130 0.464642823 0.670967758
0.505755842 0.474383175 0.675648391
0.620113552 0.492725909 0.687666059
0.734724700 0.513472438 0.696015239
0.843643606 0.564199984 0.716761470
0.326122463 0.606072426 0.699936628
0.349778444 0.609614074 0.696015298
0.389373630 0.611132264 0.694876790
0.460088611 0.609108329 0.701075256
0.547121882 0.613915205 0.710563064
0.650221467 0.625300288 0.721189022
0.761543095 0.642504752 0.733206987
0.855154812 0.684503436 0.749272823
0.460214972 0.747754514 0.734345496
0.478051841 0.742567599 0.732827306
0.507273734 0.741682351 0.737001836
0.558380544 0.746742070 0.744844615
0.626059413 0.751170158 0.757115662
0.708665431 0.756357014 0.770272076
0.789753258 0.768500566 0.783934534
0.873877048 0.795825243 0.808475673
0.637318432 0.856799603 0.787349582
0.637697875 0.858317494 0.802403390
0.664136708 0.858064413 0.798734605
0.696141601 0.859329641 0.806325018
0.738393366 0.863250971 0.818595767
0.795572519 0.872359455 0.829095483
0.847818017 0.880202413 0.847311854
0.915369928 0.898544967 0.872612357
