Assets/Shaders/EldamarStudio/100 Sci-Fi LUTs Pack/LUTs/cube/Ruby LUT.cube
LUT_3D_SIZE 5
DOMAIN_MIN 0.000000 0.000000 0.000000
DOMAIN_MAX 0.903226 0.903226 0.903226
0.027450999 0.035294000 0.031373002
0.107906409 0.050980002 0.050980002
0.230866402 0.077798583 0.077165999
0.489690125 0.133459985 0.116761126
0.807083726 0.209360808 0.187222794
0.075521708 0.116381988 0.068311289
0.125869706 0.127513990 0.081720412
0.266540080 0.162175983 0.106261700
0.511195362 0.224035710 0.139911413
0.818595707 0.297659814 0.210752621
0.173308402 0.300821990 0.135357410
0.224667683 0.316255510 0.143200412
0.348640203 0.332953364 0.151043415
0.578873813 0.396963805 0.190638855
0.832511067 0.475522041 0.288678050
0.341556251 0.596458256 0.241492987
0.400253236 0.616065979 0.270841241
0.513093114 0.614168286 0.287286252
0.670967996 0.627830267 0.318026245
0.859202802 0.677166104 0.445540637
0.613662601 0.851486564 0.562808394
0.645161510 0.859961748 0.583301723
0.706388474 0.863124609 0.591524601
0.805945635 0.865401506 0.616951406
0.920682967 0.881467640 0.666034222
0.037571292 0.042504996 0.080075711
0.099051289 0.058190994 0.089563996
0.224668100 0.096141994 0.117394120
0.473877519 0.143832996 0.163820133
0.782668889 0.214294672 0.233270094
0.087286703 0.115749404 0.098418698
0.129158705 0.129791275 0.111827984
0.252498388 0.164452702 0.143579707
0.489310235 0.219101995 0.174572825
0.795319557 0.300569355 0.254143089
0.172928691 0.288045704 0.167362422
0.217710406 0.300189406 0.166350290
0.341429383 0.324098676 0.185705408
0.566729665 0.389500350 0.225426689
0.822137773 0.471600384 0.327134788
0.339532018 0.584693253 0.282985121
0.394054115 0.594813526 0.303858131
0.507273674 0.603288949 0.315749377
0.659835279 0.618975580 0.353320271
0.849462330 0.671347320 0.459329635
0.604680479 0.853257656 0.561416745
0.633523166 0.857305765 0.581530750
0.697785914 0.858949840 0.595066488
0.797470093 0.859202802 0.621631622
0.919038475 0.873624623 0.679696441
0.058823999 0.057558831 0.150410995
0.113472275 0.068311289 0.157621413
0.223023385 0.100695997 0.180518821
0.462492228 0.129791275 0.252245516
0.777102590 0.198987797 0.333080202
0.098418698 0.135357410 0.169386402
0.143200412 0.142567977 0.183807820
0.253130823 0.165085703 0.207969397
0.486021399 0.199114531 0.254775256
0.784819782 0.293738246 0.354585618
0.170651406 0.295635819 0.231498986
0.229854271 0.305755645 0.254396379
0.351928771 0.327007949 0.264895409
0.563187659 0.382669389 0.316002399
0.805692732 0.470967799 0.412776381
0.340164244 0.574572980 0.368753791
0.387982100 0.592915952 0.384440333
0.503858149 0.595825672 0.396078527
0.654395938 0.614800870 0.427577525
0.847817898 0.674636126 0.531562328
0.597343147 0.838203788 0.615686059
0.623023331 0.847438633 0.619228303
0.686653733 0.854016602 0.638456583
0.793674946 0.858950078 0.658823609
0.923465729 0.872991979 0.711195171
0.085389130 0.085389130 0.299431115
0.158380821 0.092852578 0.312207252
0.269955963 0.110815868 0.319038391
0.467172235 0.133332998 0.371916384
0.776470602 0.215433210 0.476913214
0.120556705 0.158254415 0.311701536
0.178241685 0.166097566 0.317520529
0.297027379 0.181530699 0.335989684
0.498924524 0.207969397 0.391271681
0.787729442 0.307653189 0.490322679
0.177102998 0.321189374 0.380645394
0.249082550 0.335230947 0.393295228
0.386590362 0.356736243 0.416318536
0.585072935 0.396457642 0.457305640
0.806451559 0.494244069 0.549146056
0.359140009 0.587603092 0.492599249
0.411637962 0.599367380 0.514358103
0.516002238 0.611132145 0.530170560
0.666034102 0.626945138 0.555344224
0.852371931 0.679822922 0.630233943
0.623149753 0.840733767 0.703225613
0.641619384 0.847058713 0.710689366
0.682479501 0.849462211 0.709677458
0.783428073 0.860341430 0.723213077
0.904743910 0.883870721 0.766350269
0.113724999 0.092852831 0.647691429
0.232258216 0.092852831 0.644149303
0.410246193 0.097406574 0.641239405
0.614041924 0.132574260 0.651106715
0.837318420 0.247564599 0.672485530
0.082606144 0.195192695 0.642251492
0.221378848 0.193295687 0.635040879
0.416445464 0.204427257 0.648070872
0.621884882 0.239468649 0.653004408
0.834281683 0.338140279 0.683238506
0.087160230 0.394560188 0.654142618
0.232511267 0.389626920 0.657811224
0.434408784 0.406325191 0.666666985
0.644781709 0.440354228 0.682985187
0.844276071 0.512966573 0.714357734
0.356229961 0.641998768 0.703478754
0.405565828 0.644275904 0.704743862
0.523972392 0.647185504 0.718279362
0.685389102 0.662238896 0.732826889
0.860214889 0.714864254 0.766223788
0.637318432 0.856799603 0.787349582
0.653510392 0.858317494 0.801264763
0.716255248 0.860594749 0.817583799
0.813029587 0.874889433 0.835167766
0.915369928 0.898544967 0.872612357
