Assets/Shaders/EldamarStudio/100 Sci-Fi LUTs Pack/LUTs/cube/Ruby LUT.cube
DOMAIN_MIN 0 0 0
DOMAIN_MAX 1 1 1
LUT_3D_SIZE 32
0.027450999 0.035294000 0.031373002
0.027450999 0.035294000 0.031373002
0.036052998 0.037444774 0.031373002
0.049462158 0.039216001 0.033902999
0.064642541 0.039595451 0.039974999
0.079822935 0.042631064 0.046046998
0.092473000 0.048197001 0.049588677
0.107906409 0.050980002 0.050980002
0.125363901 0.051739097 0.053257093
0.140543535 0.054775488 0.062365472
0.152814746 0.060720995 0.056925997
0.169006988 0.066792995 0.060974251
0.188361645 0.071726643 0.067805350
0.209614038 0.074762970 0.071093999
0.230866402 0.077798583 0.077165999
0.261732787 0.085641801 0.085641801
0.295129567 0.094750188 0.093231998
0.329791516 0.104490988 0.098671578
0.369260013 0.116635010 0.101707980
0.405945748 0.123213001 0.110309653
0.446173459 0.127387732 0.113724999
0.489690125 0.133459985 0.116761126
0.535356998 0.145603985 0.125742987
0.583933830 0.157748014 0.131815001
0.627956510 0.165337995 0.137887001
0.670461297 0.171410337 0.145350665
0.714484215 0.179000929 0.154964998
0.766097248 0.194180533 0.167108983
0.807083726 0.209360808 0.187222794
0.848323345 0.224541172 0.210246384
0.889057219 0.242378190 0.233649582
0.925490022 0.266667008 0.254902005
0.030487388 0.038330387 0.034408614
0.036559388 0.038330387 0.031373002
0.047312159 0.040480614 0.031373002
0.056546610 0.043516774 0.035167839
0.064642541 0.046426546 0.043769710
0.079822935 0.054775838 0.055155385
0.089943320 0.052751452 0.051106744
0.111448370 0.057305381 0.052624710
0.130676612 0.060088385 0.054016385
0.134471536 0.060847491 0.056293484
0.149651870 0.066792995 0.065401867
0.165971115 0.070841253 0.066034123
0.185326025 0.075901389 0.070841253
0.207084417 0.081087999 0.074383415
0.233902797 0.086906970 0.083238766
0.259962171 0.092346385 0.084503770
0.292093575 0.100822188 0.090196386
0.324857742 0.109297991 0.096900798
0.357116014 0.116635017 0.104743585
0.404933751 0.128778994 0.107779972
0.444275707 0.137254730 0.116382122
0.484629989 0.142568126 0.120809644
0.526249409 0.148640379 0.125742987
0.574826241 0.160784408 0.131815001
0.625679672 0.170651674 0.140164286
0.673244238 0.180265754 0.148387060
0.718532205 0.190638989 0.157495335
0.760025263 0.203288928 0.167108983
0.803668559 0.213156208 0.181909800
0.847058475 0.229348332 0.205945149
0.890828192 0.249335572 0.231498793
0.931562006 0.275774598 0.254902005
0.029222226 0.047817998 0.030993000
0.043896228 0.049968772 0.036559388
0.049968772 0.047818001 0.039974999
0.060088836 0.050853934 0.038709838
0.065401547 0.053131226 0.044655096
0.084123932 0.055155158 0.056799866
0.092093550 0.062745452 0.055914130
0.102846220 0.062998064 0.053130776
0.126375332 0.067805097 0.056419998
0.133333012 0.069196783 0.059202999
0.150031641 0.075015776 0.063630871
0.165212020 0.077039778 0.066666998
0.185578987 0.079949647 0.070714772
0.208096296 0.085515767 0.075269029
0.233523399 0.095382772 0.084377408
0.258697003 0.101454765 0.086274996
0.289057404 0.109044962 0.092346996
0.323718935 0.117520764 0.097786427
0.358633965 0.123592786 0.100822046
0.394939959 0.130929783 0.108665355
0.439721674 0.141176507 0.115496732
0.481467396 0.149272770 0.122580871
0.523466468 0.153826982 0.125869498
0.570019007 0.165971011 0.133965775
0.618722260 0.175838277 0.140164286
0.667551935 0.186337978 0.149272665
0.713851810 0.198988065 0.158886999
0.753320515 0.212776765 0.169639304
0.801897585 0.220113814 0.184060574
0.842631102 0.236306161 0.202782929
0.885641813 0.255787373 0.229348347
0.926881731 0.280581772 0.254902005
0.037571318 0.059961997 0.029980998
0.044402160 0.062998384 0.039089385
0.057811547 0.061733223 0.043517001
0.063883997 0.059961997 0.048323840
0.068058155 0.063377835 0.046426095
0.086653933 0.062998064 0.056799866
0.099051163 0.067552321 0.057558838
0.108412154 0.074636444 0.057431996
0.120556161 0.076913163 0.058191091
0.135230497 0.079443485 0.063757159
0.152055591 0.084124163 0.065654866
0.168248087 0.088678166 0.069196999
0.187982470 0.090955153 0.071474001
0.212144032 0.094117962 0.077293031
0.235420659 0.103225820 0.084377408
0.259709150 0.110563159 0.088804998
0.289816529 0.116888188 0.092346996
0.323845297 0.125363991 0.103858411
0.362681776 0.131436005 0.103352040
0.396584541 0.138773158 0.108918361
0.434408456 0.146742567 0.115496732
0.476913273 0.155850962 0.124604866
0.522327840 0.162302509 0.128146499
0.569006920 0.173308164 0.134977907
0.614294529 0.183175117 0.143074170
0.660214782 0.193675146 0.150537506
0.705249965 0.205313101 0.158633903
0.745477438 0.218975276 0.168500990
0.794307232 0.231246144 0.185831800
0.840101123 0.243643329 0.202024162
0.880455196 0.261353523 0.225932956
0.920303822 0.281087846 0.253636837
0.057685453 0.072865091 0.037191547
0.051233612 0.074383385 0.045540933
0.058191221 0.074256770 0.048576999
0.069955997 0.072106093 0.048703387
0.076407544 0.072865091 0.052118547
0.088551544 0.078937091 0.058191322
0.102846317 0.082479320 0.059203450
0.116381988 0.086400993 0.060847834
0.128526002 0.091334544 0.063504092
0.140670016 0.091334544 0.066540480
0.155723870 0.093864866 0.067425996
0.171283796 0.098924994 0.071473993
0.190259188 0.104996994 0.076407455
0.217077583 0.111322023 0.082479522
0.238329932 0.114610672 0.085642412
0.262365580 0.120430052 0.091840990
0.292346835 0.126502544 0.098292448
0.328020513 0.132953987 0.104237959
0.364452600 0.139026016 0.113345586
0.398482084 0.147501811 0.117267355
0.436432719 0.156609803 0.119924188
0.476533711 0.165338129 0.124604866
0.519164979 0.174319983 0.133332998
0.567488790 0.183175355 0.136116356
0.612270594 0.193042248 0.144465744
0.654395819 0.203162327 0.152814850
0.696900547 0.215180486 0.162428617
0.739405274 0.224288076 0.165465012
0.786843598 0.240986630 0.183301792
0.831878304 0.257432193 0.202150628
0.873624146 0.271220922 0.220619962
0.916128993 0.280328542 0.250979990
0.048577067 0.091081865 0.052371934
0.060721062 0.081973486 0.055408321
0.065021999 0.085641995 0.059456158
0.073877223 0.086401090 0.058190998
0.082479551 0.085009865 0.055154931
0.091587931 0.091081865 0.061226934
0.103731930 0.094623551 0.062239062
0.116381988 0.096014999 0.063883767
0.128526002 0.097786099 0.066160932
0.140670016 0.100442939 0.066540487
0.155723870 0.100442939 0.072485998
0.172928512 0.104996994 0.077546000
0.191777587 0.111069001 0.080202356
0.214041978 0.117394030 0.079443134
0.235294342 0.126502410 0.085515894
0.261353701 0.134598047 0.095888987
0.291208178 0.141682446 0.105502799
0.324478209 0.148387343 0.112839639
0.355344981 0.157242015 0.116381973
0.391777664 0.163314000 0.122706935
0.433396727 0.171789795 0.124477997
0.475901127 0.179885924 0.127008066
0.516128540 0.186463982 0.133332998
0.561669767 0.192535996 0.133332998
0.609993577 0.205945343 0.145224333
0.653383970 0.217330590 0.153826743
0.693864942 0.227450997 0.159899011
0.736368895 0.239468470 0.174573377
0.781530499 0.253889740 0.185578898
0.825806379 0.269576162 0.206324920
0.866540194 0.283870995 0.228209645
0.903985023 0.295508921 0.250979990
0.062238999 0.104237996 0.062492318
0.064263001 0.102719933 0.062998384
0.074256778 0.102213547 0.066034220
0.080708325 0.105375998 0.069070160
0.088930994 0.103984669 0.067172773
0.100189611 0.105755679 0.066792995
0.109297998 0.109297998 0.072865002
0.121441990 0.110689320 0.071220711
0.134345099 0.112207316 0.074004099
0.148260340 0.117014475 0.079317324
0.170904502 0.119671315 0.085136317
0.188108638 0.123719312 0.089184061
0.207463637 0.130929962 0.092473000
0.228969067 0.138393641 0.091840349
0.252498716 0.145224735 0.100189827
0.283365101 0.154332504 0.103858188
0.310942501 0.161922693 0.109550677
0.343579829 0.168627724 0.115622565
0.379632980 0.177735373 0.122453973
0.415559739 0.184060335 0.125743330
0.455787450 0.193927795 0.131815314
0.499683589 0.202656642 0.134092182
0.540670156 0.208855137 0.138519511
0.581404388 0.217330962 0.140923321
0.626944900 0.227956951 0.150031313
0.676660299 0.241492614 0.163567334
0.720683336 0.251739383 0.171031252
0.761163592 0.261859626 0.182163119
0.806325078 0.276660442 0.199747294
0.844781756 0.291840345 0.217204481
0.884123921 0.310562789 0.240733609
0.922200978 0.330929965 0.263630331
0.075521708 0.116381988 0.068311289
0.073876999 0.116381988 0.068311289
0.078684486 0.120176926 0.078684635
0.094117709 0.119417697 0.076660246
0.100189701 0.119417697 0.077040002
0.102213711 0.121947698 0.072738774
0.116761312 0.122833312 0.080581702
0.125869706 0.127513990 0.081720412
0.141049713 0.128273085 0.080202602
0.158886477 0.133459687 0.087539770
0.177862018 0.138266861 0.092093997
0.196457997 0.141682684 0.094497450
0.216951281 0.147754699 0.099810064
0.239468709 0.156103998 0.101327993
0.266540080 0.162175983 0.106261700
0.293105781 0.169006884 0.108918190
0.328020364 0.179632694 0.114990190
0.356356680 0.186590850 0.117267273
0.392789006 0.195698738 0.126375660
0.429474741 0.202023715 0.124984361
0.469702452 0.211891174 0.134851277
0.511195362 0.224035710 0.139911413
0.553447187 0.231625676 0.143326700
0.598988056 0.242251888 0.150916904
0.643010974 0.248703688 0.157494992
0.688551307 0.262239337 0.169639319
0.738140404 0.274636388 0.182795987
0.778747380 0.284883142 0.195319235
0.818595707 0.297659814 0.210752621
0.861986101 0.314484447 0.229095444
0.893611550 0.328778923 0.249462485
0.930043995 0.352308989 0.272232711
0.086148098 0.130803093 0.073624194
0.082352810 0.130044192 0.072865099
0.087286547 0.133586094 0.082732454
0.094876997 0.137634099 0.092599928
0.118785545 0.131562099 0.083871096
0.110816091 0.136116102 0.077799104
0.119418092 0.137128100 0.085389093
0.132700786 0.140417099 0.090069711
0.144086093 0.146489099 0.088551901
0.168374106 0.149525493 0.091587521
0.183933958 0.156230092 0.095382765
0.199873254 0.160278365 0.097153999
0.218469277 0.163694009 0.099051349
0.242757991 0.169766009 0.107399993
0.272105962 0.175837994 0.107400000
0.298418492 0.182669088 0.109677091
0.328020364 0.191018194 0.113472186
0.363820523 0.203794762 0.120050587
0.394307137 0.213156179 0.128652945
0.430992752 0.220240101 0.128399983
0.470461547 0.229348466 0.132574439
0.511954248 0.240734085 0.142947227
0.551929355 0.252751589 0.146363080
0.603541970 0.264263183 0.158507109
0.649082780 0.271094263 0.166097090
0.693864584 0.278937548 0.176470220
0.738393188 0.293105960 0.188615024
0.780644953 0.304996997 0.206325084
0.819354713 0.318659186 0.219607815
0.858570337 0.333586037 0.238076940
0.898165584 0.353067309 0.260088265
0.925490022 0.365212083 0.278305084
0.101328492 0.152055502 0.085768968
0.095256492 0.149019897 0.082732588
0.102213979 0.150411204 0.086274490
0.109045006 0.154838502 0.091587685
0.112713546 0.158886507 0.092979483
0.133965924 0.152814507 0.086907484
0.136116490 0.152308494 0.090955481
0.141809195 0.155597508 0.093991481
0.153194487 0.161669493 0.094623908
0.171410501 0.167741492 0.097659528
0.186970353 0.176596880 0.103605002
0.204174474 0.181530759 0.107526772
0.224541277 0.184566855 0.110436350
0.248829991 0.187982008 0.113472000
0.273117959 0.194054008 0.113472007
0.300062776 0.202529818 0.120682798
0.330297083 0.211511686 0.127893478
0.363820523 0.222011536 0.132194579
0.397217035 0.237191960 0.129158974
0.436052889 0.246552616 0.140544012
0.475395203 0.255534202 0.146236733
0.514990568 0.264769107 0.148766965
0.554965019 0.274003983 0.149399474
0.606578231 0.283112407 0.161543503
0.649082720 0.292346656 0.169133484
0.690195799 0.302592963 0.180771455
0.732321203 0.314357579 0.197722644
0.771790326 0.323465943 0.209867403
0.814042091 0.340670645 0.216951475
0.854522586 0.356862694 0.234028921
0.892346621 0.374825686 0.260720789
0.925490022 0.398608506 0.293485463
0.113599002 0.167488873 0.100822121
0.107527003 0.173181385 0.091967486
0.112207770 0.172295988 0.097533099
0.121062875 0.174573034 0.098039165
0.124731317 0.179000750 0.094876997
0.130803064 0.183048740 0.098924994
0.146995455 0.182036743 0.095382676
0.153826699 0.183681026 0.100316122
0.163693994 0.186969876 0.102846123
0.177608997 0.188740864 0.103731513
0.195825741 0.188993871 0.103857994
0.213029861 0.196078509 0.107906252
0.232384518 0.202277213 0.112080999
0.254902065 0.209107861 0.116887897
0.279190719 0.215179861 0.119544744
0.305882514 0.226059467 0.126754925
0.336242914 0.235673532 0.128272995
0.370904535 0.244781554 0.130043983
0.408855021 0.255407989 0.138393089
0.442252100 0.267805010 0.140923485
0.479569733 0.275142342 0.146995738
0.520050466 0.283238620 0.150031865
0.563314378 0.292346478 0.152182117
0.603794873 0.301454872 0.158760145
0.648576677 0.312839985 0.170904696
0.688677967 0.322580516 0.181024849
0.728652835 0.332700819 0.196204871
0.765717566 0.341809183 0.213156015
0.805186689 0.358886719 0.225300789
0.847438455 0.371790171 0.240734026
0.889816523 0.385578722 0.264769286
0.931308985 0.405818999 0.294117987
0.119671255 0.190765247 0.111954249
0.121695250 0.192789242 0.104870379
0.124351770 0.194560245 0.104617223
0.133460149 0.195825413 0.107399993
0.140291259 0.199241236 0.101328276
0.144971564 0.205313250 0.109044999
0.154079318 0.206325248 0.109550931
0.167615414 0.204680532 0.109803960
0.177862257 0.207716241 0.113978505
0.190006271 0.210246250 0.113978505
0.203921482 0.212270498 0.113978505
0.224161983 0.212270498 0.113978505
0.245793626 0.220619991 0.118153244
0.268817008 0.230360240 0.124225251
0.291334540 0.236432239 0.129032403
0.320050776 0.247311845 0.130803451
0.350411177 0.256420255 0.136875063
0.383175135 0.265022069 0.134218559
0.418469280 0.274130493 0.142188266
0.454396069 0.286021531 0.145983621
0.487792730 0.296267748 0.150917262
0.524098575 0.302466989 0.154079854
0.566224039 0.310815960 0.157495022
0.603795230 0.323718876 0.167362511
0.643516541 0.333080262 0.177988574
0.688804269 0.343832910 0.188741654
0.729664803 0.353953332 0.200759187
0.766097188 0.366097689 0.217456967
0.807210386 0.379127234 0.234408647
0.843137085 0.393801212 0.246552944
0.883111954 0.404933572 0.269702911
0.925237000 0.422011256 0.298166007
0.131815642 0.227197915 0.119923994
0.135610640 0.227197915 0.116128996
0.143959627 0.229474917 0.117646866
0.150158152 0.227324441 0.119164638
0.158886999 0.229981273 0.113851637
0.164958999 0.234535277 0.120682932
0.173560962 0.236685619 0.122200996
0.184313402 0.236179560 0.122707061
0.197976187 0.235420465 0.127261445
0.210879296 0.241492555 0.128399998
0.225300282 0.243516788 0.128399998
0.241239518 0.243390277 0.127261356
0.261353284 0.245667279 0.127261341
0.289183736 0.257558316 0.133080378
0.313978314 0.264515907 0.138266996
0.342441231 0.276533872 0.141809002
0.372042805 0.286780626 0.144465446
0.405439347 0.293485194 0.146868646
0.436306268 0.302593619 0.149398968
0.472232759 0.313346297 0.152435362
0.506768048 0.323592544 0.158507630
0.542188406 0.332700372 0.164579630
0.578747630 0.338899612 0.167994767
0.615180433 0.351043373 0.179127157
0.653889894 0.363946557 0.192409977
0.691840529 0.373054922 0.205439657
0.738393247 0.382669270 0.215053990
0.774825811 0.397217065 0.229601160
0.816571534 0.410879254 0.249715269
0.854901731 0.424161881 0.271220893
0.887412786 0.438076913 0.286906868
0.923339665 0.453510284 0.316761643
0.158128038 0.276533991 0.126249030
0.158128038 0.276533991 0.126249030
0.166224033 0.280329019 0.129790992
0.175584987 0.282100022 0.133586034
0.182416037 0.277040005 0.134092033
0.188488036 0.277040005 0.134092033
0.197343320 0.280075729 0.134345055
0.207843021 0.281214088 0.133838996
0.221252188 0.282226205 0.135863125
0.239468977 0.288298994 0.144971520
0.257684976 0.288552016 0.145603999
0.274130285 0.287286788 0.144085795
0.290449023 0.287413031 0.141682059
0.309171081 0.293485045 0.141935036
0.342568219 0.302593410 0.144971415
0.373560965 0.316255808 0.150158033
0.402656227 0.328399837 0.156230032
0.431245685 0.337254614 0.161796063
0.464642942 0.346363008 0.161796063
0.501075089 0.355724365 0.164579362
0.535357177 0.364579320 0.171410739
0.570525110 0.373434156 0.179253951
0.609993458 0.382795513 0.185578972
0.646552801 0.389247060 0.194813162
0.685009241 0.401897281 0.208222315
0.721947908 0.414547712 0.223402679
0.755850971 0.423909009 0.238583028
0.792282999 0.436053008 0.250726998
0.833016634 0.450600863 0.273497641
0.871473372 0.465781182 0.301328331
0.906641126 0.481594026 0.329917967
0.937002003 0.499810040 0.354206026
0.173308402 0.300821990 0.135357410
0.173308402 0.300821990 0.135357410
0.177609399 0.300821990 0.133206636
0.183681250 0.303352147 0.134598166
0.188867539 0.304490834 0.137381420
0.203668416 0.307399958 0.143200412
0.214800403 0.314990282 0.145730734
0.224667683 0.316255510 0.143200412
0.235926494 0.314611226 0.141429186
0.251612961 0.315623373 0.148007900
0.269828975 0.315876395 0.151296541
0.288045496 0.319924414 0.153700262
0.305629402 0.322960168 0.152055830
0.324351460 0.326881379 0.148007795
0.348640203 0.332953364 0.151043415
0.379632950 0.344465554 0.154079810
0.409993351 0.355724216 0.159266412
0.440353930 0.364199579 0.165970981
0.473750532 0.370651811 0.173940822
0.512713611 0.382542819 0.176723465
0.545856833 0.390259385 0.183554724
0.578873813 0.396963805 0.190638855
0.616065502 0.404047877 0.194686592
0.655534744 0.419228315 0.206831396
0.692093372 0.430233806 0.218342826
0.729158282 0.443010718 0.232511058
0.764958620 0.454016745 0.248197407
0.801391423 0.463377386 0.265907407
0.832511067 0.475522041 0.288678050
0.865401745 0.490069538 0.316508323
0.898798406 0.505249560 0.345097750
0.933965564 0.521062374 0.369386405
0.188488185 0.334724605 0.142061993
0.188488185 0.334724605 0.149272799
0.194939956 0.339025587 0.138520017
0.200000152 0.338266730 0.140796810
0.204554141 0.339026034 0.146868989
0.219734535 0.342061669 0.148892999
0.229980797 0.342947096 0.147628322
0.247058496 0.348766476 0.153953284
0.259961963 0.348007798 0.152434900
0.273498058 0.348007798 0.153573960
0.286780596 0.350410968 0.154332936
0.302972853 0.352435231 0.157368556
0.323086798 0.355850786 0.159266204
0.344085813 0.357874602 0.156736195
0.366223782 0.363946557 0.161922574
0.388108760 0.370018572 0.162554994
0.418469161 0.379126966 0.168627381
0.450727314 0.387981951 0.174952582
0.487665802 0.397596747 0.180518970
0.521821260 0.404427797 0.188867629
0.559392631 0.418469489 0.190005988
0.590765059 0.428083569 0.199620321
0.624414802 0.436938584 0.208475292
0.661606729 0.445287704 0.218342811
0.696521282 0.455914080 0.230486989
0.732827127 0.466540247 0.245414317
0.769765854 0.477672786 0.262618840
0.808095872 0.488678128 0.282732576
0.834408641 0.502846420 0.301454633
0.870082080 0.513219535 0.331056118
0.900569379 0.527134418 0.362934589
0.930929780 0.542314827 0.391777575
0.200632200 0.369639188 0.148133993
0.209740564 0.375711560 0.155724198
0.213155955 0.370904177 0.158254206
0.219734356 0.379506499 0.153194144
0.224288732 0.377735794 0.162428632
0.239469111 0.378494442 0.159012988
0.248071060 0.379000366 0.156483322
0.259202898 0.382162869 0.160025656
0.279696196 0.384440184 0.166856378
0.293358743 0.384440184 0.164579675
0.308539212 0.385831505 0.162934989
0.322707444 0.388867646 0.164959118
0.340164840 0.391903728 0.167994738
0.363820434 0.392030209 0.168374196
0.385072768 0.394307345 0.171916187
0.406325161 0.398861170 0.177735373
0.426059365 0.407969564 0.176217183
0.458317548 0.414673954 0.185958132
0.497786015 0.425932944 0.191651165
0.528652370 0.432511389 0.195699036
0.566982448 0.445793897 0.206704184
0.602403343 0.456926286 0.208728448
0.633270204 0.467425853 0.222517356
0.666919589 0.474889189 0.235800087
0.699557304 0.481720299 0.247185171
0.731562316 0.489436984 0.257937849
0.767742097 0.499430835 0.276281059
0.806198597 0.512586951 0.297533393
0.836938620 0.524351835 0.319164932
0.862491906 0.539026141 0.341682315
0.900189579 0.551675975 0.374193370
0.926375985 0.568121374 0.406957984
0.212903142 0.404300690 0.154838577
0.229222164 0.415180326 0.160910577
0.236053213 0.413282722 0.166350156
0.240986735 0.409360856 0.173054740
0.245161563 0.420367092 0.181024581
0.260088921 0.417836756 0.172675222
0.268943965 0.417330682 0.169259891
0.277672559 0.419354707 0.170272127
0.291334569 0.425173700 0.179000989
0.309550554 0.425173700 0.179000989
0.327134728 0.424541116 0.176091120
0.344592214 0.425932825 0.177735656
0.362049609 0.428969055 0.180139348
0.382795990 0.432004660 0.183428049
0.403289378 0.429727972 0.184187144
0.423909187 0.430866301 0.189500377
0.444908530 0.436558932 0.193801373
0.465654701 0.447438538 0.191397563
0.505123198 0.456546158 0.203542367
0.534724534 0.462871701 0.207084402
0.569006622 0.474636555 0.215306818
0.607210338 0.489057660 0.228083253
0.640734017 0.492347002 0.234661967
0.672106147 0.501454651 0.252877980
0.702466547 0.507653177 0.265275002
0.733459711 0.515622735 0.279822618
0.763820529 0.522706687 0.289437115
0.800000250 0.537760556 0.310309976
0.833143771 0.548260331 0.334218502
0.861859500 0.560278296 0.359771937
0.888804197 0.575332165 0.384566754
0.922201395 0.596584558 0.414927572
0.237192005 0.443770021 0.163947031
0.246299595 0.449842006 0.170019016
0.249715075 0.454269856 0.173940778
0.255028367 0.456040800 0.178494960
0.266414016 0.459835589 0.184061006
0.278558046 0.462871969 0.184061006
0.290955037 0.462871999 0.183301970
0.300948769 0.462871999 0.181404293
0.312587023 0.464895993 0.182416156
0.330803007 0.470715016 0.191145048
0.346109897 0.467805147 0.188235179
0.365591288 0.467046022 0.191271052
0.386337698 0.468437701 0.194813073
0.407084078 0.471473962 0.195572108
0.422264487 0.474509567 0.201644868
0.440354049 0.474636048 0.202403978
0.461859494 0.476407200 0.204680815
0.486907154 0.480835050 0.206578016
0.517268002 0.486907005 0.206578031
0.551170409 0.493231982 0.218722075
0.582163453 0.501201808 0.227956802
0.612524152 0.511069179 0.237571135
0.640734076 0.519671500 0.246806026
0.677166879 0.528779149 0.265022039
0.708538949 0.533333302 0.274130046
0.740290642 0.542188644 0.290448666
0.772928238 0.556103945 0.313725203
0.803288937 0.568247914 0.325869977
0.834155679 0.580645025 0.349398971
0.862998128 0.592536449 0.377229393
0.891840577 0.604934037 0.405313224
0.925237060 0.617837012 0.430108011
0.289310753 0.527767122 0.206451386
0.292852342 0.531056523 0.209740728
0.299810290 0.532827497 0.211511731
0.306135446 0.533966124 0.213915542
0.317900300 0.534724951 0.217710733
0.327641100 0.532953680 0.217710733
0.334725082 0.533459723 0.220240414
0.346363097 0.533459723 0.218849093
0.358127832 0.534218848 0.216572091
0.374320090 0.538267136 0.219608217
0.386843592 0.535610259 0.222643867
0.406071991 0.534598112 0.221631736
0.427324384 0.534598112 0.223908737
0.448323816 0.535736740 0.224161774
0.466034502 0.536242664 0.227704212
0.486021280 0.534471929 0.233776376
0.507653117 0.535610259 0.239089563
0.530676723 0.538013756 0.244023085
0.552434981 0.539784729 0.244023085
0.580013156 0.545856714 0.249589100
0.611511707 0.550031483 0.261733085
0.642884374 0.557368875 0.271726876
0.673751235 0.566224217 0.280961722
0.702214181 0.570018888 0.293864727
0.729538381 0.579127073 0.309804022
0.761669636 0.585958421 0.325743049
0.795445800 0.597343743 0.350663811
0.823529243 0.607210398 0.369639277
0.851233184 0.619355083 0.392410040
0.881467342 0.629727840 0.414927274
0.908918321 0.642631233 0.443137318
0.936622024 0.658570766 0.473118365
0.319291741 0.572169483 0.227324471
0.322327316 0.573308110 0.234155387
0.329411536 0.579885960 0.242631465
0.338013977 0.579885960 0.240101144
0.349399000 0.580265522 0.240480796
0.356989175 0.580265522 0.238962993
0.367362738 0.581657171 0.247185409
0.380012721 0.581657171 0.248576730
0.392662704 0.581657171 0.245794073
0.406704456 0.583554924 0.244655728
0.418975472 0.584566593 0.245667592
0.437191725 0.583554447 0.250474483
0.456167102 0.581277490 0.251612842
0.475648493 0.579759479 0.252877742
0.493864805 0.579759479 0.257558405
0.514484644 0.581151247 0.264895707
0.535736680 0.581151247 0.270967722
0.560278296 0.584187031 0.278431565
0.582289517 0.585452199 0.279696733
0.603162348 0.587223172 0.281467706
0.630487442 0.591397464 0.285641998
0.658823431 0.594433844 0.297786266
0.689310730 0.601771235 0.308033198
0.716635108 0.608349323 0.321947992
0.745477736 0.612144053 0.338266999
