Assets/Shaders/EldamarStudio/100 Sci-Fi LUTs Pack/LUTs/cube/Saiyani LUT.cube
LUT_3D_SIZE 8
DOMAIN_MIN 0.000000 0.000000 0.000000
DOMAIN_MAX 0.903226 0.903226 0.903226
0.000000000 0.000000000 0.000000000
0.078304999 0.016065547 0.003922000
0.193548098 0.040734001 0.005439999
0.310057282 0.067298993 0.004553996
0.456546366 0.094750188 0.006957998
0.608981729 0.117520481 0.013788744
0.756736577 0.149652004 0.024161994
0.907779574 0.174066812 0.049841974
0.015686000 0.098292544 0.053257097
0.071220994 0.104997002 0.028968997
0.179000646 0.141429543 0.022390548
0.310183287 0.160278544 0.017204095
0.453889906 0.173940271 0.022011196
0.605945706 0.193168730 0.024667548
0.758127809 0.213409245 0.038836259
0.901201725 0.228969201 0.060088370
0.089057192 0.235800087 0.146363184
0.127134636 0.234914288 0.165212095
0.216951206 0.235800102 0.106514990
0.334092528 0.248323992 0.060215093
0.471473455 0.296268195 0.071347103
0.623402536 0.308285832 0.068437830
0.769386411 0.323592454 0.073497899
0.918152928 0.339152277 0.103099070
0.268184572 0.397596568 0.289437264
0.308918476 0.404680431 0.312334150
0.339531660 0.411005467 0.280202270
0.411005557 0.384060919 0.182289273
0.521062791 0.364959091 0.138646185
0.641366363 0.420240521 0.132447988
0.774193227 0.458570629 0.135736644
0.916508615 0.471473485 0.153320655
0.461986154 0.599493980 0.433902383
0.503352523 0.609487355 0.474509567
0.532447636 0.610246480 0.480835259
0.564326227 0.603162587 0.395698816
0.618216395 0.549146116 0.281214178
0.699557364 0.491840661 0.197596446
0.811638176 0.542188168 0.208981276
0.916508496 0.594813347 0.222643822
0.666034460 0.772042990 0.621125758
0.687539518 0.775964439 0.636306047
0.715496480 0.781783760 0.666919708
0.719797611 0.777356207 0.632763803
0.753700376 0.763567030 0.543453455
0.803036451 0.709171474 0.414927453
0.863630295 0.622517705 0.303732187
0.954332650 0.667172730 0.319164842
0.789753318 0.878052235 0.753447533
0.802023828 0.880329013 0.749399126
0.826818466 0.883365154 0.777229548
0.839974642 0.883744657 0.784693182
0.847185314 0.874636531 0.740544081
0.875522017 0.869323134 0.662871361
0.912334025 0.827324569 0.555091798
0.979759872 0.734724700 0.428083360
0.886400819 0.943959653 0.851233661
0.893737793 0.950410962 0.859962106
0.908791780 0.951043606 0.856672943
0.913345814 0.948260844 0.882479429
0.927514195 0.950537801 0.867931783
0.932195008 0.952308714 0.828083813
0.961290121 0.950158238 0.775079012
0.997469962 0.911321819 0.683997631
0.000379548 0.065401547 0.105756000
0.076787002 0.015686000 0.108918093
0.195066094 0.025047192 0.113598995
0.309298187 0.046173189 0.108918190
0.453130722 0.073244646 0.107273899
0.603036463 0.103858449 0.124225549
0.754838824 0.131562278 0.130423829
0.900316119 0.156609684 0.137128085
0.000000000 0.118279092 0.101075098
0.058317542 0.121062547 0.116381548
0.176976278 0.131182626 0.112460546
0.309803724 0.152435541 0.115243189
0.448450625 0.167741999 0.121948257
0.601518273 0.182542995 0.122960284
0.749905109 0.202909574 0.129159003
0.906135261 0.218342528 0.145351350
0.068058103 0.240101531 0.164073557
0.134218723 0.244402200 0.194307208
0.196078643 0.239342555 0.158254087
0.317900151 0.257685184 0.137887180
0.469575912 0.287159741 0.139405176
0.615306914 0.297659993 0.139025733
0.760657728 0.315369934 0.152308553
0.909044862 0.331435800 0.162428632
0.246678904 0.398861736 0.281720340
0.288551450 0.398102820 0.315116912
0.332068026 0.404427737 0.304111719
0.396457911 0.381024718 0.227830172
0.504996657 0.371663630 0.184060812
0.631119370 0.424920827 0.187982276
0.775585234 0.455154985 0.187602833
0.915622652 0.463124484 0.200379178
0.444655448 0.585451901 0.434535384
0.482858926 0.591777086 0.460468382
0.537760913 0.600759208 0.504870534
0.553320706 0.594939947 0.423276633
0.605313003 0.540544033 0.312966526
0.684250534 0.491081446 0.234029278
0.801012099 0.546362817 0.248956338
0.917899966 0.597216964 0.265781015
0.649841905 0.762934744 0.624035537
0.665148616 0.767109275 0.622770309
0.703858137 0.772675455 0.663377464
0.717520416 0.771031022 0.640480638
0.743580103 0.759266257 0.559645832
0.785452247 0.706641257 0.430487275
0.861732841 0.619354725 0.322580278
0.950158119 0.665907621 0.344339073
0.788488150 0.871220827 0.751549840
0.799367309 0.874889255 0.752941132
0.818595767 0.876660585 0.769765973
0.846426308 0.883365273 0.787729204
0.843516827 0.880202472 0.746110201
0.871221006 0.869449973 0.677292824
0.910309911 0.826438963 0.579253852
0.975332081 0.734851539 0.449588805
0.883238792 0.948893070 0.860973775
0.891081810 0.948513865 0.853763700
0.900442839 0.950158238 0.861353517
0.920809686 0.944086075 0.884124041
0.927387357 0.951929152 0.872232616
0.934724689 0.950158238 0.834408522
0.960277975 0.943959653 0.778874278
0.991650939 0.910816014 0.704364300
0.000759096 0.165338203 0.233396277
0.000759096 0.058317550 0.232257724
0.186464190 0.029728092 0.218596101
0.316002637 0.041113354 0.221632197
0.458191246 0.039215803 0.228842288
0.604680419 0.018975101 0.226059541
0.750411153 0.035926994 0.222390994
0.900442660 0.080075890 0.230360284
0.001897546 0.239342541 0.230739743
0.000000000 0.179759637 0.218469292
0.181657195 0.125743553 0.228083089
0.317646831 0.134345442 0.220873103
0.458191246 0.137634546 0.224035278
0.597217023 0.133965999 0.219228193
0.754712284 0.160278454 0.228462934
0.902340293 0.185831696 0.240986750
0.000759096 0.249968097 0.213156104
0.002276997 0.247565091 0.214294657
0.174573094 0.247565091 0.224035278
0.318405926 0.262492180 0.225300446
0.466919482 0.266413987 0.241493091
0.617836833 0.283364832 0.240986735
0.755724251 0.291461378 0.239595369
0.906388581 0.307020992 0.255914152
0.117014267 0.391651183 0.274004072
0.215559810 0.384060830 0.300316542
0.326628953 0.398987800 0.351929009
0.370272189 0.374699652 0.281973213
0.490955144 0.384946018 0.263883382
0.620113611 0.426565617 0.269070417
0.772928596 0.439089000 0.271726996
0.914358139 0.448450446 0.282352954
0.396964073 0.574320078 0.433143467
0.434661388 0.575711489 0.445919991
0.512207508 0.589120507 0.493358344
0.544339299 0.585072577 0.476913273
0.586084485 0.535863161 0.360278159
0.676786542 0.506388605 0.310562730
0.796078444 0.561669469 0.323592275
0.915117025 0.599241078 0.336495936
0.622643828 0.756989360 0.609487534
0.645667195 0.760025382 0.623656213
0.681340456 0.768754065 0.653130949
0.725869894 0.772549093 0.674636245
0.735736430 0.758001089 0.599241197
0.777356386 0.699177742 0.481214821
0.850094676 0.632637799 0.387982011
0.943579972 0.678937554 0.404047996
0.771536589 0.880075991 0.737887263
0.784819841 0.875774860 0.759772241
0.811005414 0.881720245 0.775711358
0.847185373 0.878558099 0.798608124
0.847691298 0.880961537 0.770904541
0.869070351 0.871853292 0.709803879
0.908032835 0.832384348 0.608602345
0.973308027 0.750410914 0.500948548
0.880835056 0.948640049 0.845414221
0.892093360 0.949904859 0.854648829
0.900442719 0.951296747 0.864642620
0.923086643 0.948639989 0.879190564
0.927766860 0.952940822 0.888424873
0.931688726 0.951676190 0.858823717
0.958633363 0.946615815 0.802782893
0.989879847 0.919038773 0.719544828
0.000000000 0.274130285 0.380645275
0.001518095 0.209487736 0.367741734
0.024035733 0.056672737 0.355217904
0.312334269 0.035294000 0.336875290
0.462492019 0.033776194 0.348640293
0.611891329 0.014674360 0.348260522
0.753953159 0.004427648 0.346995264
0.909171224 0.000000000 0.353826433
0.001138644 0.323212832 0.373181611
0.000000000 0.278811097 0.372802138
0.011764649 0.156356633 0.343326807
0.314864188 0.133586451 0.334472090
0.460594445 0.131309554 0.341176540
0.602782965 0.122707255 0.347881198
0.755850852 0.105882287 0.348640293
0.904237449 0.074256755 0.352435261
0.000379548 0.421884835 0.381024718
0.002783356 0.410499364 0.379506737
0.015180193 0.308285713 0.365464807
0.331436098 0.249968201 0.349145651
0.472865522 0.249588639 0.343200177
0.613788843 0.248070836 0.341176540
0.763440907 0.239468843 0.344718188
0.906893969 0.247691199 0.348260343
0.003415642 0.388488293 0.333586276
0.002783356 0.386464030 0.337634206
0.172802180 0.378747731 0.338772714
0.337001920 0.367741942 0.346995264
0.471726716 0.382668853 0.355217844
0.618722320 0.393674731 0.356736004
0.769639194 0.407463282 0.363820612
0.914358139 0.421884835 0.377229631
0.183048368 0.536242723 0.407337368
0.253889740 0.540544212 0.411891550
0.396710753 0.547248542 0.452119172
0.538013518 0.581277609 0.531182349
0.556230307 0.531562030 0.427324623
0.657179236 0.529917717 0.403795004
0.779633224 0.571537137 0.410879046
0.915875971 0.586717188 0.429728031
0.535104275 0.733080089 0.582163095
0.572675586 0.738899350 0.598482192
0.639721930 0.745098114 0.626818359
0.718026638 0.761669457 0.682858825
0.730297327 0.757241964 0.656420350
0.758633554 0.703225732 0.542062104
0.831625700 0.650348008 0.470967650
0.928526103 0.697785974 0.492599428
0.748893261 0.864768922 0.733586252
0.761289895 0.874763250 0.740417242
0.787855744 0.873498082 0.761669874
0.831625283 0.886527240 0.793042302
0.859961927 0.888045251 0.809867084
0.871980011 0.873118460 0.750411391
0.895635486 0.838456571 0.655407786
0.963567078 0.767236054 0.563946903
0.873750806 0.950664043 0.846173346
0.880328774 0.953447223 0.857305586
0.897912502 0.953699946 0.869070172
0.916508615 0.956862628 0.883365154
0.935610592 0.954965174 0.903478563
0.940670550 0.954206169 0.878178656
0.955218077 0.950284421 0.824668050
0.987349570 0.922959983 0.750537395
0.001518192 0.386211187 0.542821348
0.000000000 0.343959183 0.541429162
0.000000000 0.204427466 0.528020203
0.248703629 0.075268999 0.484124154
0.461100578 0.025300620 0.459835559
0.620113730 0.005566196 0.478304923
0.753573656 0.000759096 0.477039993
0.906514823 0.003668653 0.487412989
0.000379548 0.430486947 0.545983374
0.000000000 0.386843383 0.537760735
0.001138547 0.278431654 0.517773330
0.238836259 0.157115743 0.487665743
0.469575912 0.128526092 0.462998390
0.609487653 0.121948160 0.469576031
0.760531247 0.096141748 0.479822934
0.908159435 0.063124463 0.481340826
0.001517999 0.537381411 0.546869278
0.000379548 0.503731966 0.543706357
0.003921806 0.415939301 0.533586264
0.221885011 0.271094173 0.500948727
0.477799088 0.243643284 0.464389533
0.616445243 0.243390456 0.470335007
0.762175679 0.232890815 0.476154357
0.906388581 0.224794179 0.476660550
0.004807003 0.600379765 0.533206880
0.000758999 0.601138651 0.533459544
0.000000000 0.583934009 0.539405644
0.260720998 0.437697381 0.503984749
0.480708361 0.365464628 0.470335007
0.623782158 0.368501008 0.472611904
0.766982615 0.366729975 0.471600473
0.908159196 0.369007081 0.478304833
0.002403808 0.543706357 0.469450176
0.002403808 0.535863400 0.462239206
0.195825368 0.531941533 0.466919482
0.354458839 0.514357924 0.477293193
0.501454949 0.503605366 0.477925360
0.632511199 0.520936370 0.482605994
0.775585115 0.532700419 0.491967112
0.916381776 0.548387170 0.509424508
0.262492001 0.690702021 0.536749005
0.314610988 0.695129395 0.546489477
0.434661388 0.700821936 0.564326108
0.580265462 0.714611053 0.609993517
0.721947968 0.744718492 0.693864465
0.714231491 0.685262740 0.590638459
0.811764717 0.676913261 0.562555194
0.910942793 0.719291389 0.578494668
0.626312494 0.851106942 0.692473173
0.653636754 0.853004575 0.699303985
0.710563004 0.859835386 0.724225104
0.786970079 0.870335281 0.771031082
0.854142964 0.887160063 0.822770536
0.865148485 0.878937781 0.796331286
0.883997560 0.838456511 0.694750309
0.946489811 0.791271508 0.635800004
0.836306036 0.950537801 0.832763970
0.844781637 0.952814758 0.847691476
0.867172718 0.952561617 0.855914176
0.903099179 0.955597460 0.885009468
0.927514195 0.963566959 0.901075304
0.946489692 0.960910797 0.912840128
0.953067541 0.956103563 0.863883555
0.982289612 0.926375449 0.792409837
0.000000000 0.499430746 0.693358481
0.003542452 0.468311369 0.693484962
0.001138644 0.376723349 0.683997452
0.002024260 0.166603282 0.665148556
0.448703289 0.054269809 0.623908997
0.624667704 0.002024260 0.599367499
0.760911047 0.000379548 0.603921473
0.905629516 0.001265167 0.608349323
0.000758999 0.536622286 0.690322459
0.002024260 0.503605306 0.687539697
0.002024260 0.420240521 0.684376657
0.002277095 0.225679815 0.668311357
0.443263650 0.141429543 0.617330551
0.622770488 0.107906364 0.602023900
0.759519160 0.086021550 0.603162348
0.909550726 0.052245267 0.610626221
0.002024260 0.623149931 0.699430764
0.002024260 0.598861814 0.693611681
0.000000001 0.526375473 0.689183831
0.003542258 0.371663541 0.673118234
0.440227360 0.262871534 0.625174224
0.627830625 0.234029353 0.604048014
0.767109334 0.226818442 0.604807198
0.910436630 0.217710286 0.614168346
0.001897740 0.765084982 0.708159328
0.002783356 0.740670085 0.700821936
0.000759096 0.671220601 0.686148107
0.042631540 0.553826392 0.676786602
0.424794614 0.397976190 0.629854202
0.637824059 0.361290365 0.602023840
0.774446487 0.361164093 0.611638069
0.915876031 0.366350532 0.607969582
0.003035997 0.763187706 0.670082211
0.001518192 0.761037111 0.662239194
0.001138644 0.753700316 0.665781379
0.184439987 0.736495435 0.665527999
0.448830068 0.586590409 0.641619265
0.642378449 0.499683350 0.607716680
0.786590576 0.507779956 0.612650275
0.915622890 0.507526815 0.609614313
0.000000000 0.711068690 0.603162467
0.009867184 0.701581001 0.608728647
0.223402858 0.696521401 0.604553878
0.379759461 0.676913500 0.601518095
0.501580894 0.660468280 0.603289008
0.648323715 0.648197174 0.622896969
0.787729084 0.666287005 0.625426710
0.915496767 0.682352901 0.639215529
0.306135118 0.811258793 0.645161331
0.358760297 0.813788831 0.655534565
0.465275288 0.815180123 0.669955432
0.592789292 0.833143890 0.695762157
0.741429269 0.843643248 0.750790536
0.860847831 0.884882987 0.831625462
0.860974252 0.829980791 0.738646209
0.934471965 0.814927399 0.703985035
0.714231253 0.939405680 0.789753079
0.733712792 0.944971800 0.795699000
0.772549152 0.944212615 0.815559804
0.833143651 0.951675951 0.841492712
0.899430454 0.954458833 0.890196025
0.944844842 0.967362463 0.931435883
0.954458833 0.961922646 0.910057008
0.976849973 0.933712959 0.833775878
0.000000000 0.598608553 0.825047314
0.000379548 0.573561013 0.816698253
0.000759096 0.510056853 0.816445529
0.001644712 0.368247986 0.815433204
0.159266472 0.183301896 0.785958409
0.628210127 0.007590089 0.744592011
0.780265570 0.000000000 0.735483825
0.912966430 0.000000000 0.732321262
0.000000000 0.625679791 0.818975091
0.000000000 0.608096242 0.825680017
0.000758999 0.549145877 0.822138071
0.007337105 0.412523836 0.815559804
0.144212574 0.231752083 0.786590815
0.621884823 0.117393985 0.744339108
0.784693122 0.050347809 0.734471977
0.918152928 0.027198274 0.734345138
0.001518192 0.702214122 0.823402584
0.001518192 0.674509645 0.820873022
0.000000000 0.625933290 0.821758389
0.000000000 0.511827886 0.810246468
0.085768364 0.332068294 0.794433713
0.617710114 0.248703450 0.746109962
0.780771852 0.215560108 0.734471500
0.915117204 0.213029996 0.733206689
0.000000000 0.814927280 0.818848848
0.001138644 0.793421805 0.824161768
0.000759096 0.748260498 0.823656201
0.002276998 0.655281603 0.809361219
0.138266802 0.490701884 0.799873471
0.605566263 0.388235450 0.759266257
0.792536199 0.353194296 0.737128258
0.924098611 0.355724186 0.737508118
0.000000000 0.916255534 0.828336477
0.000000000 0.915243626 0.822897077
0.002277094 0.893485129 0.831246316
0.201897532 0.825300395 0.819861054
0.401391536 0.704870164 0.803036213
0.596837580 0.544212639 0.770272195
0.795951784 0.500442445 0.742441297
0.919417739 0.506767869 0.732068121
0.000000000 0.895762265 0.787602782
0.002024260 0.894623697 0.801897585
0.107400291 0.891081452 0.793168902
0.366350532 0.883617938 0.796584427
0.531688750 0.872232854 0.808981538
0.636053145 0.744465053 0.787856042
0.786464274 0.646299481 0.735863507
0.915496707 0.650347769 0.731815279
0.202909648 0.854775548 0.741049528
0.235547379 0.848956287 0.737128556
0.339025915 0.847691238 0.734977722
0.445287853 0.843516886 0.742188215
0.569259882 0.821125627 0.743200541
0.674636483 0.806198359 0.745351255
0.805439293 0.789753318 0.749905288
0.911828041 0.811385036 0.763061166
0.360277891 0.918785751 0.756609619
0.406830788 0.922960043 0.762934804
0.494623601 0.920683265 0.772295773
0.619481146 0.925995946 0.795951784
0.745477676 0.935357094 0.818216324
0.872865260 0.949272633 0.886400938
0.961036921 0.972422540 0.943200529
0.970145822 0.943326831 0.875648022
0.000000000 0.670840919 0.931182742
0.001265167 0.655660808 0.930044115
0.000000000 0.606957674 0.930297077
0.000000000 0.510689318 0.924983740
0.004174638 0.307021022 0.923465967
0.423403144 0.196963802 0.906514585
0.774826229 0.006451573 0.867804885
0.916761637 0.002656833 0.863124788
0.006831273 0.698418975 0.928652644
0.002656833 0.685135961 0.927893758
0.000759096 0.638329804 0.927893639
0.001518189 0.547122180 0.925237179
0.001265167 0.360278219 0.921315432
0.424794793 0.250221401 0.908918440
0.775458515 0.075648382 0.871347308
0.930423737 0.009108185 0.874636173
0.000000000 0.757748127 0.925489783
0.002277285 0.737887502 0.928273082
0.000000000 0.703731954 0.932953715
0.000758999 0.621884823 0.921568632
0.000000000 0.472612053 0.928779066
0.405692875 0.342947423 0.905882418
0.770272136 0.233396247 0.871726692
0.924730957 0.211764827 0.869322896
0.003542165 0.849968612 0.931941628
0.000759096 0.838456452 0.934345126
0.002024167 0.806957722 0.934851468
0.000000000 0.742061913 0.926754713
0.002403808 0.628969014 0.928146660
0.405566156 0.476027638 0.906514585
0.759898603 0.382163346 0.885768592
0.927514136 0.356356472 0.876533806
0.004554189 0.954459012 0.930423677
0.001265167 0.948007524 0.936495781
0.019228395 0.921821296 0.936495781
0.174193338 0.873750567 0.929791033
0.343200475 0.792030394 0.923086822
0.463883758 0.642884314 0.920809507
0.755218387 0.536875308 0.887286484
0.927260756 0.502340198 0.875901580
0.077798635 0.996204793 0.917140841
0.126502320 0.991650939 0.923339307
0.294749856 0.994307041 0.928525865
0.438962728 0.988741100 0.944592059
0.574573100 0.939532042 0.934092522
0.635800421 0.845034659 0.928525925
0.738772511 0.704237819 0.900695801
0.923465729 0.653257370 0.876407385
0.348639667 0.989879608 0.903098881
0.378115028 0.986590683 0.903984666
0.451360166 0.983301759 0.904111445
0.543706536 0.977862000 0.910562932
0.651739419 0.974573016 0.922074497
0.762428939 0.974320233 0.940923333
0.805313170 0.886527777 0.912586868
0.921441913 0.789753318 0.876660347
0.421631724 0.971536815 0.855154932
0.452498585 0.963440716 0.861859620
0.497027040 0.963061571 0.861732960
0.572169423 0.958886743 0.868184447
0.653383970 0.951802552 0.872359455
0.740543664 0.945350826 0.879696548
0.821758509 0.929285049 0.878431380
0.915369987 0.918026805 0.886653781
