Assets/Shaders/EldamarStudio/100 Sci-Fi LUTs Pack/LUTs/cube/Saiyani LUT.cube
DOMAIN_MIN 0 0 0
DOMAIN_MAX 1 1 1
LUT_3D_SIZE 32
0.000000000 0.000000000 0.000000000
0.012143999 0.006072000 0.009108387
0.028589547 0.007843000 0.005313226
0.050601158 0.010372999 0.001265161
0.078304999 0.016065547 0.003922000
0.108664989 0.019101935 0.003922000
0.136495963 0.024667999 0.006451677
0.165464982 0.032384705 0.006198711
0.193548098 0.040734001 0.005439999
0.214800492 0.046806008 0.011511999
0.244781733 0.058696996 0.008855130
0.275142491 0.062744997 0.003795004
0.310057282 0.067298993 0.004553996
0.351803035 0.078684032 0.015686000
0.385199368 0.081720419 0.015686000
0.418595791 0.087159999 0.008475814
0.456546366 0.094750188 0.006957998
0.497786105 0.103225991 0.013029991
0.534218967 0.109298006 0.019101998
0.570651710 0.112586647 0.016824642
0.608981729 0.117520481 0.013788744
0.646426141 0.124604866 0.011765000
0.680075467 0.133712500 0.012017992
0.719544709 0.142820910 0.018090002
0.756736577 0.149652004 0.024161994
0.793168962 0.152941003 0.030233990
0.829601109 0.153953001 0.035800066
0.866033852 0.160025001 0.038836449
0.907779574 0.174066812 0.049841974
0.946742356 0.182163209 0.060215198
0.978747606 0.186970368 0.070208982
1.000000000 0.196078002 0.082353003
0.000000000 0.018215999 0.006072000
0.003036387 0.024288775 0.003036386
0.032384388 0.026059777 0.007843225
0.052118771 0.033649772 0.006072000
0.068817161 0.046805769 0.006198613
0.096520990 0.052498318 0.000885613
0.134471953 0.053004384 0.005945612
0.158886984 0.058064379 0.009487708
0.184440091 0.065021999 0.008476002
0.214800492 0.071094006 0.005440003
0.244781733 0.077166736 0.011511998
0.279190511 0.087033510 0.012903127
0.313852280 0.092346385 0.012143999
0.351043999 0.099683382 0.014927032
0.376090974 0.099936411 0.006578388
0.414294988 0.105375990 0.008981578
0.455028564 0.108411998 0.009993610
0.497153521 0.112966180 0.014168197
0.531182587 0.121442012 0.013029998
0.578747332 0.130297363 0.010752643
0.610499799 0.133839026 0.013408996
0.644402325 0.138772875 0.016824611
0.680075467 0.145983756 0.021125637
0.719544709 0.158001304 0.027198389
0.763567269 0.160278395 0.033270381
0.802276909 0.164832383 0.037950706
0.838203430 0.168627441 0.041872066
0.872105837 0.172169760 0.044908449
0.905882418 0.180897906 0.053257819
0.941935480 0.193548411 0.061480366
0.974446595 0.201265380 0.071094587
1.000000000 0.208222777 0.085389383
0.000000000 0.045034543 0.020746548
0.007337387 0.046805769 0.017710386
0.027577773 0.046426773 0.014674226
0.053889774 0.048956770 0.010120163
0.066160545 0.063630767 0.006072226
0.093484931 0.076786771 0.005313000
0.124478184 0.079949543 0.009360999
0.157368928 0.083238542 0.008855002
0.180898085 0.088551447 0.010373322
0.214294493 0.093231782 0.008476001
0.244781733 0.099303968 0.009741000
0.277166247 0.105376735 0.009740744
0.313472509 0.113219544 0.012523645
0.349652261 0.119038515 0.013282742
0.379632980 0.120935768 0.007969654
0.413788617 0.123592541 0.008475965
0.450221419 0.126628548 0.013029771
0.493231893 0.128526121 0.018469188
0.532700777 0.137634531 0.018469190
0.571410477 0.146742359 0.015433418
0.612397194 0.150158003 0.012397034
0.643516958 0.154964909 0.016698128
0.680201948 0.162049502 0.021631766
0.721694946 0.168121785 0.027704034
0.759266257 0.175458774 0.031625997
0.802023947 0.176850095 0.037697989
0.839215755 0.182163000 0.042504705
0.874256432 0.186843678 0.048829675
0.903351903 0.195192918 0.057179045
0.943832994 0.204300970 0.068058185
0.973434567 0.215180591 0.076660432
0.995698988 0.222517774 0.090576001
0.005059999 0.072865322 0.037697840
0.014168385 0.071600154 0.035926610
0.024794612 0.073244765 0.031625383
0.053384159 0.072739154 0.024794161
0.068184704 0.077672608 0.011132451
0.097280093 0.089689992 0.012397064
0.123339638 0.101581477 0.012902999
0.152055696 0.108792156 0.017457001
0.178621188 0.114864156 0.011385000
0.210499659 0.118405841 0.012903322
0.242251739 0.124351315 0.011765000
0.277166247 0.129158676 0.012270743
0.309424281 0.132954165 0.010372999
0.345857024 0.138520122 0.013029839
0.381277382 0.141555741 0.011005583
0.417077601 0.145856798 0.014041642
0.453257352 0.148640156 0.014800997
0.489183694 0.149905145 0.020872992
0.534724832 0.158380970 0.024541190
0.570651710 0.166223824 0.022011193
0.605819285 0.170904323 0.020240258
0.643263936 0.171916187 0.020240255
0.680328488 0.180392012 0.023656152
0.723971963 0.184567064 0.029728163
0.758127570 0.191144988 0.030993128
0.792156816 0.195825636 0.032890830
0.832131982 0.197849259 0.039974838
0.870082140 0.201644152 0.049841538
0.903604984 0.211638153 0.058949821
0.935230553 0.219481349 0.068564124
0.977229595 0.226818532 0.081593752
0.994686961 0.235167831 0.094117999
0.015686000 0.098292544 0.053257097
0.025932932 0.094876707 0.054775096
0.029348547 0.097912550 0.050474096
0.040480770 0.102719709 0.041872092
0.071220994 0.104997002 0.028968997
0.104617380 0.101960614 0.025932614
0.127893776 0.114737637 0.019607550
0.152435243 0.129664987 0.019354545
0.179000646 0.141429543 0.022390548
0.203289449 0.147501543 0.016318545
0.235926867 0.154332533 0.013535871
0.272991776 0.159139812 0.014927288
0.310183287 0.160278544 0.017204095
0.340797037 0.160531506 0.017457062
0.380012393 0.163567126 0.017583547
0.416698158 0.169006646 0.020492995
0.453889906 0.173940271 0.022011196
0.491081536 0.176850080 0.020493446
0.536622047 0.182922110 0.026565451
0.571410537 0.188994095 0.025806190
0.605945706 0.193168730 0.024667548
0.640986681 0.196584508 0.027071254
0.680328548 0.199620128 0.032891002
0.725110710 0.205439806 0.038456999
0.758127809 0.213409245 0.038836259
0.787982285 0.219734222 0.037571095
0.819228590 0.222517475 0.038456544
0.861733258 0.219481081 0.050600532
0.901201725 0.228969201 0.060088370
0.935736775 0.237950966 0.069196746
0.966603577 0.243137479 0.079696588
1.000000000 0.246173099 0.094876997
0.015686000 0.131688923 0.071473867
0.033902772 0.125616938 0.083617866
0.041998934 0.126502097 0.080834866
0.052118931 0.130044088 0.072232872
0.074256606 0.132321388 0.059329771
0.107652992 0.129284993 0.041112997
0.130929381 0.131309256 0.030486934
0.155471176 0.141808987 0.025932934
0.182036936 0.154712081 0.025426935
0.206325054 0.168753937 0.019354934
0.236432806 0.180644929 0.019101935
0.271347493 0.189753190 0.022643996
0.309424549 0.192156941 0.027071577
0.346869022 0.187855899 0.029601838
0.380265385 0.190891519 0.032637447
0.414674401 0.196331546 0.025553135
0.453131288 0.202403799 0.022011196
0.493358880 0.206704870 0.020240417
0.530550063 0.207210883 0.023529075
0.567741752 0.213282868 0.032384425
0.607463539 0.217457116 0.033775933
0.646426260 0.221505255 0.036812060
0.683364987 0.226945281 0.045034997
0.719797790 0.229980901 0.045034997
0.757748544 0.235799998 0.050600994
0.794054568 0.240986615 0.053763606
0.830993056 0.244022876 0.056293800
0.864768922 0.246805474 0.059708916
0.901960671 0.251739591 0.069196753
0.937128127 0.260594666 0.078305133
0.969133258 0.267425597 0.088298917
1.000000000 0.270461857 0.100949004
0.038456321 0.165085316 0.099809997
0.051613089 0.161543638 0.106894642
0.063377544 0.164073631 0.112586863
0.072359316 0.168753952 0.105123319
0.087666087 0.172675639 0.092979319
0.108158931 0.171790019 0.079064094
0.136495963 0.166223958 0.060847320
0.162681624 0.164326638 0.045414321
0.190891773 0.171157643 0.040101320
0.216951013 0.184566826 0.037571318
0.249589071 0.196837321 0.037318319
0.279949307 0.208981320 0.033270322
0.313092947 0.218595639 0.035041321
0.348387033 0.220240355 0.036433000
0.386337370 0.223276541 0.037191898
0.429348379 0.228715956 0.035420518
0.467805356 0.234788314 0.034155317
0.509045124 0.239595324 0.034787998
0.545477688 0.239595324 0.035926353
0.579380035 0.245161325 0.034408681
0.613915026 0.247438312 0.045414314
0.652498245 0.250853658 0.048956446
0.689183950 0.256673008 0.054522809
0.730423808 0.257305413 0.052118998
0.766856551 0.262618303 0.054396287
0.803289294 0.268690646 0.062998302
0.840607345 0.272865593 0.068944000
0.874003708 0.275901198 0.069955863
0.904996932 0.281593651 0.075774819
0.941429198 0.285895199 0.088425182
0.972928166 0.292599648 0.099051371
1.000000000 0.297280312 0.109550677
0.062491700 0.200126395 0.123592407
0.081214465 0.195446074 0.137887463
0.087918922 0.197216973 0.141808912
0.094496861 0.200758979 0.139784858
0.105123535 0.206831083 0.128020301
0.117773466 0.211891398 0.115875982
0.146362945 0.206831396 0.098671764
0.173687682 0.202403694 0.083744407
0.201770797 0.195572600 0.063251309
0.227324203 0.201517999 0.055281699
0.260467887 0.212017700 0.053636990
0.293485403 0.222517401 0.049588993
0.322707057 0.234661415 0.045793995
0.352814734 0.245034695 0.046299994
0.389500082 0.255028397 0.049082991
0.430486679 0.262112677 0.051612891
0.474509656 0.265148699 0.048576891
0.515116990 0.270967692 0.051106840
0.550538003 0.272991687 0.048070706
0.585831702 0.275268704 0.050221343
0.624161720 0.279190391 0.051739696
0.657558322 0.281214386 0.058823574
0.693485200 0.287159890 0.060594797
0.734471798 0.288677692 0.060594797
0.770777822 0.291587412 0.062112574
0.809993565 0.297659397 0.067931943
0.846426487 0.302719980 0.078810997
0.879823148 0.304617256 0.081087992
0.913851917 0.310309678 0.089689977
0.947754562 0.316255182 0.097786173
0.977988303 0.317520589 0.112080976
1.000000000 0.321315706 0.121947698
0.089057192 0.235800087 0.146363184
0.108032867 0.232005179 0.164579391
0.119544417 0.231625497 0.173687518
0.121821254 0.234914288 0.176217243
0.127134636 0.234914288 0.165212095
0.137761012 0.245540962 0.151549414
0.161037415 0.244023100 0.135863096
0.191144779 0.241872475 0.119418100
0.216951206 0.235800102 0.106514990
0.238203600 0.226691708 0.079190597
0.270335078 0.230487064 0.072106220
0.302213758 0.238077253 0.065528095
0.334092528 0.248323992 0.060215093
0.362175941 0.260974079 0.060215093
0.396078378 0.279190153 0.065275088
0.432763964 0.290954888 0.068311088
0.471473455 0.296268195 0.071347103
0.513345659 0.298798174 0.069576479
0.546995819 0.305123180 0.060974132
0.583175123 0.307147175 0.065022193
0.623402536 0.308285832 0.068437830
0.662112355 0.310816109 0.070209056
0.695635974 0.316888094 0.067425668
0.734471858 0.320556283 0.070461899
0.769386411 0.323592454 0.073497899
0.806198299 0.328779072 0.078557760
0.847185075 0.334345162 0.086654030
0.880582154 0.334598184 0.092472993
0.918152928 0.339152277 0.103099070
0.953826427 0.342947155 0.111954294
0.984819591 0.350157708 0.122706987
1.000000000 0.347122103 0.134850994
0.131561980 0.269196510 0.182795987
0.134598389 0.272232890 0.191903606
0.144971520 0.272738993 0.199367568
0.151675999 0.275395483 0.206578299
0.154459059 0.280455500 0.210752502
0.175711438 0.280455500 0.186464518
0.186337829 0.280961514 0.172801837
0.206325203 0.283997536 0.157115519
0.232131600 0.284376919 0.139911413
0.253384024 0.269196510 0.124730997
0.283365250 0.260088861 0.109044626
0.311828226 0.259835720 0.096394509
0.340544015 0.266540021 0.086780503
0.371283591 0.279190063 0.081467494
0.407716334 0.297406822 0.081467494
0.441619396 0.310815960 0.076913498
0.475269169 0.318279684 0.075901300
0.510309994 0.323086947 0.078684106
0.549778521 0.335231006 0.081720501
0.586211264 0.341556013 0.084250852
0.626438916 0.343579978 0.085515976
0.664895713 0.343706489 0.085642487
0.695635974 0.344212502 0.085642457
0.732068002 0.350284517 0.088678077
0.766350389 0.353953302 0.091714293
0.802530050 0.359772325 0.096141964
0.841113091 0.367741585 0.101834424
0.874509454 0.370777965 0.104870029
0.915875614 0.373687834 0.113345824
0.952814579 0.373308271 0.119038709
0.981910467 0.375078976 0.125869855
1.000000000 0.386590511 0.140923008
0.162428737 0.308412611 0.213408992
0.180012241 0.308539122 0.219608217
0.185199410 0.313725740 0.226565599
0.197090447 0.312713742 0.230107874
0.206071824 0.312587202 0.232764184
0.214674532 0.320176870 0.226185873
0.225806296 0.320176870 0.214547545
0.241492569 0.321821570 0.201138452
0.264010072 0.325110734 0.182669416
0.283112258 0.320683122 0.161037222
0.307273746 0.308412611 0.137127995
0.331562251 0.293232232 0.121948138
0.357115626 0.288930863 0.107780099
0.386463970 0.294243872 0.096900873
0.425553530 0.309803843 0.096900873
0.452371716 0.320809782 0.092093877
0.490322679 0.333966047 0.093611673
0.527387798 0.345098287 0.098797865
0.555471003 0.359519005 0.099556968
0.594940126 0.368880332 0.099809997
0.629601598 0.375078857 0.098924868
0.667046249 0.377102852 0.097912997
0.701328456 0.377102852 0.098165989
0.734977841 0.377608865 0.103984967
0.771410406 0.383680850 0.107020579
0.806831300 0.387349665 0.110056795
0.842251837 0.392915756 0.113599002
0.868437409 0.398355305 0.114231408
0.909803569 0.401391715 0.122580692
0.948766351 0.402656883 0.129917845
0.979759753 0.404301107 0.138519973
1.000000000 0.414420873 0.155723870
0.208981484 0.347881228 0.245793760
0.221125737 0.351929218 0.257938266
0.230739772 0.350158513 0.261986226
0.240607396 0.354965359 0.266793400
0.255028278 0.352688223 0.268311501
0.262745351 0.360151559 0.270208806
0.267299175 0.361669481 0.256040156
0.278051496 0.361669481 0.245287493
0.298924446 0.364326328 0.230487138
0.319671214 0.365591496 0.209993497
0.343706757 0.360025257 0.185705259
0.357874513 0.343833238 0.155344233
0.376849890 0.325616449 0.136748984
0.401138276 0.320050269 0.118912205
0.437064946 0.324604660 0.110056996
0.470588475 0.334978044 0.117393985
0.499430686 0.344086051 0.112840176
0.539152503 0.358254284 0.116761513
0.564832330 0.373434305 0.113978513
0.596964121 0.389120847 0.118026502
0.628842771 0.402023733 0.114231512
0.661986113 0.409487396 0.112081252
0.697533190 0.412650019 0.112207733
0.734724700 0.414547741 0.116381988
0.774446309 0.419101775 0.122200958
0.805313051 0.422390759 0.125236914
0.840227842 0.424794436 0.128273174
0.873624265 0.429348230 0.129790992
0.909803808 0.436812073 0.135737076
0.943453372 0.434535265 0.139532253
0.976470590 0.435800254 0.149525836
1.000000000 0.443769515 0.168880507
0.268184572 0.397596568 0.289437264
0.276154310 0.401391536 0.296648026
0.286527544 0.402150691 0.304364502
0.295256048 0.401644766 0.308538795
0.308918476 0.404680431 0.312334150
0.316508830 0.409993559 0.319165289
0.319418222 0.411005557 0.311827928
0.325110555 0.408728570 0.292346269
0.339531660 0.411005467 0.280202270
0.363440901 0.414800763 0.265401423
0.384314001 0.410879046 0.239215627
0.401897639 0.402276903 0.213409156
0.411005557 0.384060919 0.182289273
0.425932914 0.365085095 0.157242239
0.453130662 0.354965061 0.136748880
0.486527383 0.354712427 0.131815270
0.521062791 0.364959091 0.138646185
0.552561760 0.375331849 0.136242986
0.579380333 0.390512288 0.131182998
0.608349383 0.406198710 0.132827654
0.641366363 0.420240521 0.132447988
0.668690741 0.434408277 0.128399998
0.701707602 0.443896145 0.128526509
0.738140225 0.450980544 0.131562382
0.774193227 0.458570629 0.135736644
0.812902987 0.460721284 0.138140321
0.838709712 0.461227208 0.142188579
0.879316866 0.464262843 0.146489188
0.916508615 0.471473485 0.153320655
0.948766768 0.475142300 0.158127993
0.973434627 0.470841289 0.161669970
1.000000000 0.476407290 0.182163343
0.333207041 0.462113053 0.347122043
0.338773042 0.462113053 0.342062056
0.350790799 0.463125050 0.343327016
0.364959031 0.464136899 0.350411028
0.376217604 0.466413587 0.357368588
0.379253983 0.469449967 0.366476983
0.381531060 0.470715046 0.368248075
0.384567082 0.467679024 0.355344683
0.392410129 0.464642972 0.334092081
0.413662523 0.473750591 0.321948081
0.429348856 0.468564093 0.293358356
0.446300000 0.462492019 0.268310785
0.462365687 0.453131050 0.245034456
0.471221060 0.434662014 0.217457026
0.483365059 0.407336891 0.184060678
0.510056794 0.392662823 0.161670074
0.543959379 0.391651005 0.152055860
0.579380155 0.404427588 0.154459059
0.603669047 0.419608027 0.154459059
0.630487382 0.432258070 0.151676357
0.664136708 0.442251772 0.149146333
0.700063109 0.452372015 0.146615997
0.727260947 0.464895517 0.146742508
0.757368803 0.480328947 0.149778903
0.786211252 0.493232042 0.152814761
0.816445291 0.499683678 0.153573677
0.852625072 0.497913033 0.152055994
0.886021435 0.500948668 0.161163598
0.921821594 0.506135106 0.170018852
0.954712331 0.509930253 0.178115040
0.981783986 0.512587070 0.185958043
1.000000000 0.512587070 0.198102072
0.378747374 0.501581371 0.371410817
0.378747374 0.501581371 0.377482802
0.386464179 0.510183394 0.370272011
0.399367541 0.514737368 0.375711381
0.412776798 0.514610767 0.391017914
0.418722332 0.508918345 0.405945331
0.436938703 0.517014682 0.409993708
0.443896472 0.517647088 0.399241090
0.446047127 0.514737368 0.379633218
0.447058856 0.516255319 0.367489219
0.465401351 0.513725698 0.349525452
0.480961233 0.508032680 0.320682704
0.500189662 0.503099024 0.294496775
0.519797802 0.495382756 0.269070148
0.525869787 0.474130392 0.238709405
0.533206761 0.444402009 0.207716808
0.554079771 0.424541384 0.184440613
0.584693491 0.419607967 0.172675818
0.624921381 0.434788406 0.172675818
0.649209380 0.449968785 0.169892460
0.674130440 0.458823830 0.170651719
0.704617560 0.467552394 0.169386551
0.736369371 0.480075896 0.164958492
0.760657430 0.501328290 0.167994887
0.795319140 0.514484406 0.171031266
0.822896600 0.526628375 0.174067140
0.849841714 0.534598112 0.175838023
0.886021435 0.540417790 0.179380357
0.919417739 0.540797234 0.185831815
0.951675951 0.540291011 0.197849587
0.979380190 0.541176379 0.210246801
1.000000000 0.545983434 0.222390816
0.419481397 0.555471361 0.400505990
0.426691592 0.550664365 0.411385596
0.435294122 0.550664365 0.411005825
0.447185546 0.560531199 0.413788587
0.460468382 0.563946605 0.429727584
0.462492377 0.561922550 0.434787720
0.478810906 0.561290145 0.456672907
0.486906886 0.565464795 0.448197603
0.490702182 0.563187718 0.429222286
0.495888889 0.561543345 0.415433586
0.506008565 0.561037421 0.395066649
0.516128600 0.558001339 0.368753880
0.531309068 0.551169753 0.340670109
0.552814841 0.545350790 0.316634744
0.569639564 0.534851193 0.292725742
0.575711548 0.511195540 0.259961784
0.580265760 0.483870804 0.231119588
0.599620759 0.461353630 0.204301253
0.635041177 0.449968785 0.181277990
0.660847843 0.460341573 0.180898443
0.688930750 0.473624676 0.185452059
0.715243518 0.484756798 0.188488185
0.745604277 0.499683768 0.185451791
0.772169590 0.514104903 0.186210886
0.801011562 0.528526008 0.193801269
0.831625283 0.542061627 0.194307655
0.855407953 0.555723846 0.195319533
0.888045669 0.567488849 0.198355436
0.907399952 0.573054969 0.201644793
0.953193963 0.573054969 0.214800745
0.983301818 0.573307753 0.228842586
1.000000000 0.579379797 0.239468798
0.461986154 0.599493980 0.433902383
0.472611964 0.601012170 0.444528967
0.476280719 0.599241138 0.450474590
0.488425165 0.601771116 0.457558542
0.503352523 0.609487355 0.474509567
0.509045184 0.609487355 0.476786584
0.522707403 0.609487355 0.490954816
0.533965826 0.611005604 0.499810368
0.532447636 0.610246480 0.480835259
0.542315304 0.607210636 0.464136869
0.546995699 0.605566382 0.447691679
0.557115555 0.605060339 0.424921244
0.564326227 0.603162587 0.395698816
0.581151366 0.594939649 0.369765520
0.599873364 0.586337328 0.340923160
0.615180373 0.573434591 0.314610571
0.618216395 0.549146116 0.281214178
0.623782754 0.522960007 0.253257394
0.649715424 0.491714358 0.216445565
0.671473742 0.482353032 0.196457982
0.699557364 0.491840661 0.197596446
0.725869358 0.501961172 0.202656329
0.751802802 0.518026710 0.202529863
0.780518889 0.531562388 0.206704184
0.811638176 0.542188168 0.208981276
0.843389869 0.554332554 0.216698334
0.867552102 0.568374336 0.215560183
0.894876659 0.581530452 0.219607919
0.916508496 0.594813347 0.222643822
0.941049516 0.604933560 0.228462934
0.985958397 0.604933560 0.247564569
1.000000000 0.609740555 0.259202987
0.506261706 0.633649290 0.472232699
0.519038081 0.641492486 0.480708510
0.521694839 0.644149125 0.488298535
0.524984121 0.646679103 0.497533292
0.536369085 0.652371645 0.518406153
0.550790429 0.652624667 0.525490105
0.565970838 0.650727093 0.534092128
0.577482700 0.652371824 0.539911211
0.582163155 0.654522598 0.536748946
0.585199535 0.651486218 0.515496552
0.584693491 0.648450375 0.500443101
0.592157125 0.647438526 0.482226878
0.603795171 0.648071110 0.460594743
0.612397552 0.647818089 0.433016658
0.626059294 0.636811852 0.394686848
0.643010557 0.627071321 0.363440692
0.655281544 0.612270892 0.337128073
0.656546533 0.588614702 0.303731561
0.671726882 0.555218220 0.273371488
0.688425124 0.530423701 0.241492569
0.711068869 0.521189272 0.221378550
0.739911556 0.528020561 0.220366687
0.758380592 0.534092546 0.217584044
0.787729383 0.547754884 0.225679651
0.817204297 0.558380842 0.226059154
0.851865828 0.569512725 0.230107322
0.884250224 0.581151426 0.236686051
0.905755579 0.590259135 0.242884547
0.928399622 0.606704652 0.246299714
0.954459131 0.624415159 0.253636688
0.978115022 0.636432946 0.260341138
0.999367416 0.636432946 0.281593561
0.545731008 0.682226956 0.517773986
0.560910583 0.685262561 0.523845911
0.567235768 0.686653972 0.532321215
0.573561013 0.689183950 0.539911330
0.584946036 0.694876552 0.548767030
0.591018021 0.697912931 0.566982985
0.605439305 0.690575659 0.569006979
0.618975401 0.688804686 0.573307991
0.627577960 0.691082001 0.577103019
0.627704442 0.690955520 0.576217473
0.624921143 0.687919080 0.552056015
0.630234301 0.686906993 0.530803800
0.640733957 0.688045621 0.510689795
0.651866019 0.690322995 0.490701973
0.654902458 0.687286556 0.460342050
0.668564141 0.678684175 0.419608414
0.683997214 0.666540265 0.389247805
0.696015000 0.649336398 0.364453286
0.702087045 0.628083944 0.331056029
0.714484811 0.594686925 0.303478658
0.729032278 0.567995071 0.269955516
0.750537336 0.554586053 0.247691169
0.779632986 0.555345058 0.244908512
0.803921819 0.561417043 0.247944087
0.824162006 0.570525289 0.242378294
0.853384018 0.582416236 0.243769944
0.890322983 0.596331120 0.254902095
0.917647362 0.605439484 0.264010489
0.936495841 0.619860828 0.267552167
0.960531116 0.638836145 0.279443383
0.983428001 0.655154943 0.292220324
0.996331036 0.660721004 0.296774030
0.618596137 0.736369729 0.582795739
0.625427067 0.736622751 0.586085141
0.632005215 0.739658356 0.590006351
0.636306465 0.740290701 0.595319271
0.644655466 0.742188275 0.599873722
0.650727510 0.740417719 0.608475745
0.656799495 0.740923762 0.619102061
0.669576108 0.740797102 0.619861126
0.680202365 0.744212747 0.621379018
0.684250414 0.744212747 0.619354784
0.678557873 0.738520265 0.618342757
0.679569960 0.737508118 0.600126505
0.683744729 0.738646448 0.581530809
0.689057648 0.740923405 0.562555432
0.697153449 0.735357344 0.534725189
0.707400680 0.727513969 0.504364550
0.723719120 0.721441925 0.472486138
0.738899350 0.711322188 0.446173787
0.747122109 0.694370806 0.408475518
0.755977511 0.673118353 0.375079095
0.766224027 0.637823999 0.338266999
0.778620958 0.609993756 0.303099334
0.798355699 0.595572770 0.285515755
0.827956796 0.591018736 0.275269181
0.854522347 0.601644695 0.278304785
0.877039731 0.609867394 0.276787043
0.904996991 0.620872796 0.282732725
0.920936048 0.634535193 0.285009801
0.945604265 0.646299720 0.294117540
0.967615247 0.656040370 0.299177349
0.988614559 0.670461535 0.316002458
0.998861372 0.682226360 0.334219098
0.666034460 0.772042990 0.621125758
0.668311477 0.773940742 0.631752133
0.672232747 0.774193704 0.629095733
0.679064035 0.775964439 0.632131279
0.687539518 0.775964439 0.636306047
0.698165655 0.774446666 0.645414412
0.700442731 0.777735710 0.652119040
0.701581478 0.777735710 0.662871718
0.715496480 0.781783760 0.666919708
0.728399456 0.781783760 0.669575989
0.722833455 0.781657457 0.658064485
0.719038248 0.779633462 0.647944212
0.719797611 0.777356207 0.632763803
0.720050752 0.778114736 0.615306675
0.730803013 0.776976466 0.592916071
0.738519549 0.766603410 0.570777833
0.753700376 0.763567030 0.543453455
0.768121481 0.760657728 0.517900348
0.773434699 0.749272525 0.482226253
0.788235366 0.732321084 0.446426064
0.803036451 0.709171474 0.414927453
0.810120106 0.674762666 0.372422695
0.819860995 0.648450434 0.340291202
0.843137503 0.628210008 0.313978702
0.863630295 0.622517705 0.303732187
