Assets/Shaders/EldamarStudio/100 Sci-Fi LUTs Pack/LUTs/cube/Saiyani LUT.cube
LUT_3D_SIZE 5
DOMAIN_MIN 0.000000 0.000000 0.000000
DOMAIN_MAX 0.903226 0.903226 0.903226
0.000000000 0.000000000 0.000000000
0.165464982 0.032384705 0.006198711
0.385199368 0.081720419 0.015686000
0.646426141 0.124604866 0.011765000
0.907779574 0.174066812 0.049841974
0.062491700 0.200126395 0.123592407
0.173687682 0.202403694 0.083744407
0.389500082 0.255028397 0.049082991
0.657558322 0.281214386 0.058823574
0.913851917 0.310309678 0.089689977
0.378747374 0.501581371 0.371410817
0.443896472 0.517647088 0.399241090
0.525869787 0.474130392 0.238709405
0.704617560 0.467552394 0.169386551
0.919417739 0.540797234 0.185831815
0.697407126 0.797343135 0.647438288
0.738013983 0.808096230 0.691208243
0.759519100 0.808475554 0.640607417
0.836432815 0.741556227 0.449335992
0.962175965 0.683870971 0.347754389
0.886400819 0.943959653 0.851233661
0.904743850 0.950284481 0.857431889
0.927007914 0.946489811 0.883870959
0.932195008 0.949525654 0.814674377
0.997469962 0.911321819 0.683997631
0.002277292 0.142567992 0.198481694
0.159898698 0.025173709 0.195825696
0.379633099 0.044781707 0.192915991
0.643390238 0.043263894 0.197722703
0.903478682 0.114737451 0.206324860
0.000000000 0.220367000 0.182795689
0.146489412 0.216445401 0.188361391
0.391777396 0.241619527 0.201771095
0.650980115 0.257305264 0.206325114
0.907906473 0.282732546 0.227830708
0.315875977 0.482606202 0.361922681
0.423909187 0.497659415 0.419228375
0.502593100 0.462365776 0.308285683
0.686021805 0.485895008 0.276281089
0.915875912 0.526755035 0.286527634
0.678810835 0.789879858 0.640860379
0.718026638 0.803921402 0.677925348
0.759266078 0.804174662 0.681720734
0.814294696 0.739911497 0.500948787
0.954712212 0.693105340 0.404806852
0.886148095 0.947880983 0.848956048
0.894370675 0.951549649 0.863377690
0.927640378 0.956356585 0.892978966
0.938013554 0.949145973 0.836812198
0.989120960 0.918532848 0.712207556
0.003289416 0.328272969 0.465654790
0.000000000 0.161543399 0.454269528
0.386464357 0.035294000 0.394307405
0.648070991 0.001265006 0.407463819
0.905755997 0.000000000 0.413915217
0.001644708 0.456799477 0.456799507
0.005566289 0.353447080 0.447944403
0.402530104 0.217457533 0.407463372
0.643137574 0.209234834 0.409993798
0.906388462 0.186970413 0.407337397
0.001897590 0.470208377 0.392282993
0.130929798 0.454522818 0.399873078
0.427071393 0.433523387 0.413282812
0.668311417 0.462997794 0.424035698
0.911574781 0.481973380 0.439468801
0.497153878 0.751296818 0.587476134
0.591777444 0.760151684 0.626186013
0.751676083 0.793801427 0.717014372
0.783681095 0.734345436 0.597722590
0.929158807 0.727767229 0.551676035
0.858444214 0.956483245 0.838836193
0.879317224 0.952435195 0.857052386
0.921062350 0.956989169 0.892220438
0.944592237 0.953447163 0.886527658
0.984566629 0.925742924 0.764958799
0.001012128 0.526755154 0.728779137
0.000632580 0.440480530 0.721948266
0.122960210 0.149146006 0.695762217
0.665148258 0.000000000 0.631752253
0.904870391 0.000000000 0.641239941
0.002023998 0.621125996 0.725489974
0.000000000 0.548892677 0.728399873
0.099051237 0.284124136 0.696015418
0.667046249 0.194813401 0.635673225
0.912713289 0.181024417 0.640480697
0.005186579 0.821252286 0.727387726
0.001012128 0.798355639 0.734977841
0.268817276 0.600379705 0.705882132
0.674510181 0.422770679 0.641239941
0.916382074 0.430360377 0.635293961
0.000000000 0.746489406 0.638583124
0.199367508 0.739279151 0.648070633
0.453890234 0.710562944 0.637950540
0.684756219 0.687666118 0.654269397
0.913472772 0.715496182 0.666033924
0.660594106 0.941429675 0.778367639
0.724224985 0.936875343 0.799620807
0.839721560 0.946236491 0.840101361
0.953193784 0.967868507 0.931435943
0.974825919 0.932953835 0.844908118
0.000000000 0.670840919 0.931182742
0.001012124 0.623149931 0.933332920
0.002656833 0.433649361 0.930550218
0.536496043 0.165844485 0.898924470
0.916761637 0.002656833 0.863124788
0.000000000 0.741049826 0.926501811
0.002023991 0.695635617 0.933965504
0.001265006 0.529917538 0.930423379
0.532195151 0.291081369 0.896015048
0.923212945 0.169766113 0.868817031
0.001265006 0.907526791 0.928272963
0.002656575 0.873750687 0.931056201
0.000632584 0.765085638 0.921821654
0.521189392 0.533333302 0.908918381
0.927893400 0.429728210 0.870335221
0.136242568 0.992409945 0.915369749
0.312966377 0.993042231 0.924478233
0.547374904 0.984187126 0.933712780
0.686148226 0.857178926 0.922706783
0.922706962 0.689689994 0.872106433
0.421631724 0.971536815 0.855154932
0.482352763 0.964326382 0.862491786
0.611132383 0.954585612 0.872232795
0.761290252 0.939278603 0.879190326
0.915369987 0.918026805 0.886653781
