Assets/Shaders/EldamarStudio/100 Sci-Fi LUTs Pack/LUTs/cube/Sanema LUT.cube
DOMAIN_MIN 0 0 0
DOMAIN_MAX 1 1 1
LUT_3D_SIZE 32
0.000000000 0.000000000 0.082353003
0.000000000 0.003036387 0.085389383
0.000000000 0.003922000 0.090576001
0.000000000 0.005186839 0.095382839
0.000000000 0.008601999 0.097659551
0.000000000 0.014673999 0.094623938
0.002530322 0.025806643 0.101707675
0.005566289 0.033017289 0.105881996
0.010879001 0.036812000 0.108159088
0.023023020 0.042884003 0.117267475
0.055534609 0.048955999 0.111827999
0.088931233 0.059076510 0.119924247
0.121189281 0.072359636 0.131688997
0.151043996 0.086780995 0.137760997
0.175331980 0.092852995 0.143832996
0.211638391 0.101328187 0.152308807
0.243516982 0.111954376 0.158380806
0.269070119 0.124731399 0.162681580
0.299430966 0.139911056 0.171789974
0.321442395 0.149525359 0.178115010
0.354079723 0.158633739 0.182289734
0.388488233 0.168753996 0.187349871
0.413156480 0.181024492 0.196710497
0.446552902 0.196204901 0.211890906
0.477672547 0.211385280 0.222517282
0.506641626 0.226565644 0.230233982
0.535484076 0.242758065 0.237317994
0.571916819 0.264010429 0.249461979
0.611005723 0.285262793 0.272232622
0.648703337 0.308285922 0.291208178
0.687792540 0.331688583 0.308159590
0.733332992 0.352941006 0.329412013
0.003036387 0.000000000 0.079316616
0.000000000 0.000000000 0.097533390
0.000000000 0.009487612 0.094117999
0.000000000 0.014294773 0.094117999
0.000000000 0.017330838 0.096521385
0.000000000 0.020746000 0.106767938
0.002530322 0.024288323 0.108791679
0.002277292 0.038203605 0.113598704
0.009361191 0.047438003 0.113472387
0.035167791 0.048956007 0.111195482
0.061859645 0.060847737 0.120303862
0.095003232 0.067172773 0.122960381
0.127261281 0.076154642 0.130550355
0.157369033 0.087286994 0.134724602
0.184440374 0.098924994 0.140796602
0.213535979 0.107400186 0.144465417
0.245035186 0.118026376 0.152308807
0.271473944 0.130170986 0.160910949
0.299430966 0.142947450 0.174826354
0.327008367 0.155344412 0.172802031
0.352561712 0.166603476 0.181909993
0.383428127 0.176850259 0.190385744
0.410246581 0.187223002 0.199620381
0.446552902 0.205313295 0.211890906
0.479949266 0.220493674 0.227071270
0.511068881 0.234282374 0.236305982
0.541050017 0.247818068 0.243896067
0.574952483 0.264010429 0.258570373
0.611385226 0.285262793 0.273371220
0.648703337 0.308285922 0.287666202
0.684250593 0.333459556 0.306514949
0.721189022 0.359012991 0.338519633
0.001771226 0.015053772 0.084882773
0.000885613 0.012902999 0.092346773
0.004300999 0.019354772 0.104111224
0.003036161 0.027703933 0.100569226
0.002909773 0.031119775 0.101328224
0.006451774 0.035926610 0.109930225
0.000379548 0.038962323 0.112333678
0.006704931 0.043643415 0.117014416
0.014041772 0.056040455 0.119797774
0.044402216 0.057431780 0.116508782
0.076154642 0.069069967 0.124984093
0.103479013 0.077166736 0.132068217
0.135483757 0.084377125 0.137001872
0.165338293 0.093485251 0.140037805
0.190765396 0.103731982 0.144212544
0.220493585 0.113472737 0.147880808
0.249336168 0.124098539 0.153953195
0.276027948 0.136242971 0.162428990
0.301834226 0.148387015 0.173055202
0.329158604 0.158380792 0.180139408
0.356483459 0.168627515 0.184693024
0.383807898 0.180518985 0.194560260
0.411385238 0.191018268 0.202530250
0.445793808 0.207210809 0.212650001
0.479949266 0.223150283 0.222770274
0.511954308 0.236938983 0.236558989
0.543327093 0.250601053 0.245161131
0.578368187 0.269070417 0.258697182
0.614421368 0.287413031 0.273877054
0.650853634 0.312207371 0.287286639
0.688172042 0.336875170 0.302972943
0.724098802 0.362934768 0.336874992
0.001265161 0.035040997 0.095255993
0.001265161 0.035800096 0.098292381
0.003036161 0.035040773 0.100569226
0.005313000 0.044149157 0.108411998
0.002656839 0.047185544 0.109171093
0.006957839 0.052372158 0.115243316
0.005439840 0.057178997 0.116255321
0.012523703 0.061859418 0.119544417
0.027704094 0.067173094 0.125616997
0.058570180 0.070208840 0.126629010
0.089310445 0.078178160 0.131562293
0.117394239 0.088804349 0.137380987
0.145857275 0.096015476 0.143453285
0.175711304 0.104870155 0.146363169
0.199999824 0.112966403 0.148387417
0.227830425 0.122074790 0.152688369
0.254143029 0.132700995 0.160025194
0.280834973 0.144844979 0.169133574
0.305123210 0.156989023 0.175838172
0.335989684 0.166350365 0.183428347
0.362049073 0.175458744 0.192536578
0.388362110 0.185578987 0.199620187
0.415560007 0.197722986 0.205692828
0.447818071 0.211764738 0.215939090
0.481214434 0.224415123 0.223782450
0.511954308 0.240734145 0.235546976
0.544339120 0.253890157 0.247185066
0.582289815 0.274383426 0.258570731
0.613662243 0.295508951 0.274636447
0.652624846 0.315243304 0.288045406
0.690828145 0.341682106 0.304617554
0.730676830 0.365970850 0.334598154
0.003542452 0.054016095 0.106640995
0.003922000 0.059329771 0.109677382
0.003922000 0.057558544 0.108791769
0.002656839 0.057431705 0.109930091
0.000379548 0.065781094 0.114104547
0.000379548 0.068817481 0.120177321
0.005566319 0.074383549 0.122707449
0.020493533 0.080075994 0.125237450
0.046299640 0.085009545 0.130929992
0.079696044 0.088045925 0.137001991
0.106893957 0.091840677 0.137634456
0.132194504 0.100189537 0.140037835
0.157621726 0.110436186 0.143832743
0.187223479 0.119544514 0.149905458
0.211384982 0.125742987 0.150158450
0.238835871 0.134218797 0.154965445
0.262744725 0.144465551 0.163314536
0.285009146 0.155850530 0.173687562
0.309297979 0.167994559 0.182795972
0.343959749 0.178114906 0.190259472
0.373181522 0.187223285 0.198229194
0.397469789 0.197343543 0.205313414
0.421885014 0.209361061 0.208728537
0.451992810 0.221252099 0.220872551
0.484250724 0.232257828 0.229601562
0.515243649 0.244402319 0.237571299
0.543959558 0.262998521 0.253257066
0.586464286 0.281214535 0.262365431
0.613788545 0.303604960 0.277925551
0.648702860 0.324730843 0.293738395
0.690448701 0.345098048 0.310310006
0.732953548 0.369386107 0.337634444
0.000506065 0.078304872 0.112712994
0.003542452 0.078304872 0.115749389
0.003922000 0.079317003 0.116634995
0.002656839 0.080834866 0.119924098
0.000379548 0.087033480 0.126249313
0.003415935 0.090069868 0.117140934
0.023655931 0.095635936 0.128273055
0.046046693 0.100063220 0.131815061
0.072865024 0.102845997 0.133586153
0.100948431 0.103225544 0.137001991
0.125616670 0.112080924 0.140164122
0.150410846 0.118152924 0.144718572
0.173560634 0.124098569 0.149146229
0.196331099 0.128652900 0.152941063
0.217583463 0.137760505 0.159013063
0.248956397 0.146362811 0.164073050
0.273750842 0.155471206 0.170145437
0.294370472 0.164452925 0.175964937
0.321441978 0.171030954 0.176723972
0.351296753 0.185958311 0.191397652
0.380771726 0.196331665 0.201264799
0.406578183 0.206451923 0.208349198
0.430993408 0.218469426 0.211764932
0.458317846 0.227577835 0.223908946
0.488424987 0.244022861 0.238330215
0.519291401 0.256546617 0.243643314
0.549652040 0.269197077 0.247691065
0.583427906 0.290322900 0.268437445
0.615306675 0.305882066 0.274888992
0.651739299 0.326122165 0.291840285
0.692473173 0.348639876 0.313345641
0.729917943 0.375458896 0.340670079
0.000000000 0.097532995 0.126375318
0.000506065 0.100063317 0.126881376
0.003542452 0.104364321 0.127766997
0.010246838 0.106388479 0.130296990
0.018216090 0.110816091 0.137001678
0.036306247 0.113851927 0.134345055
0.057052955 0.116888314 0.135357320
0.079696238 0.121315606 0.142568037
0.102972507 0.125110313 0.144971639
0.124984138 0.128652319 0.149778813
0.146869063 0.134851515 0.147754446
0.169133574 0.139911383 0.150790587
0.191777274 0.146615967 0.156357005
0.213535666 0.152435288 0.161290362
0.239342049 0.156988889 0.169639632
0.265401423 0.163693920 0.175711632
0.293991387 0.172675446 0.181783631
0.313599050 0.182416141 0.187223420
0.333332986 0.192283660 0.189120695
0.360911071 0.201644361 0.197975978
0.391271323 0.213029727 0.209361061
0.416192263 0.222138122 0.217457309
0.437697947 0.232637793 0.222390980
0.467425585 0.241745576 0.234535009
0.499304533 0.257685244 0.244402289
0.531309307 0.274509966 0.256293654
0.563314378 0.287413299 0.260341644
0.596710742 0.306641430 0.275521755
0.632510960 0.325110435 0.288551301
0.664642453 0.343832493 0.303478479
0.703984797 0.368627131 0.326501876
0.742062330 0.399241328 0.353826314
0.011511698 0.119038403 0.139911413
0.021378690 0.125363797 0.134977713
0.021884756 0.125616699 0.138266698
0.029981142 0.127893537 0.139531866
0.045919947 0.130929828 0.144844875
0.068943560 0.136495769 0.146109700
0.086653918 0.142821014 0.140417323
0.110942684 0.142567977 0.153320715
0.132194504 0.146362692 0.154838905
0.151296675 0.152434692 0.158254281
0.170777857 0.156862721 0.162175834
0.192030236 0.160911143 0.163187966
0.214421272 0.165085405 0.165085703
0.235926688 0.173687667 0.170145705
0.259076387 0.179506272 0.177862406
0.284756482 0.183301598 0.182922274
0.312080890 0.189373985 0.190512478
0.336496115 0.198355272 0.197343573
0.354712188 0.209487930 0.202403456
0.371157348 0.217204347 0.206072077
0.402024418 0.227956727 0.216824740
0.429348558 0.238077253 0.226944998
0.448956639 0.248197675 0.234408498
0.482352704 0.261859506 0.245034710
0.510056794 0.271220565 0.249968290
0.540670633 0.289436966 0.259076655
0.574067116 0.305376410 0.269703001
0.608602107 0.323592693 0.284123987
0.643010557 0.343453377 0.297912687
0.684250534 0.360151589 0.313725144
0.718532383 0.383174986 0.334092170
0.757242262 0.415053993 0.359139711
0.041113187 0.143326998 0.152814895
0.055534285 0.151676491 0.144465610
0.060088191 0.152182326 0.143833086
0.069449343 0.151423022 0.150917158
0.083111733 0.148386732 0.153573990
0.102087125 0.155977130 0.156230152
0.116508290 0.163567320 0.151170090
0.133712500 0.168374389 0.149525598
0.155724198 0.167615101 0.166983098
0.176976591 0.173687100 0.163946703
0.195319101 0.177609056 0.171030864
0.215559348 0.180645257 0.176091254
0.237950385 0.184819996 0.178747892
0.261480123 0.190639034 0.179506928
0.279190153 0.198734775 0.186084986
0.300695568 0.203794912 0.190512285
0.324984193 0.207590193 0.195066288
0.352941126 0.214927182 0.204174504
0.377482951 0.224162072 0.213282868
0.390132755 0.230487108 0.215560094
0.412903130 0.239595190 0.220872983
0.442252040 0.251739264 0.232258081
0.463757396 0.264010489 0.244402081
0.498291999 0.281594098 0.254142880
0.526375651 0.291461021 0.257937998
0.552814662 0.303099155 0.263630658
0.580139041 0.320809245 0.273245007
0.615812719 0.338772982 0.290954977
0.650347769 0.358886808 0.307273895
0.689310551 0.378874272 0.322707027
0.732194960 0.398355544 0.342441261
0.768626988 0.425679982 0.360658079
0.095761999 0.167615011 0.167994529
0.098798379 0.173687786 0.161922529
0.098165706 0.173434734 0.157874778
0.107906148 0.174193501 0.161543489
0.131688535 0.178747520 0.171789989
0.134724930 0.175711915 0.171790004
0.148640320 0.178241655 0.176976487
0.165338472 0.183175012 0.174066782
0.183048606 0.188867494 0.170018718
0.198229000 0.194939509 0.176091477
0.216571495 0.201012239 0.178874090
0.236811742 0.204933733 0.182163253
0.259202778 0.209108010 0.185199365
0.282732517 0.214927047 0.188614562
0.297912896 0.217963427 0.197722927
0.315622956 0.223655969 0.204301000
0.335610181 0.228083685 0.208728701
0.359013170 0.233143955 0.213282913
0.389373958 0.245288000 0.222390532
0.408349007 0.251739502 0.228716224
0.431878209 0.259709239 0.232637748
0.457431644 0.269955963 0.238077119
0.478936970 0.282226503 0.247438475
0.506261408 0.297406912 0.259582460
0.533965826 0.308159173 0.267046005
0.562555432 0.321315318 0.277039647
0.592283070 0.339026034 0.291460991
0.619607449 0.354206383 0.303604990
0.655281126 0.372169435 0.321315646
0.693358541 0.394054353 0.335863441
0.732194960 0.419734448 0.351802677
0.768626988 0.449968010 0.375838488
0.141682610 0.191903740 0.180265740
0.130170390 0.192156777 0.171283871
0.139658555 0.204680771 0.171663642
0.144212604 0.203668565 0.171410874
0.159645736 0.201517865 0.176597312
0.180391788 0.206071928 0.184186995
0.185958505 0.205565989 0.179126993
0.198355734 0.211511567 0.182036713
0.214041740 0.217330739 0.181783736
0.231372371 0.219101727 0.187855959
0.246552736 0.219354734 0.188108996
0.264769226 0.225427002 0.193168864
0.283997595 0.230486870 0.197090641
0.303731859 0.236305907 0.199873745
0.316255391 0.239342287 0.201012284
0.333839595 0.244781867 0.210120052
0.356609941 0.252372056 0.218216196
0.380012721 0.258823872 0.224667996
0.401264966 0.266413867 0.231498927
0.426059723 0.272991896 0.237823889
0.446426481 0.280961603 0.240101129
0.470714718 0.291081846 0.244149119
0.493990868 0.303225845 0.253383994
0.518532574 0.315622896 0.265528023
0.545857012 0.326249272 0.275395304
0.573181689 0.338140398 0.284882843
0.602529943 0.354838848 0.298545063
0.634661257 0.372422397 0.313092858
0.669955432 0.390259624 0.333206654
0.706388175 0.412017673 0.349905193
0.742947578 0.435420573 0.363187850
0.777355850 0.459708869 0.379380107
0.179127246 0.220240504 0.190385729
0.173054725 0.220240504 0.181277856
0.174067035 0.224921018 0.182795763
0.186211497 0.232511073 0.188362151
0.194181040 0.226059243 0.190259695
0.210246757 0.228842244 0.192789316
0.221378624 0.233902231 0.197343245
0.230740398 0.233902231 0.192915961
0.244402498 0.241113171 0.195952252
0.262618512 0.243643492 0.202024251
0.275901109 0.247691497 0.204300985
0.291081488 0.249715239 0.204300970
0.310436606 0.254648894 0.209234625
0.329032242 0.260088533 0.212777019
0.341176242 0.266666919 0.218090251
0.360151589 0.268058509 0.221252441
0.378368378 0.274130493 0.231878236
0.402277231 0.282732636 0.238962561
0.420493275 0.290195972 0.240860268
0.440227985 0.296267986 0.244908005
0.460721254 0.300442755 0.249082744
0.481847107 0.309298128 0.252245396
0.505123258 0.320556760 0.261480242
0.529411554 0.334598511 0.273624271
0.555977523 0.348513275 0.285515279
0.584693193 0.359013319 0.296014965
0.612650037 0.373561323 0.308665037
0.643010378 0.390259475 0.323845416
0.677039862 0.408475637 0.336242795
0.711701393 0.428463131 0.355723947
0.746110141 0.451612830 0.373813927
0.778368294 0.472865254 0.390512258
0.214800626 0.252878278 0.202909291
0.212902874 0.250600994 0.193801373
0.216318816 0.251486629 0.193168998
0.223782644 0.257179111 0.199367508
0.234788179 0.254901826 0.207716897
0.242378563 0.255660921 0.206198692
0.251486599 0.259582281 0.208475649
0.263377398 0.263503909 0.210752711
0.276281059 0.264262825 0.209993988
0.294117630 0.269955963 0.216065988
0.305376291 0.277166635 0.220366776
0.318405896 0.280075997 0.222517282
0.335863262 0.283111632 0.221378639
0.356356621 0.286654025 0.224921033
0.368500620 0.295762390 0.234029412
0.390132695 0.297659993 0.238330185
0.405313015 0.300695986 0.241365984
0.424162179 0.306767970 0.252245128
0.442884296 0.315369666 0.250727594
0.463377714 0.323971927 0.255534291
0.480455637 0.327008009 0.259708732
0.498671621 0.334092408 0.264769137
0.520050526 0.343453765 0.273877501
0.545350969 0.356609911 0.285009652
0.570777833 0.370651633 0.297153652
0.598355532 0.385578334 0.309297591
0.628209651 0.398229063 0.321441770
0.655534029 0.413409412 0.335989714
0.688172102 0.432384580 0.349272460
0.721568823 0.453510433 0.364832222
0.754079819 0.473877251 0.386590451
0.784440637 0.494876623 0.411385268
0.254016042 0.288298994 0.220367029
0.253763080 0.282479227 0.212270647
0.258317530 0.279063791 0.210120037
0.264895856 0.280076057 0.211132035
0.274256587 0.284503520 0.217330575
0.277292967 0.287539899 0.220366970
0.284630328 0.291081697 0.220367029
0.297027349 0.293864697 0.221631989
0.311448127 0.297153920 0.222897023
0.326628506 0.300189525 0.228969023
0.336242855 0.308538884 0.234535024
0.347375035 0.311827987 0.238330260
0.362175643 0.313472420 0.239595413
0.383175015 0.316761047 0.237571031
0.395319015 0.325869411 0.246679410
0.418469369 0.328020066 0.250727206
0.436432987 0.330803037 0.252751023
0.445414573 0.336622030 0.254269123
0.466667026 0.342694074 0.260341913
0.489690065 0.354079753 0.268184721
0.509044766 0.359140009 0.275901079
0.525237083 0.363947123 0.282479137
0.543706059 0.379000992 0.291840494
0.570904672 0.388235122 0.301201910
0.596205056 0.399367571 0.312334031
0.621631682 0.413409352 0.324731052
0.648956060 0.428336084 0.336875141
0.676280439 0.443516433 0.349019915
0.708918452 0.463756859 0.366223991
0.741556108 0.486780375 0.386211187
0.773308158 0.509550989 0.411385179
0.803668976 0.527767003 0.441745996
0.290448785 0.312586993 0.229475409
0.287413180 0.309550583 0.232511029
0.293611467 0.310183167 0.235167399
0.298291981 0.314484537 0.232384384
0.302086949 0.320303708 0.226691961
0.316761315 0.308791488 0.235547349
0.317267388 0.316887885 0.230993405
0.327387661 0.319797397 0.237697691
0.340290815 0.321947992 0.246679068
0.347880870 0.327513903 0.250221401
0.360151380 0.330550253 0.250474393
0.371663511 0.334851116 0.251739413
0.383807808 0.339531630 0.253510624
0.398355424 0.347121805 0.255787760
0.416571379 0.353193790 0.264895409
0.431119174 0.357495219 0.266792983
0.451865762 0.359898627 0.270461410
0.469323128 0.363566995 0.275900960
0.487919390 0.366982818 0.284629911
0.500822425 0.375838161 0.282353342
0.523086429 0.383681387 0.291334808
0.543453276 0.390512377 0.299177706
0.561922789 0.403288960 0.303984493
0.586210787 0.415432990 0.319164902
0.613409400 0.424667686 0.328526258
0.638709724 0.439974636 0.341050059
0.664136410 0.458443820 0.355091810
0.691460788 0.470840812 0.367235869
0.724098146 0.488678038 0.382036775
0.752181947 0.511068761 0.401391566
0.777482569 0.534471571 0.429727942
0.800632596 0.555091381 0.472105950
0.324477792 0.339278787 0.240986988
0.316635191 0.338646203 0.244022608
0.317900002 0.337760597 0.251359761
0.327767104 0.341808796 0.252624810
0.333080411 0.348260552 0.243516788
0.342188507 0.342188537 0.242504925
0.351928800 0.342947096 0.253383964
0.356862485 0.345477492 0.247311980
0.369006872 0.346236587 0.254901797
0.376723588 0.352308601 0.259582490
0.383807600 0.357874632 0.259709001
0.391903579 0.362934768 0.263757020
0.407843262 0.366350234 0.266792983
0.424794555 0.372422546 0.271347255
0.436558753 0.376343787 0.278305173
0.449968398 0.384819597 0.282605797
0.465148777 0.387855977 0.285641789
0.484629989 0.390891790 0.289816380
0.504617095 0.393927753 0.291840762
0.524478018 0.402530134 0.299430549
0.542314708 0.411638528 0.305882663
0.564073086 0.420240581 0.317014664
0.582416296 0.432258099 0.323212802
0.604427576 0.442125410 0.336116523
0.626438856 0.454269409 0.346742302
0.654902279 0.466287255 0.357242316
0.680708528 0.484503508 0.371916801
0.704237401 0.498544753 0.387855768
0.732068360 0.518405616 0.402656585
0.763693511 0.536622345 0.423149705
0.787476182 0.559645593 0.445034564
0.807210803 0.582415760 0.478430986
0.353320390 0.365085393 0.253131002
0.348766565 0.371157378 0.257684797
0.348260790 0.368121386 0.257431775
0.355091542 0.369386226 0.266540140
0.365718186 0.374446183 0.262492180
0.369513184 0.372548908 0.258697182
0.378115237 0.374573052 0.264769197
0.387222886 0.377356082 0.270082206
0.394813269 0.375838280 0.266287297
0.402403682 0.381151199 0.271600395
0.408602208 0.384187192 0.270335197
0.420746177 0.390259176 0.275901377
0.427956820 0.395192802 0.281973392
0.449589014 0.398229152 0.287539393
0.461226970 0.401264757 0.291081816
0.472738594 0.407590181 0.297786176
0.486401170 0.416698188 0.299303979
0.502213955 0.420366973 0.306008548
0.522580206 0.424288213 0.306514949
0.542314708 0.432890534 0.313092828
0.563567102 0.440480739 0.324098676
0.582795501 0.449589133 0.333207071
0.600506186 0.461100698 0.341429174
0.620366871 0.470209092 0.353573620
0.643137455 0.480076015 0.363440871
0.665781140 0.495003313 0.376723498
0.694370866 0.511322260 0.389627129
0.715622723 0.528526127 0.406830966
0.740670443 0.544465184 0.429980993
0.766729891 0.565464556 0.436812311
0.797090173 0.584566772 0.464642346
0.817837000 0.608222365 0.489057183
0.378241539 0.391904116 0.267172545
0.380139112 0.401518136 0.275142133
0.381024748 0.402024120 0.270082146
0.387856126 0.399746954 0.272232682
0.399241120 0.403162122 0.280202538
0.399747103 0.403668106 0.280202538
0.405439854 0.406198442 0.282732576
0.412650436 0.408602238 0.285515577
0.421505094 0.411638439 0.286907077
0.424541473 0.414674044 0.289943457
0.431752145 0.414800525 0.288425088
0.444022536 0.418216139 0.291587681
0.460720778 0.423782170 0.300189972
0.470082134 0.426818550 0.306261957
0.484882951 0.429854274 0.307020962
0.497659534 0.435926586 0.313598752
0.510056734 0.442251921 0.318152547
0.525869548 0.450727105 0.320050120
0.544085562 0.456799120 0.329158515
0.561669707 0.465654492 0.334851146
0.581151307 0.472865134 0.344718426
0.600379705 0.479316682 0.355092019
0.615813076 0.488425046 0.358254135
0.634535193 0.497533441 0.369386166
0.655407965 0.507273853 0.379885823
0.680328906 0.519923866 0.391903728
0.703605115 0.537128508 0.409614474
0.724730968 0.558001399 0.424794078
0.749272585 0.572549105 0.451359600
0.772928476 0.588741124 0.466666788
0.797722757 0.610626161 0.473877519
0.828083575 0.631878555 0.510309577
0.405566007 0.428336978 0.288424999
0.414674401 0.428336978 0.303605378
0.414421201 0.429349005 0.294370979
0.418216377 0.430107832 0.292346984
0.429601967 0.433522999 0.307527006
0.435673952 0.439594984 0.307527006
0.436179966 0.442631304 0.302466989
0.436939001 0.444023013 0.300696015
0.439974874 0.445034951 0.302213997
0.448829561 0.448070556 0.308159500
0.460594803 0.448197037 0.311195135
0.470208704 0.450221300 0.311701059
0.483491302 0.454649001 0.315875739
0.500442982 0.460215062 0.324478000
0.512587011 0.463251442 0.330549985
0.524984002 0.471094161 0.336116016
0.535610259 0.476913244 0.339405000
0.547122002 0.481087983 0.341302603
0.565338016 0.487159967 0.350410998
0.580771387 0.496015340 0.353953391
0.598102570 0.503225982 0.362934947
0.615560174 0.509297967 0.374067158
0.630993485 0.515749574 0.382542968
0.652245939 0.524857938 0.388614953
0.668690681 0.536243021 0.399746954
0.690195680 0.549525678 0.411637992
0.715749145 0.564453065 0.424794167
0.733965874 0.576597035 0.439974517
0.760404766 0.594813704 0.460467815
0.783934116 0.610752761 0.480708450
0.806325197 0.629095256 0.500696003
0.831119955 0.653131008 0.531562030
0.449589103 0.475901753 0.320809364
0.450348139 0.478684396 0.324857771
0.457305759 0.480835170 0.331435621
0.457432121 0.481467754 0.325237036
0.462365836 0.482226551 0.331688583
0.466033995 0.481087744 0.329285383
0.467045993 0.482099742 0.329285383
0.471979707 0.483238399 0.328652650
0.476913393 0.484756410 0.331309199
0.483997285 0.489816278 0.337381750
0.498798132 0.492726117 0.343327194
0.508918643 0.492726117 0.346362799
0.516888082 0.496141762 0.347121745
0.528273404 0.501960814 0.351043373
0.542947710 0.504997194 0.357115388
0.550284743 0.510436714 0.363187999
0.564705789 0.516128898 0.370777875
0.576976418 0.519797385 0.375837743
0.586590409 0.525869429 0.382795334
0.610373080 0.531942070 0.389121115
0.627450705 0.539152741 0.392156988
0.643643260 0.546236575 0.398608506
0.657179356 0.554205894 0.404301375
0.675774932 0.563314319 0.415686369
0.694750011 0.574699342 0.428589642
0.713218987 0.586843729 0.445414394
0.735736370 0.600632787 0.462239176
0.751675844 0.615054071 0.477419525
0.772548795 0.632511020 0.495256066
0.796078146 0.648956537 0.514610708
0.817330599 0.665907681 0.533712626
0.839721680 0.688298702 0.558380365
0.478051990 0.513092995 0.348513454
0.487539738 0.516129076 0.349652141
0.488045722 0.517267525 0.350790709
0.492852569 0.520303607 0.356356621
0.493105531 0.520936012 0.356356680
0.493105531 0.519417822 0.347248644
0.499304205 0.522707224 0.356230468
0.504237473 0.521062493 0.352941036
0.512586713 0.522327483 0.357494950
0.518658757 0.528399467 0.365844697
0.527767360 0.529664576 0.366223991
0.540796995 0.534471691 0.372169465
0.548766673 0.534471691 0.375205368
0.555091739 0.538772762 0.376470476
0.566983104 0.541809142 0.382542461
0.580645442 0.549146473 0.390512347
0.591271281 0.552182436 0.393548727
0.608475327 0.555471182 0.401517868
0.618342459 0.561543226 0.408854753
0.625932753 0.567615449 0.413029701
0.648323715 0.573687732 0.422896951
0.664515972 0.580771863 0.425932854
0.676913738 0.589879632 0.429601699
0.695129752 0.598987639 0.445287734
0.709550679 0.606578171 0.455913991
