Assets/Shaders/EldamarStudio/100 Sci-Fi LUTs Pack/LUTs/cube/Sanema LUT.cube
LUT_3D_SIZE 8
DOMAIN_MIN 0.000000 0.000000 0.000000
DOMAIN_MAX 0.903226 0.903226 0.903226
0.000000000 0.000000000 0.082353003
0.000000000 0.008601999 0.097659551
0.010879001 0.036812000 0.108159088
0.121189281 0.072359636 0.131688997
0.243516982 0.111954376 0.158380806
0.354079723 0.158633739 0.182289734
0.477672547 0.211385280 0.222517282
0.611005723 0.285262793 0.272232622
0.003542452 0.054016095 0.106640995
0.000379548 0.065781094 0.114104547
0.046299640 0.085009545 0.130929992
0.157621726 0.110436186 0.143832743
0.262744725 0.144465551 0.163314536
0.373181522 0.187223285 0.198229194
0.484250724 0.232257828 0.229601562
0.613788545 0.303604960 0.277925551
0.041113187 0.143326998 0.152814895
0.083111733 0.148386732 0.153573990
0.155724198 0.167615101 0.166983098
0.237950385 0.184819996 0.178747892
0.324984193 0.207590193 0.195066288
0.412903130 0.239595190 0.220872983
0.526375651 0.291461021 0.257937998
0.650347769 0.358886808 0.307273895
0.214800626 0.252878278 0.202909291
0.234788179 0.254901826 0.207716897
0.276281059 0.264262825 0.209993988
0.335863262 0.283111632 0.221378639
0.405313015 0.300695986 0.241365984
0.480455637 0.327008009 0.259708732
0.570777833 0.370651633 0.297153652
0.688172102 0.432384580 0.349272460
0.353320390 0.365085393 0.253131002
0.365718186 0.374446183 0.262492180
0.394813269 0.375838280 0.266287297
0.427956820 0.395192802 0.281973392
0.486401170 0.416698188 0.299303979
0.563567102 0.440480739 0.324098676
0.643137455 0.480076015 0.363440871
0.740670443 0.544465184 0.429980993
0.478051990 0.513092995 0.348513454
0.493105531 0.520936012 0.356356680
0.512586713 0.522327483 0.357494950
0.548766673 0.534471691 0.375205368
0.591271281 0.552182436 0.393548727
0.648323715 0.573687732 0.422896951
0.709550679 0.606578171 0.455913991
0.790765285 0.660594702 0.527134717
0.606451571 0.667172551 0.482226551
0.614294827 0.672106266 0.481087804
0.633776307 0.675901592 0.493864447
0.656419933 0.681087911 0.505249858
0.689437211 0.691587329 0.516508281
0.729917765 0.707020760 0.546868801
0.777988315 0.725363553 0.584819555
0.823529303 0.752055228 0.629854083
0.753320813 0.805692732 0.659455717
0.755976915 0.812902868 0.666793048
0.756862700 0.820619881 0.669323444
0.781656802 0.821378767 0.677545905
0.799873590 0.830486953 0.692220151
0.829601526 0.838835835 0.712207317
0.861100674 0.854648650 0.737760723
0.886653781 0.864389658 0.758633792
0.000000000 0.000379548 0.101961002
0.003542452 0.012523999 0.103099450
0.015560002 0.046552643 0.121062547
0.131309286 0.090828992 0.147375003
0.245414644 0.128020450 0.170524731
0.365211725 0.172295988 0.204301462
0.472612292 0.220366836 0.233143553
0.614547849 0.290448964 0.280329257
0.000379548 0.061859995 0.123845994
0.006198998 0.076787002 0.130171001
0.054142732 0.094750091 0.140291005
0.168627545 0.122960187 0.156356648
0.268943846 0.155471370 0.179127350
0.369133532 0.192283362 0.204933554
0.481214553 0.234914571 0.235293821
0.596710622 0.298544914 0.278811008
0.063503735 0.150031552 0.156736091
0.104744092 0.155851096 0.164579198
0.161543638 0.171157554 0.172801629
0.236432284 0.185578987 0.181783885
0.322959960 0.213409454 0.205692545
0.414674014 0.247058630 0.232384726
0.521568358 0.296015084 0.264010310
0.648450315 0.358380616 0.311321646
0.219354823 0.250980556 0.209234998
0.233143374 0.257305533 0.205186188
0.271979719 0.266666740 0.216192290
0.335104376 0.283491194 0.231878176
0.399747014 0.303478748 0.245920300
0.472991556 0.327261299 0.264389545
0.564958990 0.367868274 0.301834345
0.674762368 0.425300092 0.346995413
0.348513275 0.364959002 0.258190721
0.359519184 0.371157378 0.268311530
0.389626831 0.380645394 0.275775105
0.434408695 0.390385807 0.289816260
0.492346853 0.413156003 0.305629164
0.561290145 0.437824190 0.327261388
0.639342189 0.476913393 0.368627518
0.733333409 0.538393259 0.421884924
0.482858747 0.506767988 0.352435291
0.493358463 0.511701703 0.360151470
0.513852060 0.518785596 0.366729736
0.543200552 0.530170560 0.375458628
0.592156470 0.548134327 0.394939899
0.643516719 0.570018768 0.419607460
0.709930241 0.601518035 0.463250786
0.786590695 0.658191144 0.530423582
0.605439305 0.655281544 0.476027548
0.611891150 0.666920006 0.485389292
0.630866885 0.670714974 0.493484795
0.651612878 0.676660538 0.505249977
0.685009599 0.689689934 0.523972213
0.725616395 0.703478754 0.543706417
0.770272255 0.719544709 0.570018649
0.821631789 0.746362805 0.620746493
0.743073583 0.814421058 0.650727332
0.752435088 0.813915312 0.666413724
0.756229937 0.818722606 0.665907860
0.781910181 0.818595827 0.676660359
0.801644266 0.828083456 0.694370627
0.827071488 0.836305857 0.712207317
0.859708965 0.850727618 0.738393605
0.894117355 0.860974193 0.765338361
0.000000000 0.013282999 0.121442094
0.000000000 0.025047097 0.127387539
0.020240195 0.051612996 0.133965984
0.145477369 0.095509090 0.163314536
0.263124377 0.135483995 0.191271186
0.371916473 0.182036728 0.217077985
0.487160265 0.237318084 0.254649192
0.620872676 0.299051076 0.299051076
0.000759096 0.069702990 0.149272531
0.012017641 0.071220994 0.144971088
0.069450080 0.098671988 0.164199650
0.180391833 0.127261549 0.180265903
0.281087995 0.162934899 0.202783272
0.383681476 0.204806924 0.226944730
0.491840541 0.251360267 0.256546557
0.612017572 0.308159202 0.298165530
0.084377095 0.150284186 0.175584987
0.110942289 0.163314551 0.186970547
0.180012286 0.180139184 0.196711004
0.250094712 0.196963727 0.202909276
0.339152217 0.223150089 0.224920884
0.428083718 0.261226922 0.249209091
0.527008057 0.300696105 0.282859117
0.658697069 0.363314033 0.340543985
0.242758080 0.255660921 0.223276183
0.252878189 0.261985809 0.229980722
0.290069729 0.271347553 0.233396277
0.344465375 0.285009384 0.245540723
0.407590032 0.307780057 0.264010191
0.481214732 0.333586216 0.283111751
0.570904374 0.372295916 0.316634715
0.680834770 0.432510823 0.361922801
0.371284097 0.368121386 0.291460991
0.371663511 0.371157378 0.281593829
0.398735285 0.380645305 0.295382798
0.436685830 0.392789632 0.300822198
0.496774286 0.413535446 0.324351370
0.554459214 0.439342201 0.343326926
0.639342189 0.480202287 0.381404370
0.734851420 0.537254632 0.441112995
0.489563465 0.514611006 0.370398372
0.494623512 0.514104903 0.373434246
0.516255498 0.521568537 0.387096703
0.545857370 0.531435847 0.392283380
0.587476373 0.546995759 0.414674222
0.642757714 0.571663499 0.440101445
0.709930360 0.605313301 0.471979648
0.785831571 0.658696949 0.541682303
0.605565965 0.656420290 0.481340766
0.616445422 0.662618577 0.499050885
0.632131577 0.669702649 0.502340257
0.653257430 0.675142467 0.513978601
0.687919021 0.686148226 0.532447636
0.725616276 0.699557304 0.552688420
0.770272136 0.714358091 0.582669377
0.826818287 0.749904752 0.628589213
0.743706524 0.814168334 0.668817103
0.751043320 0.809108019 0.664136529
0.761922836 0.814294815 0.670714676
0.776723564 0.821125865 0.683491409
0.801391482 0.827324569 0.701201737
0.825047374 0.834282100 0.712207317
0.855281651 0.849209428 0.735610187
0.888171792 0.863377571 0.760404587
0.005566002 0.032004993 0.157494992
0.002783356 0.032763995 0.157115549
0.036052734 0.068058193 0.172042727
0.155344635 0.101454638 0.193295360
0.265780926 0.144465640 0.213156000
0.373813719 0.189879730 0.238962993
0.488930941 0.238836274 0.276913643
0.629601598 0.306134969 0.330423445
0.004301451 0.085389093 0.180265993
0.011005731 0.090069890 0.179127455
0.090954833 0.110436186 0.183301985
0.189753532 0.133080184 0.197849557
0.295635730 0.168753743 0.225679994
0.388741106 0.207969636 0.249462739
0.502466798 0.258064717 0.286400825
0.626059353 0.315243542 0.337128431
0.113346189 0.162555456 0.207590088
0.137254745 0.167994663 0.198481724
0.192156836 0.189626992 0.210753083
0.267425656 0.200885743 0.235167995
0.347374946 0.229475096 0.249083072
0.435926735 0.264769316 0.274509758
0.539658308 0.312460274 0.313345999
0.658317685 0.369639367 0.360278279
0.243390277 0.262365252 0.245540649
0.267425716 0.268311530 0.245920196
0.303478718 0.281593740 0.266414076
0.359392554 0.296015292 0.274130285
0.419354916 0.315243632 0.291840553
0.497406453 0.342568040 0.310942262
0.583048642 0.381277561 0.345983565
0.690575600 0.441366255 0.396710724
0.377229631 0.371663541 0.310815752
0.382669032 0.379886299 0.301455110
0.412144184 0.392030627 0.323971808
0.452877998 0.402656406 0.334851414
0.500822008 0.422137976 0.347121984
0.565970838 0.447691530 0.372169286
0.644275784 0.486906856 0.412396908
0.741682291 0.545098126 0.465781212
0.497406483 0.515875816 0.400126457
0.500189722 0.518026590 0.393042266
0.522959948 0.526375651 0.411258548
0.556989253 0.538899422 0.422137976
0.597722948 0.555344462 0.440606952
0.650221467 0.574572861 0.460341454
0.710563123 0.606198430 0.497659892
0.792915523 0.663757265 0.556736410
0.606577933 0.664263308 0.511321962
0.613535941 0.666161001 0.521315634
0.628589809 0.669449985 0.519417822
0.656419933 0.678937554 0.534977913
0.690449119 0.688171983 0.554711998
0.730423450 0.703478813 0.575205505
0.771789968 0.723086536 0.599873602
0.829095483 0.752055228 0.645920455
0.746109962 0.808475375 0.677166581
0.754079580 0.810879350 0.683870971
0.760278165 0.816318810 0.686653793
0.774446547 0.818595827 0.692852378
0.797469795 0.826818287 0.706135392
0.823782504 0.837064743 0.722327709
0.858064353 0.848450363 0.749525428
0.891714156 0.868690789 0.774319768
0.004807003 0.046806186 0.195192993
0.001897547 0.061100803 0.194686845
0.084377095 0.082226291 0.206831083
0.177229822 0.114737444 0.220113993
0.277925372 0.155092001 0.244402364
0.384313643 0.191903993 0.273750722
0.499557287 0.244402379 0.310183376
0.635041118 0.308664978 0.365717977
0.017077725 0.099430993 0.206324935
0.065148726 0.107273988 0.211132541
0.125363618 0.122580729 0.216951296
0.210626185 0.146109641 0.229980826
0.300696194 0.177862182 0.256293178
0.398228735 0.216951102 0.284376979
0.506894350 0.262365371 0.319291532
0.628589392 0.320303351 0.367615342
0.153447285 0.174699187 0.232637376
0.176596731 0.182163537 0.235420629
0.212017491 0.193548098 0.247564882
0.281088173 0.210373461 0.262871653
0.358760148 0.236559182 0.279570073
0.446046829 0.270209074 0.308918506
0.547501445 0.314864069 0.346110165
0.665654480 0.375837952 0.400505900
0.266666651 0.263503820 0.280075848
0.277925164 0.270588547 0.287539274
0.319164842 0.282732308 0.292599559
0.367615730 0.299936980 0.306894183
0.426818460 0.321441919 0.328273207
0.504364192 0.348007739 0.351170003
0.589753270 0.387602687 0.382163286
0.697406828 0.441492736 0.434282035
0.382036358 0.378368199 0.345477372
0.391271651 0.382542819 0.343074203
0.415180385 0.397217095 0.354838341
0.461353451 0.409614354 0.370904535
0.522580564 0.431499183 0.390765339
0.575079203 0.456673175 0.412776560
0.653384268 0.490449280 0.444149196
0.739152253 0.546995521 0.493611991
0.498671740 0.517267525 0.425047725
0.504870474 0.522833705 0.432637811
0.527640820 0.529411554 0.444402128
0.561669469 0.543580055 0.455787450
0.596205115 0.559139490 0.472865164
0.651739240 0.581151247 0.494117647
0.719291568 0.614421248 0.532447577
0.794180691 0.660341203 0.582669437
0.611764669 0.664263070 0.544339001
0.616445482 0.670967937 0.542694509
0.633776069 0.673624456 0.551296711
0.655408025 0.683997333 0.563314140
0.691081464 0.691714287 0.577862203
0.729917765 0.705882549 0.598355472
0.771916449 0.721568465 0.617963374
0.831878543 0.759645641 0.667425752
0.737381399 0.809613764 0.684123755
0.746109962 0.809993565 0.695888698
0.757368565 0.812270582 0.694749713
0.771031141 0.819481432 0.704617083
0.794054270 0.830866814 0.725490153
0.823529422 0.837571025 0.734724581
0.857305467 0.850727260 0.759898841
0.897153616 0.869576395 0.786590755
0.013282729 0.072359249 0.246805996
0.058317278 0.083364926 0.250221521
0.133712992 0.103351988 0.257305652
0.210626021 0.127640992 0.268564284
0.308412164 0.165338188 0.292599559
0.403162479 0.199620470 0.317140996
0.502972722 0.248703524 0.353700042
0.635799944 0.311954677 0.406577766
0.081341013 0.117899731 0.250853807
0.114737272 0.120683089 0.253383726
0.167362183 0.139025539 0.267172903
0.241366014 0.156230554 0.274763167
0.320050657 0.187982097 0.295635730
0.413662225 0.224035472 0.319923729
0.508539021 0.263883471 0.349904984
0.629348397 0.318532407 0.407337070
0.192789540 0.190385997 0.286401153
0.208981574 0.196584195 0.285895169
0.244276181 0.202024192 0.296521455
0.303352535 0.218596011 0.304237634
0.375458539 0.244402200 0.322580576
0.459329724 0.277292997 0.350031495
0.551043510 0.317647010 0.383301646
0.666793287 0.379253715 0.444275796
0.288804471 0.271979749 0.324984372
0.308539063 0.278684169 0.328146458
0.333080113 0.288551629 0.335104287
0.378494531 0.304490894 0.349652022
0.439974576 0.324225247 0.365970820
0.506135225 0.351929009 0.384819746
0.585705280 0.385958284 0.414800465
0.693484962 0.438709617 0.472612262
0.391397476 0.387096941 0.391524643
0.403035730 0.390385717 0.391777098
0.433776051 0.399873435 0.403415293
0.465401441 0.411005586 0.409487635
0.524604797 0.435800105 0.435420483
0.580012739 0.456546545 0.450221270
0.654902041 0.491461009 0.484376907
0.743074000 0.542694211 0.536242545
0.501455009 0.520936012 0.466034472
0.509298205 0.525869727 0.473750651
0.533586383 0.533333302 0.483617723
0.563693821 0.545477629 0.497659713
0.605312943 0.563567042 0.515749514
0.660088718 0.589247167 0.542314708
0.719164968 0.613788784 0.567362249
0.799114525 0.654522657 0.612397432
0.609993517 0.660215318 0.567615509
0.621252477 0.669576585 0.575332046
0.634408534 0.671726763 0.582921982
0.654902101 0.677925050 0.592662692
0.687539577 0.692472935 0.604807198
0.729411721 0.708159447 0.625679493
0.773940325 0.723339736 0.651486218
0.835673451 0.762049496 0.693611681
0.733586252 0.805692732 0.710815847
0.745856941 0.810879290 0.712713480
0.745983243 0.812776685 0.715369940
0.763061523 0.818595827 0.723086596
0.785072625 0.829601645 0.734977782
0.821758568 0.835040987 0.751170039
0.851865888 0.851612926 0.775331736
0.893231928 0.868437767 0.801897526
0.124098562 0.100948699 0.325743258
0.144971535 0.106894448 0.324098557
0.199241176 0.125363708 0.334218651
0.275395274 0.148007572 0.346489638
0.356103748 0.179380089 0.363314182
0.444528550 0.217457250 0.385199279
0.538772821 0.260720998 0.419481546
0.643264055 0.316634774 0.467172921
0.155091822 0.133839279 0.323213279
0.182289362 0.137507826 0.333965808
0.224288434 0.155597553 0.338267207
0.290828824 0.173560917 0.344592065
0.362681836 0.202529833 0.364832282
0.453004599 0.237318173 0.392789543
0.538772821 0.272991508 0.420493305
0.638583004 0.326755077 0.461227179
0.226186097 0.201391101 0.350790650
0.248323992 0.207590386 0.353573620
0.283491284 0.223276377 0.367362261
0.338519990 0.235294014 0.377356082
0.412650287 0.256926090 0.395446092
0.488677979 0.288172096 0.417963296
0.575585246 0.330423564 0.451612651
0.669449687 0.378241658 0.492472976
0.308918625 0.288172275 0.389753282
0.318532437 0.292093545 0.393548489
0.350410819 0.300316334 0.403541923
0.397976011 0.312839895 0.412144214
0.459582388 0.334851623 0.432890475
0.529032052 0.358633548 0.452877909
0.607716560 0.393042266 0.480581850
0.695382595 0.441112995 0.519797444
0.405818969 0.397090375 0.450853735
0.413662195 0.402909756 0.460088849
0.434788167 0.407210469 0.465022385
0.468184710 0.415939182 0.472991586
0.523339629 0.428463191 0.485515535
0.589499891 0.457052648 0.509297907
0.660341501 0.488804549 0.537128389
0.741049945 0.533080041 0.578621328
0.509297967 0.533713043 0.541429281
0.521062493 0.545098007 0.548387229
0.538267076 0.545477509 0.544085920
0.565338552 0.555724084 0.557115972
0.603668749 0.568627179 0.566223562
0.652371764 0.581910193 0.586970270
0.719291568 0.611764491 0.613915443
0.790006042 0.651233435 0.647944093
0.606451511 0.662618577 0.614547789
0.617204309 0.664642870 0.615053833
0.631498992 0.670461535 0.627071321
0.652498603 0.678304553 0.634661853
0.683238506 0.688551605 0.643769860
0.726881504 0.708665490 0.663504303
0.777988255 0.728652537 0.688425303
0.838962495 0.758001208 0.722201049
0.731562316 0.803541839 0.728652775
0.739025891 0.809487760 0.739658177
0.747374952 0.810246766 0.740544081
0.763314247 0.817330956 0.748639822
0.783428252 0.827324390 0.762555063
0.815812767 0.837191522 0.779000521
0.850600719 0.848450363 0.796078026
0.897533119 0.870715022 0.822770417
0.217330620 0.128146827 0.466034234
0.235799894 0.132827163 0.458443880
0.283744723 0.150537997 0.465528011
0.345477611 0.170777798 0.479949415
0.433396637 0.202024192 0.497533113
0.522707403 0.240353972 0.519417584
0.614168108 0.291208267 0.545857072
0.698671758 0.349398792 0.581024468
0.232384637 0.153953254 0.459329605
0.246932209 0.160151556 0.458443880
0.292346805 0.174319819 0.464769006
0.358127892 0.195319429 0.479696512
0.436812371 0.222517371 0.498797953
0.520809352 0.258064628 0.519544423
0.607210696 0.299810261 0.546489179
0.696141541 0.360278189 0.585832059
0.274636060 0.218975350 0.477925569
0.295509100 0.226818249 0.490828633
0.333586037 0.238709822 0.494876772
0.391271651 0.251106650 0.508412242
0.463504374 0.277545899 0.523086786
0.551422954 0.310436308 0.545730233
0.631246150 0.352055728 0.571410418
0.718279600 0.408602148 0.607842863
0.324731022 0.300063491 0.512207270
0.345350713 0.304743886 0.520936072
0.376470566 0.312586904 0.522327542
0.430992901 0.328652442 0.535230398
0.500822008 0.347628057 0.553573251
0.569259822 0.374699622 0.565844476
0.649209440 0.413409293 0.590512335
0.734218538 0.462745070 0.616571546
0.400632352 0.413915217 0.562301934
0.415560007 0.419987470 0.568880200
0.433396310 0.417457283 0.573813617
0.472612292 0.423403025 0.578115284
0.541429162 0.440986663 0.595698595
0.608349204 0.471473575 0.613029599
0.684756339 0.505123436 0.630233645
0.765844166 0.549652338 0.659708738
0.522200882 0.563567400 0.637444496
0.531182528 0.563946843 0.641366541
0.539026082 0.568247676 0.647691369
0.565717936 0.567109346 0.647311568
0.600126266 0.567868471 0.651865900
0.660088718 0.584819615 0.667299509
0.731435955 0.617457032 0.685009539
0.801391602 0.654522598 0.718152881
0.628083766 0.692093670 0.701328099
0.632384360 0.698924839 0.709171295
0.644528568 0.699810147 0.709297836
0.664642751 0.704996705 0.714231431
0.685895026 0.708412409 0.718912244
0.726122558 0.713598967 0.725996256
0.776344001 0.728905976 0.739405513
0.840227842 0.762175620 0.766982794
0.737760663 0.820113659 0.792662621
0.746109724 0.818848789 0.789879858
0.748260617 0.822770417 0.792283475
0.764705598 0.824035585 0.797849357
0.783807814 0.830486953 0.797722995
0.812397480 0.842884541 0.811511517
0.852878034 0.855913818 0.832510591
0.897026777 0.877545655 0.861985803
