Assets/Shaders/EldamarStudio/100 Sci-Fi LUTs Pack/LUTs/cube/Sanema LUT.cube
LUT_3D_SIZE 5
DOMAIN_MIN 0.000000 0.000000 0.000000
DOMAIN_MAX 0.903226 0.903226 0.903226
0.000000000 0.000000000 0.082353003
0.005566289 0.033017289 0.105881996
0.175331980 0.092852995 0.143832996
0.388488233 0.168753996 0.187349871
0.611005723 0.285262793 0.272232622
0.011511698 0.119038403 0.139911413
0.110942684 0.142567977 0.153320715
0.259076387 0.179506272 0.177862406
0.429348558 0.238077253 0.226944998
0.643010557 0.343453377 0.297912687
0.290448785 0.312586993 0.229475409
0.327387661 0.319797397 0.237697691
0.416571379 0.353193790 0.264895409
0.543453276 0.390512377 0.299177706
0.724098146 0.488678038 0.382036775
0.505376339 0.544465363 0.374826252
0.534598589 0.559519529 0.386337966
0.592536390 0.576217711 0.409867108
0.679696083 0.612144291 0.454269379
0.801391661 0.684123814 0.553447187
0.753320813 0.805692732 0.659455717
0.754079580 0.819354773 0.667299449
0.785325408 0.824668050 0.686274171
0.840227783 0.840859950 0.716508627
0.886653781 0.864389658 0.758633792
0.002277292 0.011765000 0.113092996
0.006577994 0.042504996 0.127134711
0.198229223 0.115116984 0.167994574
0.402529687 0.193927720 0.218090117
0.621125698 0.295761943 0.291460931
0.033523388 0.125236705 0.163440987
0.132194385 0.154332399 0.178494409
0.273750693 0.191271693 0.201391414
0.440480679 0.251107007 0.246173531
0.648576915 0.349651933 0.323845625
0.300189406 0.314231694 0.248829693
0.334218800 0.321442127 0.254016280
0.419860810 0.348893106 0.277925402
0.543832660 0.397976100 0.318785548
0.717520297 0.492599368 0.406325042
0.513345957 0.547501266 0.388108671
0.533966124 0.559266269 0.407083958
0.590133131 0.576596975 0.424794286
0.679696143 0.611132145 0.465401560
0.796458185 0.682479382 0.556356668
0.745477617 0.815180480 0.665275156
0.764452636 0.811258495 0.677039623
0.786969900 0.822011650 0.689816475
0.832131505 0.838329911 0.718532622
0.891461074 0.862871468 0.759645939
0.000000000 0.043136999 0.178494409
0.026312396 0.067678705 0.181150988
0.219860792 0.122959986 0.219101399
0.410752803 0.200758845 0.266540259
0.631246209 0.303478807 0.344718397
0.103478804 0.148133695 0.210879117
0.161290094 0.161543399 0.222011283
0.292346805 0.202403694 0.249462694
0.449968249 0.262871385 0.288045675
0.655660927 0.355850637 0.373181492
0.311954379 0.316508800 0.287033409
0.350537807 0.330929816 0.295888692
0.443389952 0.365591407 0.338140368
0.558127940 0.410373122 0.364579082
0.723972201 0.497153759 0.451359779
0.523719013 0.546489358 0.437571257
0.544086218 0.563188255 0.442504942
0.602276802 0.584693372 0.468943655
0.682352722 0.614800811 0.512207687
0.803921640 0.687033653 0.591018081
0.742315054 0.809613764 0.667172790
0.750790656 0.810246348 0.682985425
0.784060359 0.825300455 0.704491019
0.834408402 0.839974642 0.731941998
0.893231928 0.867172599 0.779632747
0.037571248 0.081467129 0.260973990
0.134218991 0.104617417 0.268437684
0.272865236 0.149146408 0.291081578
0.437571257 0.217837006 0.340417117
0.636812091 0.316002637 0.422011226
0.176344112 0.171663269 0.288677692
0.227071404 0.185072839 0.300822407
0.332953811 0.222390816 0.323466122
0.472232789 0.272738993 0.367236137
0.666792989 0.366350204 0.453130752
0.341682523 0.335483402 0.369260132
0.380898088 0.339405239 0.380012840
0.454143107 0.370778233 0.404554278
0.570904255 0.411385417 0.444781631
0.726628780 0.495129526 0.521315575
0.526755154 0.554332435 0.504491270
0.554838717 0.564453244 0.525869668
0.600632548 0.586970508 0.539911509
0.693485141 0.630740106 0.579759419
0.811764598 0.682099938 0.642251670
0.737634420 0.805439472 0.721694887
0.743959308 0.811511755 0.719923854
0.771284044 0.822644055 0.736748934
0.829854786 0.840354204 0.760025203
0.893231928 0.868437767 0.803921580
0.217330620 0.128146827 0.466034234
0.270335197 0.142947540 0.461732715
0.387982368 0.181783825 0.484250426
0.544971585 0.253510118 0.527766883
0.698671758 0.349398792 0.581024468
0.266539931 0.204300702 0.474383593
0.314357668 0.217457697 0.490069598
0.419228405 0.250474572 0.510309577
0.562555194 0.304111242 0.545730174
0.713978350 0.396457642 0.602023721
0.361543238 0.353067815 0.535104454
0.397217095 0.361922681 0.551170111
0.489816397 0.388487965 0.567236006
0.610499501 0.435294241 0.599873185
0.760025620 0.512207150 0.645034552
0.548766255 0.595446110 0.649335742
0.559519410 0.602403581 0.660088480
0.605819166 0.604680538 0.668437600
0.688931108 0.621252418 0.683744490
0.812523723 0.682099938 0.730296910
0.737760663 0.820113659 0.792662621
0.752814591 0.820999444 0.795319438
0.772928774 0.829221785 0.799240708
0.826818526 0.847185433 0.816571891
0.897026777 0.877545655 0.861985803
