Assets/Shaders/EldamarStudio/100 Sci-Fi LUTs Pack/LUTs/cube/Sarah LUT.cube
LUT_3D_SIZE 5
DOMAIN_MIN 0.000000 0.000000 0.000000
DOMAIN_MAX 0.903226 0.903226 0.903226
0.000000000 0.000000000 0.000000000
0.173307985 0.023529001 0.022896998
0.491966784 0.000632584 0.075268567
0.954332352 0.000000000 0.158001125
0.998734832 0.001265167 0.277419806
0.007843000 0.256040692 0.110562980
0.165844098 0.251106977 0.070335694
0.489943206 0.278557986 0.057558831
0.947248578 0.250474244 0.147501290
0.994813144 0.270967513 0.276407063
0.416065782 0.675395429 0.347248405
0.660341442 0.680708408 0.434914380
0.746995568 0.602909803 0.240101382
0.932321250 0.543327212 0.150790706
0.998102427 0.563693762 0.261732817
0.836559117 0.900189996 0.693485141
0.894623876 0.903351963 0.737255096
0.933459520 0.898924828 0.727134883
0.988362014 0.849209249 0.508159220
1.000000000 0.771157265 0.359139800
0.928146839 0.980391979 0.861732781
0.946236730 0.988361776 0.873750925
0.971916437 0.985072553 0.894876599
0.987982333 0.979506671 0.854522586
0.997343183 0.970018983 0.733712792
0.000000000 0.006198711 0.322707087
0.163187698 0.003922000 0.281214416
0.464389771 0.001644708 0.289057404
0.938393414 0.001264999 0.410373122
0.997469962 0.253257453 0.509804070
0.000000000 0.274003386 0.316128671
0.047185402 0.233776107 0.291967094
0.505376518 0.252751291 0.323086381
0.957242370 0.215939224 0.390385866
0.998987913 0.308412343 0.462998390
0.001644708 0.614547431 0.397596389
0.416192204 0.620873034 0.435167640
0.673370957 0.561037362 0.384187520
0.902593434 0.537887573 0.343326807
0.998735011 0.562428832 0.438203812
0.788361549 0.895635843 0.689943254
0.850221574 0.895002961 0.734977961
0.932700574 0.892093539 0.783554673
0.978874147 0.837191939 0.598102570
1.000000000 0.772801995 0.472485781
0.930803180 0.986590862 0.864895821
0.947501540 0.984693289 0.884629965
0.971537173 0.982036710 0.916002333
0.982669115 0.980139256 0.877039850
1.000000000 0.970651567 0.775584936
0.000000000 0.041871995 0.739532173
0.000632584 0.000000000 0.706894219
0.512207210 0.003289416 0.598355353
0.858697236 0.002277288 0.587476075
0.999367416 0.000632584 0.611385345
0.003288997 0.383175373 0.734977782
0.000000000 0.253384113 0.710815787
0.522327483 0.144718289 0.616318464
0.868690550 0.004554415 0.585452080
1.000000000 0.211764663 0.632890403
0.000632584 0.635546803 0.714611232
0.005187007 0.625427067 0.712333679
0.524604738 0.506767333 0.644781768
0.888298690 0.480076015 0.609108090
0.999999940 0.675648212 0.749525607
0.183807820 0.844022870 0.707400203
0.524478316 0.846299708 0.731688797
0.842125237 0.845667124 0.758886933
0.937760711 0.812397122 0.718026638
0.997343421 0.798987806 0.686400890
0.898798466 0.986337543 0.889183939
0.927640796 0.985704958 0.901960492
0.958127797 0.988994360 0.922959983
0.987223268 0.981783867 0.930170834
1.000000000 0.974699378 0.855787396
0.000000000 0.110942118 0.949272275
0.002277292 0.103731871 0.947627723
0.406830937 0.005566124 0.919164896
0.838583112 0.001012128 0.857179284
0.997343183 0.000000000 0.846679449
0.001012128 0.379506677 0.951423287
0.001012128 0.302719980 0.946868718
0.410119742 0.228209987 0.920430005
0.846805871 0.000000000 0.850980580
0.998987913 0.000000000 0.849209428
0.219481364 0.699556947 0.943706095
0.460341603 0.685515702 0.947248578
0.560657561 0.571537137 0.929917753
0.850980163 0.429727793 0.855154872
0.994813442 0.392536193 0.831751883
0.539911509 0.843390226 0.923718989
0.636685550 0.849209249 0.928273380
0.773055017 0.847311974 0.913219392
0.897280157 0.778874218 0.869956136
1.000000000 0.793927610 0.860847592
0.599999964 0.984819651 0.918785334
0.691840589 0.982921958 0.914357960
0.844908416 0.984566808 0.914231539
0.976723671 0.986463964 0.957495093
0.995319188 0.976090789 0.930676460
0.002530012 0.176596820 1.000000000
0.000000000 0.177861989 0.997343183
0.007843161 0.145350963 0.991397619
0.688425481 0.002656833 0.998355269
0.998734772 0.000000000 0.997343183
0.001012124 0.375585288 0.997722745
0.000000000 0.329285502 0.998734832
0.073118523 0.306008786 0.998735011
0.709677160 0.220240325 0.995192647
0.996457934 0.000000000 1.000000000
0.502339900 0.687160194 1.000000000
0.503478587 0.662365854 0.999367416
0.534598231 0.597090125 0.990132570
0.786211073 0.543453395 1.000000000
0.996837378 0.408222616 0.999367416
0.782669067 0.889310837 0.998734832
0.809487641 0.891334593 0.998734832
0.866287231 0.889437079 0.999367416
0.898545325 0.832384408 0.997090161
0.997469962 0.735610485 1.000000000
0.808095932 0.954332948 0.998734832
0.836559057 0.954712152 0.998734832
0.882605851 0.964199483 0.993548155
0.946995497 0.972928524 0.996710837
0.985705018 0.971536756 0.994939983
