Assets/Shaders/EldamarStudio/100 Sci-Fi LUTs Pack/LUTs/cube/Sarah LUT.cube
LUT_3D_SIZE 8
DOMAIN_MIN 0.000000 0.000000 0.000000
DOMAIN_MAX 0.903226 0.903226 0.903226
0.000000000 0.000000000 0.000000000
0.085389003 0.004681000 0.007843000
0.204427287 0.023529001 0.028968997
0.372295916 0.015054004 0.044908639
0.634028912 0.000000000 0.094750188
0.898671687 0.002024260 0.144844994
0.996711016 0.003289004 0.202529982
0.998734832 0.001265167 0.277419806
0.000379548 0.121821545 0.037571095
0.065401547 0.126122996 0.009360998
0.180518642 0.152814999 0.015686098
0.358886927 0.159013093 0.039847996
0.605945766 0.140037745 0.083112001
0.882353127 0.033143714 0.141556174
0.997722745 0.010246635 0.196458280
0.999620438 0.070588484 0.266286790
0.006325002 0.302340180 0.137128100
0.093611382 0.303099185 0.164453089
0.214421287 0.289057195 0.092346996
0.374446839 0.297659993 0.058317449
0.620872617 0.322833389 0.079949193
0.879190207 0.307147264 0.136622638
0.996963859 0.296774477 0.199620485
0.998102248 0.319038332 0.270082057
0.206578106 0.541809201 0.261986256
0.360531032 0.545098186 0.293991387
0.474256933 0.532953560 0.292852908
0.543579817 0.492852926 0.181657284
0.675395429 0.452625275 0.111195184
0.858697116 0.468437374 0.117646635
0.995572388 0.471473575 0.176091284
0.998861372 0.478178620 0.262492001
0.566097558 0.757874548 0.433649570
0.666919887 0.763820529 0.478937536
0.772549093 0.760278344 0.544339359
0.801391780 0.732320905 0.445540458
0.858950138 0.668311357 0.285136193
0.904491007 0.602150619 0.176596731
0.998355269 0.613662183 0.205060273
1.000000000 0.629348159 0.248703614
0.819355011 0.894118011 0.672232747
0.850474298 0.892726243 0.690575480
0.891840637 0.890195727 0.724098504
0.919038475 0.882732391 0.715749741
0.935863435 0.859076440 0.623403013
0.976217449 0.826945007 0.467678726
0.998355269 0.739405751 0.296900898
0.998734832 0.740796804 0.337128431
0.897659719 0.948640287 0.775079012
0.907526553 0.948386848 0.795066595
0.925996304 0.950284541 0.815180182
0.955218017 0.946362972 0.840606868
0.959772289 0.941556215 0.804174483
0.976343989 0.929158688 0.729664564
0.997722745 0.910057247 0.604807258
0.997343183 0.847564697 0.444655091
0.928146839 0.980391979 0.861732781
0.947248220 0.984060705 0.871979773
0.947754860 0.988867939 0.877292871
0.968500793 0.981910229 0.890322804
0.971663356 0.985452414 0.896774173
0.986464024 0.980266035 0.866413832
0.999620438 0.975331962 0.811258376
0.997343183 0.970018983 0.733712792
0.000000000 0.000758999 0.178241640
0.074003547 0.000000000 0.153953537
0.197722733 0.012144452 0.149904743
0.357748270 0.056546904 0.192283541
0.611385524 0.020367270 0.258823723
0.897659421 0.001518192 0.289310843
0.999620438 0.000000000 0.301960617
0.999620438 0.003036284 0.352308840
0.000000000 0.142568097 0.166476637
0.012144452 0.129285097 0.161037549
0.174952641 0.141809091 0.169260100
0.354964912 0.156356648 0.200126648
0.610120177 0.094750457 0.221631899
0.885262489 0.001517999 0.256167084
1.000000000 0.007969830 0.301328301
1.000000000 0.117267355 0.354332805
0.003542452 0.289436758 0.191524535
0.003162907 0.289436758 0.191524655
0.183807388 0.277293205 0.187982097
0.360404909 0.287033647 0.181404546
0.621505558 0.299683750 0.209487632
0.876154006 0.278811097 0.241492629
1.000000000 0.274762899 0.285515726
0.999620438 0.309424609 0.346995562
0.027324360 0.508159220 0.280076176
0.205186829 0.510942578 0.314611167
0.444149375 0.511448145 0.354838818
0.495635837 0.464895546 0.245667174
0.655408204 0.441239893 0.206072107
0.849336088 0.463377714 0.219607741
1.000000000 0.467299014 0.275142342
1.000000000 0.482099801 0.338646531
0.473877519 0.728779376 0.434155732
0.573940456 0.741176665 0.471853107
0.731308997 0.734218419 0.539658427
0.783933878 0.719038725 0.494117379
0.823656082 0.662112355 0.335231066
0.893232226 0.587981939 0.239088908
0.991145015 0.606325090 0.268057913
0.996331334 0.628842711 0.318659067
0.789500237 0.879570186 0.661606312
0.822517753 0.873245180 0.673750520
0.875395536 0.879443288 0.712207377
0.917773545 0.873624623 0.741429389
0.927514195 0.853510261 0.646173537
0.971663535 0.817077756 0.501201808
0.997343242 0.733459592 0.345604002
0.999620438 0.743959665 0.378241599
0.885009587 0.944338799 0.774320245
0.892093599 0.948386848 0.785072565
0.920050502 0.947375000 0.804048240
0.945983648 0.944338918 0.839847982
0.956230402 0.941935658 0.821758568
0.974699259 0.931056499 0.748639762
0.998102307 0.908412576 0.636179805
0.998355269 0.849588990 0.482353091
0.928905845 0.981150985 0.857937813
0.940796971 0.984314024 0.876534104
0.948766589 0.980139256 0.882858992
0.963440537 0.980012536 0.897533357
0.976976395 0.981404424 0.901328325
0.980771720 0.985831738 0.874889314
0.995066464 0.977735579 0.828210056
0.997975826 0.966350198 0.746868730
0.000000000 0.006957997 0.372043192
0.000379548 0.003921903 0.365464836
0.196584284 0.003162904 0.327514082
0.350664377 0.000000001 0.314990193
0.571410656 0.000759096 0.330423385
0.860974371 0.002276998 0.404301167
0.996078014 0.012903471 0.464136928
0.999240935 0.293232143 0.544212818
0.009487906 0.187982082 0.361164093
0.009487906 0.121441998 0.347754359
0.174193636 0.109297633 0.329918087
0.349651814 0.105123185 0.314610839
0.585325897 0.074383363 0.351549715
0.852498412 0.033523183 0.404933453
1.000000000 0.173560828 0.485262752
1.000000000 0.331309259 0.539911449
0.000000000 0.317267299 0.357115299
0.000000000 0.318026304 0.356862724
0.088931285 0.268691063 0.334472090
0.363946557 0.259329289 0.324351400
0.637444437 0.285262287 0.380771369
0.886148334 0.295382798 0.435167730
1.000000000 0.290196270 0.455028385
1.000000000 0.362555087 0.503478825
0.000000000 0.459076703 0.387855947
0.000000000 0.464263260 0.379759371
0.182162836 0.459961832 0.365211844
0.441366076 0.436938494 0.364959091
0.622770607 0.435040832 0.346869290
0.862997949 0.443643004 0.389879555
1.000000000 0.463630438 0.435167819
0.998481810 0.501454890 0.488931000
0.053889818 0.699051142 0.462112278
0.267172784 0.700062990 0.471473485
0.569133580 0.706009209 0.520177186
0.769766033 0.703352511 0.587096930
0.785831630 0.637065291 0.440986484
0.878683984 0.589373827 0.372801989
0.989500225 0.613282681 0.407843292
0.998861372 0.633776248 0.465654820
0.720050395 0.862744749 0.654269397
0.764325976 0.864642382 0.674509645
0.836306214 0.868184745 0.710942805
0.909424305 0.866919518 0.764199972
0.930423796 0.850094855 0.720177174
0.954585731 0.804553807 0.573308110
0.995066285 0.734598041 0.456420064
0.998734832 0.749525785 0.478304744
0.867425561 0.943959594 0.786084473
0.879949629 0.942314982 0.790892005
0.907273889 0.942315042 0.814294517
0.942441285 0.943579912 0.849588990
0.958886683 0.943200469 0.854269266
0.976343989 0.930929601 0.796458125
0.999240935 0.914105177 0.706514835
0.996584296 0.857811391 0.570272148
0.925237060 0.986843765 0.871221006
0.939278901 0.982669055 0.889436841
0.946995735 0.981404245 0.890701950
0.965717852 0.980518818 0.901201665
0.977229893 0.982669115 0.916128993
0.983934045 0.981151104 0.894244194
0.999620438 0.975331962 0.854522347
1.000000000 0.971410692 0.778367817
0.005566002 0.026944643 0.637317896
0.000759096 0.006578352 0.615432858
0.107526638 0.001518095 0.577482402
0.398608267 0.000000000 0.504491270
0.594560087 0.001518192 0.498165458
0.818975329 0.000759096 0.510309994
0.991018355 0.001138644 0.528525889
0.998734832 0.052877761 0.582036614
0.000000000 0.218975440 0.618468881
0.000000000 0.142188445 0.607969463
0.026312735 0.115622737 0.565464556
0.382795453 0.044149004 0.500442445
0.590133011 0.000759096 0.494876623
0.799620450 0.000000000 0.497533351
0.990638614 0.000000000 0.535610616
0.999620438 0.191777080 0.593548536
0.001138644 0.423023283 0.640606940
0.000000000 0.390385747 0.619101882
0.000759009 0.281973183 0.587476373
0.396964282 0.235167906 0.523213387
0.615559697 0.192536458 0.505376399
0.825553477 0.136875466 0.506514728
0.997216642 0.234788299 0.563187778
0.997343361 0.412776768 0.622896850
0.001138644 0.537633896 0.603288889
0.000000000 0.535990000 0.614800572
0.005566027 0.520429909 0.597849071
0.358633816 0.423276633 0.525363564
0.618722379 0.381404102 0.497785926
0.859709203 0.416825026 0.545098364
0.995572329 0.520430267 0.628969252
1.000000000 0.596205056 0.685009420
0.000000000 0.637065351 0.588488221
0.000000000 0.641745448 0.592030585
0.010626201 0.631625295 0.575964391
0.478937387 0.623782396 0.558760166
0.711701632 0.588361502 0.543326974
0.850094736 0.593042254 0.542188466
0.990259290 0.624667943 0.594180942
0.996457815 0.668058157 0.643769801
0.426944733 0.844276011 0.669196546
0.522328019 0.841492653 0.677166402
0.671473742 0.835167825 0.691967130
0.822390676 0.830740035 0.725995958
0.925616562 0.845035076 0.792410195
0.937254846 0.791144729 0.674762964
0.992283404 0.743959486 0.586464345
0.999240875 0.768753886 0.619734347
0.815433204 0.936875284 0.779633284
0.838709652 0.934345305 0.795825720
0.869196534 0.935736835 0.814800680
0.916635275 0.942567945 0.844528615
0.964579046 0.943453550 0.891334355
0.968880475 0.936369598 0.854269266
0.996711016 0.910689294 0.767868280
0.998861372 0.863757133 0.660973787
0.927514195 0.987602651 0.885515630
0.925237060 0.987982213 0.888424993
0.947754502 0.984566629 0.902593076
0.962049365 0.988234997 0.908159018
0.977862239 0.985705256 0.936495781
0.982542872 0.984946072 0.924477875
0.995445848 0.982163370 0.894497156
0.997469962 0.973687649 0.827451050
0.002403808 0.057937995 0.823908985
0.007590360 0.047185443 0.807716787
0.000759113 0.002277095 0.788361371
0.396964282 0.000000000 0.758886755
0.632764161 0.002403808 0.691840351
0.826818407 0.000000000 0.684124053
0.982163250 0.000759096 0.664516091
0.997723043 0.002403808 0.653510392
0.002656546 0.231119275 0.805945694
0.000000000 0.158001080 0.809361041
0.001138653 0.139278978 0.787982106
0.375331908 0.038836353 0.751170039
0.622643769 0.001138644 0.687286198
0.813915253 0.002024260 0.670335114
0.982542574 0.000000000 0.665275156
0.998734832 0.000000000 0.653636932
0.000759096 0.440354288 0.811891377
0.000379548 0.411005557 0.819102108
0.002403808 0.303099275 0.807337165
0.349019438 0.259329379 0.768500865
0.635420382 0.154459015 0.706008971
0.830866694 0.028589288 0.675901592
0.987096846 0.005313106 0.663883448
0.998481989 0.076786660 0.664010167
0.004681000 0.632004738 0.831752002
0.001518095 0.625300229 0.829095483
0.081341103 0.573814034 0.804807246
0.304870099 0.453636825 0.777229607
0.633269787 0.371157378 0.703478634
0.842757821 0.319923818 0.673624396
0.984060645 0.314357907 0.660214961
0.998861372 0.452877849 0.695888400
0.006325195 0.706261992 0.793169200
0.004807003 0.709803820 0.796963871
0.217836589 0.700696111 0.790892065
0.529791534 0.687033534 0.783428013
0.667172551 0.586211145 0.730423570
0.842630982 0.529664576 0.668564320
0.979000330 0.602023721 0.700948536
1.000000000 0.715496302 0.780138850
0.002403808 0.794560730 0.770398438
0.014421277 0.797596633 0.771410286
0.265528113 0.786970258 0.756609857
0.497279942 0.781404257 0.744212627
0.746868789 0.763314426 0.733839154
0.881720245 0.745224297 0.722327709
0.968248010 0.750537634 0.719418049
0.997975767 0.786843896 0.755091548
0.575331926 0.924225330 0.795445919
0.633396566 0.924224973 0.799999893
0.727767169 0.926502228 0.805818975
0.831751883 0.918659151 0.826818466
0.926628470 0.929411709 0.868311346
0.977482796 0.938267291 0.907274067
0.988741279 0.903605342 0.823402524
0.995698631 0.874889076 0.760025322
0.870208919 0.986843586 0.877039969
0.882606030 0.991397560 0.886021554
0.911068857 0.986717284 0.903731704
0.939278960 0.987982213 0.916255355
0.970525026 0.983934164 0.943453550
0.983554900 0.986590803 0.960151494
0.991650581 0.981277525 0.934218526
0.998734832 0.975458443 0.875142336
0.000000000 0.101833992 0.924983978
0.000379548 0.100442536 0.926502168
0.000000000 0.076154634 0.918785393
0.218089819 0.002024260 0.900189698
0.596078575 0.003542452 0.869702578
0.801138699 0.002024260 0.824794769
0.969133496 0.001644712 0.819355011
0.995572209 0.000000000 0.811511755
0.006072264 0.240101546 0.922327518
0.000000000 0.187856078 0.927893758
0.000000001 0.176217273 0.911195695
0.178368464 0.119038187 0.896647573
0.592915714 0.000379548 0.870967984
0.808349013 0.000000000 0.825174212
0.974193573 0.004807197 0.819481492
1.000000000 0.000759092 0.816951394
0.000000001 0.427071303 0.924604654
0.000000000 0.407083839 0.925743222
0.000000000 0.328525931 0.922580361
0.151170254 0.294497073 0.895255983
0.587981880 0.214927465 0.875142515
0.802277148 0.025553731 0.820366502
0.972295821 0.000000014 0.815686464
1.000000000 0.000000014 0.812270820
0.027703907 0.622138262 0.929031968
0.079696275 0.612776339 0.925363660
0.121442117 0.570651710 0.914990604
0.294497102 0.483997375 0.903352737
0.615306616 0.427197903 0.878304660
0.812523484 0.328526020 0.831119716
0.976723492 0.276786804 0.814294577
1.000000000 0.294244260 0.806704581
0.222390473 0.758253872 0.924351275
0.358000934 0.761669517 0.927766860
0.521821797 0.760657668 0.926248848
0.649209082 0.720809519 0.907020986
0.691081583 0.632637680 0.886527419
0.829348922 0.542062283 0.838962674
0.981530547 0.498039275 0.812776625
0.997343183 0.516002357 0.789500415
0.467046171 0.823149979 0.909551024
0.515370190 0.827450931 0.909171522
0.607336938 0.827704072 0.909298003
0.710056961 0.823782384 0.900063097
0.803162634 0.817457259 0.892472684
0.863883734 0.740417421 0.848703742
0.958253801 0.690196037 0.791651011
1.000000000 0.779759705 0.844908357
0.428968847 0.892346859 0.884250224
0.448197186 0.888804555 0.876407444
0.532827437 0.888045609 0.876154244
0.627071500 0.885009646 0.876154244
0.730803430 0.883365035 0.863251030
0.896900773 0.885515332 0.856166780
0.966476560 0.877545834 0.855787277
0.997469962 0.884882987 0.849335611
0.691334724 0.988361776 0.892978787
0.729032278 0.989627004 0.898039401
0.774826229 0.984693110 0.902972758
0.850221515 0.987855852 0.899177909
0.925995946 0.983301938 0.926628470
0.978241742 0.988994241 0.962808013
0.993674695 0.987982273 0.971410573
0.996837080 0.978114724 0.922580540
0.000000000 0.146362990 0.993422031
0.000000000 0.142441571 0.996711016
0.000759096 0.133839086 0.993422031
0.000000000 0.098165639 0.985579014
0.475648254 0.000759096 0.977609038
0.745477438 0.000000000 0.957368791
0.930297256 0.000000000 0.938140273
0.997722745 0.000379544 0.926881790
0.002277288 0.256040573 0.992663026
0.004933716 0.221378818 0.995066285
0.000379548 0.210246831 0.995066285
0.000000000 0.185452193 0.986337781
0.476786792 0.102214083 0.978874207
0.744844913 0.001897740 0.965211987
0.924857616 0.001644712 0.938140273
0.997722745 0.000000000 0.929664791
0.000000000 0.421631902 0.993422031
0.002277191 0.399114609 0.993042469
0.000759096 0.346236259 0.996711016
0.036432751 0.327134550 0.989879549
0.495129347 0.282732397 0.984061003
0.744339287 0.197217003 0.961037457
0.926502168 0.013662192 0.934851468
1.000000000 0.000000016 0.931308985
0.105882287 0.617077887 0.995572388
0.107020646 0.600632668 0.988994360
0.158760026 0.569639266 0.990259051
0.289563388 0.508412302 0.983934283
0.570018828 0.470841378 0.972549200
0.771536887 0.412650287 0.966223896
0.934092343 0.310057014 0.936369658
0.996711016 0.282732636 0.934092343
0.562808216 0.769512892 0.980391979
0.588867605 0.765338421 0.990765393
0.650980532 0.758633435 0.983048260
0.704364061 0.740670264 0.980898023
0.716002345 0.665907383 0.979127288
0.825174093 0.613282502 0.966729999
0.935104251 0.523086667 0.930170536
0.994686723 0.498291939 0.932194889
0.671600282 0.855534434 0.981404483
0.695509315 0.858823478 0.987856030
0.735357106 0.866160333 0.980645359
0.803795040 0.868058026 0.984566629
0.853889763 0.857811451 0.973181486
0.872991741 0.788235486 0.959266484
0.941429257 0.712460458 0.929032266
1.000000000 0.680202305 0.925616980
0.706388593 0.903858006 0.973181546
0.713219762 0.904111445 0.964705825
0.753700197 0.900442481 0.974952459
0.801518261 0.914484680 0.966476679
0.866919518 0.917014241 0.962048948
0.912839770 0.928525805 0.968248248
0.952561259 0.886148036 0.943706572
0.999241054 0.847944319 0.909550965
0.672359288 0.961922944 0.972549021
0.673497975 0.968880475 0.961796284
0.709298015 0.964073122 0.956356704
0.750664175 0.970271766 0.963946760
0.803921521 0.973181486 0.955471516
0.866160512 0.970019102 0.947501540
0.970525265 0.976723671 0.961290121
0.992915869 0.974066794 0.953953266
0.002530012 0.176596820 1.000000000
0.000000000 0.180898279 0.997722745
0.001517998 0.177861989 0.998102307
0.002530012 0.162681952 1.000000000
0.305376530 0.115243599 0.998861313
0.630487263 0.001897740 0.998102248
0.853004575 0.002277288 1.000000000
0.998734772 0.000000000 0.997343183
0.003542452 0.270588219 0.996457577
0.000000000 0.244402081 0.995446026
0.000000000 0.242504641 0.998861492
0.000379548 0.230993062 0.995951772
0.329285175 0.199620351 1.000000000
0.644149184 0.112081110 1.000000000
0.848703444 0.002024260 0.997343183
0.993168771 0.003922001 1.000000000
0.000000000 0.416571915 0.999240935
0.000758999 0.402529925 0.998102307
0.000759096 0.358887106 1.000000000
0.000379563 0.352561474 0.997975767
0.385199100 0.329032183 0.999240875
0.659835577 0.282985538 0.994433999
0.849715292 0.199240923 1.000000000
0.998734832 0.018216379 0.999240875
0.095635653 0.594054282 0.997596204
0.099810101 0.585072696 1.000000000
0.138393238 0.563061535 1.000000000
0.281846792 0.520809472 0.996964037
0.533839643 0.493358433 1.000000000
0.712713540 0.463504225 1.000000000
0.872991979 0.407590002 0.997596204
0.995951831 0.308665603 0.998481810
0.671853125 0.763820529 1.000000000
0.683744550 0.765717864 0.997216642
0.689816833 0.755724192 0.999240935
0.696015060 0.717520475 0.997975826
0.701834381 0.668943763 0.993801355
0.797090232 0.643010557 0.996963978
0.896647692 0.596331358 0.999240935
0.997216761 0.511322081 0.996204853
0.761163712 0.870082498 1.000000000
0.773054898 0.868184745 0.998481870
0.803668559 0.867046058 0.998481870
0.828083694 0.864136755 0.996963918
0.868438005 0.855660737 0.999620378
0.872991800 0.806071818 0.996584356
0.926375747 0.761669815 0.998734832
0.992915690 0.691840470 0.992915750
0.811891019 0.919418275 0.996204793
0.813409030 0.917773664 1.000000000
0.827198088 0.923086524 0.999240935
0.865780830 0.933712661 0.998861432
0.911069214 0.943074048 0.997722745
0.937761009 0.946362972 0.998355269
0.950790763 0.910057247 0.995698571
0.992662728 0.856546521 0.991397560
0.808095932 0.954332948 0.998734832
0.829601824 0.953067780 0.997469962
0.835040867 0.957748234 0.998734832
0.868184805 0.960025191 0.998734832
0.903731763 0.964579225 0.993547976
0.939152539 0.971916735 1.000000000
0.972928286 0.984440148 0.984566867
0.985705018 0.971536756 0.994939983
