Assets/Shaders/EldamarStudio/100 Sci-Fi LUTs Pack/LUTs/cube/Sarah LUT.cube
DOMAIN_MIN 0 0 0
DOMAIN_MAX 1 1 1
LUT_3D_SIZE 32
0.000000000 0.000000000 0.000000000
0.012143999 0.000000000 0.003036387
0.032890547 0.004300999 0.008223000
0.058444161 0.006578161 0.010499839
0.085389003 0.004681000 0.007843000
0.109676994 0.010753000 0.007843000
0.141555965 0.019354677 0.015433321
0.173307985 0.023529001 0.022896998
0.204427287 0.023529001 0.028968997
0.237824485 0.023529001 0.035041001
0.279949725 0.023529001 0.035294000
0.324478239 0.021505261 0.037318256
0.372295916 0.015054004 0.044908639
0.425174057 0.003668968 0.060088966
0.491966784 0.000632584 0.075268567
0.561163366 0.000000000 0.085641801
0.634028912 0.000000000 0.094750188
0.707400680 0.000000001 0.103225999
0.771157980 0.000000003 0.109298028
0.834915102 0.002783357 0.129285365
0.898671687 0.002024260 0.144844994
0.954332352 0.000000000 0.158001125
0.992156982 0.000252992 0.172928497
0.992156982 0.006325001 0.182036906
0.996711016 0.003289004 0.202529982
1.000000000 0.000000000 0.222643644
0.999493957 0.000506064 0.238330126
0.996457577 0.003542448 0.256546885
0.998734832 0.001265167 0.277419806
1.000000000 0.001771217 0.293358952
1.000000000 0.034914676 0.308159590
1.000000000 0.141176000 0.329412013
0.003036387 0.021252386 0.009108387
0.009108387 0.024288775 0.003036387
0.032005161 0.026439000 0.006072226
0.052118998 0.035420548 0.008728613
0.072106153 0.043769933 0.008601999
0.109676994 0.047185771 0.013915000
0.131435320 0.050727449 0.016445322
0.164452627 0.058823481 0.019608000
0.199114189 0.062239066 0.020619905
0.234788090 0.059961773 0.019860618
0.274004221 0.062871642 0.028842483
0.320430487 0.062998161 0.037317991
0.371537030 0.059835777 0.047944251
0.427703738 0.050221741 0.062112644
0.488931149 0.024921359 0.066160947
0.553320706 0.009867175 0.078937382
0.623402715 0.003036003 0.088678196
0.695888460 0.000632576 0.098418988
0.762049615 0.003036385 0.109298021
0.839722037 0.000253031 0.123719364
0.899051487 0.000885613 0.142567992
0.952308655 0.000000000 0.160025120
0.992410004 0.000000000 0.178873986
0.998228967 0.000253002 0.185072526
0.995951712 0.004048288 0.203288883
0.996963620 0.001644715 0.222643644
0.997469664 0.000000000 0.238330126
0.999493957 0.000506061 0.256546885
0.999114394 0.000885613 0.277419806
1.000000000 0.031878285 0.295129716
1.000000000 0.075015739 0.312966168
1.000000000 0.153320774 0.338519633
0.008223000 0.046805769 0.018216226
0.012144226 0.049842156 0.018595997
0.024667997 0.050727773 0.010373225
0.051992383 0.057558548 0.012143999
0.069702551 0.071094319 0.011764549
0.098544933 0.077672705 0.012523773
0.131435320 0.082859226 0.009614324
0.154332399 0.087539539 0.012650291
0.191018283 0.093105674 0.016192224
0.231625780 0.090069294 0.020113524
0.275268853 0.095002867 0.030866643
0.316761732 0.096014999 0.035926513
0.368501157 0.094876647 0.045413997
0.426185846 0.089563742 0.056799293
0.485009640 0.073624380 0.061733413
0.554585576 0.053510718 0.082732767
0.619860947 0.026185948 0.088804774
0.690195799 0.011891213 0.096015409
0.756989241 0.005819190 0.106641248
0.830613732 0.003289417 0.121568590
0.898165643 0.000253034 0.134851217
0.949272513 0.000000000 0.153573349
0.990385711 0.000000000 0.174572721
0.998481989 0.000000000 0.186717004
0.995572507 0.000126514 0.202024043
0.995319128 0.001771226 0.221884742
0.996584058 0.000000000 0.238330126
0.999620438 0.000000000 0.256546885
0.997849226 0.000000000 0.270968020
0.999620438 0.047817428 0.290449142
1.000000000 0.105882138 0.310436189
1.000000000 0.167615771 0.339025766
0.007969839 0.080455318 0.027324161
0.014800613 0.078431383 0.031625386
0.022643613 0.083112158 0.026059549
0.044149157 0.084377319 0.013156001
0.071094096 0.094623774 0.013915000
0.093232095 0.100189932 0.013535775
0.123339318 0.110563159 0.006705001
0.154332399 0.117900312 0.008096288
0.180898085 0.123213217 0.011132095
0.224415153 0.121188842 0.021758169
0.268690705 0.124351315 0.028842580
0.316002488 0.126375318 0.038709741
0.364199907 0.128652319 0.045160998
0.422391087 0.125490189 0.051739033
0.482100189 0.116382070 0.058823667
0.546742558 0.105123170 0.076660626
0.616571724 0.086654268 0.090322837
0.685262620 0.053384081 0.095382802
0.753953159 0.036938652 0.107653052
0.825047493 0.016445510 0.121062525
0.889057577 0.002024260 0.138140321
0.944718242 0.000000000 0.150284320
0.986337543 0.000000000 0.170271665
0.997722924 0.000000000 0.183175057
0.996710837 0.000000000 0.199367583
0.994813502 0.000000000 0.217583984
0.997343183 0.001518063 0.234788001
0.999620438 0.003795161 0.251486570
0.998608351 0.027830638 0.270714819
0.997849226 0.062997751 0.285135925
0.997343421 0.132574096 0.301580966
0.996204853 0.185326159 0.329664677
0.000379548 0.121821545 0.037571095
0.011005549 0.113851704 0.043643095
0.019228000 0.117267318 0.039721772
0.035040773 0.123845704 0.027957223
0.065401547 0.126122996 0.009360998
0.089690320 0.123086609 0.015432998
0.118658997 0.133712858 0.009993774
0.149398848 0.144845247 0.009234834
0.180518642 0.152814999 0.015686098
0.213915065 0.155850619 0.018722486
0.256040305 0.157495096 0.019608000
0.303858221 0.157115549 0.026944993
0.358886927 0.159013093 0.039847996
0.415813059 0.165085092 0.051233035
0.478937656 0.156609967 0.060088411
0.541809022 0.149525493 0.073624253
0.605945766 0.140037745 0.083112001
0.673877656 0.125490531 0.087412968
0.749778986 0.104238071 0.111701012
0.819734573 0.066540442 0.125237167
0.882353127 0.033143714 0.141556174
0.936369658 0.011005634 0.159013450
0.980771542 0.010626162 0.171536937
0.996204913 0.009867184 0.181657359
0.997722745 0.010246635 0.196458280
0.997090101 0.011385183 0.211891428
1.000000000 0.014041696 0.229474992
1.000000000 0.023150075 0.241618991
0.999620438 0.070588484 0.266286790
1.000000000 0.121695161 0.287665725
0.998481989 0.167488769 0.303099066
0.989373565 0.206957996 0.315243095
0.003415935 0.155217931 0.055787869
0.003415935 0.155217931 0.061859868
0.011891162 0.158000857 0.061480090
0.028083162 0.163314089 0.054901838
0.056293160 0.165591374 0.042757388
0.086653933 0.162554994 0.021504998
0.113472380 0.164579242 0.022516999
0.144591689 0.169639647 0.019354774
0.177482337 0.174446926 0.017583936
0.210879460 0.180139393 0.012650488
0.253004670 0.191903859 0.018595999
0.297533154 0.191903606 0.023655996
0.352055639 0.191650569 0.035293996
0.415813059 0.195445865 0.051233035
0.464389801 0.201517865 0.054269414
0.534724653 0.193042129 0.065527990
0.604048014 0.185957879 0.079696245
0.673371673 0.178367928 0.092978977
0.743707001 0.171030849 0.111701019
0.811258793 0.152561843 0.127640352
0.874762535 0.130297258 0.138519794
0.930929661 0.111068606 0.148640066
0.977735937 0.098671317 0.156356558
0.995951951 0.089563690 0.177608967
0.997722745 0.091081433 0.199114621
0.996078014 0.096394457 0.214927316
0.997090101 0.105502725 0.226565123
1.000000000 0.123339228 0.241618991
0.997343183 0.145730406 0.261732817
0.998355269 0.177356005 0.285768390
1.000000000 0.206957459 0.307653517
0.998481929 0.231245995 0.327387869
0.006451677 0.206325278 0.081594318
0.006451677 0.206325278 0.090195991
0.015053676 0.206325278 0.096267998
0.033396319 0.210373119 0.093105316
0.061606415 0.212270632 0.084123641
0.087666184 0.207084015 0.065022029
0.123086318 0.209108278 0.046299964
0.155344397 0.208855242 0.034788266
0.189626604 0.210120410 0.026439227
0.223023802 0.214421630 0.022138003
0.262618750 0.223782316 0.032763995
0.311195761 0.231878310 0.028716262
0.363440931 0.233775914 0.035673674
0.426692098 0.237950951 0.051486064
0.482100099 0.239468947 0.056799736
0.547501743 0.243137151 0.069449507
0.623276412 0.237571150 0.080202192
0.696774364 0.231246129 0.093990974
0.768500984 0.221378624 0.112207025
0.830487370 0.211764947 0.127640367
0.889690101 0.201138481 0.137127995
0.943073928 0.189499959 0.150663927
0.986844003 0.179379791 0.166350290
0.995446026 0.175079167 0.185198903
0.997722745 0.177356273 0.201897278
0.996078014 0.182036579 0.221252322
0.995572090 0.188994348 0.234661385
0.994560421 0.197090581 0.253889740
0.997343183 0.213029251 0.274383128
0.997849226 0.235546798 0.292093486
1.000000000 0.260467827 0.315876186
1.000000000 0.283364952 0.342062324
0.007843000 0.256040692 0.110562980
0.004554003 0.252751708 0.111448310
0.019734416 0.256040692 0.124984115
0.041998416 0.256040692 0.131056115
0.073118091 0.258696944 0.125743017
0.099936858 0.256420106 0.110056683
0.132700697 0.251359999 0.091840692
0.165844098 0.251106977 0.070335694
0.199240893 0.246552795 0.047565114
0.229981482 0.246047184 0.037444513
0.270841569 0.253257543 0.045667410
0.316761762 0.261986107 0.046932254
0.368374646 0.268058091 0.037824348
0.428083420 0.274383664 0.048703067
0.489943206 0.278557986 0.057558831
0.555597663 0.282605886 0.070841186
0.629980981 0.282605886 0.084503382
0.706388533 0.279570103 0.094370693
0.777229726 0.270461440 0.110562734
0.834029078 0.262745023 0.125996083
0.892599761 0.255534619 0.140417412
0.947248578 0.250474244 0.147501290
0.990891755 0.245161295 0.168500781
0.998481989 0.242125303 0.188235000
0.997722745 0.244276106 0.205818996
0.997469664 0.248956412 0.223782346
0.997722745 0.255281448 0.238962710
0.995825410 0.260594845 0.256799430
0.994813144 0.270967513 0.276407063
0.997849226 0.283111572 0.302340180
0.999114394 0.304363996 0.319291592
0.998355269 0.327893704 0.347375304
0.006325002 0.302340180 0.137128100
0.002530102 0.297786206 0.134851187
0.023276549 0.300316185 0.144465551
0.057938285 0.303858191 0.159899086
0.093611382 0.303099185 0.164453089
0.123972155 0.304996997 0.153067410
0.153826609 0.299430966 0.138140202
0.185578495 0.292093605 0.115117006
0.214421287 0.289057195 0.092346996
0.238710091 0.279949576 0.065021828
0.275901645 0.282353103 0.059835743
0.320936382 0.288172245 0.058317747
0.374446839 0.297659993 0.058317449
0.426059216 0.303479016 0.049715120
0.490322500 0.311574757 0.059329823
0.555597663 0.319038302 0.070082285
0.620872617 0.322833389 0.079949193
0.700442493 0.319797605 0.095888928
0.767868757 0.316761225 0.108792022
0.823782444 0.312460184 0.122960262
0.879190207 0.307147264 0.136622638
0.933586359 0.301328301 0.152055874
0.986590564 0.298292667 0.161416501
0.996963859 0.295256287 0.181403920
0.996963859 0.296774477 0.199620485
0.996710598 0.299051613 0.219987646
0.999746978 0.301581293 0.239721999
1.000000000 0.309930623 0.251865983
0.998102248 0.319038332 0.270082057
0.997090161 0.329664379 0.295382261
0.999873459 0.338519692 0.320809603
0.996837080 0.359772116 0.342061996
0.000253004 0.350917011 0.152308494
0.003289412 0.350917011 0.161416888
0.036053289 0.354964972 0.172042981
0.085768513 0.358506978 0.185705170
0.139152572 0.357747972 0.197849497
0.169513360 0.351675987 0.191777512
0.192283809 0.348513842 0.182922155
0.218975484 0.341935754 0.161922589
0.247817725 0.334598392 0.134851024
0.272106528 0.331561983 0.116635010
0.296394527 0.325363517 0.083491623
0.333586037 0.323845506 0.067931771
0.385452092 0.328779042 0.067046009
0.450347990 0.339911014 0.077039525
0.501960337 0.342947423 0.074003905
0.561416686 0.351043791 0.074004002
0.616318822 0.358507454 0.073118299
0.673118114 0.362302423 0.077672154
0.755091429 0.359266013 0.108032987
0.819734156 0.359012991 0.120935991
0.879190207 0.356862754 0.131309241
0.932827353 0.352688491 0.143706515
0.977482975 0.346869498 0.161416501
0.992662668 0.343833089 0.176596910
0.993927836 0.345351279 0.192030281
0.993674815 0.346996009 0.211511835
0.996710598 0.347122490 0.233649984
0.999746978 0.347122490 0.245793983
1.000000000 0.355471134 0.265907794
0.998102248 0.368121147 0.292346388
0.997090161 0.380391985 0.317393720
0.999873459 0.387096524 0.329918027
0.005818999 0.402403593 0.184945866
0.052498247 0.405312747 0.196964115
0.094244182 0.403162509 0.206071973
0.139025927 0.406957626 0.213662028
0.185958371 0.409867048 0.223782405
0.244149461 0.406324744 0.245540723
0.259329617 0.405312747 0.221758410
0.281088144 0.401011884 0.208728760
0.307400465 0.394686818 0.187476277
0.331688702 0.391650975 0.164958715
0.350158483 0.379885733 0.132194862
0.374446452 0.365717739 0.102846496
0.411637992 0.359266102 0.087286741
0.463251054 0.362301916 0.083744675
0.517520249 0.370651275 0.078051560
0.576344073 0.380897850 0.079822935
0.634029269 0.388994366 0.083364993
0.687918961 0.395066738 0.086400859
0.753952920 0.398861647 0.098545074
0.808096111 0.398608625 0.106641129
0.861859441 0.398608625 0.120429859
0.915496409 0.395572752 0.135610253
0.966097295 0.389500707 0.155724019
0.995192945 0.383680940 0.173687786
0.998987854 0.382921845 0.188867569
0.996584356 0.385325670 0.201264799
0.996584058 0.386843860 0.217963383
0.999620438 0.386843860 0.239721984
1.000000000 0.394813687 0.254522800
1.000000000 0.400379390 0.277039945
0.998987854 0.410120100 0.304237574
1.000000000 0.420240611 0.326502144
0.078684226 0.462112725 0.218342751
0.119165003 0.467172593 0.228462756
0.162049040 0.469955236 0.240480989
0.215939045 0.466919631 0.245793760
0.256546378 0.469955742 0.250727504
0.310436547 0.468564063 0.276407182
0.345350981 0.470081717 0.276407152
0.355850697 0.463503718 0.250727504
0.376723737 0.458949834 0.234788403
0.398481727 0.458444208 0.211764753
0.416951478 0.442630976 0.180771619
0.439215750 0.432511002 0.155471236
0.457811385 0.408602059 0.124731198
0.490575582 0.396710545 0.105755948
0.538140297 0.398734927 0.097912408
0.591524422 0.408222735 0.092978790
0.647691429 0.417330742 0.092979185
0.701201677 0.423403233 0.095635675
0.757748246 0.429475248 0.097533010
0.804048121 0.432004988 0.103605002
0.849968493 0.430107743 0.109676994
0.899304092 0.430993140 0.123466000
0.952308238 0.428209990 0.141935483
0.988361835 0.425932676 0.165844560
1.000000000 0.426438749 0.181783959
1.000000000 0.425047070 0.199746922
0.998102248 0.427324355 0.213915259
0.999620438 0.430360764 0.238203615
1.000000000 0.432258338 0.256546825
1.000000000 0.441366255 0.275269151
1.000000000 0.445793480 0.295762241
1.000000000 0.455660969 0.317394018
0.206578106 0.541809201 0.261986256
0.237318233 0.545604169 0.269955516
0.272485584 0.547248423 0.277798831
0.312333792 0.547754347 0.291714281
0.360531032 0.545098186 0.293991387
0.406071991 0.545098186 0.316761553
0.441492766 0.546489537 0.325363547
0.465148538 0.543579578 0.315622926
0.474256933 0.532953560 0.292852908
0.491334468 0.534851372 0.271980047
0.509550929 0.519797444 0.240860164
0.524984181 0.505376160 0.207463667
0.543579817 0.492852926 0.181657284
0.551929176 0.459202796 0.144971460
0.582036674 0.446426332 0.127007872
0.627198040 0.446173429 0.118026286
0.675395429 0.452625275 0.111195184
0.725110352 0.458064705 0.110056981
0.775205612 0.463630617 0.108538672
0.816192389 0.469196558 0.112713285
0.858697116 0.468437374 0.117646635
0.898165762 0.467425764 0.121694639
0.948007166 0.470461428 0.133586347
0.983428121 0.471473575 0.157874912
0.995572388 0.471473575 0.176091284
1.000000000 0.474003881 0.196331650
1.000000000 0.470967501 0.217078000
1.000000000 0.475142539 0.240100980
0.998861372 0.478178620 0.262492001
1.000000000 0.480076015 0.283618152
1.000000000 0.489183873 0.305755943
1.000000000 0.495508909 0.318911999
0.361417055 0.641999066 0.319924027
0.382922471 0.642505050 0.326502025
0.410879135 0.640354335 0.330929786
0.445793569 0.637824178 0.339785039
0.484503657 0.634915054 0.358760178
0.530044019 0.634915054 0.376976937
0.566730022 0.635674000 0.389880031
0.592157066 0.631878674 0.388488352
0.607084215 0.626565158 0.372043043
0.616192639 0.620493174 0.353827029
0.633523107 0.608602047 0.322074533
0.644402146 0.594686866 0.281087846
0.652371705 0.578874111 0.239595428
0.661986113 0.560405076 0.206705034
0.661986113 0.523972332 0.167235896
0.688930869 0.506388307 0.146363080
0.727893353 0.502087176 0.134218872
0.770145059 0.505629480 0.127767041
0.812649965 0.508665144 0.133839056
0.850853741 0.516255438 0.136622354
0.889816463 0.518026352 0.139658317
0.928526163 0.516761184 0.142441034
0.961669564 0.520177066 0.142694026
0.988993943 0.523593009 0.160404772
0.996331036 0.522580802 0.176344246
0.997216642 0.522580743 0.195572600
0.999240994 0.524605036 0.222643986
0.999240994 0.521568656 0.240859985
0.997596204 0.525996089 0.266539812
0.997343242 0.529285073 0.291840345
0.999746978 0.531182647 0.316128969
0.999746978 0.540291071 0.340417027
0.416065782 0.675395429 0.347248405
0.440354556 0.681467414 0.359392405
0.470461965 0.679823101 0.368121147
0.509550929 0.679317057 0.377229363
0.553573787 0.680328906 0.392536014
0.581657171 0.677419782 0.419481665
0.629727840 0.685009480 0.430107474
0.660341442 0.680708408 0.434914380
0.674889266 0.673624277 0.425679803
0.673877716 0.675142646 0.402403802
0.685895205 0.663250923 0.381277919
0.701328456 0.651106775 0.345350862
0.715749621 0.638330221 0.304617137
0.731815219 0.624162197 0.267425746
0.746995568 0.602909803 0.240101382
0.737381577 0.561670005 0.193422034
0.751170218 0.541302860 0.163061619
0.778873920 0.536748528 0.145224825
0.818722010 0.545097888 0.145983830
0.869576156 0.542568207 0.143706471
0.902846158 0.543959796 0.145730734
0.932321250 0.543327212 0.150790706
0.958633900 0.544465780 0.157874405
0.985958278 0.556609809 0.163946405
0.997343421 0.560025156 0.179379851
0.997975767 0.563187718 0.191777244
0.995698571 0.567109704 0.208728656
0.990132570 0.564073324 0.240859985
0.998102427 0.563693762 0.261732817
0.995825410 0.570272028 0.284250140
0.994307339 0.574826181 0.307020783
0.996710598 0.576723814 0.331309438
0.494750142 0.718405783 0.386590570
0.519038320 0.717267573 0.398734570
0.536875367 0.727640569 0.406578124
0.571284056 0.725869894 0.420493543
0.613029897 0.725869775 0.435294211
0.636306286 0.722833693 0.448450565
0.676533997 0.722707272 0.475016057
0.710310042 0.726881564 0.487413079
0.727767348 0.720050514 0.487413108
0.729665041 0.719797432 0.468058348
0.738772750 0.708285868 0.441872507
0.750917256 0.698165298 0.412523627
0.760025561 0.686400771 0.373813719
0.771157563 0.674003720 0.334598303
0.792789161 0.657052398 0.300822198
0.810373425 0.633396864 0.263883799
0.799747169 0.601518214 0.218343005
0.809361100 0.583554626 0.184693456
0.834661603 0.571410596 0.163440987
0.868437946 0.571790159 0.160657629
0.902972817 0.576344013 0.161416724
0.931815147 0.577861965 0.165464982
0.960404694 0.577988505 0.173181295
0.987729073 0.583301783 0.181530595
0.996837437 0.586337805 0.189879879
1.000000000 0.589247286 0.200632587
0.998481810 0.594813764 0.209234804
0.996204793 0.599367321 0.229348421
0.996204793 0.598987758 0.254522622
1.000000000 0.600758970 0.282858938
0.996078372 0.608602345 0.306641400
0.996078014 0.613156557 0.329412013
0.566097558 0.757874548 0.433649570
0.590385556 0.757874548 0.442757547
0.612776518 0.758001387 0.452118903
0.630486906 0.766350269 0.459456205
0.666919887 0.763820529 0.478937536
0.690449297 0.760784388 0.488425165
0.715749800 0.764832199 0.507653654
0.751296699 0.760278344 0.531436026
0.772549093 0.760278344 0.544339359
0.782416165 0.758001089 0.534472048
0.785325706 0.749272525 0.510689676
0.790385664 0.739152253 0.477798998
0.801391780 0.732320905 0.445540458
0.803795338 0.721062303 0.406957477
0.824288130 0.705881953 0.367994756
0.842251539 0.689563394 0.330676585
0.858950138 0.668311357 0.285136193
0.851106942 0.645161390 0.243263841
0.860974371 0.616951346 0.205945402
0.877925754 0.604048193 0.183428213
0.904491007 0.602150619 0.176596731
0.931815147 0.607210219 0.179633126
0.964832008 0.606957197 0.185452178
0.990765095 0.611385286 0.195951909
0.998355269 0.613662183 0.205060273
0.998608351 0.615053833 0.212776974
0.998987854 0.617584169 0.218848988
1.000000000 0.623655915 0.228968978
1.000000000 0.629348159 0.248703614
1.000000000 0.631119370 0.267678916
0.999114394 0.635926723 0.301960975
0.996078014 0.645035148 0.326376021
0.625680089 0.789373934 0.482732564
0.648703218 0.792409778 0.491967112
0.669829071 0.792409718 0.497659892
0.691587687 0.791271389 0.509930551
0.713219583 0.794307113 0.519038260
0.740290999 0.791777432 0.533712626
0.757495403 0.795066237 0.548893154
0.779000700 0.797469676 0.569386780
0.805818677 0.791271508 0.586844087
0.827071071 0.791271508 0.592916071
0.827577412 0.784819961 0.574067235
0.828463078 0.777988851 0.548387170
0.828716159 0.770525098 0.512966394
0.838077545 0.766982675 0.482858628
0.852877676 0.752561271 0.442251414
0.866792917 0.740417123 0.402656227
0.881973147 0.727134466 0.362428486
0.896521151 0.708285928 0.309551120
0.893485487 0.677925110 0.270081848
0.897533536 0.655281305 0.230234072
0.910562992 0.639089108 0.203921661
0.934724748 0.634028971 0.194939688
0.968121052 0.631119132 0.197976068
0.993927836 0.636179745 0.208602160
1.000000000 0.639342248 0.215306699
0.998608351 0.643010616 0.226818532
0.996584058 0.646046996 0.232890546
0.999620438 0.646173537 0.238962546
0.999367416 0.652877867 0.256293595
1.000000000 0.658443749 0.270335495
0.999746978 0.662618518 0.283871025
0.996710598 0.671726942 0.320303857
0.692473054 0.813662052 0.522201061
0.710689843 0.816698432 0.543453515
0.722960234 0.819734216 0.546236813
0.735863268 0.820999086 0.555598021
0.752688169 0.821631610 0.576723576
0.776976883 0.824667990 0.585831881
0.793928266 0.817077696 0.592916012
0.812397659 0.817709982 0.609867454
0.832890868 0.821758151 0.629348993
0.848323524 0.824667990 0.635420978
0.857937872 0.815939128 0.621126175
0.866034269 0.811132371 0.609487772
0.868690968 0.806451976 0.587855697
0.865402043 0.800379932 0.552688003
0.877546012 0.791271508 0.525363624
0.887539804 0.781657159 0.482353210
0.900189817 0.772295773 0.443643421
0.914737225 0.759898484 0.403668523
0.926881969 0.738646030 0.345984042
0.926629007 0.713851988 0.295382887
0.929032266 0.687919259 0.254522622
0.938899338 0.670461893 0.230234042
0.959013462 0.667551994 0.225300565
0.992409885 0.667551994 0.228336915
1.000000000 0.668058097 0.225300401
0.998608351 0.671094060 0.234408379
0.996584058 0.676407099 0.254143000
0.999620438 0.679443538 0.260215014
0.997343183 0.682226837 0.279569775
0.998102248 0.685768723 0.293485224
1.000000000 0.689689994 0.302846372
0.999746978 0.696015060 0.314231128
0.778747857 0.871347487 0.622896850
0.783048570 0.866034508 0.621885240
0.796964347 0.864769340 0.630234122
0.807969809 0.866540253 0.634788156
0.819734514 0.867299378 0.649968088
0.824794650 0.863124371 0.651865661
0.838962734 0.861100733 0.660974026
0.853890061 0.859076381 0.670588136
0.870588362 0.864009976 0.685009480
0.883744240 0.869070530 0.689057708
0.887539625 0.866034269 0.699810266
0.896647513 0.856925845 0.678558171
0.903478682 0.852371991 0.667931855
0.902593374 0.847438633 0.650094807
0.902086973 0.835799932 0.620240092
0.914231658 0.829095364 0.588108659
0.925237358 0.824920774 0.545604110
0.937887311 0.817710161 0.505249739
0.947881281 0.798608482 0.454016447
0.957242012 0.791271508 0.413030118
0.962934732 0.766983032 0.355724275
0.968753695 0.738520026 0.312207222
0.979380012 0.717394114 0.287412792
0.988867581 0.706768095 0.261227280
0.999493897 0.711322129 0.259709090
1.000000000 0.710942388 0.263883382
0.998355329 0.710815728 0.282479435
0.996837080 0.707020819 0.295382738
0.999873459 0.715370178 0.312080711
0.995319366 0.720430374 0.326122552
0.996204972 0.722707093 0.336116344
1.000000000 0.723086357 0.347121745
0.819355011 0.894118011 0.672232747
0.822391093 0.893738270 0.671094358
0.835673571 0.889816940 0.678052008
0.841492832 0.889310539 0.681087911
0.850474298 0.892726243 0.690575480
0.856546700 0.892725885 0.693611443
0.868564487 0.887286305 0.701201737
0.877419472 0.889183939 0.711954415
0.891840637 0.890195727 0.724098504
0.905122995 0.891714215 0.730550170
0.912333846 0.892852902 0.738519728
0.915623248 0.889563441 0.737760723
0.919038475 0.882732391 0.715749741
0.920303702 0.879696727 0.707906425
0.923845291 0.872485638 0.685768366
0.925236821 0.865148425 0.656799436
0.935863435 0.859076440 0.623403013
0.947627962 0.856419921 0.585831821
0.958001256 0.841998696 0.547374964
0.965211630 0.834914684 0.503352046
0.976217449 0.826945007 0.467678726
0.984313726 0.803668320 0.406957388
0.990385771 0.773940444 0.363187671
0.996457756 0.751170456 0.325743198
0.998355269 0.739405751 0.296900898
