Assets/Shaders/EldamarStudio/100 Sci-Fi LUTs Pack/LUTs/cube/Savanna LUT.cube
LUT_3D_SIZE 8
DOMAIN_MIN 0.000000 0.000000 0.000000
DOMAIN_MAX 0.903226 0.903226 0.903226
0.043136999 0.082353003 0.078431003
0.073244549 0.086654447 0.083491549
0.159013197 0.087918907 0.101201907
0.256166995 0.082353003 0.096900649
0.371157378 0.089310996 0.086274996
0.520683467 0.101833992 0.090195999
0.704743862 0.103605293 0.101961002
0.909297705 0.094117999 0.096900977
0.034914549 0.119164996 0.089437000
0.076028004 0.116002090 0.082353003
0.164579198 0.127007991 0.096521005
0.252245277 0.129664540 0.091461450
0.370398372 0.138646081 0.083871193
0.517647028 0.155218095 0.092220262
0.698038936 0.162175804 0.090323001
0.896268010 0.162934706 0.096521430
0.031373002 0.192030102 0.081593908
0.081846640 0.197090551 0.077546097
0.154333100 0.192789197 0.093358904
0.249462634 0.201391101 0.087413348
0.363314360 0.216192096 0.091714196
0.521442354 0.236052826 0.094497263
0.711701393 0.256166995 0.087792993
0.909297585 0.268184930 0.090069987
0.023529001 0.278557628 0.094117999
0.074762642 0.280455202 0.099684000
0.164832458 0.280075729 0.091334641
0.253383636 0.280834645 0.099177651
0.372802198 0.303984970 0.098924808
0.523592472 0.329664379 0.093864739
0.715496540 0.358254194 0.077166714
0.911068738 0.382669121 0.065275013
0.026565386 0.397976190 0.098039001
0.100695543 0.401391715 0.094623551
0.186338082 0.404174477 0.092599995
0.283744633 0.403668731 0.092599809
0.396205187 0.410373360 0.089563817
0.552561700 0.442883939 0.076407522
0.747754693 0.476913273 0.043516912
0.921315432 0.505250156 0.036053184
0.060467735 0.565717697 0.039848536
0.134598270 0.568754077 0.036179539
0.245161012 0.572802126 0.038709890
0.357621431 0.574826360 0.030866377
0.482479095 0.577482700 0.025047537
0.616445184 0.581404269 0.017963266
0.776850045 0.611764491 0.000000000
0.944212437 0.632890522 0.006072080
0.161037266 0.749525547 0.000000000
0.213409081 0.749525547 0.000000000
0.313725471 0.751043558 0.003289004
0.435167551 0.751170278 0.001644712
0.556609631 0.755724251 0.002277288
0.691967249 0.754712284 0.001644712
0.816824555 0.752814531 0.000000000
0.953826427 0.761416495 0.002656833
0.311827719 0.912839949 0.039848421
0.348766327 0.916887760 0.064516097
0.419607967 0.918152928 0.057052553
0.512713194 0.916887760 0.059203029
0.622643828 0.919417739 0.068943374
0.742567480 0.918658853 0.083238199
0.866034329 0.916761637 0.108032793
0.982162774 0.912839949 0.129285187
0.053383999 0.090575546 0.111701541
0.072865091 0.089816548 0.108159088
0.147627741 0.093358904 0.113219537
0.230739728 0.103099354 0.125869647
0.332827389 0.114104547 0.132447898
0.490955174 0.118405998 0.142314553
0.685768247 0.104870453 0.148640260
0.894117594 0.079822890 0.150158450
0.054522451 0.111701541 0.111321993
0.087413445 0.112460539 0.104996994
0.142188549 0.124604993 0.119164996
0.224414647 0.134851083 0.123845994
0.335104376 0.146109819 0.132827342
0.483112097 0.156736284 0.138772801
0.677166283 0.156862810 0.139152542
0.885009408 0.151676536 0.146615997
0.048956450 0.177102998 0.123845994
0.091713995 0.181404546 0.127766997
0.142947540 0.184187099 0.127007991
0.227957085 0.191145003 0.127387553
0.338140279 0.211132452 0.134851187
0.495003104 0.230234280 0.139911354
0.693991244 0.250727266 0.137634352
0.896647513 0.258823663 0.137760684
0.044275545 0.264642268 0.132447898
0.088931441 0.268311530 0.126122996
0.156989545 0.266666710 0.132068545
0.234029174 0.270208985 0.128905550
0.353826374 0.292472929 0.135230646
0.507526994 0.320303380 0.134598359
0.703731537 0.353953183 0.127387732
0.898418307 0.373561084 0.125110835
0.025933001 0.391271561 0.125869542
0.092852548 0.390765369 0.128146544
0.183934093 0.390385717 0.133712649
0.276280999 0.394687116 0.134851098
0.382036388 0.397469729 0.126502544
0.538393438 0.430613369 0.124731086
0.732068300 0.472359389 0.107147262
0.918405950 0.497786015 0.112333722
0.040986735 0.547121763 0.105250008
0.121695027 0.557748199 0.108412109
0.230486810 0.556988955 0.101328105
0.342947215 0.562555194 0.101328097
0.474762708 0.569259644 0.096521273
0.598861516 0.571536958 0.087666273
0.772296190 0.601897597 0.075774744
0.939658344 0.632005453 0.090449251
0.140923545 0.738519549 0.025679823
0.206830814 0.736875236 0.030993108
0.297659785 0.737254798 0.024921069
0.418848455 0.742441535 0.025680168
0.546489477 0.741682410 0.018722385
0.674636126 0.742441535 0.011764807
0.811764836 0.749525547 0.010499643
0.952308476 0.756230354 0.061986044
0.303731859 0.913852036 0.106135301
0.335610420 0.912713289 0.112207443
0.404047966 0.911574900 0.102846093
0.503352225 0.904870331 0.107906319
0.621125877 0.909550786 0.119797327
0.743706048 0.909044862 0.136495769
0.862238884 0.910436571 0.157115683
0.981783330 0.913852036 0.165970847
0.007084097 0.098039001 0.173181191
0.072865099 0.090955094 0.177102998
0.156736106 0.094117999 0.181024998
0.233902648 0.107020639 0.180645362
0.341555983 0.118406095 0.194307193
0.474383384 0.117773518 0.205692649
0.668564260 0.074889526 0.209867284
0.883744359 0.013915362 0.222517088
0.052118644 0.126628548 0.158633649
0.090195999 0.131309539 0.168121547
0.141429543 0.134092093 0.167741999
0.225300536 0.143073648 0.181024909
0.327387363 0.152941108 0.190006450
0.468564004 0.156863004 0.203795001
0.663504243 0.138140097 0.209235102
0.879949152 0.123971984 0.219101846
0.051739097 0.180265903 0.164453000
0.090069890 0.187350005 0.177482635
0.152814895 0.192789197 0.186590910
0.224414736 0.201011732 0.183807552
0.332068294 0.211638108 0.194433913
0.485388964 0.224161997 0.203035995
0.687286437 0.232764095 0.208475992
0.888171554 0.244529098 0.224921092
0.063630909 0.264010280 0.194813460
0.101201996 0.269955724 0.193675101
0.164073557 0.270335197 0.192409649
0.235041097 0.271094173 0.184186995
0.345604002 0.290195823 0.191524550
0.500569105 0.313598841 0.197849557
0.697786152 0.344971657 0.204047933
0.901201487 0.361037463 0.211512104
0.030739810 0.383048475 0.197596207
0.093991093 0.386211276 0.191271096
0.180139184 0.388488263 0.199873105
0.271220714 0.386084467 0.194307193
0.379759461 0.390006274 0.191271186
0.528652847 0.425174177 0.195951909
0.733586311 0.462871552 0.193675011
0.918911815 0.490322262 0.204174459
0.015433359 0.556736410 0.187350094
0.115369827 0.555597663 0.190006465
0.227071360 0.557495356 0.187982097
0.341176480 0.559392810 0.188488454
0.469449818 0.564958811 0.184313908
0.597596169 0.567362130 0.183807835
0.764579237 0.599114418 0.184440434
0.943832755 0.631246150 0.207463667
0.133965850 0.736116469 0.169259816
0.197216809 0.739785016 0.170651481
0.301960468 0.740164518 0.174067006
0.421125740 0.742188275 0.172422290
0.548893213 0.741682529 0.173940092
0.680581629 0.746868908 0.178114831
0.811511695 0.750411212 0.173181385
0.953320622 0.758380711 0.202277020
0.328020483 0.910815895 0.233017057
0.364958584 0.912713528 0.237444714
0.425806433 0.910815895 0.235546887
0.524857819 0.912713587 0.240986794
0.633902848 0.912713587 0.250474453
0.749778211 0.910815895 0.254522592
0.866793394 0.916508317 0.264136434
0.981909931 0.911574781 0.277545840
0.005060354 0.090195999 0.264642268
0.083744287 0.086274996 0.259203166
0.161290094 0.096015446 0.257685184
0.233775914 0.107020646 0.248323992
0.332321018 0.116381831 0.255281270
0.480835110 0.111575007 0.280328989
0.667805254 0.048956372 0.297153920
0.881720603 0.001138644 0.320303261
0.053636741 0.133586541 0.245920286
0.088045642 0.141555652 0.240860537
0.156230539 0.138266638 0.241619542
0.220366627 0.142188638 0.234914273
0.324857473 0.152814999 0.253383726
0.471600026 0.152182102 0.272106528
0.660974264 0.119924173 0.294623911
0.871853113 0.047311831 0.312080920
0.068690643 0.192283541 0.249841988
0.105123088 0.193801522 0.241113186
0.154965177 0.201391101 0.242378533
0.228209719 0.199367553 0.240860626
0.333839029 0.210373536 0.260467917
0.483744472 0.217077911 0.276027828
0.673497975 0.214042097 0.287413061
0.885389090 0.213915393 0.311701298
0.057178997 0.264010280 0.237697631
0.102213547 0.262365282 0.247944653
0.165591449 0.273750722 0.251865745
0.248450622 0.279190630 0.257305622
0.350664258 0.291334450 0.262871623
0.496015489 0.306514651 0.272485882
0.687539458 0.328525901 0.288171977
0.888425052 0.344086111 0.307020783
0.035041459 0.378241360 0.270714641
0.101454638 0.376597285 0.262365371
0.182416186 0.385704905 0.265907735
0.273497611 0.386843562 0.263124377
0.379126936 0.389120370 0.270335197
0.530170977 0.420872748 0.276154429
0.726122797 0.452625155 0.289943099
0.918658793 0.485389203 0.311575085
0.002276998 0.541303098 0.274257004
0.083238639 0.541049540 0.272612274
0.213662177 0.544465184 0.275015980
0.336116076 0.549525619 0.278052002
0.458191007 0.554712057 0.277039647
0.594434083 0.556230187 0.281973273
0.767741919 0.592789292 0.287033349
0.938772798 0.626565456 0.314863801
0.098924465 0.728905857 0.279316992
0.177862182 0.733333170 0.281467527
0.280834913 0.728905499 0.281467348
0.406704843 0.729411900 0.278684258
0.538519800 0.735357285 0.282226413
0.671726763 0.735483825 0.286274672
0.810120165 0.741682291 0.291587919
0.948513627 0.754459262 0.314611048
0.355597407 0.906388581 0.342188269
0.387602508 0.907526970 0.340923220
0.442377955 0.905882418 0.351422966
0.533839285 0.906261802 0.346995205
0.638709605 0.905123174 0.349019170
0.752814412 0.908665597 0.361543179
0.869070113 0.911068797 0.373687446
0.984819591 0.909044743 0.379253387
0.049209379 0.094117999 0.371410191
0.107273988 0.099936642 0.370651186
0.194180906 0.105881996 0.363567173
0.276407182 0.113724999 0.349778563
0.359392375 0.119165190 0.345477372
0.487160206 0.113978520 0.362934738
0.687159896 0.039342251 0.394939959
0.893484592 0.001518192 0.425806344
0.062998451 0.150790647 0.349778533
0.111701354 0.151297003 0.351422757
0.184060991 0.148893192 0.351929188
0.271853179 0.154459104 0.348766297
0.356356472 0.150537997 0.338393182
0.485009521 0.149019808 0.358254015
0.680581808 0.112460628 0.393801451
0.882479370 0.047944311 0.415433198
0.066793099 0.212397188 0.336875290
0.113598995 0.217963189 0.339784741
0.185705096 0.213156283 0.338267177
0.263124466 0.216319010 0.330170721
0.347628385 0.216319010 0.332954079
0.492852926 0.218975350 0.357621819
0.692599714 0.211764812 0.390891910
0.898165464 0.209740758 0.413535655
0.054901998 0.287413090 0.334977835
0.109677188 0.296647549 0.340038180
0.184440538 0.293738306 0.339152277
0.271600187 0.291714013 0.340290844
0.372675389 0.295256197 0.340796977
0.515369833 0.310689449 0.361416727
0.702467084 0.319797695 0.382036537
0.897406399 0.345730424 0.409108013
0.059456188 0.373561174 0.337381184
0.112839893 0.386717558 0.337634385
0.187096998 0.387729377 0.339911282
0.297406465 0.404174477 0.349652022
0.418848544 0.415812552 0.364199996
0.556103706 0.427577555 0.365464926
0.735230863 0.448703170 0.387602657
0.913092971 0.484756172 0.415560037
0.002783259 0.545477509 0.362175792
0.100948803 0.548766673 0.367362171
0.220620081 0.549652398 0.369639486
0.342062056 0.555977464 0.372042984
0.471220642 0.558380663 0.370777726
0.602403402 0.564199924 0.372801989
0.775585115 0.596078396 0.399493903
0.941555679 0.625806570 0.427956909
0.170904830 0.726881742 0.397849262
0.224920660 0.729917645 0.399999827
0.309550643 0.729158580 0.397976011
0.419101804 0.730803490 0.395445973
0.544085741 0.734724581 0.397090375
0.679063559 0.733080268 0.398987740
0.806704581 0.737001836 0.400253087
0.950916767 0.759519339 0.433396637
0.406704754 0.901201725 0.460974157
0.435041130 0.903984487 0.463756949
0.484376609 0.903731644 0.461100727
0.564705789 0.903352201 0.466034263
0.660595000 0.904870391 0.474004000
0.767615557 0.908412337 0.479696453
0.873751044 0.907653451 0.479443103
0.976849735 0.914610744 0.488425165
0.105502985 0.105881996 0.497153461
0.160657734 0.111701258 0.495129704
0.246805921 0.111827739 0.493232459
0.345857263 0.108665355 0.483364701
0.445034713 0.104996748 0.478937536
0.551549435 0.088678271 0.471600175
0.699557126 0.026691733 0.490195960
0.908412516 0.001897740 0.521694899
0.104111433 0.157242358 0.480708271
0.159266338 0.159140006 0.481593996
0.237824276 0.157115743 0.481973708
0.333333164 0.150917456 0.473244727
0.429095209 0.145477355 0.465907633
0.543073952 0.139785007 0.461986452
0.695256114 0.104237661 0.480835170
0.895761907 0.045034945 0.519924045
0.079443544 0.233523190 0.479822576
0.145097822 0.230234176 0.473497659
0.220493555 0.231752187 0.467299432
0.324225008 0.223655730 0.465022355
0.433143884 0.224921092 0.464136660
0.540037930 0.221126109 0.460468262
0.711701274 0.210499644 0.482606024
0.907526731 0.216318920 0.520683289
0.044908006 0.322833717 0.465781450
0.117773727 0.322960109 0.463757038
0.212017566 0.315496266 0.458191216
0.322327346 0.317014277 0.457558602
0.430487156 0.315496475 0.457305461
0.546236455 0.311321735 0.453257382
0.721948087 0.323718995 0.480202109
0.909171462 0.354332745 0.519038439
0.021379005 0.428336442 0.458317906
0.108665183 0.433269918 0.463757038
0.215559736 0.430992931 0.458317786
0.324224919 0.432637751 0.462239206
0.455028117 0.435673624 0.468058437
0.581403911 0.437191814 0.476154447
0.755977035 0.460847825 0.491081268
0.926375508 0.499304354 0.532321393
0.056419726 0.551929474 0.460088730
0.132447630 0.554206252 0.463883698
0.238583177 0.556862831 0.470082104
0.361037105 0.564958751 0.474889100
0.507906377 0.580518723 0.483997285
0.649968505 0.589247167 0.499051183
0.791777551 0.608349442 0.515876174
0.935357630 0.641745746 0.544591844
0.205186516 0.726375997 0.510309517
0.251612842 0.726628542 0.497153550
0.339784831 0.726249099 0.502087057
0.455408007 0.731435835 0.511195362
0.578114927 0.734598279 0.522707164
0.690575421 0.737381041 0.519924164
0.814927042 0.740290761 0.521442473
0.952055633 0.768121302 0.562808454
0.467678308 0.899683774 0.574320018
0.494749874 0.897912562 0.580771387
0.537507772 0.896394730 0.582795560
0.606704235 0.898418367 0.588867784
0.677419186 0.897786140 0.588994265
0.776091158 0.897279739 0.593674719
0.872612596 0.907906294 0.599367738
0.971789896 0.908285856 0.610120237
0.172169283 0.127767280 0.663251519
0.219354987 0.121569000 0.660974264
0.306261986 0.117647000 0.657179177
0.414927274 0.105881996 0.653763235
0.533206761 0.080076098 0.653004289
0.655787528 0.025679823 0.647185087
0.785452545 0.001644712 0.637444854
0.923339725 0.000000000 0.640480518
0.162555248 0.165338293 0.651233137
0.206831098 0.167488992 0.652118862
0.295129448 0.162681550 0.647185087
0.403668642 0.154459193 0.645287514
0.524604321 0.142694101 0.637444854
0.654775441 0.114990264 0.640607357
0.777862132 0.075901262 0.636685729
0.912586689 0.043769613 0.637444854
0.134598374 0.250727177 0.649209499
0.185705274 0.252245098 0.643390238
0.287539393 0.251486301 0.640480876
0.398482084 0.247564897 0.638203502
0.523845553 0.235673577 0.634914756
0.647564530 0.225173831 0.638077497
0.777988732 0.212144196 0.632637620
0.918658614 0.218343183 0.638836384
0.074889205 0.355471283 0.632511139
0.152182013 0.357368737 0.635167599
0.261986345 0.356230259 0.631372452
0.389120847 0.351549268 0.631372213
0.518279552 0.349146068 0.629854441
0.645793915 0.343959630 0.627071500
0.777735472 0.337634206 0.619101524
0.925616622 0.357621640 0.642504990
0.090701967 0.481720299 0.626312613
0.170397997 0.482479304 0.638582945
0.276027858 0.482353091 0.629348636
0.391271472 0.479190379 0.624288321
0.525237262 0.475142449 0.623908639
0.656546533 0.474130005 0.630613387
0.785452545 0.474383384 0.623149514
0.929285347 0.504996717 0.640101314
0.173181266 0.612270474 0.626059294
0.225426808 0.614041746 0.632637560
0.316761464 0.610499740 0.627577245
0.429095298 0.613156199 0.631498992
0.560784400 0.616572022 0.636559248
0.687413037 0.616572022 0.642631054
0.809740782 0.619861007 0.636559248
0.942314863 0.656925976 0.665654838
0.247185245 0.737760544 0.629601300
0.285389066 0.734218955 0.626944840
0.365970641 0.736369491 0.632005095
0.469449550 0.734977901 0.631372452
0.595951736 0.737760544 0.639848292
0.720177233 0.748893023 0.652371824
0.843643546 0.760657549 0.667172551
0.956356466 0.780392349 0.697027266
0.482352585 0.894749999 0.687792301
0.510689259 0.902087033 0.689057469
0.551296234 0.895256042 0.689057350
0.624667883 0.897279739 0.700189769
0.704743564 0.896900296 0.710183263
0.797343254 0.898165464 0.718405783
0.875015914 0.903731763 0.721062481
0.964832306 0.906388581 0.725743532
0.211891145 0.157115638 0.839848459
0.253636539 0.156103522 0.840227902
0.338140339 0.155344725 0.839974761
0.454775631 0.144212604 0.839848459
0.578621209 0.129284799 0.838709831
0.703858316 0.112207524 0.828968883
0.846552610 0.079570010 0.828842402
0.969133615 0.069070190 0.826818526
0.204933539 0.202277198 0.828842461
0.240733519 0.200126544 0.833902597
0.335989773 0.199873805 0.835167468
0.451865882 0.192030221 0.830360115
0.577482820 0.185704991 0.834281981
0.706514657 0.172296077 0.828336358
0.838203847 0.160404697 0.823655725
0.972675145 0.154965118 0.826059580
0.191777363 0.293864816 0.827703714
0.241745636 0.296521157 0.833522916
0.330803007 0.291967094 0.832004726
0.453763425 0.287919283 0.831245840
0.575205505 0.288678169 0.834028721
0.710689247 0.287033558 0.831878185
0.841239512 0.283997476 0.824920833
0.971157372 0.285894692 0.826312304
0.211638063 0.408981442 0.826565266
0.259835482 0.416824818 0.829727769
0.352308571 0.410752714 0.829095244
0.458064079 0.415306896 0.825932622
0.582921982 0.414041758 0.822137773
0.714611173 0.411764979 0.822011471
0.843643367 0.414927065 0.818975568
0.969133615 0.416444898 0.816951394
0.268437594 0.543200374 0.818469167
0.316887766 0.546868980 0.825806141
0.395572305 0.547501147 0.826818585
0.493991077 0.547501147 0.822011590
0.610499799 0.547881007 0.820113897
0.728146374 0.549019337 0.820240140
0.849335790 0.547754526 0.819355011
0.970398486 0.553193986 0.822137833
0.355850577 0.674130380 0.824288607
0.380391866 0.674509645 0.826312423
0.453004420 0.673877299 0.827956736
0.542568028 0.675395250 0.829474986
0.643769920 0.676913083 0.825553417
0.746616185 0.679949343 0.827956736
0.860847592 0.680328786 0.827198088
0.960657656 0.679949343 0.822264314
0.428716153 0.791903913 0.825932860
0.447311521 0.792662799 0.827830374
0.502340257 0.789500475 0.824794352
0.583301485 0.790512323 0.829474688
0.668437719 0.793295205 0.828715980
0.768880486 0.792915821 0.833776057
0.865022242 0.793295205 0.826439023
0.963567317 0.804680288 0.834282041
0.514610708 0.910436451 0.828209519
0.533713043 0.913219273 0.845413983
0.569892406 0.909044802 0.840101302
0.633396268 0.909424543 0.842378080
0.712965965 0.903984785 0.845414102
0.796584487 0.907779634 0.843137145
0.880455732 0.909044802 0.852245450
0.970271885 0.915496767 0.875268579
