Assets/Shaders/EldamarStudio/100 Sci-Fi LUTs Pack/LUTs/cube/Savanna LUT.cube
DOMAIN_MIN 0 0 0
DOMAIN_MAX 1 1 1
LUT_3D_SIZE 32
0.043136999 0.082353003 0.078431003
0.046173386 0.082353003 0.078431003
0.053510774 0.082353003 0.076280773
0.062618837 0.083618164 0.077040002
0.073244549 0.086654447 0.083491549
0.094496936 0.089690059 0.092599936
0.115749314 0.090195999 0.099178001
0.137001693 0.090195999 0.101961002
0.159013197 0.087918907 0.101201907
0.183301985 0.078810520 0.098165520
0.207589984 0.078431003 0.100948870
0.231878504 0.080455258 0.099936746
0.256166995 0.082353003 0.096900649
0.280708015 0.082353003 0.093864970
0.308032393 0.082353003 0.090828583
0.337760597 0.084756806 0.087792806
0.371157378 0.089310996 0.086274996
0.408222526 0.095382988 0.087539986
0.447690994 0.101454996 0.093611993
0.481594086 0.099177644 0.091334641
0.520683467 0.101833992 0.090195999
0.564200103 0.106894128 0.089184128
0.609866977 0.109677486 0.086780980
0.658443809 0.106641091 0.098925002
0.704743862 0.103605293 0.101961002
0.754459262 0.100569330 0.097786337
0.807590187 0.097533070 0.089690067
0.853131294 0.094497457 0.086654454
0.909297705 0.094117999 0.096900977
0.958127320 0.095888764 0.103731766
0.990891576 0.098039001 0.106767602
1.000000000 0.098039001 0.109803997
0.049209002 0.085389383 0.081467390
0.046173386 0.088424996 0.075395390
0.049209226 0.086274773 0.075395390
0.059076387 0.085389383 0.082099997
0.073624097 0.086274996 0.092979006
0.097533323 0.086654447 0.083491549
0.116255380 0.092220388 0.092599928
0.137001693 0.091587678 0.095889002
0.159013197 0.090195999 0.096647903
0.183301985 0.087918907 0.098165512
0.204680875 0.084630251 0.092220001
0.230866626 0.086527511 0.092852615
0.255028635 0.089563638 0.093105644
0.277925402 0.091714352 0.093864970
0.308032393 0.094497003 0.090828583
0.337760597 0.094497003 0.090195999
0.369639188 0.096900806 0.086274616
0.404553711 0.101454988 0.084503606
0.441619009 0.107527010 0.090575621
0.486654103 0.116382360 0.093864970
0.521062732 0.114358038 0.091334648
0.562175870 0.116002515 0.090195999
0.609866977 0.118912384 0.089437120
0.658443809 0.118785866 0.092853002
0.707020521 0.118026771 0.100442998
0.757495224 0.115749717 0.100569330
0.810626447 0.113219388 0.095762067
0.856166899 0.112713456 0.092726454
0.896394372 0.107021011 0.095003150
0.951802135 0.108032763 0.100695834
0.990005970 0.110183001 0.103731766
0.996963620 0.110183001 0.106767610
0.048829775 0.090576001 0.088804774
0.047944386 0.087160379 0.080582008
0.059961997 0.092346773 0.080961771
0.062997937 0.091840841 0.079696611
0.075774774 0.093105771 0.089816548
0.100063093 0.094876997 0.086527780
0.114990771 0.095636003 0.087792546
0.138140470 0.098419003 0.095256224
0.160404876 0.096647777 0.094750233
0.183301985 0.096647777 0.093611516
0.206831098 0.098039091 0.094370775
0.228083476 0.097027220 0.090322517
0.255154848 0.099936642 0.089057647
0.278684288 0.102972969 0.089816995
0.305249721 0.106008582 0.088678353
0.337760597 0.108791776 0.083744228
0.366603196 0.110309966 0.083744228
0.399999708 0.113346197 0.082099795
0.437950730 0.117900014 0.089690000
0.480582118 0.124604590 0.090828583
0.520429969 0.129917964 0.088172235
0.558127582 0.127387643 0.086907126
0.605692506 0.128146738 0.088172249
0.656293571 0.130171001 0.091208130
0.707020521 0.130171001 0.094370991
0.755597293 0.128779322 0.096268326
0.807210624 0.126249000 0.094244063
0.852751434 0.126249000 0.094497457
0.905882299 0.127387792 0.096774153
0.945350647 0.123086549 0.101580977
0.987475991 0.128905356 0.105882213
0.996078014 0.135230541 0.110183001
0.043263838 0.101707995 0.092852838
0.047059000 0.094370835 0.088804781
0.056167159 0.099431157 0.083238609
0.071853161 0.100442834 0.085009836
0.077546000 0.103478543 0.083112001
0.101833992 0.106514931 0.087033771
0.117267482 0.109550998 0.090069838
0.137634546 0.109550998 0.093484998
0.162682042 0.109550998 0.098039001
0.183428496 0.109550998 0.092978999
0.206325144 0.109930448 0.091840707
0.229854241 0.112207159 0.093358904
0.252245277 0.114484161 0.089184158
0.279443175 0.117141023 0.085768931
0.304743797 0.118152902 0.083744675
0.336242795 0.121188797 0.082732551
0.370398343 0.125490025 0.080961324
0.398987681 0.128526419 0.082226314
0.437191784 0.131562203 0.090702124
0.478178740 0.137381166 0.091461159
0.516887963 0.140290737 0.088931009
0.556356370 0.143327132 0.085895136
0.602024019 0.140923321 0.088804998
0.652498543 0.142821059 0.090702258
0.702846289 0.144844994 0.089943282
0.754332423 0.144718483 0.092726327
0.802909255 0.141682222 0.089690067
0.849209309 0.140923321 0.091208443
0.901581287 0.143579826 0.098039314
0.952435076 0.145604104 0.097786143
0.983933985 0.144338697 0.103858151
0.996078014 0.158001006 0.109930165
0.034914549 0.119164996 0.089437000
0.043643389 0.111954160 0.093611836
0.054269772 0.116002545 0.087666228
0.063883997 0.121315770 0.082732551
0.076028004 0.116002090 0.082353003
0.100315996 0.119038478 0.088425003
0.118532315 0.124224991 0.091967322
0.139152244 0.127007991 0.094244294
0.164579198 0.127007991 0.096521005
0.182795972 0.127007991 0.096520998
0.204680875 0.124478318 0.091840550
0.227577522 0.125869825 0.091461256
0.252245277 0.129664540 0.091461450
0.276533991 0.135483578 0.085895449
0.303731859 0.132700965 0.080075718
0.335863352 0.134471744 0.080834806
0.370398372 0.138646081 0.083871193
0.405819088 0.143706128 0.086401440
0.439215571 0.146742523 0.092473455
0.478937536 0.152561545 0.093738452
0.517647028 0.155218095 0.092220262
0.555976808 0.156230137 0.090449132
0.601770937 0.159266517 0.093611993
0.650600791 0.159519553 0.094117999
0.698038936 0.162175804 0.090323001
0.748766363 0.163440555 0.088045865
0.800632656 0.163314059 0.090069517
0.849209428 0.160278454 0.087033905
0.896268010 0.162934706 0.096521430
0.944844723 0.165591210 0.099178016
0.983933985 0.168627486 0.096268438
0.996078014 0.171663091 0.102340452
0.031878937 0.131309003 0.083365001
0.037950937 0.137381002 0.095509000
0.055281773 0.134471700 0.088931061
0.068185002 0.135231003 0.083618164
0.076027997 0.134218872 0.085389383
0.088171996 0.134218872 0.082353003
0.114990309 0.137254611 0.085895315
0.135357410 0.139151990 0.085642293
0.155851036 0.139151990 0.084377006
0.176723972 0.139151990 0.084377006
0.203668863 0.139151990 0.087286867
0.225933254 0.142694578 0.086780936
0.249968573 0.147122234 0.086148351
0.276533991 0.150663972 0.082859069
0.300821990 0.153700352 0.082859069
0.332827479 0.155724138 0.081846938
0.366224110 0.158760130 0.083871193
0.399494112 0.161669880 0.085642420
0.430107951 0.161922917 0.083365075
0.474636286 0.167741939 0.089437068
0.519165277 0.171916664 0.090702064
0.560151815 0.174446732 0.089184128
0.598734498 0.177482501 0.087539986
0.650347769 0.180518895 0.093612000
0.692346215 0.185325935 0.094117999
0.741681993 0.186717182 0.093106002
0.797849298 0.184692934 0.093105868
0.852245808 0.184566453 0.090069517
0.890195906 0.189499989 0.095003046
0.935736358 0.191523939 0.100316286
0.976343632 0.192915604 0.101834387
0.996078014 0.195951864 0.105376065
0.031373002 0.156103313 0.087412998
0.042505000 0.159645632 0.089437000
0.052877996 0.161416635 0.090828769
0.069196679 0.158760145 0.086148158
0.079696223 0.157115549 0.088045679
0.098291993 0.154965326 0.082859069
0.115496635 0.154965326 0.082353003
0.139532015 0.159645647 0.082099974
0.160911098 0.161416635 0.081340872
0.185705498 0.161416635 0.084883317
0.205186531 0.158886313 0.077672549
0.228462920 0.160910577 0.080708422
0.251992315 0.165338635 0.083491638
0.279569745 0.168374598 0.085389316
0.308412313 0.171410412 0.089943320
0.335104108 0.176849991 0.089943320
0.366730064 0.178494319 0.089943320
0.399747103 0.181783572 0.090702422
0.433902979 0.187476322 0.087666035
0.473118365 0.187982336 0.090449326
0.518659174 0.195952058 0.090828583
0.564200103 0.199241325 0.091208130
0.605945230 0.200632647 0.091082007
0.659961700 0.201265231 0.087540001
0.707020819 0.206578314 0.091334708
0.751169920 0.212650299 0.092979349
0.802909434 0.213535637 0.095129997
0.849462390 0.213535637 0.098165877
0.905882597 0.213788629 0.098039307
0.947627723 0.216318637 0.098798104
0.981277287 0.218089625 0.102972664
0.991017997 0.222770318 0.110941999
0.031373002 0.176849693 0.086907007
0.043517001 0.176597089 0.090195999
0.055660997 0.179126993 0.091334768
0.067805000 0.180392161 0.083238840
0.082605645 0.177355856 0.085136004
0.108918346 0.171789929 0.086653993
0.124351636 0.176217705 0.087286703
0.137634695 0.174573004 0.087286703
0.158887103 0.180644989 0.081973217
0.184440494 0.182415992 0.082732551
0.206324995 0.179506540 0.079190418
0.228209957 0.180518255 0.079823159
0.251739353 0.182415992 0.082858771
0.278810710 0.184946314 0.087666318
0.306388110 0.187982276 0.089563996
0.335989773 0.193421692 0.092473291
0.367868364 0.199493691 0.090955488
0.399747103 0.201644272 0.092093989
0.436179996 0.210752666 0.092093743
0.477040082 0.209866986 0.092979357
0.518659174 0.215559721 0.095509261
0.566224098 0.223655984 0.092473127
0.613029480 0.225047499 0.093865007
0.663124561 0.226565704 0.087792993
0.712586820 0.229474977 0.086907417
0.760910928 0.234155655 0.088551708
0.810246825 0.238962695 0.090829000
0.856166840 0.238962695 0.094623998
0.903731704 0.243896410 0.098672003
0.954332829 0.242251694 0.100189783
0.988361716 0.244908288 0.100695603
0.989879727 0.251739413 0.112080708
0.031373002 0.192030102 0.081593908
0.044275902 0.192789376 0.089184090
0.051865906 0.191018417 0.092346773
0.068564095 0.194813266 0.091587938
0.081846640 0.197090551 0.077546097
0.113725699 0.188741162 0.087413095
0.128653005 0.192536324 0.091967225
0.141429603 0.195066482 0.092600003
0.154333100 0.192789197 0.093358904
0.175585493 0.198861197 0.081214122
0.198988095 0.197722882 0.081467196
0.223276407 0.197975829 0.083238415
0.249462634 0.201391101 0.087413348
0.276533991 0.201644138 0.090701997
0.300821990 0.204680517 0.089184314
0.330676675 0.210879192 0.089437284
0.363314360 0.216192096 0.091714196
0.400379509 0.222264081 0.088046007
0.436938912 0.231245950 0.093612000
0.479696751 0.231498927 0.094876900
0.521442354 0.236052826 0.094497263
0.563947201 0.243390188 0.096268035
0.615686059 0.249462187 0.093358904
0.663124740 0.253131002 0.088551894
0.711701393 0.256166995 0.087792993
0.761669815 0.259961843 0.087033898
0.812271059 0.262492180 0.087539963
0.863377512 0.262492180 0.087792993
0.909297585 0.268184930 0.090069987
0.954332471 0.274003983 0.095129862
0.987603009 0.272991598 0.100695603
0.993674994 0.282099992 0.109803997
0.031373002 0.207210511 0.078557529
0.046552613 0.219354481 0.090702295
0.046552517 0.215812787 0.093991473
0.056419842 0.213535979 0.094117992
0.084883027 0.218342945 0.092726484
0.106135413 0.215306550 0.086654484
0.117773831 0.214547485 0.088931166
0.131942004 0.213282719 0.088678233
0.151296705 0.211005986 0.087286904
0.175585493 0.211005986 0.090322509
0.196837872 0.214168116 0.092726350
0.220240474 0.214927003 0.091587715
0.246805802 0.217330500 0.090069517
0.276533991 0.222896531 0.090701997
0.300821990 0.225932911 0.096773989
0.332321405 0.233776301 0.095256329
0.365591675 0.239721790 0.097027473
0.400379509 0.243516490 0.100190006
0.439848006 0.249588475 0.094118007
0.484756619 0.255787700 0.096900649
0.526375711 0.263377696 0.094117522
0.565970898 0.270461619 0.090448998
0.606578469 0.273750991 0.090322517
0.661227345 0.279822975 0.090322509
0.713219285 0.283491790 0.092346795
0.764705479 0.287919462 0.092473321
0.815306723 0.292852998 0.090575576
0.860847831 0.292852998 0.093611956
0.911954165 0.292852998 0.088552006
0.961416304 0.300316453 0.090069979
0.996584117 0.309171349 0.097786456
0.999746978 0.312460005 0.109803990
0.031373002 0.222390875 0.087159872
0.040733617 0.237444729 0.087665908
0.053763550 0.232384741 0.089057900
0.062365741 0.228842869 0.090829000
0.084629998 0.234155864 0.094117999
0.103352062 0.233649790 0.093105994
0.117014773 0.233143747 0.094623677
0.133080706 0.236432731 0.094370708
0.154079869 0.237191781 0.092852898
0.178368106 0.235040992 0.095888518
0.199746996 0.232131869 0.093105868
0.223023623 0.233143747 0.092093743
0.247311860 0.236559093 0.091334641
0.274130195 0.243895859 0.092852838
0.303731859 0.244275406 0.090954997
0.332827479 0.249715596 0.094623804
0.368754178 0.258317679 0.094117999
0.404933542 0.264768869 0.096774414
0.439848006 0.270840883 0.097533129
0.482099742 0.276913583 0.097027130
0.527514338 0.284883112 0.096141741
0.571030974 0.292978853 0.091081873
0.614421129 0.297912508 0.087033845
0.657938004 0.301201880 0.081467129
0.712586701 0.307273865 0.079190418
0.766223609 0.312334001 0.082353123
0.818342924 0.317393988 0.083365008
0.863883436 0.317393988 0.079190575
0.906767666 0.322706968 0.087539949
0.952308297 0.324984193 0.088045761
0.988867521 0.330170870 0.092979118
1.000000000 0.331182748 0.101075128
0.027324488 0.249715239 0.092220254
0.038456876 0.254775375 0.090195999
0.049715292 0.260721236 0.090069510
0.061859742 0.252372086 0.092093900
0.079696298 0.255028546 0.097406998
0.102845997 0.253384262 0.094117999
0.120050639 0.253384262 0.096647680
0.137128696 0.255028546 0.094750002
0.157622010 0.259202987 0.092093743
0.179380015 0.257431775 0.093864523
0.200758874 0.256419867 0.095129870
0.226059243 0.255407989 0.096141741
0.249209389 0.257684976 0.093105644
0.272865027 0.265148252 0.094370969
0.301454544 0.265148252 0.094876580
0.337887585 0.274003863 0.096647799
0.366730183 0.280076236 0.099683799
0.402909517 0.287412912 0.098924741
0.436306030 0.292093277 0.097786032
0.478051722 0.298165441 0.098039001
0.520556509 0.306135476 0.096141741
0.566982985 0.314231247 0.093105868
0.613788486 0.320303231 0.088172257
0.661986053 0.325236887 0.083997704
0.709550798 0.330550492 0.080202289
0.764199555 0.338013798 0.077166326
0.817330956 0.344718248 0.079316750
0.862871647 0.347754240 0.073244750
0.907779574 0.351043493 0.070335314
0.950284302 0.353573501 0.081214458
0.983933985 0.356356859 0.086780347
0.997975767 0.357495517 0.093991004
0.023529001 0.278557628 0.094117999
0.035673775 0.279696286 0.092220254
0.047817998 0.281846792 0.092473000
0.061100639 0.283491462 0.091714159
0.074762642 0.280455202 0.099684000
0.101327926 0.277419567 0.095129997
0.122200988 0.276913643 0.095509328
0.142062053 0.278557926 0.095888644
0.164832458 0.280075729 0.091334641
0.184187010 0.279696286 0.091334648
0.204174519 0.281973273 0.096521221
0.227197886 0.279696286 0.097280383
0.253383636 0.280834645 0.099177651
0.275142014 0.286653668 0.096141972
0.302466393 0.287539274 0.097406581
0.337128401 0.296015233 0.099304162
0.372802198 0.303984970 0.098924808
0.402656525 0.311321974 0.100695588
0.437065035 0.315875679 0.095129646
0.479949355 0.323971927 0.096900649
0.523592472 0.329664379 0.093864739
0.566097260 0.338772774 0.092852868
0.614547491 0.345097780 0.089563504
0.666160703 0.352181911 0.082479611
0.715496540 0.358254194 0.077166714
0.767994881 0.363440931 0.076407336
0.820619762 0.371536702 0.073877007
0.865528345 0.376976281 0.069070004
0.911068738 0.382669121 0.065275013
0.953699946 0.385072649 0.068690613
0.982922018 0.389500231 0.079949252
0.993800998 0.393548638 0.089057647
0.023782032 0.300822020 0.094623998
0.034914743 0.303605407 0.094623998
0.048323996 0.306135297 0.096015260
0.061986189 0.307653040 0.098292157
0.077799030 0.308285594 0.094117999
0.102087021 0.305249959 0.094117999
0.124098316 0.304238021 0.094370969
0.145603731 0.306135356 0.094370969
0.167109102 0.307906121 0.094370969
0.194433495 0.304870516 0.094370976
0.214041740 0.310057014 0.102593154
0.234535277 0.308539033 0.103352264
0.256673068 0.305376381 0.101707973
0.281214088 0.308412045 0.101455003
0.308538467 0.311448425 0.098418616
0.340417355 0.318532795 0.097533002
0.374320209 0.325363815 0.094750032
0.408981562 0.330044031 0.090322554
0.448450059 0.342188090 0.087286942
0.492979079 0.354079753 0.091081977
0.538772762 0.361290306 0.090575971
0.583301306 0.366350204 0.086527839
0.626059055 0.375458539 0.089057498
0.677545726 0.384566903 0.074130125
0.727387547 0.391651005 0.063757293
0.779126942 0.396331400 0.059962351
0.834535122 0.399367094 0.061985966
0.877039850 0.402403474 0.061985966
0.921947777 0.410752863 0.062492032
0.964705527 0.416065842 0.067552201
0.991777360 0.421884626 0.077166602
0.988740981 0.437065035 0.086274996
0.026818415 0.334218383 0.100695997
0.026818415 0.334218383 0.100695997
0.048703361 0.332700729 0.096394993
0.069070309 0.330929637 0.102340415
0.086654402 0.330043912 0.111574985
0.105123408 0.338646293 0.094117999
0.129411414 0.333080381 0.096647680
0.153067395 0.334851384 0.097406581
0.173687413 0.338772804 0.097406581
0.188361496 0.338266850 0.097406581
0.218595743 0.338140368 0.100316450
0.242378488 0.339405388 0.098545425
0.264896035 0.337001741 0.096521355
0.287286848 0.335736424 0.098418616
0.314611226 0.338772804 0.095383003
0.344338804 0.339405388 0.092346616
0.379886121 0.347374946 0.089943200
0.418089926 0.356988966 0.088804819
0.457558423 0.366476834 0.096394531
0.497026771 0.375838161 0.085009567
0.543453515 0.387476385 0.088045582
0.589374065 0.396710962 0.086527452
0.632131815 0.405819297 0.079949118
0.680708647 0.414926916 0.070841491
0.734471977 0.424035251 0.062745422
0.783681035 0.429728061 0.058823999
0.831751764 0.432764143 0.058444295
0.877039850 0.435799807 0.052877590
0.919544578 0.444149196 0.058191255
0.966223717 0.447944373 0.062998407
0.997849405 0.450347811 0.072359592
0.994813025 0.458317399 0.086274996
0.025047196 0.367615402 0.099557199
0.027450999 0.365211576 0.099557199
0.051106773 0.367362350 0.095256194
0.076407149 0.366097599 0.094244197
0.095382728 0.363820374 0.104490757
0.111574993 0.362808526 0.092347011
0.134851605 0.368880600 0.103858478
0.157495305 0.367741883 0.098671809
0.180265903 0.370777875 0.096394710
0.197343618 0.369133592 0.098039001
0.224541545 0.371536791 0.096141875
0.248830050 0.369513065 0.097154006
0.273877621 0.370271951 0.095256351
0.297912985 0.370018601 0.097786032
0.323086590 0.370904207 0.094750419
0.355218589 0.373940587 0.094117999
0.385578603 0.373940587 0.095635802
0.421125919 0.383175135 0.092726439
0.457052827 0.395825565 0.087666042
0.501328230 0.404933333 0.089310795
0.546489298 0.414041728 0.080961332
0.595066428 0.424667925 0.079949334
0.640733659 0.433649778 0.070841312
0.691587806 0.440480679 0.061733104
0.740164518 0.449588865 0.052624915
0.791777313 0.458696872 0.045035087
0.837823927 0.464263082 0.042505145
0.881467283 0.469196945 0.042125113
0.914737582 0.475142419 0.046679065
0.962555110 0.480708361 0.054522596
0.996710837 0.483111799 0.067425773
0.993674815 0.489183813 0.088678189
0.026565386 0.397976190 0.098039001
0.032637380 0.399493963 0.093485199
0.049588967 0.399240941 0.098292187
0.079190195 0.401012182 0.090955026
0.100695543 0.401391715 0.094623551
0.118152924 0.398735374 0.087792933
0.139405444 0.398229182 0.090828814
0.163567692 0.401138663 0.100190006
0.186338082 0.404174477 0.092599995
0.209108487 0.402656853 0.096394710
0.234661669 0.403921694 0.092093870
0.262492239 0.404427648 0.092599809
0.283744633 0.403668731 0.092599809
0.310310006 0.406198412 0.094497003
0.335863173 0.404933572 0.090196230
0.367362171 0.407336980 0.091081999
0.396205187 0.410373360 0.089563817
0.427197725 0.411638349 0.093738243
0.460594773 0.424162179 0.082099847
0.503605366 0.432258040 0.079063974
0.552561700 0.442883939 0.076407522
0.601138473 0.451992333 0.070335008
0.649588645 0.461227179 0.061733305
0.698418498 0.470082164 0.052624904
0.747754693 0.476913273 0.043516912
0.793548405 0.484629959 0.038583197
0.841872275 0.493105322 0.030866938
0.886401057 0.499178082 0.031878550
0.921315432 0.505250156 0.036053184
0.954965293 0.509550929 0.045414202
0.995066166 0.513472199 0.057178974
0.995193005 0.519544184 0.082605809
0.030107854 0.429095507 0.096774004
0.042378183 0.433902532 0.087033816
0.060468100 0.435673535 0.091714434
0.079316981 0.435041130 0.097533420
0.103225537 0.435420573 0.089184031
0.124477915 0.438456893 0.086148359
0.146362886 0.437065214 0.083744682
0.167994812 0.435673535 0.082732558
0.192410082 0.436432630 0.084630430
0.219734490 0.439469010 0.090702429
0.244781554 0.438962966 0.087033845
0.273750484 0.439595520 0.086401165
0.301960617 0.440734059 0.087666012
0.324225068 0.443769664 0.087918982
0.352308542 0.441492945 0.082985431
0.383174926 0.442631304 0.081594244
0.413282514 0.445034713 0.081594244
0.438836098 0.446806103 0.079823017
0.472232580 0.452878118 0.076786615
0.512080729 0.458950132 0.071599998
0.558380604 0.468184531 0.064895429
0.608349264 0.479949266 0.058191013
0.656925976 0.489057600 0.051865995
0.702972472 0.500695586 0.042251531
0.749525547 0.508285582 0.032511164
0.795952260 0.514990151 0.026312876
0.839469075 0.521062076 0.026312876
0.888045847 0.527134836 0.023403000
0.927261114 0.532574534 0.026945274
0.963187575 0.536242902 0.036559399
0.987856030 0.541429102 0.051106982
1.000000000 0.547501147 0.069323011
0.024035089 0.474636018 0.090701967
0.048323851 0.474636018 0.078557983
0.075648516 0.475142002 0.079570018
0.098671809 0.473877162 0.084883176
0.115369566 0.471853435 0.086148396
0.136621952 0.474889040 0.083112016
0.160404652 0.475395054 0.082606018
0.181150973 0.475142002 0.080708273
0.201391250 0.475901097 0.078178145
0.225806534 0.478937507 0.075522013
0.253130883 0.476154149 0.078684144
0.284250230 0.477419317 0.078937039
0.315116674 0.480202645 0.078051656
0.342441112 0.483238906 0.075774945
0.375838250 0.486274511 0.078810558
0.403921753 0.486401021 0.071473829
0.433270335 0.486653984 0.066413820
0.463124931 0.486274600 0.064642586
0.493485004 0.483238965 0.067678951
0.526881456 0.489310980 0.064642571
0.566729486 0.497280270 0.057558235
0.611005425 0.507653296 0.048703138
0.656925976 0.519418478 0.039721958
0.705502808 0.528526068 0.027577169
0.749272525 0.535610080 0.015686026
0.793674946 0.543073714 0.006578069
0.839469075 0.551422954 0.002024069
0.888045847 0.557494998 0.002024062
0.931309581 0.560910940 0.009740852
0.971537054 0.562429070 0.023655977
0.998988032 0.566224039 0.042251624
1.000000000 0.577862024 0.063251019
0.043010369 0.520177066 0.067931980
0.058949783 0.522959769 0.066919990
0.078937553 0.522959769 0.065528214
0.104237996 0.521694899 0.068437636
0.125489905 0.518659234 0.069576278
0.151549309 0.516887844 0.068943694
0.172801688 0.522453785 0.065907955
0.198481709 0.524604440 0.065654986
0.223149553 0.525743127 0.063757248
0.251486361 0.526755214 0.060721114
0.281467617 0.526755273 0.060721114
0.306767702 0.527767360 0.059708729
0.336748660 0.529665112 0.058949631
0.365970790 0.530803740 0.058064308
0.396837622 0.531309664 0.061100565
0.427830368 0.531942070 0.056925990
0.457052410 0.534978092 0.052751631
0.487413138 0.536875546 0.048450433
0.517773747 0.533839345 0.038583238
0.556483090 0.533586383 0.038836267
0.591777205 0.537761152 0.035799883
0.631498873 0.546110094 0.028462762
0.673623979 0.558254361 0.019355128
0.722200811 0.570018888 0.009867176
0.766223550 0.576849759 0.006830987
0.810119987 0.581530452 0.005059986
0.854649067 0.587349713 0.004554005
0.896394491 0.593421698 0.000000001
0.937002063 0.602150500 0.007969820
0.974067152 0.605439544 0.025932927
1.000000000 0.607336998 0.050600793
1.000000000 0.613788724 0.079443723
0.060467735 0.565717697 0.039848536
0.077545859 0.566856086 0.039848536
0.094876535 0.571536958 0.041998759
0.111828141 0.571536958 0.038709536
0.134598270 0.568754077 0.036179539
0.161922678 0.564199507 0.036179539
0.187982053 0.566856205 0.033649862
0.215812415 0.571283937 0.037191827
0.245161012 0.572802126 0.038709890
0.276660472 0.571663499 0.037950784
0.303225726 0.571663499 0.034029275
0.333333433 0.571789980 0.033902761
0.357621431 0.574826360 0.030866377
0.386717081 0.575838447 0.030360311
0.418722540 0.577482700 0.033396691
0.449082702 0.577482700 0.031119537
0.482479095 0.577482700 0.025047537
0.514231265 0.582163274 0.024288537
0.545857012 0.581657231 0.015433302
0.578874111 0.581404209 0.016066011
0.616445184 0.581404269 0.017963266
0.652877986 0.583428502 0.013915008
0.691334486 0.591903925 0.006072264
0.732827246 0.602276742 0.002277095
0.776850045 0.611764491 0.000000000
