Assets/Shaders/EldamarStudio/100 Sci-Fi LUTs Pack/LUTs/cube/Savanna LUT.cube
LUT_3D_SIZE 5
DOMAIN_MIN 0.000000 0.000000 0.000000
DOMAIN_MAX 0.903226 0.903226 0.903226
0.043136999 0.082353003 0.078431003
0.137001693 0.090195999 0.101961002
0.308032393 0.082353003 0.090828583
0.564200103 0.106894128 0.089184128
0.909297705 0.094117999 0.096900977
0.031373002 0.176849693 0.086907007
0.137634695 0.174573004 0.087286703
0.306388110 0.187982276 0.089563996
0.566224098 0.223655984 0.092473127
0.903731704 0.243896410 0.098672003
0.026818415 0.334218383 0.100695997
0.153067395 0.334851384 0.097406581
0.314611226 0.338772804 0.095383003
0.589374065 0.396710962 0.086527452
0.919544578 0.444149196 0.058191255
0.078684248 0.611258328 0.015560005
0.230992824 0.615813017 0.004807289
0.440354228 0.621378839 0.008096290
0.671094239 0.626945138 0.005819002
0.951296568 0.664768934 0.003288990
0.311827719 0.912839949 0.039848421
0.396331310 0.919165015 0.054775260
0.565211594 0.918152928 0.069070190
0.773687243 0.918152928 0.089057483
0.982162774 0.912839949 0.129285187
0.021505591 0.100316294 0.152687699
0.132447705 0.094117999 0.160531700
0.273751110 0.110815704 0.167362407
0.516129255 0.111700997 0.197090700
0.882732451 0.033396654 0.200758815
0.050980002 0.162808403 0.152309000
0.130803406 0.170018986 0.166097417
0.271094084 0.187350109 0.171663284
0.527640760 0.208222687 0.188614696
0.892219782 0.217457533 0.199114680
0.048323587 0.310942262 0.175205827
0.149778396 0.320429981 0.171916425
0.296647668 0.325996101 0.177861989
0.565212250 0.377988547 0.180391997
0.912460148 0.434914798 0.190638945
0.034661543 0.602783084 0.160784140
0.216698393 0.601517975 0.164705828
0.427577525 0.606704593 0.158886984
0.659076452 0.613914967 0.151928857
0.946615875 0.658823550 0.177356228
0.319418281 0.911574781 0.201391488
0.400000155 0.905755579 0.201391324
0.570398629 0.909677565 0.208095878
0.776343942 0.910309911 0.224415049
0.985704899 0.911574781 0.248956174
0.024288401 0.090195999 0.317773819
0.151043400 0.099051289 0.302086979
0.281847388 0.116381995 0.290322810
0.529158413 0.105502866 0.333206534
0.887665987 0.003289417 0.366856396
0.062365714 0.185325697 0.287665993
0.149778411 0.188614696 0.286400974
0.278937519 0.189247280 0.280202717
0.529285073 0.198102415 0.317520291
0.886653662 0.173560709 0.360657692
0.059456423 0.315876365 0.289057791
0.154332832 0.323718965 0.292978942
0.323086798 0.345983356 0.308664978
0.566856384 0.366223693 0.325363666
0.910436451 0.417330801 0.364453226
0.001265006 0.587096572 0.321062386
0.186211377 0.591903806 0.319418281
0.415053517 0.595825255 0.326628685
0.652878225 0.609613836 0.334091961
0.944718421 0.658950090 0.369892359
0.375964552 0.896521151 0.403035939
0.430360705 0.901707768 0.397975743
0.594560146 0.903731585 0.406325012
0.783554614 0.907020986 0.415180296
0.974193633 0.908286035 0.432511002
0.125743255 0.107905999 0.537634254
0.236432686 0.112080708 0.533965707
0.413156092 0.102593422 0.519038558
0.614294529 0.062365752 0.514105260
0.911448300 0.001644704 0.552055418
0.097406581 0.215812981 0.522580266
0.226312399 0.216066122 0.511068702
0.405945927 0.205945566 0.506894410
0.601265252 0.191524416 0.501707852
0.908032715 0.184187099 0.549019516
0.024162009 0.387855649 0.507526815
0.196457699 0.382669210 0.502087533
0.403289080 0.383554518 0.500063539
0.621885002 0.377102911 0.498798519
0.922580719 0.428842306 0.559266269
0.082732245 0.601518095 0.497533113
0.234281808 0.606957674 0.500696123
0.453383774 0.614800811 0.517393887
0.698545277 0.634788156 0.541556299
0.937381506 0.678937435 0.575711250
0.477798581 0.897912562 0.610499799
0.531182528 0.900442362 0.616951048
0.655407786 0.899809778 0.622770667
0.804174900 0.900569201 0.624541342
0.973308086 0.908032894 0.637191594
0.211891145 0.157115638 0.839848459
0.311574847 0.153826639 0.836179495
0.510689437 0.137507796 0.838583410
0.738014102 0.102846459 0.827703893
0.969133615 0.069070190 0.826818526
0.194307387 0.268311381 0.830740035
0.305755854 0.267931521 0.833016872
0.509551227 0.262365550 0.831751883
0.749145925 0.254395902 0.833902478
0.972675502 0.256799579 0.826565266
0.245793849 0.486148030 0.826818585
0.354206026 0.482226610 0.827577412
0.537128210 0.485515594 0.826186001
0.752814651 0.487539172 0.825173855
0.973181427 0.488171756 0.827577114
0.376343876 0.702466607 0.828083456
0.443643630 0.702213645 0.828715563
0.599620342 0.706388354 0.826565444
0.780265808 0.711322069 0.829727709
0.960910797 0.712586939 0.829601407
0.514610708 0.910436451 0.828209519
0.555977106 0.911321700 0.840354204
0.669197023 0.908412158 0.843896210
0.818342924 0.908032835 0.844149232
0.970271885 0.915496767 0.875268579
