Assets/Shaders/EldamarStudio/100 Sci-Fi LUTs Pack/LUTs/cube/Skye LUT.cube
DOMAIN_MIN 0 0 0
DOMAIN_MAX 1 1 1
LUT_3D_SIZE 32
0.031373002 0.031373002 0.031373002
0.034408614 0.034408614 0.034408614
0.041745774 0.037444774 0.039595000
0.057178997 0.040480837 0.044402160
0.080328546 0.043895997 0.048197545
0.095508933 0.049968001 0.057305932
0.110689320 0.058570318 0.061353676
0.127513990 0.062744997 0.064389706
0.145730197 0.064262994 0.067425899
0.163946986 0.070335001 0.070461527
0.179253876 0.070588000 0.076407000
0.198482245 0.074635997 0.080455258
0.219734639 0.081846647 0.083491646
0.241239995 0.090701997 0.086780995
0.265527993 0.096773997 0.092852995
0.292219788 0.105249800 0.101328187
0.322580576 0.114358187 0.108917996
0.355344951 0.123466410 0.115622565
0.385705024 0.132574052 0.124730974
0.418849081 0.138898998 0.133839354
0.452245742 0.148766473 0.139152259
0.485642135 0.160910994 0.145224258
0.519165039 0.172928497 0.156989485
0.555597842 0.182036906 0.160025105
0.592030585 0.193421990 0.169892579
0.628463328 0.205565974 0.182036981
0.664896011 0.217204064 0.194180995
0.701327980 0.226312444 0.206324995
0.740417421 0.243389949 0.223782644
0.776344121 0.259835184 0.243770152
0.812397182 0.275015593 0.265022576
0.854902029 0.290196002 0.286274999
0.034408614 0.040480614 0.031373002
0.031373002 0.046552613 0.034408614
0.045161385 0.047438003 0.039595000
0.060720999 0.050853938 0.043136999
0.080708094 0.055661224 0.046299707
0.098545320 0.059076384 0.063377932
0.113725707 0.062618703 0.062365677
0.125616670 0.069070384 0.062744997
0.139658198 0.071853384 0.063630611
0.157874987 0.073371395 0.064389527
0.179000869 0.079443388 0.076154001
0.198482245 0.083744384 0.080455258
0.218595996 0.089816391 0.084629998
0.238962635 0.096773997 0.090069644
0.271599978 0.102845997 0.098924994
0.295888573 0.111321792 0.100189999
0.322580576 0.120430186 0.108918384
0.352941126 0.128905997 0.118658952
0.385705024 0.135610446 0.127767354
0.416065753 0.150284767 0.128526390
0.449209332 0.159013018 0.138772994
0.484629989 0.169006735 0.146236390
0.522074878 0.179000497 0.154332593
0.555597842 0.188108906 0.166097090
0.594307303 0.197217286 0.173687279
0.634281933 0.208602369 0.186464265
0.674003720 0.220746383 0.200252995
0.710436344 0.232384443 0.212396979
0.749525130 0.244148970 0.227197796
0.785452187 0.261606395 0.241492569
0.816192329 0.280708343 0.259835392
0.845793664 0.302340001 0.283238620
0.039595000 0.053889770 0.035674002
0.043010615 0.059961773 0.040860388
0.050727773 0.059582546 0.048197549
0.067678928 0.059582546 0.050474387
0.084250547 0.063504450 0.050347771
0.098924868 0.066540062 0.061480090
0.112460546 0.071726546 0.068437681
0.129285216 0.074762933 0.067046002
0.141429096 0.080329001 0.067805097
0.158254206 0.083112001 0.069196776
0.179380089 0.086780772 0.074382998
0.200632468 0.092852771 0.082479514
0.221884862 0.100063130 0.086780772
0.241619065 0.107147068 0.092852771
0.269323140 0.113219544 0.100063413
0.299809813 0.117393792 0.106261998
0.324098617 0.126502186 0.110816188
0.350790530 0.135610566 0.119165197
0.381151021 0.143200785 0.122201197
0.416065753 0.155471370 0.131562218
0.450221479 0.164958999 0.135357216
0.482858747 0.172801763 0.145983353
0.518911958 0.180897981 0.153320506
0.556356907 0.192030132 0.163440779
0.594307303 0.203289285 0.177609056
0.632384300 0.213788971 0.188108757
0.672359109 0.225932986 0.202530071
0.708791852 0.238076985 0.216318756
0.739278793 0.252371758 0.226818576
0.785831571 0.266286969 0.245540932
0.820619941 0.284123987 0.261480123
0.847437978 0.305882007 0.284503788
0.048197322 0.069070160 0.040480837
0.053004161 0.075142160 0.049083162
0.060847387 0.077292927 0.052245613
0.076787002 0.072992161 0.061354000
0.090069838 0.073751152 0.059456158
0.098671839 0.077672385 0.065528154
0.115876161 0.083238326 0.065274999
0.127513990 0.087665707 0.070588000
0.145730197 0.089942999 0.072105996
0.161416680 0.095002994 0.075648323
0.179886028 0.098165862 0.078684293
0.202403247 0.103225991 0.083744355
0.223655641 0.109297991 0.088678479
0.245161071 0.117773190 0.094370969
0.269449800 0.122833833 0.099430837
0.297280133 0.129032180 0.108032838
0.325869381 0.136369348 0.113093026
0.352055520 0.144845143 0.122201405
0.380645007 0.153320983 0.121695206
0.413788736 0.163947180 0.130044177
0.448956311 0.172296152 0.139658317
0.486401230 0.180392161 0.145730317
0.517899811 0.186970145 0.154838666
0.557368696 0.196837172 0.166224077
0.595572472 0.208981410 0.178621277
0.632384300 0.219860971 0.192409977
0.668817103 0.232004985 0.203541994
0.705249846 0.244148985 0.216445267
0.736242771 0.258949816 0.230107814
0.771410406 0.276660174 0.245034993
0.817710459 0.290954977 0.268058389
0.848450005 0.308412015 0.290069848
0.060721450 0.085009545 0.044655096
0.064136706 0.090322539 0.056420222
0.068564095 0.093864769 0.057432223
0.079443157 0.093864992 0.058697160
0.099177547 0.088551991 0.067046449
0.099177547 0.094623998 0.073118448
0.118659087 0.100695997 0.068058223
0.135104373 0.104364283 0.066792995
0.146489203 0.107400090 0.072865091
0.164705992 0.107400090 0.078937098
0.180392325 0.110689409 0.082858868
0.200885519 0.114990540 0.087159999
0.224414647 0.121062540 0.092473090
0.245667040 0.127387583 0.095762447
0.269829243 0.130676955 0.098924577
0.296521217 0.138899282 0.108412087
0.324604720 0.148766384 0.116761185
0.352055520 0.159266546 0.119544566
0.385452002 0.165338576 0.128652975
0.415686190 0.174193814 0.135737002
0.448703289 0.181783989 0.143327191
0.483364850 0.189500555 0.151803002
0.522833943 0.201771051 0.158127993
0.562302351 0.208602101 0.173055366
0.598734975 0.218469098 0.185578987
0.634914637 0.229601204 0.197343528
0.668817103 0.239215538 0.209614009
0.705249846 0.251359522 0.215685993
0.738646328 0.265780926 0.231625631
0.773434341 0.283744156 0.249462485
0.809740603 0.303478509 0.269196570
0.843137026 0.315622538 0.296521008
0.075901061 0.106261931 0.056799866
0.081973836 0.106261931 0.065907478
0.083238862 0.107273929 0.064769059
0.088045709 0.107779995 0.062998161
0.099177547 0.106767997 0.067046449
0.108285934 0.106767997 0.070082061
0.123465933 0.112839997 0.073624387
0.139405474 0.113978289 0.074636228
0.152561873 0.114231199 0.078937188
0.170777977 0.119544879 0.085009873
0.188994005 0.125363857 0.093990996
0.206704572 0.126881927 0.096014999
0.228209928 0.130170926 0.099303991
0.251739025 0.136495963 0.104870059
0.272991389 0.145604342 0.110942058
0.299556851 0.156103924 0.116508603
0.329917639 0.164705873 0.125110671
0.360404879 0.171157584 0.130676582
0.385452002 0.174446940 0.128652975
0.413282365 0.183301583 0.140544012
0.448703289 0.192409799 0.147881001
0.485136062 0.201012135 0.155471191
0.519797564 0.210879430 0.164199993
0.559265971 0.226059839 0.176344007
0.591903567 0.232890874 0.186717346
0.628842354 0.242757857 0.196331665
0.668817103 0.254395932 0.206957877
0.705249846 0.266539931 0.221757993
0.736369610 0.278684586 0.233143657
0.769007027 0.293105602 0.248071179
0.804680586 0.311068594 0.264642894
0.843137026 0.330802917 0.284377009
0.080961324 0.122454315 0.068944000
0.084503770 0.122454315 0.070461936
0.094876997 0.124604546 0.077419326
0.098925002 0.124983996 0.076660484
0.107147314 0.124983996 0.078937769
0.118405931 0.124983996 0.077672385
0.124983996 0.124983996 0.080708638
0.143200412 0.131055996 0.085389316
0.157875091 0.132194415 0.088551641
0.174320325 0.136495978 0.091081969
0.192536324 0.142568007 0.095003128
0.212776572 0.146616265 0.104111254
0.233776271 0.150537670 0.106767669
0.257811666 0.158001050 0.111448064
0.279064029 0.164832726 0.117520638
0.307526618 0.171537310 0.123592637
0.336495697 0.181910127 0.128146797
0.367615551 0.189626575 0.135863140
0.393801361 0.196457982 0.142315298
0.425932676 0.202529967 0.150664017
0.460847527 0.209740311 0.157115743
0.498292446 0.219228253 0.165591449
0.531815350 0.229728311 0.177482799
0.568880558 0.237697914 0.182416007
0.603794932 0.250600994 0.190006003
0.637191594 0.259961993 0.198861346
0.676407397 0.271600068 0.208475679
0.712840140 0.281720310 0.221631527
0.749019265 0.296394646 0.236685336
0.781151235 0.310310185 0.252372086
0.814547896 0.326375633 0.271853566
0.850727320 0.345983326 0.295003325
0.088930994 0.139278993 0.079443701
0.095256373 0.134345278 0.077799000
0.098165989 0.141429633 0.087033704
0.107779995 0.140670419 0.086780541
0.114990540 0.140290871 0.088678285
0.128399700 0.141555697 0.089437060
0.135483697 0.141555697 0.091461316
0.148133695 0.144844696 0.096141987
0.164832488 0.151675791 0.099936895
0.179127499 0.156483188 0.099051289
0.198861703 0.160784394 0.105249830
0.217457250 0.166476965 0.109044962
0.238709629 0.169513062 0.114737704
0.262745291 0.177355692 0.117520414
0.286780655 0.183428109 0.123592824
0.311954677 0.191144988 0.129664987
0.340796888 0.198735178 0.135736987
0.371663541 0.207842976 0.140164271
0.401012033 0.216951385 0.151296943
0.435547084 0.219987422 0.155724376
0.467805207 0.229348406 0.167615443
0.506262004 0.237444401 0.171663702
0.540290833 0.249588966 0.184566990
0.575205803 0.258697003 0.189120814
0.611006021 0.266034395 0.197722703
0.644402385 0.278178364 0.206577674
0.680076063 0.290322393 0.215433121
0.715370119 0.300569147 0.225300401
0.753446937 0.313345790 0.243390203
0.786463857 0.330170870 0.261986107
0.818975449 0.345351279 0.281088054
0.851613045 0.362808406 0.306894273
0.104111187 0.158254102 0.090828992
0.110183381 0.149145707 0.087033711
0.112081096 0.154332548 0.093864679
0.114611097 0.160405010 0.100442939
0.121442094 0.155092001 0.092852548
0.136242926 0.157748163 0.098545000
0.143832996 0.159772098 0.101328224
0.155724078 0.160784200 0.105249994
0.172422096 0.167615101 0.110562906
0.184566885 0.176723480 0.107526526
0.206198871 0.180012867 0.115369961
0.226186082 0.184314087 0.120430157
0.244781628 0.190006554 0.123087004
0.266287059 0.193295196 0.123593003
0.293105483 0.199367195 0.129664987
0.318785608 0.207083896 0.134977892
0.345351309 0.216192290 0.141808987
0.373308063 0.225300506 0.148513570
0.406578004 0.234408855 0.157621965
0.441998839 0.237444997 0.159898996
0.474636376 0.243516997 0.166350737
0.507021070 0.255661190 0.178494990
0.543453097 0.267805159 0.184946492
0.577482700 0.279949188 0.192916095
0.611638546 0.288298458 0.201264992
0.645920575 0.297154069 0.213408977
0.679823041 0.308792025 0.226059064
0.713472426 0.320683002 0.232890785
0.755217969 0.332827151 0.253763676
0.789373398 0.346995384 0.271980077
0.818216205 0.365085483 0.294750452
0.848577023 0.380265921 0.316002101
0.128399968 0.179506496 0.109045006
0.125363573 0.170398101 0.102973014
0.122833781 0.174193263 0.103478715
0.123719499 0.179633006 0.104490682
0.130550489 0.179380015 0.101960942
0.142694503 0.179380015 0.104996555
0.149905011 0.184566498 0.105629005
0.160910711 0.185452223 0.107400231
0.175458506 0.185831875 0.110562906
0.187602520 0.194939494 0.113598533
0.211385265 0.198228881 0.119291753
0.233523250 0.201265275 0.123466223
0.253510475 0.205566496 0.126502156
0.272359073 0.211511984 0.129665002
0.296647817 0.217583969 0.135736987
0.323466271 0.223655969 0.139405191
0.352182388 0.231372699 0.145603731
0.382416457 0.240480900 0.154585585
0.412776530 0.249588519 0.163693979
0.446047097 0.258696854 0.170019001
0.477672487 0.265527993 0.173940733
0.510056734 0.273877293 0.178494990
0.546489477 0.286021948 0.184946492
0.582922280 0.298165977 0.200126916
0.614674509 0.308032662 0.205819190
0.645287931 0.318405837 0.213408977
0.676786661 0.330044419 0.226059064
0.713219404 0.339152038 0.241239443
0.762808383 0.351043642 0.266666323
0.801517844 0.363187909 0.283111691
0.830107212 0.377355963 0.298039079
0.854649007 0.395445496 0.325110495
0.129411995 0.197849751 0.124351867
0.132194608 0.200379342 0.124098860
0.137760758 0.195572510 0.113725320
0.140291154 0.199114591 0.112966157
0.145098314 0.200758874 0.113219455
0.154711992 0.200758874 0.111195065
0.169386312 0.203289196 0.116761640
0.179885864 0.207337022 0.120809734
0.192283094 0.207589984 0.124351867
0.202276886 0.210246384 0.125237256
0.223149732 0.210625857 0.125363737
0.243390501 0.217710257 0.131435990
0.263757497 0.224794641 0.136495873
0.283997715 0.232384831 0.141303033
0.305628926 0.235799998 0.144718871
0.334724724 0.246679604 0.155597866
0.364073396 0.253763735 0.160151541
0.393168956 0.261480272 0.165844142
0.418975025 0.270587891 0.172675848
0.452119082 0.276913583 0.179000884
0.481720716 0.287792742 0.183175132
0.513093114 0.295888752 0.187223122
0.549146354 0.304111481 0.193421632
0.577229798 0.313472867 0.203036040
0.613662541 0.325616866 0.211385116
0.648070931 0.336748719 0.220619649
0.682479084 0.348387063 0.236305997
0.718911827 0.357495308 0.258697182
0.752687752 0.366603583 0.265907735
0.795698822 0.380265594 0.284377038
0.826818466 0.394433558 0.300189823
0.849083006 0.410625875 0.325489998
0.137507990 0.220113993 0.131435737
0.138519868 0.223150119 0.137507990
0.143832773 0.225932762 0.134977698
0.154206008 0.222897142 0.126628399
0.160657823 0.224794507 0.128526241
0.171410576 0.228083506 0.130423561
0.179506570 0.228589565 0.130929634
0.193042248 0.229981244 0.132068276
0.205945343 0.232637405 0.137001917
0.217583746 0.233902231 0.139532253
0.230234131 0.235926494 0.139532253
0.249462247 0.237950742 0.139532238
0.271094352 0.247058854 0.145604253
0.294117749 0.256167024 0.151676252
0.315369815 0.262745082 0.156483412
0.345856607 0.266919851 0.158633992
0.373181403 0.276028246 0.169260189
0.401897550 0.282732636 0.172675505
0.427577287 0.291840285 0.175964952
0.458191097 0.298165441 0.184060737
0.491587758 0.306135476 0.190132737
0.519165158 0.316128969 0.194307268
0.552435219 0.322453976 0.200632498
0.583554626 0.333460152 0.211638168
0.613662302 0.340797246 0.220493510
0.651486695 0.354332894 0.232131481
0.687539518 0.367109507 0.248450249
0.720935822 0.377735674 0.269702613
0.758760273 0.388867795 0.284123957
0.786843419 0.399746954 0.295509160
0.823276281 0.414673835 0.310689569
0.849082708 0.429854244 0.331562251
0.154206276 0.248956278 0.136748642
0.155344635 0.251992673 0.143580034
0.159645632 0.255028486 0.146362871
0.164832294 0.255534440 0.144465163
0.176596835 0.252878278 0.142188549
0.187982515 0.257432282 0.147501647
0.195066646 0.258444279 0.149652004
0.205566287 0.259582639 0.149145931
0.218469188 0.260341734 0.148386642
0.233649477 0.263377428 0.154459313
0.245287865 0.266413480 0.153574005
0.259329647 0.267172903 0.152435347
0.279822916 0.272485971 0.154712349
0.306641310 0.281593680 0.160784408
0.327893674 0.290702045 0.166856647
0.356483072 0.297280461 0.170398638
0.385325402 0.302972972 0.171537191
0.409614146 0.309045106 0.180012986
0.436432660 0.317646950 0.181025013
0.467678726 0.325110286 0.188235298
0.499936759 0.329664379 0.195445642
0.530297279 0.339784890 0.204553768
0.558001161 0.346236378 0.211258978
0.593421578 0.357368797 0.223402992
0.623402536 0.366097629 0.234408915
0.653383970 0.374067277 0.244275972
0.692346990 0.388235569 0.262492120
0.723971963 0.399746984 0.280708253
0.760025442 0.413029611 0.298545092
0.794054568 0.426312238 0.316002458
0.819228232 0.439341873 0.332068264
0.852118611 0.454522282 0.347501636
0.177735955 0.284883082 0.146109998
0.180518612 0.287666410 0.148893356
0.185705051 0.290449291 0.152435258
0.191271201 0.291208178 0.153953001
0.194560513 0.289058030 0.154079512
0.203668892 0.289058030 0.157115906
0.210500002 0.289310992 0.160404742
0.220999703 0.290449351 0.161290005
0.236432925 0.293232143 0.162302002
0.251612514 0.296268523 0.168374002
0.266792893 0.299304128 0.166476905
0.281973273 0.298798293 0.163693801
0.300063252 0.299810350 0.164073050
0.324352026 0.308918059 0.170145050
0.345604390 0.318026423 0.176217824
0.371410757 0.326881796 0.182289988
0.397217035 0.335736841 0.185325995
0.422011167 0.344212174 0.186844021
0.446300000 0.350284964 0.192916051
0.478431404 0.359139681 0.199240997
0.511827707 0.363314062 0.205566034
0.542188287 0.366856247 0.213915125
0.566856503 0.378748000 0.228969008
0.606071949 0.387729138 0.241113067
0.636938274 0.397090346 0.253257573
0.664515972 0.406451672 0.264263332
0.693105996 0.415812999 0.274889082
0.729537964 0.424920619 0.293105841
0.763314426 0.438835859 0.313219815
0.796205103 0.454016238 0.334219128
0.828842580 0.468690604 0.355850995
0.856167078 0.483871013 0.374067008
0.192915559 0.315243810 0.158253998
0.192915559 0.315243810 0.158253998
0.197849542 0.315876395 0.165338352
0.206451833 0.316508800 0.168121234
0.215559855 0.316635400 0.166096985
0.218848497 0.322454393 0.166223511
0.227956891 0.324984044 0.171790212
0.236432686 0.324098676 0.170651406
0.249082997 0.323086828 0.167361990
0.266792923 0.323592901 0.168374002
0.281973273 0.326628506 0.174446732
0.297153652 0.329664648 0.174573407
0.313472390 0.331435740 0.176217824
0.333459616 0.336242437 0.182289824
0.357748389 0.345350802 0.188361824
0.381403983 0.352055401 0.194433987
0.406324953 0.358759969 0.197469994
0.431878537 0.365464538 0.199367568
0.461480379 0.371537328 0.208096430
0.488551766 0.380392045 0.216951057
0.520936131 0.389500141 0.225426719
0.551296651 0.395698816 0.232890397
0.575964868 0.403035969 0.241113007
0.609361351 0.409107983 0.253257781
0.644022703 0.420366973 0.265401840
0.674762726 0.431878775 0.277545959
0.704997063 0.443390399 0.290069401
0.738646388 0.455281377 0.308285445
0.772422194 0.464389652 0.321189225
0.802276671 0.478304982 0.338772923
0.834408402 0.491714180 0.362049133
0.871347427 0.502086997 0.392282963
0.205692604 0.345603973 0.170398608
0.205692604 0.345603973 0.170398608
0.216445372 0.345603973 0.179000616
0.222011626 0.346869141 0.183301628
0.231119528 0.347628236 0.180265337
0.242251664 0.347627997 0.178241596
0.247944102 0.351170272 0.180897832
0.258696795 0.350916892 0.185325906
0.270082086 0.350917101 0.183807492
0.286653787 0.355850786 0.185451791
0.297153652 0.356356710 0.186463922
0.316382051 0.357368588 0.188488185
0.332321405 0.361163765 0.189626828
0.349272609 0.365717590 0.194181025
0.369259775 0.372675180 0.198102802
0.391144782 0.376976579 0.201770991
0.416950971 0.383048564 0.209361181
0.442757547 0.390385568 0.212650210
0.471347153 0.399999917 0.218216166
0.496521354 0.406451434 0.224921256
0.525743425 0.411764532 0.234028861
0.556609929 0.420872778 0.243137121
0.582542956 0.429727763 0.250980288
0.613662064 0.435799778 0.265401781
0.647059023 0.446426362 0.277545989
0.679063737 0.455787778 0.291081637
0.709424317 0.465907782 0.304237783
0.740923405 0.478051782 0.318658769
0.767109573 0.489942819 0.331561863
0.804047883 0.500822425 0.349019378
0.835673392 0.515370190 0.371410161
0.872106194 0.527513802 0.403288782
0.222391188 0.379000366 0.184060797
0.226944983 0.380518556 0.182542995
0.230107576 0.379000366 0.188108996
0.241493121 0.377735525 0.196458161
0.246299833 0.381024837 0.194307387
0.261479914 0.382542431 0.192410126
0.269070387 0.383048505 0.194433868
0.276913166 0.384313673 0.197469905
0.288298279 0.382036358 0.198988095
0.301960647 0.388867676 0.200505719
0.317394048 0.389247179 0.203668192
0.330044240 0.390765369 0.203668192
0.349019617 0.391903728 0.203668192
0.364452988 0.397090167 0.206325024
0.382668942 0.400632173 0.209361404
0.404806972 0.404300988 0.212397188
0.426059365 0.407337368 0.215433180
0.452751309 0.413409382 0.223908976
0.479190350 0.423782408 0.227830246
0.505249918 0.433396399 0.236685514
0.533333242 0.442124933 0.246173635
0.563694060 0.445161343 0.256293386
0.591398001 0.455534369 0.265781194
0.618975401 0.461606383 0.276786894
0.651612878 0.469196558 0.291208178
0.682226658 0.481340975 0.301960826
0.712460339 0.488678128 0.316888124
0.742821038 0.500822365 0.330043972
0.770904422 0.511448205 0.346742183
0.797975898 0.525110424 0.361163348
0.835673571 0.538140535 0.383301377
0.869070172 0.553320408 0.412397176
0.243643552 0.414168119 0.197343156
0.252751172 0.417204380 0.197469935
0.255407542 0.416571766 0.198355570
0.257305324 0.414800674 0.204427570
0.264136970 0.412144512 0.206704959
0.279063612 0.420493186 0.206451997
0.286654055 0.422011137 0.208981678
0.295003414 0.422011137 0.210752711
0.306008637 0.422643721 0.214801043
0.315117031 0.422643721 0.211764649
0.333965838 0.422643721 0.216192141
0.349146128 0.424035400 0.217583567
0.364326179 0.427704066 0.218848556
0.379253536 0.430486709 0.218595594
0.396710515 0.430486709 0.220872983
0.417836577 0.433522940 0.226438746
0.440607160 0.435926735 0.228842169
0.461859554 0.438962936 0.232511118
0.486148387 0.445034951 0.238583148
0.513219774 0.456040561 0.249588564
0.542441547 0.466287136 0.261733025
0.572169244 0.477292687 0.273244977
0.602403522 0.480582058 0.285262495
0.627198219 0.487160146 0.291840553
0.657052696 0.491967142 0.303478837
0.688298643 0.500822127 0.317141056
0.716129124 0.512966156 0.327767551
0.746489823 0.525110841 0.343073666
0.776217520 0.533965707 0.362934351
0.804806709 0.546615720 0.381277323
0.832004786 0.561163545 0.397216767
0.865401983 0.576343954 0.421505570
0.264896005 0.444528997 0.203415975
0.274003625 0.447564602 0.215559959
0.276659995 0.448450059 0.213536009
0.277925164 0.449462205 0.214800850
0.282353044 0.451613009 0.221884608
0.294497013 0.451613009 0.218849003
0.301834017 0.452371985 0.221125722
0.311195493 0.452371985 0.220872760
0.324604958 0.453131080 0.221379131
0.342441499 0.456040978 0.229981467
0.354458988 0.456040978 0.229854956
0.367362529 0.456040978 0.228336707
0.384060949 0.458570987 0.228968993
0.406578004 0.463883966 0.233776033
0.418721974 0.463883966 0.230740428
0.433775783 0.468690962 0.242631182
0.452751219 0.471473992 0.249208987
0.474003583 0.472359449 0.250727177
0.495256037 0.475394994 0.256799966
0.522327483 0.484250367 0.265654624
0.551549554 0.489816725 0.276913464
0.580898106 0.496647984 0.288045883
0.608475506 0.507906556 0.297406524
0.635799885 0.517014921 0.306514919
0.662871301 0.519039035 0.315370291
0.692093313 0.525110960 0.327767283
0.722201169 0.537254989 0.342947215
0.752561867 0.549399018 0.361163974
0.780265808 0.556230068 0.379126936
0.807843089 0.567868173 0.397596419
0.834282160 0.582163036 0.414674550
0.859329998 0.594560027 0.430613995
0.297280371 0.497153759 0.237318024
0.298039347 0.497406721 0.238330022
0.304996729 0.498292118 0.244022802
0.310056895 0.495762110 0.242378384
0.316508770 0.494244188 0.246173277
0.323845744 0.496647358 0.247944668
0.333460063 0.496647358 0.249968410
0.341429353 0.496647358 0.249715447
0.351676106 0.496647358 0.248197630
0.363820374 0.497659504 0.253257483
0.379000694 0.500569403 0.253637016
0.395192713 0.500569403 0.257685006
0.411132306 0.500569403 0.258064389
0.431372732 0.503099442 0.260847390
0.446047068 0.505629778 0.265401453
0.462998062 0.505629778 0.267172843
0.480075747 0.507906735 0.276280731
0.500062943 0.508539140 0.279443324
0.521315396 0.511574745 0.283365279
0.550917089 0.517393708 0.289437383
0.568753719 0.524604380 0.298544973
0.593801260 0.530550182 0.308791786
0.622896850 0.540670395 0.317899883
0.650221229 0.547121942 0.327008277
0.677545607 0.553953052 0.340670645
0.706261635 0.559139669 0.353574008
0.735610366 0.568880439 0.368248075
0.761416495 0.576470375 0.381910264
0.791777313 0.588615060 0.400126338
0.819228113 0.600252867 0.418342769
0.847438157 0.613662004 0.439215958
0.875522017 0.623908758 0.461986393
0.321188986 0.532827497 0.266160458
0.326881707 0.530929744 0.266160458
0.331182718 0.530929744 0.268311232
0.332194716 0.537254930 0.270082474
0.337760985 0.534851491 0.269323379
0.343832999 0.530297279 0.267805159
0.354332566 0.532700479 0.268943667
0.366729945 0.534345210 0.270334989
0.376343846 0.535357118 0.271347433
0.385452241 0.536495447 0.277798980
0.400379598 0.535610318 0.276027739
0.415686458 0.538519740 0.280075729
0.432764143 0.539658368 0.285009384
0.450221747 0.540417492 0.286274493
0.467046410 0.541809142 0.292346478
0.486527741 0.544339001 0.296014786
0.504743695 0.544339001 0.300569355
0.524224877 0.543706596 0.305376470
0.546742499 0.544212520 0.307147712
0.563061476 0.550031424 0.309171706
0.591524482 0.556103468 0.319038719
0.607716501 0.562175453 0.328146607
0.636053026 0.570271730 0.337381452
0.661606610 0.576343715 0.348260641
0.687033296 0.580518484 0.361923009
