Assets/Shaders/EldamarStudio/100 Sci-Fi LUTs Pack/LUTs/cube/Skye LUT.cube
LUT_3D_SIZE 5
DOMAIN_MIN 0.000000 0.000000 0.000000
DOMAIN_MAX 0.903226 0.903226 0.903226
0.031373002 0.031373002 0.031373002
0.127513990 0.062744997 0.064389706
0.265527993 0.096773997 0.092852995
0.485642135 0.160910994 0.145224258
0.740417421 0.243389949 0.223782644
0.088930994 0.139278993 0.079443701
0.148133695 0.144844696 0.096141987
0.286780655 0.183428109 0.123592824
0.506262004 0.237444401 0.171663702
0.753446937 0.313345790 0.243390203
0.192915559 0.315243810 0.158253998
0.236432686 0.324098676 0.170651406
0.357748389 0.345350802 0.188361824
0.551296651 0.395698816 0.232890397
0.772422194 0.464389652 0.321189225
0.342441112 0.561163962 0.288424999
0.383933842 0.565717876 0.288551241
0.484629989 0.576850295 0.318659216
0.623909295 0.590512216 0.348387122
0.801138639 0.641492784 0.442504793
0.574446559 0.801644623 0.536622584
0.599620342 0.806957603 0.534345448
0.660594642 0.813535750 0.548893034
0.759898782 0.823023438 0.576597095
0.881593704 0.840986848 0.622896552
0.043136999 0.053257290 0.095129706
0.121315695 0.069955997 0.104616992
0.255028397 0.118026704 0.139278993
0.476786852 0.177862406 0.197469994
0.730550170 0.260341823 0.271853358
0.104616992 0.139911413 0.124857992
0.158254400 0.149398699 0.138646409
0.282226503 0.191271693 0.165464982
0.492852509 0.241998971 0.205060124
0.737128377 0.323466092 0.288172096
0.193548411 0.308664978 0.189626575
0.239974827 0.317520678 0.192536294
0.357748389 0.338772774 0.219734401
0.539911568 0.393042237 0.261226863
0.761923075 0.467046201 0.351043493
0.351423144 0.557621539 0.320556253
0.390512407 0.561163962 0.323845834
0.481973380 0.566350460 0.344085842
0.620240092 0.588235140 0.375458688
0.793548346 0.642884195 0.460847646
0.571030617 0.801517844 0.537760615
0.593295455 0.806072056 0.539658666
0.655281603 0.810246348 0.560657978
0.758633614 0.821379066 0.588361502
0.881593764 0.841113567 0.635294139
0.073244996 0.069955580 0.188361824
0.135357410 0.088298827 0.184440404
0.253131211 0.127514407 0.207337409
0.471600443 0.176217690 0.271726727
0.713472307 0.271473527 0.359139562
0.124225408 0.163187698 0.197469994
0.168374285 0.166097417 0.200759411
0.280202270 0.193548411 0.235420406
0.488930970 0.242251694 0.286148131
0.730170667 0.334218800 0.378115028
0.207969829 0.316508830 0.268817395
0.255407691 0.328652650 0.282859087
0.365591377 0.349905193 0.302846372
0.539279103 0.396963805 0.339152098
0.752055824 0.472232789 0.424541384
0.360025525 0.551296830 0.387602955
0.398987800 0.557874799 0.393801391
0.484250546 0.565085292 0.409487784
0.613788724 0.586970508 0.440860242
0.798228920 0.646805823 0.514737427
0.559266150 0.795192778 0.579632699
0.582416117 0.801391304 0.581909895
0.649462342 0.810246348 0.591271460
0.756103635 0.821379066 0.623782337
0.879570067 0.841746032 0.669955552
0.103984997 0.102086999 0.332701117
0.176596984 0.116381839 0.334725112
0.292093545 0.143200263 0.338646382
0.474889249 0.183428124 0.387603134
0.722959936 0.281973809 0.477166265
0.147754580 0.186717540 0.344086260
0.200379267 0.197849274 0.344971567
0.317899972 0.212523833 0.359519124
0.497153819 0.253131002 0.402530134
0.730170667 0.349019527 0.487286389
0.225174278 0.344085783 0.383934408
0.278178692 0.352561563 0.401644409
0.396331787 0.376090795 0.423529536
0.557621956 0.416951537 0.455281675
0.751802325 0.487539679 0.534724951
0.369892120 0.564073145 0.493611366
0.412650257 0.574446559 0.500696123
0.500948668 0.581783414 0.514737248
0.626818419 0.600379348 0.537634254
0.799493909 0.646426260 0.595825374
0.584187031 0.797216654 0.668437600
0.600759089 0.804301262 0.670082092
0.641239464 0.811638176 0.667172611
0.744212747 0.821125746 0.680708468
0.876027882 0.849588573 0.728778958
0.145224825 0.145224825 0.616318762
0.241745666 0.149145827 0.611005723
0.401644647 0.170651406 0.613030016
0.583554745 0.216571972 0.619607568
0.771789789 0.306261778 0.642378449
0.166982710 0.233902678 0.612397432
0.254522532 0.235800102 0.609487534
0.411511630 0.256040663 0.614295006
0.590132594 0.291840822 0.623782277
0.775458455 0.370018721 0.642378449
0.220240578 0.402909815 0.617457390
0.290702105 0.409740508 0.623782337
0.438203782 0.417963237 0.629981041
0.610626340 0.444781780 0.642757773
0.793421984 0.502339959 0.675142467
0.370904237 0.614168048 0.665527880
0.406325221 0.613915086 0.664389312
0.507147133 0.617457211 0.680961490
0.648324132 0.628463089 0.693231761
0.815939069 0.673624218 0.729285002
0.588741601 0.820113599 0.741682589
0.611511767 0.814927399 0.765464902
0.665148318 0.827956676 0.775837719
0.767488718 0.843390346 0.798861325
0.889436781 0.867299378 0.838709414
