Assets/Shaders/EldamarStudio/100 Sci-Fi LUTs Pack/LUTs/cube/Skye LUT.cube
LUT_3D_SIZE 8
DOMAIN_MIN 0.000000 0.000000 0.000000
DOMAIN_MAX 0.903226 0.903226 0.903226
0.031373002 0.031373002 0.031373002
0.080328546 0.043895997 0.048197545
0.145730197 0.064262994 0.067425899
0.219734639 0.081846647 0.083491646
0.322580576 0.114358187 0.108917996
0.452245742 0.148766473 0.139152259
0.592030585 0.193421990 0.169892579
0.740417421 0.243389949 0.223782644
0.060721450 0.085009545 0.044655096
0.099177547 0.088551991 0.067046449
0.146489203 0.107400090 0.072865091
0.224414647 0.121062540 0.092473090
0.324604720 0.148766384 0.116761185
0.448703289 0.181783989 0.143327191
0.598734975 0.218469098 0.185578987
0.738646328 0.265780926 0.231625631
0.104111187 0.158254102 0.090828992
0.121442094 0.155092001 0.092852548
0.172422096 0.167615101 0.110562906
0.244781628 0.190006554 0.123087004
0.345351309 0.216192290 0.141808987
0.474636376 0.243516997 0.166350737
0.611638546 0.288298458 0.201264992
0.755217969 0.332827151 0.253763676
0.154206276 0.248956278 0.136748642
0.176596835 0.252878278 0.142188549
0.218469188 0.260341734 0.148386642
0.279822916 0.272485971 0.154712349
0.385325402 0.302972972 0.171537191
0.499936759 0.329664379 0.195445642
0.623402536 0.366097629 0.234408915
0.760025442 0.413029611 0.298545092
0.222391188 0.379000366 0.184060797
0.246299833 0.381024837 0.194307387
0.288298279 0.382036358 0.198988095
0.349019617 0.391903728 0.203668192
0.426059365 0.407337368 0.215433180
0.533333242 0.442124933 0.246173635
0.651612878 0.469196558 0.291208178
0.770904422 0.511448205 0.346742183
0.321188986 0.532827497 0.266160458
0.337760985 0.534851491 0.269323379
0.376343846 0.535357118 0.271347433
0.432764143 0.539658368 0.285009384
0.504743695 0.544339001 0.300569355
0.591524482 0.556103468 0.319038719
0.687033296 0.580518484 0.361923009
0.797090411 0.615939438 0.423276424
0.438456565 0.665907562 0.375711560
0.446932554 0.669829547 0.377862275
0.475142241 0.668943703 0.383428246
0.524731219 0.674383581 0.397596538
0.585831642 0.676027834 0.408349544
0.652498484 0.679949284 0.423276544
0.729917526 0.693990946 0.450853556
0.818975091 0.716129065 0.498165816
0.574446559 0.801644623 0.536622584
0.585452437 0.806324720 0.523339748
0.607716501 0.807716489 0.537128508
0.641492605 0.813156188 0.542567611
0.686653614 0.814800620 0.549652100
0.745224416 0.823276520 0.573560894
0.808728755 0.833775759 0.595572293
0.881593704 0.840986848 0.622896552
0.038836453 0.043516546 0.059582997
0.076027997 0.050980002 0.068184994
0.138646185 0.072485551 0.085389093
0.207590088 0.101454645 0.112080999
0.305755824 0.129664540 0.130929992
0.443769634 0.162934795 0.162681550
0.585326016 0.198102579 0.194686547
0.731941760 0.247691512 0.242251799
0.067425996 0.092093542 0.083112001
0.096015446 0.099936545 0.080328546
0.142188549 0.108918086 0.101075090
0.217330739 0.128526181 0.110815540
0.314484537 0.151549742 0.138773009
0.441619307 0.187982276 0.167235747
0.582669318 0.225933030 0.196584284
0.730803251 0.263883650 0.246046990
0.106135450 0.153194442 0.105376549
0.134851098 0.161037549 0.119924091
0.164073542 0.169639558 0.125364006
0.240480989 0.184820086 0.130803183
0.339026093 0.216951191 0.159013197
0.461606741 0.249462441 0.181277543
0.598987699 0.283111840 0.215433091
0.746362925 0.332320988 0.275015831
0.160531297 0.245414525 0.142820731
0.182163447 0.248576730 0.157495186
0.212144181 0.253257602 0.153067634
0.275522083 0.266539931 0.169133186
0.374193490 0.300316423 0.185958639
0.490069479 0.331309289 0.213409543
0.617077649 0.368754178 0.249715179
0.749525309 0.410246640 0.298924446
0.227198184 0.374446392 0.197722733
0.243643180 0.373561084 0.199367553
0.287413061 0.382163197 0.203542188
0.347754478 0.391271561 0.214294732
0.428968906 0.405313015 0.226691738
0.531435966 0.434661388 0.256799400
0.648197174 0.468690842 0.298671812
0.768374383 0.509550750 0.356736153
0.320303261 0.520177305 0.271220922
0.337887526 0.526628733 0.277419716
0.375079185 0.527134538 0.283365071
0.429981291 0.534977674 0.291967154
0.505250037 0.538899302 0.309677541
0.587476492 0.552182436 0.333459496
0.685009539 0.577229500 0.370145470
0.790765047 0.615180135 0.424541175
0.420746088 0.661985993 0.373814106
0.440986365 0.668184817 0.384060532
0.470967799 0.667805314 0.386085004
0.517140925 0.669449925 0.397976011
0.581910253 0.670841098 0.414421082
0.649209440 0.679949343 0.431119561
0.732827127 0.689816535 0.460341275
0.816318870 0.713851810 0.500822544
0.566982985 0.805692732 0.530676603
0.582162738 0.805692732 0.527260840
0.599873066 0.805439293 0.535483718
0.637571216 0.808095992 0.543959618
0.684250355 0.814674377 0.555470824
0.741176248 0.819860935 0.572675288
0.808728755 0.831499040 0.598229051
0.879696608 0.840986788 0.633776009
0.046173189 0.051739097 0.104997002
0.072865091 0.059582997 0.104237907
0.139532104 0.076787092 0.116761193
0.211891636 0.100695550 0.138646185
0.311701179 0.132447988 0.169259995
0.432511210 0.166476741 0.198987991
0.579506457 0.205945477 0.227071464
0.728019834 0.261100739 0.280708730
0.074003644 0.095635995 0.097912900
0.098292440 0.097912990 0.107273996
0.148892999 0.112839989 0.132068440
0.218975544 0.135989636 0.145730183
0.308539093 0.164199546 0.169639543
0.433776259 0.195951909 0.201011732
0.580645204 0.232257828 0.233775824
0.720176816 0.282226741 0.280708551
0.115243196 0.155092001 0.133965999
0.140291110 0.168121547 0.139405191
0.181024984 0.167615101 0.160658091
0.238077089 0.190386102 0.165717736
0.339152396 0.220872998 0.192030087
0.460468084 0.251106739 0.212144166
0.595951557 0.292093575 0.250727177
0.736622453 0.339911073 0.305376172
0.167235732 0.245794073 0.176976278
0.180518538 0.251739651 0.182922542
0.223150179 0.258823633 0.186464086
0.285388917 0.271347612 0.195699066
0.374320269 0.300316513 0.216192201
0.486148268 0.333206832 0.240860432
0.611891031 0.371157557 0.281846881
0.745098174 0.415686458 0.333712727
0.230993092 0.371157378 0.227071285
0.249462545 0.374320149 0.228842288
0.290575385 0.380645275 0.234155372
0.347374916 0.388867736 0.245161086
0.423782289 0.401771277 0.253004283
0.527134538 0.435547382 0.287033647
0.646299779 0.469196588 0.328905374
0.768500745 0.511828005 0.381024629
0.331941545 0.522959769 0.301581085
0.343453735 0.525237024 0.303099275
0.379127175 0.524731457 0.308412462
0.432763934 0.530297458 0.320303500
0.498924434 0.537760854 0.331182569
0.577988565 0.546236694 0.349146098
0.677419543 0.576090932 0.389753371
0.790512562 0.616571665 0.453763604
0.434534997 0.656293571 0.396078259
0.444022655 0.661985993 0.399620742
0.470588267 0.663504183 0.406325281
0.516002536 0.668943703 0.422264189
0.580139220 0.669702590 0.437444836
0.648829818 0.677925050 0.448070884
0.727767289 0.692473114 0.473750740
0.818722248 0.716002226 0.524224937
0.570271730 0.796710670 0.540290833
0.579506516 0.801264644 0.534598470
0.599367499 0.803288758 0.548513830
0.632510960 0.809740722 0.557874620
0.682479262 0.814800620 0.567615509
0.743200481 0.819354713 0.582795858
0.808475435 0.827071369 0.607336700
0.881593704 0.840860248 0.639089346
0.061100997 0.061100997 0.157494992
0.086147994 0.071726643 0.156356648
0.139784634 0.085009649 0.157494992
0.204047635 0.106514998 0.164832637
0.315243632 0.137887195 0.208728626
0.435926467 0.164579004 0.244402379
0.574067295 0.203542277 0.273624331
0.723339736 0.269323170 0.328779459
0.095256351 0.110942543 0.157494992
0.112839893 0.105755992 0.159519449
0.148007274 0.121442087 0.162175998
0.219355002 0.137507543 0.182163343
0.313219249 0.162175894 0.211891353
0.437824249 0.191144809 0.238203794
0.578241706 0.233396381 0.277545720
0.722960174 0.288930982 0.327134639
0.126628637 0.168501094 0.179759532
0.140164092 0.177103102 0.185705185
0.184819981 0.184946090 0.196204737
0.249842092 0.200126648 0.207590088
0.342188358 0.221252546 0.229854539
0.459709167 0.253383726 0.254396081
0.596331179 0.296900809 0.302719653
0.736748755 0.350031734 0.359012902
0.174319640 0.256799281 0.225300640
0.183554634 0.263503909 0.225173727
0.229095638 0.270968080 0.234534815
0.293231934 0.283111632 0.236052915
0.376217842 0.307780057 0.255660832
0.489437342 0.338772744 0.289057463
0.612143934 0.377861917 0.333079904
0.742820919 0.423276424 0.385578603
0.238456726 0.383048385 0.269829631
0.260847270 0.381024748 0.269702822
0.304364532 0.386590749 0.278052092
0.353194267 0.392410189 0.287918717
0.428463161 0.408855170 0.294750005
0.532321036 0.436306387 0.330170840
0.642378509 0.473118395 0.372801900
0.764452815 0.514863670 0.422517389
0.332953990 0.522454381 0.339025974
0.355597496 0.519038677 0.348766834
0.386211097 0.525490165 0.350790441
0.433396727 0.531435847 0.362175614
0.499810189 0.535736620 0.370777816
0.580898106 0.552308500 0.389500111
0.677672446 0.578747511 0.428336293
0.791650891 0.619987369 0.483491600
0.429474890 0.660341561 0.435167551
0.447944462 0.662998199 0.436938554
0.474509835 0.659582376 0.444276005
0.519165218 0.668184817 0.446932554
0.576470435 0.672865391 0.464389652
0.648576558 0.678810954 0.480708361
0.729285479 0.687286675 0.503478527
0.814421058 0.716508687 0.547375023
0.565085471 0.803162396 0.558886826
0.573054612 0.803794980 0.563820422
0.600885332 0.807336748 0.572295845
0.632890463 0.808095992 0.579000533
0.680455267 0.811385334 0.588994205
0.739911258 0.816318810 0.604806840
0.806451738 0.827071428 0.627071381
0.885388911 0.840101123 0.657052219
0.077546000 0.077546000 0.221758381
0.105755992 0.084250644 0.215053648
0.159013182 0.098671995 0.217710286
0.211891443 0.118785642 0.221505180
0.307780176 0.140290990 0.253763199
0.440354198 0.167994931 0.297659814
0.581024647 0.208981469 0.339911461
0.722833335 0.275142491 0.391271174
0.103731737 0.120176733 0.222391188
0.135230556 0.126249194 0.216571748
0.167994633 0.133965984 0.221632197
0.222390980 0.148134187 0.229095533
0.311954528 0.168501005 0.259582549
0.440860271 0.198608741 0.300442547
0.581404209 0.236811906 0.336242825
0.721442223 0.296647340 0.387855798
0.140290990 0.181657195 0.239722088
0.160151631 0.189247549 0.241366178
0.202909291 0.194307178 0.248324201
0.253763288 0.202909291 0.254142731
0.346110195 0.227197990 0.286653966
0.464389563 0.257685184 0.311954498
0.594433725 0.300695896 0.354585767
0.730423629 0.359012991 0.413029790
0.182163343 0.264769107 0.261480182
0.199620187 0.271347642 0.279190540
0.248324007 0.285768300 0.291334271
0.316382110 0.301455081 0.303858161
0.395446301 0.315116823 0.313093275
0.499304086 0.345351279 0.345603824
0.614927292 0.384060919 0.382416010
0.740417242 0.427957088 0.436179757
0.241113171 0.387729377 0.327134371
0.267805189 0.392030537 0.325995922
0.309424251 0.402656287 0.334345371
0.361796379 0.406071931 0.341808736
0.444149166 0.420620173 0.357874542
0.536622167 0.444528729 0.389626741
0.644781590 0.475522012 0.420619965
0.765970588 0.515496314 0.473877162
0.346995443 0.521315515 0.399494171
0.361543447 0.526122630 0.400632530
0.390512437 0.529411614 0.403289080
0.440986544 0.534218669 0.417457163
0.503352404 0.543579936 0.423023164
0.580139041 0.553067446 0.439468652
0.685768723 0.585578740 0.476154447
0.794560373 0.618469179 0.524225116
0.444149375 0.658823490 0.486274481
0.454522371 0.659835577 0.487160087
0.476281077 0.665907562 0.489563465
0.514611304 0.665022373 0.491081446
0.580392420 0.672865510 0.499557465
0.651739478 0.681467533 0.518405974
0.725363493 0.694750130 0.542567551
0.819860876 0.720935881 0.584819555
0.556103408 0.800126433 0.593674958
0.566477001 0.802530050 0.601391435
0.586337686 0.808095932 0.600758970
0.623782039 0.809234321 0.609108388
0.674635947 0.812143803 0.618216217
0.737381041 0.822137833 0.633017063
0.807083964 0.831751645 0.654775202
0.876533806 0.843516827 0.679822743
0.097912997 0.100063264 0.305376470
0.130803093 0.103858255 0.304237753
0.187982082 0.115622737 0.306894481
0.247817725 0.130803078 0.305249989
0.324984163 0.149272546 0.319038719
0.434408486 0.174319729 0.354206204
0.580519021 0.211005732 0.401264995
0.718658864 0.279443532 0.455913782
0.124098733 0.138646096 0.299810261
0.145983547 0.141049802 0.300442457
0.189879835 0.147248372 0.302593529
0.251233160 0.157368898 0.311827809
0.322454363 0.175837830 0.318911731
0.443137437 0.199367732 0.359013230
0.582669377 0.236811817 0.402909636
0.724098504 0.301328182 0.456799299
0.154079750 0.201391101 0.330423474
0.170651376 0.206704468 0.328652531
0.217583969 0.209235102 0.324477911
0.276407272 0.217330635 0.327134579
0.350790530 0.233016908 0.341302991
0.469576240 0.257178932 0.380518585
0.599873543 0.302972794 0.425174087
0.730676532 0.363693923 0.471347362
0.196584284 0.280581623 0.343959630
0.217330724 0.285768300 0.349905193
0.260341734 0.292346835 0.359645635
0.320177168 0.305755734 0.360278100
0.402024001 0.322707266 0.380392164
0.502719581 0.352435291 0.410752624
0.612017930 0.386337817 0.441872209
0.736116588 0.439089447 0.497280061
0.259582430 0.391903937 0.387602687
0.276280969 0.394687206 0.399241179
0.319291532 0.409867048 0.405566365
0.388867825 0.429601729 0.427197814
0.461732894 0.442504466 0.432258397
0.543959498 0.458570808 0.456546456
0.646679282 0.482353210 0.485136002
0.761037230 0.524098516 0.529664755
0.350663722 0.530676723 0.456166714
0.372042984 0.532194853 0.464642704
0.406578183 0.540290415 0.471094102
0.453130752 0.542314708 0.472991586
0.510057211 0.550284743 0.485894918
0.589373708 0.561922789 0.499177724
0.684882998 0.586717248 0.533713043
0.790385485 0.621125519 0.574066818
0.457305551 0.663883746 0.534092307
0.469070464 0.663504303 0.547880769
0.489437073 0.664516330 0.547248542
0.525110900 0.671726763 0.553953111
0.575711489 0.677545607 0.558380544
0.646552742 0.684503257 0.564832270
0.728273273 0.694370568 0.584566653
0.822264194 0.728905857 0.629854381
0.575837851 0.797975779 0.651739359
0.578747332 0.804553986 0.646805763
0.594180644 0.806072056 0.652371585
0.621378660 0.808348954 0.651612818
0.662997961 0.814294875 0.655407488
0.729285419 0.818595648 0.667552412
0.800885320 0.831119537 0.688424826
0.881593704 0.845540822 0.718405902
0.126754984 0.118279576 0.441366285
0.155471548 0.125869542 0.440733850
0.218469381 0.133206695 0.440607548
0.298292279 0.143453285 0.443010569
0.383428454 0.162175700 0.449209273
0.475901455 0.182542697 0.457179278
0.596584558 0.217583999 0.480581850
0.729790807 0.284883261 0.523086667
0.136242703 0.155092001 0.428083569
0.165338293 0.156862825 0.438456565
0.220746279 0.165338293 0.439469039
0.304490983 0.175079018 0.441366285
0.385452002 0.187223271 0.448956102
0.474383265 0.207842842 0.456799716
0.600126088 0.245920092 0.491714299
0.724604607 0.307653069 0.523845375
0.158254102 0.224794194 0.444528759
0.186084822 0.226059347 0.445793808
0.242758095 0.230866373 0.448323637
0.315875739 0.238836199 0.452751279
0.403921485 0.251359969 0.458570451
0.495130002 0.266287386 0.470588475
0.617710590 0.313219160 0.502719522
0.731814981 0.368880093 0.541176319
0.201770633 0.311701268 0.461479902
0.223655835 0.311575174 0.459456176
0.270967990 0.317014486 0.462618560
0.346995562 0.326881617 0.469322920
0.428589821 0.339026093 0.481720179
0.519924402 0.356736034 0.488171846
0.632384896 0.395319283 0.518658876
0.742441416 0.445540637 0.560404658
0.261606187 0.421252400 0.485135853
0.283618212 0.422138184 0.488804579
0.324225068 0.429981202 0.498671472
0.390385717 0.434408635 0.506641448
0.463630646 0.443390489 0.509804249
0.556989193 0.462491930 0.530550063
0.658697248 0.493358552 0.556862593
0.763693690 0.533712983 0.595572174
0.349019438 0.541176498 0.536369562
0.361543477 0.545477450 0.539658606
0.398734987 0.549778521 0.545730293
0.452751368 0.557368815 0.554965079
0.529158890 0.575205803 0.572042823
0.607463896 0.585958183 0.583301485
0.690575659 0.604048014 0.608096302
0.792030275 0.633649528 0.640227973
0.451866269 0.658696949 0.598861277
0.461100340 0.664895833 0.596331060
0.490196258 0.668943703 0.595825315
0.534724951 0.679443181 0.613282561
0.597596467 0.688551605 0.627324581
0.650980294 0.695255756 0.632890224
0.735483825 0.707400262 0.654775560
0.824161887 0.732700706 0.687160134
0.587476432 0.797849476 0.686021626
0.591524184 0.804933608 0.694750071
0.606831074 0.805945396 0.701581419
0.644781828 0.811891019 0.710942388
0.687792361 0.815053940 0.721189141
0.730676651 0.823656023 0.726249218
0.798861504 0.833775759 0.737381220
0.875774562 0.854142725 0.761290252
0.145224825 0.145224825 0.616318762
0.186337680 0.140290707 0.611385286
0.264010102 0.151928991 0.611764789
0.354332805 0.162934810 0.616065800
0.459582537 0.179380178 0.614800930
0.560531437 0.207716808 0.617583632
0.657178760 0.243643090 0.623782277
0.771789789 0.306261778 0.642378449
0.155091554 0.180139080 0.615180194
0.195445538 0.178873926 0.602529764
0.255660713 0.185705274 0.606957197
0.352182180 0.196204633 0.608222365
0.455154806 0.212650344 0.609487534
0.559519291 0.236432374 0.615939319
0.664895296 0.264642477 0.620240331
0.775458157 0.327261060 0.644275546
0.167488843 0.254395992 0.611891150
0.204174638 0.253890097 0.619607925
0.280582011 0.256040156 0.611764789
0.363567084 0.270841092 0.613282740
0.461480111 0.284882993 0.616445422
0.566856503 0.305249989 0.622264504
0.670588255 0.334724933 0.628842235
0.777735472 0.385704905 0.646173656
0.201770633 0.347628087 0.610246778
0.234535217 0.350537717 0.616192341
0.298292339 0.356609821 0.618595719
0.377356052 0.362049282 0.614294529
0.474762827 0.375079095 0.618975282
0.573434293 0.391144723 0.629348457
0.674383402 0.408602238 0.635926485
0.782163084 0.460215449 0.657937884
0.256166995 0.460847676 0.628336489
0.277798831 0.460215032 0.636685252
0.326248914 0.460468292 0.634914577
0.400252789 0.466666847 0.635799944
0.497280359 0.473497987 0.640227973
0.590765059 0.487412691 0.648703337
0.690701962 0.503099144 0.653383791
0.794560254 0.549652398 0.682226241
0.348639995 0.584566712 0.659961641
0.365085483 0.582163274 0.658317447
0.399999827 0.583807588 0.661859393
0.454648733 0.581151426 0.665781260
0.528399706 0.587729275 0.671347380
0.615180314 0.596331358 0.680075765
0.713092804 0.613788784 0.697533071
0.807083726 0.647311687 0.722453833
0.450980544 0.700443089 0.693358362
0.459329516 0.706514657 0.693358779
0.485768616 0.702214003 0.698039114
0.530423462 0.708791971 0.701328099
0.591271162 0.709297895 0.710942447
0.670588493 0.719165206 0.726375818
0.748893023 0.730170906 0.744339049
0.837318242 0.758507133 0.768247604
0.588741601 0.820113599 0.741682589
0.594434083 0.820493162 0.757874846
0.614547670 0.818216264 0.761669636
0.648323834 0.823908865 0.765591323
0.691587389 0.829474807 0.773434401
0.750284553 0.839595437 0.791777492
0.808602035 0.848577023 0.812903464
0.889436781 0.867299378 0.838709414
