Assets/Shaders/EldamarStudio/100 Sci-Fi LUTs Pack/LUTs/cube/Sophia LUT.cube
LUT_3D_SIZE 8
DOMAIN_MIN 0.000000 0.000000 0.000000
DOMAIN_MAX 0.903226 0.903226 0.903226
0.003922000 0.000000000 0.058823999
0.005439999 0.001138547 0.056040544
0.090828992 0.019608000 0.090195999
0.185578987 0.030866642 0.112080999
0.280329198 0.066413797 0.140290990
0.374066740 0.109424472 0.170524731
0.479317278 0.164326280 0.219228283
0.611005723 0.223782644 0.278684646
0.007084001 0.045414094 0.078810550
0.019481093 0.042631544 0.087413445
0.096268095 0.062239546 0.103858449
0.192283630 0.085389093 0.126249090
0.281593740 0.108412348 0.144212186
0.374066740 0.145983547 0.179000735
0.471600294 0.190259084 0.227198288
0.599493861 0.239848077 0.274636149
0.022517091 0.137128100 0.141176000
0.060215093 0.136242986 0.124605000
0.130803093 0.147248194 0.141050085
0.204806730 0.162555560 0.156736001
0.296141893 0.184060991 0.177862078
0.381404161 0.212903082 0.217710078
0.491081297 0.251359999 0.255408287
0.622137845 0.299430907 0.308159202
0.089816280 0.233270273 0.177229643
0.116887726 0.244276091 0.189500287
0.175332099 0.245034978 0.198987991
0.234408617 0.255660921 0.206324920
0.311575174 0.270967960 0.232257724
0.393548638 0.293991029 0.257811278
0.491208196 0.324098557 0.285895288
0.620619774 0.368627459 0.328652650
0.169892386 0.350284398 0.243516982
0.190765351 0.349778533 0.258697003
0.224794388 0.354079485 0.258570194
0.281973183 0.357242376 0.270208985
0.345477372 0.365085393 0.283617973
0.424161732 0.379506737 0.302466780
0.523213148 0.409487575 0.327514291
0.649209619 0.457684785 0.372422338
0.256546736 0.474256992 0.327514261
0.270334989 0.478937715 0.328020245
0.299937099 0.477419704 0.341556102
0.345351011 0.481720477 0.344718456
0.410246640 0.488045275 0.351802468
0.475648195 0.497406483 0.372042984
0.568627238 0.514484465 0.388994455
0.681973457 0.561796308 0.428715825
0.341429293 0.606704831 0.401897579
0.353953302 0.612270594 0.410499573
0.381910086 0.610752702 0.419101983
0.424415290 0.615559578 0.427197903
0.479063660 0.620240450 0.429222077
0.544591725 0.626691997 0.445540547
0.616192520 0.631245971 0.461353570
0.704870522 0.658949792 0.489563555
0.472485572 0.769259751 0.533712804
0.495888263 0.769765615 0.536748648
0.519923985 0.769892454 0.537887633
0.556989014 0.770398438 0.548007369
0.598987639 0.774699628 0.563187957
0.651865900 0.782795668 0.574193478
0.714610755 0.786717355 0.596331358
0.783554792 0.790006399 0.618975520
0.000000000 0.005060451 0.087792993
0.005819450 0.008602000 0.087792993
0.087666094 0.025426645 0.108918093
0.174193546 0.055913739 0.133965895
0.262365282 0.087286644 0.166476741
0.361669540 0.130297542 0.205692545
0.467172712 0.176596835 0.240480796
0.593927741 0.228336826 0.286527842
0.000000000 0.045034546 0.093611538
0.018722095 0.046552543 0.115243092
0.089563645 0.071220994 0.126122996
0.176596835 0.092346892 0.149272561
0.272232622 0.124984346 0.179886356
0.359139740 0.156989366 0.205566019
0.456166804 0.192789286 0.241998985
0.572802067 0.234788343 0.291081816
0.040354453 0.128779545 0.140164196
0.068817087 0.135863543 0.160278559
0.127641097 0.147627741 0.161416993
0.199747100 0.163314551 0.180265903
0.281467646 0.188741177 0.201265186
0.369639277 0.211005747 0.227957174
0.475774825 0.250600785 0.268690825
0.606831193 0.298292279 0.318279535
0.095382981 0.231625274 0.193295181
0.116887823 0.236052811 0.202403635
0.166603297 0.239974722 0.212270990
0.228589371 0.248956278 0.222011551
0.301834643 0.265022010 0.236432478
0.383301735 0.285768181 0.267046303
0.478431284 0.318659276 0.296394646
0.602277040 0.356483012 0.330550373
0.163567379 0.340038002 0.256926000
0.181150928 0.343453646 0.269070655
0.219987273 0.343833089 0.275016189
0.277672529 0.350537747 0.282100052
0.339658529 0.358760148 0.295762420
0.408855259 0.373560995 0.308285803
0.511068881 0.403035939 0.338140547
0.636685550 0.450980365 0.374193847
0.254269540 0.465275258 0.336495727
0.262239277 0.468311280 0.334598303
0.296394646 0.470714480 0.345477372
0.341049820 0.474256903 0.347374916
0.402530193 0.479696721 0.361164182
0.471726716 0.485515475 0.372042984
0.557495296 0.509045184 0.392410189
0.677292645 0.554712296 0.437318116
0.333839297 0.589374006 0.409993798
0.349399090 0.598734856 0.407084107
0.374193549 0.598228633 0.419102013
0.415686250 0.606831253 0.422517627
0.468690932 0.612144113 0.435040921
0.539658308 0.616318583 0.443643212
0.604174554 0.626059294 0.454649001
0.698165476 0.644402206 0.487539530
0.473118454 0.759392738 0.542441607
0.498671770 0.760657609 0.532194614
0.511701345 0.767741621 0.547248304
0.546742380 0.767615378 0.555597663
0.590891600 0.770651400 0.565717578
0.652118802 0.775331795 0.578494310
0.713345587 0.780897915 0.599873424
0.781656981 0.787855864 0.625173807
0.000000000 0.023529001 0.162935004
0.005439999 0.023908548 0.155092001
0.089184098 0.028968999 0.170778006
0.169892281 0.059455995 0.183302090
0.263124377 0.098545089 0.213915199
0.359266341 0.145983636 0.245288089
0.460467994 0.192662895 0.281214386
0.591144562 0.240733802 0.329411924
0.000379548 0.065022096 0.161037549
0.030107545 0.060215089 0.160278544
0.095509090 0.077925541 0.177482545
0.177735284 0.102213636 0.197470084
0.266034454 0.131562188 0.222264454
0.351296544 0.173181370 0.254649192
0.449083030 0.207084030 0.285895109
0.577861905 0.250221431 0.322454125
0.026565196 0.136243090 0.182416081
0.070841543 0.142947555 0.196711093
0.135483995 0.160531193 0.208349094
0.201644629 0.175837830 0.222896621
0.283617973 0.195825174 0.245287985
0.372548729 0.226818353 0.273118436
0.462745070 0.260974199 0.303225994
0.599367499 0.307021052 0.347754568
0.109424189 0.234914273 0.233270168
0.127134725 0.239595279 0.248703629
0.178114727 0.251739740 0.257305652
0.232890710 0.252878278 0.262744725
0.301834524 0.265780807 0.274509728
0.379380018 0.290828764 0.297659993
0.477672249 0.320176989 0.326628566
0.602783084 0.360784173 0.364452928
0.182542995 0.334472090 0.295509100
0.193042636 0.342694640 0.302972734
0.232637376 0.343833089 0.304743946
0.280455291 0.349399000 0.308285832
0.336875260 0.360405087 0.318153083
0.408855170 0.373181432 0.333333433
0.508539081 0.405692488 0.363567382
0.627703726 0.450348079 0.404427648
0.256040365 0.463883460 0.353953242
0.270588428 0.466034383 0.364326209
0.296774209 0.466034472 0.373687476
0.342567831 0.468817115 0.371663541
0.399367243 0.474636346 0.380012393
0.465907454 0.483617753 0.399493992
0.554332614 0.507400334 0.414674103
0.674130499 0.555977523 0.455028474
0.327261269 0.586717308 0.420746267
0.343832999 0.595066309 0.436811894
0.375838071 0.599873543 0.437824398
0.414547712 0.601770759 0.440101385
0.467299283 0.607843101 0.447817564
0.530929565 0.613915265 0.462998271
0.602277160 0.620240450 0.470082164
0.697659433 0.647058904 0.502593338
0.471853495 0.758633733 0.551802874
0.487412870 0.756229937 0.560531497
0.504363954 0.763314426 0.555344820
0.546362817 0.765211582 0.569639146
0.591397882 0.766476750 0.581150949
0.648197472 0.772169530 0.588614583
0.708159387 0.778873801 0.609993696
0.778873861 0.785958230 0.633649468
0.001138644 0.024667645 0.237697631
0.008602096 0.019987451 0.244402289
0.097786091 0.037191547 0.243263632
0.180518627 0.066160642 0.255534291
0.262744844 0.106514804 0.271473616
0.359392583 0.147881091 0.295762360
0.457937926 0.197343573 0.329538345
0.587476432 0.247438163 0.377482444
0.003542452 0.079443641 0.240480989
0.031246092 0.077925444 0.232637271
0.110436186 0.091967441 0.249968201
0.181657284 0.111195184 0.254648983
0.263124466 0.137001991 0.269955724
0.350158185 0.176217377 0.296141803
0.455154985 0.215433195 0.329411864
0.579000592 0.260088474 0.374446660
0.040607192 0.148766384 0.255028546
0.075142190 0.159013197 0.264895886
0.143326998 0.167994648 0.265148640
0.205565825 0.184061095 0.272991747
0.282352835 0.203288838 0.292219996
0.366603374 0.232637465 0.317646742
0.468690932 0.269449800 0.357621640
0.598608136 0.309424281 0.397469699
0.108791992 0.238836274 0.285388917
0.135357291 0.246679276 0.291840553
0.186717540 0.258064717 0.304743975
0.252878249 0.277545631 0.322327614
0.315622985 0.285009295 0.327387452
0.386464030 0.303478718 0.346616030
0.482732624 0.328020275 0.370018929
0.601897418 0.367109269 0.403794885
0.186338082 0.345097840 0.343832850
0.203541994 0.345856816 0.339152396
0.242884174 0.355344653 0.354332894
0.289057344 0.360404968 0.359645963
0.345477372 0.369006962 0.367488980
0.418343097 0.383048654 0.380518556
0.511448503 0.410120130 0.405565739
0.639342010 0.453889996 0.441239774
0.266919732 0.464262724 0.408981383
0.278937280 0.466160476 0.405692548
0.306261957 0.471220732 0.409108102
0.349272460 0.471853197 0.414168537
0.404680729 0.480961472 0.421505153
0.465275347 0.489563495 0.431625456
0.560025334 0.511448443 0.449715465
0.678431451 0.557874799 0.486780703
0.328020245 0.594180942 0.464642555
0.350158066 0.600000262 0.470461726
0.372043282 0.599493980 0.468817025
0.415432930 0.605439544 0.475395560
0.469070256 0.610499918 0.484503746
0.533712864 0.617204309 0.488804281
0.607084036 0.623402536 0.502846301
0.702593267 0.649968445 0.538013637
0.478051573 0.758001089 0.584946156
0.482226610 0.758886814 0.581656992
0.510057092 0.761290252 0.586211026
0.546615779 0.764073253 0.591018558
0.588235140 0.762808442 0.598734796
0.647944331 0.770271778 0.608728647
0.708412051 0.777988136 0.627577484
0.780897915 0.790512443 0.649209619
0.002403808 0.020240188 0.337887168
0.001897547 0.032511450 0.329791397
0.106388092 0.053131189 0.331436098
0.194180980 0.086148195 0.340038180
0.277925372 0.123718992 0.338519990
0.359519362 0.157368794 0.358127981
0.458823472 0.199620277 0.382163256
0.589246988 0.252625018 0.427704185
0.000379548 0.093611546 0.323718935
0.032384448 0.097153991 0.318405837
0.124098644 0.111195087 0.332195103
0.196584195 0.127261356 0.333839089
0.275395542 0.148766384 0.341682196
0.355217934 0.180518538 0.357748330
0.452372015 0.220493436 0.383934259
0.579126775 0.258823514 0.425806403
0.058696903 0.173814192 0.330550283
0.102972545 0.180518642 0.339658618
0.151802376 0.186337903 0.337760925
0.223276183 0.200885639 0.344338834
0.287413090 0.216951191 0.353320390
0.366603285 0.238963082 0.367868543
0.466666639 0.275016069 0.401897371
0.603288770 0.310183167 0.448830068
0.129538640 0.257305652 0.355344623
0.151043281 0.263124377 0.352435261
0.198861390 0.270968080 0.366223603
0.258444279 0.279190630 0.368121177
0.315875828 0.291714013 0.372802258
0.390006185 0.311321735 0.393928081
0.480708450 0.332827181 0.418722421
0.606451690 0.367615610 0.457431972
0.186463982 0.349399000 0.385325551
0.207083926 0.351422757 0.387476623
0.249083087 0.359646201 0.402024090
0.299557418 0.369766146 0.406324744
0.372042954 0.394940197 0.435673386
0.436685890 0.403162628 0.434029162
0.524857283 0.417583972 0.452118874
0.638582945 0.457811356 0.487792343
0.264389724 0.461100727 0.439342439
0.279696286 0.468564272 0.446932733
0.308665186 0.470714569 0.450221539
0.354838580 0.479822725 0.456799448
0.411638111 0.490701735 0.471220940
0.481973737 0.497026920 0.478684247
0.569259822 0.519670784 0.499430746
0.681720138 0.562302351 0.531562328
0.331435889 0.592156649 0.504490972
0.347628295 0.596837580 0.511068821
0.377609104 0.602403283 0.514737546
0.415559709 0.607463658 0.521441936
0.474636376 0.614927530 0.528146505
0.535863459 0.617963374 0.535104215
0.613156378 0.628969312 0.546742380
0.711701453 0.659456015 0.579506636
0.464263022 0.755218148 0.610752642
0.480328768 0.757748246 0.613788784
0.502972901 0.759266317 0.617077708
0.542947233 0.762934744 0.618595541
0.586716950 0.762808383 0.628842473
0.644402444 0.769386351 0.642631173
0.710056722 0.777735472 0.656419754
0.774446547 0.789879978 0.667805135
0.004048004 0.056672737 0.425047725
0.015053541 0.062365472 0.425174177
0.127893731 0.084503382 0.430107385
0.212776467 0.106008738 0.432763726
0.295129478 0.142061725 0.425300270
0.373940706 0.174193740 0.434787989
0.453383982 0.203162730 0.439848006
0.586717367 0.249841973 0.491460800
0.004681000 0.114231281 0.413535655
0.050980538 0.117773727 0.416065693
0.136875272 0.132700637 0.425679922
0.215939164 0.149145827 0.423276633
0.296268135 0.169512928 0.422517747
0.370525151 0.194560736 0.430486917
0.447817862 0.221252441 0.437318206
0.571916282 0.259076566 0.479822844
0.080961451 0.202403739 0.424414992
0.120176733 0.201897368 0.427577287
0.174699724 0.211132362 0.427956820
0.237950370 0.216192186 0.427197903
0.312839717 0.230234072 0.437065274
0.378874362 0.250727087 0.438330114
0.466287106 0.275016069 0.458064258
0.600379586 0.312839836 0.506641448
0.146489620 0.274636358 0.432511091
0.169006899 0.283364981 0.437444746
0.212903187 0.285768390 0.435673624
0.269323379 0.292473108 0.440480620
0.330297381 0.302213877 0.442757726
0.398102731 0.314737260 0.452751487
0.475268453 0.330803007 0.465528190
0.604427457 0.363567203 0.513978541
0.197975978 0.365338445 0.459203094
0.224035174 0.370398283 0.457432270
0.254522175 0.377988547 0.466034263
0.306641519 0.379506737 0.474763185
0.366856605 0.390006185 0.481973708
0.436938465 0.400632441 0.493485212
0.522706985 0.415559739 0.504490852
0.645540953 0.453130931 0.545224369
0.266413987 0.467931718 0.501455009
0.275775015 0.469576031 0.498671532
0.314105093 0.473750472 0.511574984
0.358001381 0.482099771 0.517140985
0.419102162 0.495382756 0.531941533
0.505123436 0.518911719 0.554206192
0.579886258 0.531435788 0.559772015
0.687033355 0.561543465 0.582669437
0.327767462 0.591144562 0.549652278
0.338519812 0.593548298 0.559772313
0.367236078 0.596205056 0.563946545
0.410373271 0.604554176 0.566350460
0.469829470 0.614041567 0.572928488
0.544591725 0.622897089 0.590638757
0.616065562 0.630739987 0.597217023
0.714863777 0.662365735 0.624794245
0.457305342 0.750284553 0.655028641
0.470335305 0.751929164 0.653636694
0.494243860 0.755344689 0.650980473
0.527008057 0.760025442 0.660847485
0.579253793 0.764073253 0.668437660
0.638077438 0.771663606 0.673497617
0.707147300 0.778873861 0.689563692
0.781150937 0.789879799 0.712080836
0.000000000 0.098671995 0.550537288
0.045161281 0.107146993 0.558001280
0.155724198 0.116635084 0.553700149
0.249588981 0.141302928 0.553320646
0.337381184 0.165211886 0.549019516
0.418848753 0.192662999 0.546616316
0.499557287 0.220872998 0.550537288
0.593168795 0.253384113 0.565085053
0.010626087 0.140417531 0.535990000
0.081846550 0.147628024 0.535863578
0.162428647 0.156230450 0.538772821
0.250600994 0.172675550 0.540796936
0.331435829 0.193801656 0.542314827
0.411132276 0.216571629 0.539152324
0.490955293 0.237065449 0.538772821
0.575205564 0.263124377 0.550410986
0.087666288 0.221632093 0.541049540
0.132321090 0.226691827 0.542188287
0.196457803 0.228715971 0.550664008
0.267425656 0.241998792 0.546616316
0.346868902 0.255408078 0.544212520
0.427450985 0.268690795 0.549146295
0.508918464 0.287539572 0.558507323
0.599114478 0.311701179 0.567741811
0.145856917 0.301075339 0.539405525
0.173054904 0.305755734 0.547121823
0.223276272 0.310562640 0.548513710
0.283111632 0.313978553 0.545603812
0.357368737 0.323086739 0.551549792
0.430613577 0.332447648 0.551170290
0.508032560 0.345350981 0.557874858
0.604174376 0.359771997 0.571536779
0.203035995 0.388488263 0.557368755
0.221378729 0.395192921 0.560404897
0.260974169 0.398608387 0.562934697
0.314231277 0.395192742 0.567109466
0.379759640 0.405059874 0.569386363
0.453004718 0.412903488 0.576849818
0.532574534 0.422264427 0.581277251
0.638203382 0.443769723 0.605819106
0.266160548 0.495002985 0.592789769
0.279443532 0.501960516 0.593168795
0.309424251 0.502340317 0.598734796
0.356862903 0.503732204 0.603921413
0.422138184 0.511068821 0.607843220
0.496521294 0.511827767 0.612144351
0.581404269 0.527893782 0.625427008
0.684629858 0.556736171 0.651233077
0.322454274 0.592030525 0.624667525
0.335230976 0.591018260 0.616318583
0.361796200 0.595951557 0.625933051
0.402023911 0.603794992 0.631245971
0.462238997 0.611638546 0.633649290
0.543200731 0.626565576 0.649082959
0.637444854 0.657052279 0.676027834
0.729412079 0.668311059 0.691208065
0.450095028 0.746995568 0.695761800
0.460973829 0.746110022 0.704743624
0.484376609 0.746995568 0.699809909
0.519923925 0.753320396 0.704743683
0.569006860 0.761290193 0.714737475
0.637571096 0.771916151 0.726375699
0.705882072 0.778621197 0.735863090
0.788488328 0.792283177 0.746489286
0.040859953 0.146615803 0.714231610
0.106388085 0.151170000 0.713598907
0.202783093 0.161669731 0.712333858
0.296900809 0.176470622 0.703731775
0.392536014 0.199240819 0.710183382
0.487286597 0.222643718 0.707653463
0.582416534 0.250095099 0.709677458
0.671094596 0.279949814 0.709044755
0.059329368 0.184693068 0.704110980
0.117900349 0.182795823 0.697785914
0.201897368 0.191018268 0.703984797
0.295888543 0.207083821 0.704364300
0.389753342 0.222391188 0.698418677
0.482732713 0.241998881 0.695002973
0.571030915 0.263883382 0.691966772
0.661859632 0.288551807 0.696900308
0.107906073 0.253004193 0.692219973
0.151549831 0.257052183 0.697406590
0.221125916 0.264769167 0.709550679
0.311954319 0.271347344 0.704364359
0.397723168 0.283870935 0.704490840
0.490954965 0.299557358 0.705123365
0.581024408 0.315243423 0.702087045
0.674130499 0.338393092 0.708285868
0.136242986 0.332447648 0.695382416
0.173814088 0.337634206 0.698671877
0.237191752 0.341808707 0.700189650
0.320177078 0.347375095 0.703099251
0.402530193 0.352435052 0.701960564
0.487286538 0.361796260 0.699683666
0.577229381 0.373560995 0.698418677
0.666413188 0.386970282 0.704490602
0.181277826 0.426185966 0.704111278
0.214041591 0.432384580 0.709171414
0.250347912 0.428463072 0.709930360
0.323845744 0.428589165 0.709930122
0.410753012 0.435293823 0.707273602
0.501328051 0.442125022 0.716255546
0.592536032 0.450347960 0.711954653
0.683491409 0.466793358 0.711448252
0.268311232 0.542061985 0.731815338
0.284376919 0.546615899 0.727134585
0.318026483 0.543453455 0.729538262
0.371031076 0.541176379 0.726755023
0.435547084 0.538013637 0.730423689
0.524857521 0.541302919 0.731688559
0.615686357 0.551802695 0.731815279
0.713345647 0.565717757 0.741302788
0.334724814 0.643516839 0.739531636
0.361923009 0.643896520 0.740670145
0.386717379 0.644908071 0.745224416
0.427577466 0.649588883 0.739152253
0.484756470 0.649209440 0.747248530
0.557621539 0.648071051 0.744844615
0.646299720 0.657811224 0.760278404
0.738899350 0.678178251 0.765717804
0.462112606 0.757368565 0.760025382
0.480455399 0.761416733 0.783428371
0.492219925 0.767109334 0.775711417
0.534851491 0.765085399 0.778494358
0.580392182 0.763946772 0.780645013
0.634661615 0.775711477 0.788614750
0.709930360 0.784440041 0.800126195
0.788614750 0.817583621 0.818722546
