Assets/Shaders/EldamarStudio/100 Sci-Fi LUTs Pack/LUTs/cube/Sophie LUT.cube
LUT_3D_SIZE 8
DOMAIN_MIN 0.000000 0.000000 0.000000
DOMAIN_MAX 0.903226 0.903226 0.903226
0.113724999 0.035294000 0.043136999
0.122327998 0.043895997 0.051739097
0.145857096 0.067425899 0.075268902
0.161416993 0.080708288 0.085768647
0.188867807 0.110436186 0.106514804
0.227197990 0.144844994 0.133079991
0.294370294 0.189499989 0.173813999
0.396584600 0.243389949 0.222390980
0.121948451 0.068564542 0.064262994
0.133332998 0.072485544 0.075268999
0.145857096 0.085009545 0.084250547
0.159140006 0.105376542 0.101074994
0.187729448 0.126881808 0.122327998
0.232384726 0.161417007 0.145350933
0.291966975 0.202403545 0.182036534
0.387349606 0.259076655 0.225047812
0.133332998 0.121442094 0.107399993
0.138393551 0.129285097 0.109677091
0.149778903 0.133207083 0.116761185
0.163820088 0.148007289 0.122959994
0.196711197 0.172296196 0.140164286
0.237318084 0.199747086 0.171916738
0.306894392 0.247438192 0.207590193
0.413661957 0.301328182 0.259329796
0.138898998 0.198481634 0.152435347
0.140796542 0.197596729 0.140417546
0.150537997 0.207842916 0.155092001
0.169259995 0.219228283 0.159772292
0.204047844 0.240354180 0.184060991
0.252498627 0.261859745 0.205565825
0.320809543 0.304490983 0.239974916
0.429095477 0.360657632 0.293105632
0.118279189 0.292093188 0.199747190
0.132194549 0.297280371 0.213029996
0.146489277 0.303099304 0.210626185
0.179000631 0.311321735 0.216951385
0.221758366 0.327387571 0.235041186
0.271347612 0.351549655 0.258444160
0.354585558 0.390006483 0.295129359
0.469322979 0.452498376 0.346868992
0.115749262 0.426944971 0.291840732
0.135863349 0.431751996 0.292599738
0.167868733 0.434914827 0.302593619
0.205439627 0.447564840 0.307779968
0.265781134 0.457305461 0.325743169
0.324857473 0.475648195 0.346489727
0.406831473 0.504490733 0.373307973
0.529032469 0.561669827 0.438456535
0.199240968 0.573054552 0.398228854
0.215180308 0.578367829 0.405818820
0.249841645 0.581657410 0.415433437
0.291840613 0.589247167 0.423402548
0.343832940 0.595951557 0.434408456
0.411005974 0.607337058 0.452498257
0.481214255 0.625679851 0.478304565
0.577482641 0.664389968 0.524731040
0.415180385 0.744338751 0.584946454
0.437191695 0.753826499 0.581530809
0.455407649 0.755597711 0.586970448
0.491714060 0.761290610 0.599114180
0.530929565 0.766856253 0.606071949
0.589247286 0.772422314 0.628462672
0.646932125 0.789373636 0.648829579
0.719797552 0.803162396 0.684503555
0.117267452 0.043516546 0.067046449
0.122327998 0.047817998 0.071346998
0.143453196 0.068185002 0.084250547
0.161037445 0.094876900 0.100695543
0.181404352 0.118658736 0.122580640
0.226818532 0.156989440 0.156989440
0.284882993 0.191903800 0.184313729
0.391271621 0.242757976 0.235294104
0.122327998 0.076027997 0.075648546
0.126628548 0.080328546 0.080708094
0.146236539 0.092852548 0.093231998
0.155976996 0.109677091 0.109297544
0.189753190 0.131562203 0.132068351
0.231119469 0.168121353 0.158633545
0.282352835 0.203668281 0.187223107
0.376217782 0.257178813 0.236305952
0.137254894 0.126122996 0.113599092
0.134092093 0.133207098 0.116381645
0.149779007 0.138266653 0.124984451
0.163820103 0.154332995 0.134725094
0.195445836 0.174319744 0.158254087
0.238203794 0.204427287 0.181024805
0.297533095 0.245034888 0.211385086
0.403668344 0.297406644 0.260847479
0.132574096 0.188994542 0.151929200
0.140417099 0.196078539 0.159392640
0.150917441 0.206324831 0.164832547
0.169639543 0.215686545 0.170271739
0.203288749 0.239215732 0.192662984
0.249082893 0.261480391 0.213409558
0.316255271 0.299810350 0.245540828
0.418848991 0.355977148 0.294750005
0.122453898 0.291334391 0.211258739
0.139405459 0.285895079 0.213915199
0.149399355 0.299557537 0.216951296
0.176344097 0.311701298 0.225932732
0.213029981 0.325489700 0.238836169
0.265021920 0.344465286 0.260341525
0.350284636 0.384819895 0.297533184
0.459329516 0.449462444 0.354585350
0.116888002 0.423402905 0.292852283
0.137760982 0.423529476 0.296267807
0.164326280 0.430233836 0.300948739
0.201897368 0.439342260 0.309677631
0.256673098 0.451486528 0.328905463
0.320935994 0.471726716 0.344465464
0.403036088 0.499178022 0.380897909
0.520683169 0.558760226 0.443390101
0.185452104 0.558001101 0.393295109
0.208981514 0.569639146 0.402403384
0.238330066 0.574320138 0.408602089
0.281340718 0.579380274 0.421125621
0.337254912 0.589247286 0.435673624
0.400885373 0.602150381 0.452751309
0.477672279 0.622137845 0.479317009
0.574319720 0.651865780 0.521315455
0.410373092 0.734978020 0.582416415
0.432004929 0.745983124 0.582416058
0.447690934 0.749398887 0.588614881
0.485515475 0.757368505 0.594054341
0.522833467 0.761796296 0.604174495
0.580771446 0.772548735 0.623782396
0.646299362 0.781910181 0.648070812
0.714610755 0.799367547 0.684503555
0.118406095 0.052498192 0.092473097
0.126249000 0.059203450 0.099936545
0.136369184 0.076027997 0.105756097
0.160658002 0.093990996 0.124605000
0.184946001 0.124604993 0.144971296
0.225300729 0.162555248 0.174319729
0.288171977 0.205186576 0.213788897
0.386210978 0.252624810 0.255660832
0.124730989 0.079064094 0.110562995
0.125490084 0.084629998 0.108159095
0.142694190 0.093990996 0.120303541
0.159898907 0.116761185 0.133966088
0.187349990 0.141809091 0.152308539
0.228842273 0.171916738 0.182922244
0.282985717 0.211891249 0.216571823
0.382668912 0.268184721 0.264895916
0.134092093 0.128525987 0.133207083
0.137254998 0.133965999 0.138646185
0.160025105 0.150411084 0.154333100
0.164579183 0.159772187 0.162175998
0.196711197 0.182542995 0.178620979
0.237824351 0.209487826 0.201265082
0.291334271 0.253004313 0.234914467
0.405818760 0.303352237 0.286906838
0.138519645 0.197596729 0.176596642
0.138393357 0.206324920 0.184060991
0.155976996 0.214927629 0.185199529
0.173940182 0.223909095 0.197343186
0.202529833 0.246299818 0.213029981
0.246805981 0.266539931 0.236052811
0.315496355 0.305250078 0.267678559
0.422264487 0.359519273 0.316634893
0.128652900 0.288298309 0.230993077
0.134977907 0.294876516 0.225173727
0.148893088 0.301455200 0.241998985
0.174699187 0.311195523 0.247058734
0.213156089 0.326628476 0.264010191
0.266540021 0.350411028 0.285136074
0.346742541 0.389120698 0.317140967
0.462871671 0.452498376 0.373561084
0.128779352 0.423782378 0.312713742
0.133965999 0.424794644 0.313093066
0.167488977 0.430233926 0.321441829
0.204174459 0.441239834 0.329917818
0.259076387 0.451486528 0.343453735
0.316508710 0.467425466 0.361796439
0.400632262 0.500316262 0.392915726
0.521189034 0.555850565 0.455534577
0.192283556 0.559898853 0.407969564
0.205186620 0.570524871 0.420114011
0.239974558 0.574067295 0.423402727
0.282099634 0.577103078 0.430740029
0.337634265 0.584819734 0.446805865
0.402023941 0.602909505 0.463630795
0.474003822 0.620999575 0.491461068
0.575964272 0.656040311 0.536369324
0.408096313 0.737254798 0.582921863
0.421252578 0.746236444 0.585072756
0.442884237 0.745856762 0.591650605
0.478937238 0.753699958 0.601138294
0.522580504 0.759898841 0.612144172
0.578115046 0.768500865 0.629348636
0.637824297 0.783048689 0.652751327
0.707273602 0.802529633 0.683744490
0.125996351 0.065021999 0.140670642
0.125869542 0.072106093 0.139911547
0.139152452 0.084250547 0.145350739
0.156356648 0.101454638 0.154712349
0.183427989 0.133586347 0.174699187
0.225300729 0.162555248 0.202909380
0.280834913 0.204680622 0.241113275
0.391271621 0.257684976 0.296647638
0.133839443 0.097659647 0.146489188
0.137254894 0.097153895 0.150917351
0.145477444 0.108159184 0.148007184
0.160278350 0.121821634 0.159392655
0.189373642 0.148893103 0.182163343
0.225300729 0.175458282 0.205565840
0.283870935 0.218595892 0.248324096
0.386843860 0.268690765 0.294244051
0.139278546 0.139532000 0.164958745
0.128146634 0.142947555 0.164453089
0.150664091 0.154333100 0.178241625
0.164199650 0.170398548 0.186843634
0.192789197 0.191524550 0.210752994
0.237824351 0.219734341 0.239468738
0.298798352 0.262744993 0.275268734
0.404680312 0.312713385 0.323339373
0.139405355 0.199620277 0.204047635
0.137254998 0.209108278 0.209108278
0.154079542 0.223655641 0.224414736
0.172042638 0.245034993 0.238836288
0.205692545 0.259962082 0.252498657
0.247058734 0.283491284 0.269829512
0.316255271 0.316761345 0.301707625
0.426944882 0.368627459 0.354079813
0.122833550 0.299557626 0.262112617
0.128273353 0.302719831 0.268311530
0.146995544 0.318912089 0.278937280
0.177482530 0.325489819 0.284377187
0.222517371 0.337128520 0.298039436
0.274004042 0.363441199 0.322327614
0.352941275 0.398608387 0.354838461
0.468058109 0.457938135 0.407463878
0.118532620 0.432004839 0.343327016
0.139025643 0.433522820 0.350537598
0.169766083 0.440607220 0.356356561
0.208222464 0.447564840 0.364959002
0.260720998 0.460088730 0.374320090
0.323972374 0.477672458 0.399367332
0.403036356 0.508286178 0.422390729
0.519671023 0.565211773 0.483744562
0.196457908 0.566856265 0.437317938
0.212903097 0.572801888 0.442631215
0.243010640 0.575585067 0.452119023
0.288930893 0.583048940 0.459202915
0.341302961 0.592789590 0.470208824
0.405945748 0.608096123 0.490828276
0.482858568 0.625173926 0.517520547
0.580898225 0.663630903 0.564958870
0.410626113 0.740796626 0.603162408
0.420746118 0.746616006 0.596963763
0.439468592 0.751422882 0.609867096
0.475268573 0.754838586 0.613409221
0.519291520 0.761922777 0.624415040
0.572042882 0.769006789 0.643516600
0.641113281 0.784187317 0.664895713
0.717140675 0.801897585 0.692219675
0.116761386 0.076027803 0.181656986
0.123466350 0.082732551 0.188361734
0.141176194 0.097153798 0.195825383
0.163440540 0.111195281 0.203668192
0.188867807 0.144212395 0.218469188
0.220873177 0.169512734 0.239721790
0.287286371 0.211511806 0.278051883
0.392283440 0.264642656 0.334851354
0.124225445 0.108032897 0.190259382
0.127767190 0.110436089 0.192663193
0.142314643 0.118658833 0.194940075
0.158760369 0.134345442 0.203921631
0.184946179 0.155092001 0.215433195
0.225300729 0.182922259 0.247185454
0.284503549 0.223150194 0.286906898
0.390512407 0.269196540 0.338646501
0.137381092 0.151929095 0.226565182
0.130550444 0.158254176 0.211005732
0.148260906 0.166856185 0.231246084
0.165844351 0.179000646 0.232257724
0.195193008 0.199747175 0.249083087
0.235041082 0.225173831 0.271727085
0.298292100 0.263124377 0.308538884
0.410372853 0.316761613 0.365970999
0.123719163 0.218089640 0.245920181
0.132194653 0.222391099 0.252498537
0.146615997 0.230613723 0.256419927
0.169260010 0.245793983 0.270967960
0.201265186 0.264263004 0.291334361
0.250474364 0.286906928 0.308791757
0.319165260 0.325743288 0.343200505
0.435167223 0.372549057 0.392030448
0.115496621 0.301454961 0.294496983
0.123971999 0.310183376 0.308159649
0.141935095 0.318785310 0.314864069
0.177482530 0.339911371 0.329284936
0.236558989 0.368121386 0.357874572
0.284123987 0.384566456 0.372801960
0.363061160 0.412776560 0.394687176
0.472738594 0.461986363 0.442504853
0.116255738 0.432384282 0.376850158
0.130930007 0.436559200 0.388867825
0.160405084 0.445161074 0.397090375
0.209740564 0.459329635 0.405692458
0.269196630 0.475015700 0.423276722
0.330676734 0.489436954 0.439848125
0.421631545 0.521568477 0.468564272
0.529791236 0.570398211 0.514737487
0.196078271 0.570145488 0.469196558
0.216698289 0.576217532 0.480076194
0.242251664 0.583554566 0.489437163
0.290575624 0.588108540 0.496015042
0.350537449 0.599873543 0.512966394
0.414168060 0.613535821 0.524604797
0.490575492 0.632764220 0.548134089
0.593421936 0.673497796 0.593295336
0.396457732 0.741176248 0.619228601
0.416824609 0.745097935 0.621505260
0.435294032 0.749398828 0.627197683
0.468311071 0.758127689 0.635293961
0.514737546 0.764326572 0.647058785
0.573434472 0.773687482 0.660467744
0.642631054 0.790386021 0.685262442
0.721315742 0.804680228 0.714610755
0.109930001 0.099936739 0.254522473
0.120050810 0.102213539 0.260721177
0.140796736 0.113598995 0.266286999
0.160278350 0.132447898 0.272485971
0.191144988 0.151928991 0.287918717
0.231119469 0.183933988 0.297532976
0.288171977 0.214927256 0.324857265
0.393927753 0.266160548 0.389500290
0.118659012 0.124225251 0.256419748
0.122201070 0.131562188 0.263883293
0.138013899 0.137128189 0.267046094
0.158380911 0.151170090 0.273245096
0.190385893 0.168374389 0.285768479
0.233016729 0.192662999 0.299810261
0.285768270 0.227071285 0.331941724
0.390765339 0.274762869 0.387855977
0.123719260 0.173434749 0.290195823
0.118153259 0.176217377 0.279822916
0.135736898 0.186084837 0.283364981
0.164326355 0.191018179 0.294370383
0.192283452 0.212271005 0.305376291
0.237950370 0.235420629 0.324857444
0.301454902 0.264769286 0.354332864
0.410246849 0.318659097 0.418216258
0.107653007 0.235547364 0.313093096
0.118279263 0.239974737 0.310436517
0.135863096 0.244275987 0.318659097
0.162175909 0.255281389 0.323466092
0.203668386 0.273245066 0.342441708
0.254901737 0.293991119 0.358127624
0.317647070 0.326502174 0.382289827
0.432131261 0.373940408 0.441366345
0.089184269 0.319418192 0.354205906
0.108412005 0.323972374 0.363187641
0.129917637 0.333586395 0.369133621
0.172169447 0.345351011 0.380897909
0.220493451 0.365718186 0.394560158
0.284123987 0.384060949 0.416065902
0.368500531 0.411511749 0.441872001
0.478937298 0.459962100 0.492726207
0.103858255 0.438456476 0.419101983
0.123719186 0.437318236 0.432131648
0.153447092 0.449082822 0.435800135
0.200379461 0.465148538 0.450600713
0.271220893 0.482353151 0.468943447
0.348260462 0.510942698 0.499051183
0.430866718 0.531309247 0.519544721
0.536748469 0.571536481 0.561543286
0.188867748 0.566476822 0.513092756
0.209614187 0.571157277 0.518279374
0.235420808 0.579380333 0.525996268
0.281340629 0.587602854 0.533459783
0.348766536 0.606451929 0.549272895
0.418975294 0.620999277 0.569639027
0.502213538 0.638077259 0.591018498
0.607083917 0.678684354 0.629728317
0.389753163 0.738393486 0.648576736
0.406704426 0.743706465 0.647185206
0.422390848 0.746236503 0.654522538
0.458823591 0.754079461 0.664010227
0.506641507 0.764579237 0.669449747
0.570904493 0.773687482 0.685641885
0.643263638 0.790512323 0.706388235
0.722454369 0.813156307 0.737128317
0.075521715 0.124478281 0.370777845
0.089436978 0.128399700 0.372169524
0.122453995 0.135483995 0.373308003
0.154712349 0.153573707 0.383681208
0.202782989 0.174573272 0.393548369
0.254522473 0.200506002 0.401770800
0.314611286 0.230993286 0.423402548
0.396205038 0.274383396 0.452119082
0.084250435 0.145097822 0.366982847
0.095129713 0.152435243 0.370524794
0.117899999 0.157115743 0.373940706
0.155218303 0.172042832 0.379506469
0.202023983 0.191397846 0.391018540
0.249715269 0.216571629 0.406577975
0.320050538 0.243896246 0.419228077
0.395192623 0.278811067 0.449589074
0.066287011 0.192663103 0.382036537
0.086021721 0.196711004 0.387097001
0.113092810 0.205060095 0.385831654
0.154838651 0.215306893 0.397849113
0.202782989 0.234155372 0.406831384
0.259455919 0.255660832 0.422517538
0.327767342 0.286527455 0.443010569
0.410752505 0.322454154 0.473245084
0.037571095 0.257937908 0.408855170
0.057937827 0.259582609 0.408096075
0.101960659 0.268564284 0.414800465
0.149019718 0.277545631 0.418975204
0.208728552 0.296647578 0.434787899
0.271220803 0.314737350 0.445287555
0.341555923 0.343200624 0.466540277
0.437823981 0.380012900 0.496647865
0.022517631 0.350790471 0.443769455
0.030993085 0.353953362 0.452751368
0.089689918 0.358633637 0.455407739
0.148513645 0.364958912 0.465654731
0.221632093 0.379000545 0.476027638
0.293864518 0.398987710 0.490449011
0.373054713 0.418216348 0.510436475
0.479696125 0.462365717 0.548134208
0.057305612 0.465148747 0.511701405
0.084124021 0.469829261 0.513599157
0.134092450 0.470082194 0.522833645
0.191018075 0.479569823 0.527387917
0.266413808 0.491840243 0.540290713
0.336495459 0.506514549 0.549019277
0.432005256 0.535989702 0.572801828
0.541050017 0.572295785 0.611511588
0.175711557 0.581910312 0.574699283
0.195698857 0.581151128 0.569639146
0.229474723 0.584946454 0.581783772
0.280581832 0.594307303 0.587096572
0.341049731 0.613156378 0.600632310
0.430740207 0.630487025 0.620366812
0.521694839 0.665528178 0.651486576
0.624794066 0.687539518 0.677419305
0.389626563 0.738646388 0.696015298
0.393168509 0.741429269 0.685389102
0.416698396 0.742188275 0.693105221
0.454901576 0.750410974 0.699051142
0.506387830 0.764326572 0.709424317
0.567235589 0.777608693 0.728273392
0.644908309 0.795572281 0.742441237
0.741302729 0.817204118 0.777988911
0.003922000 0.150410995 0.553573430
0.000379548 0.156356841 0.550410807
0.035673745 0.168880343 0.555091441
0.130676657 0.185451970 0.553573430
0.218722537 0.209740654 0.563314378
0.304237634 0.237191558 0.571283698
0.390639096 0.271979839 0.581910074
0.477798581 0.316634804 0.601897597
0.006957703 0.175205365 0.540037751
0.000000000 0.179379985 0.537001908
0.028209874 0.185958236 0.545224607
0.135104448 0.204807013 0.553447187
0.221125722 0.223529533 0.557748139
0.303099275 0.252371699 0.570145130
0.383934528 0.282985508 0.581657290
0.477798581 0.331055969 0.601517975
0.010120182 0.223529249 0.556609333
0.005819155 0.230487093 0.550790489
0.019734398 0.239974812 0.560151696
0.131435663 0.250853688 0.568753898
0.216318816 0.272865355 0.570398450
0.309297770 0.293990910 0.582795680
0.397469640 0.328146666 0.592915952
0.492093623 0.367488891 0.614421427
0.001265167 0.295635641 0.566350222
0.001265167 0.298418611 0.569639385
0.004933828 0.304870635 0.570524931
0.123086825 0.316508412 0.579253197
0.219734371 0.334218651 0.583048403
0.312333703 0.356862456 0.590132535
0.403415531 0.384819925 0.603289068
0.500822186 0.419860810 0.626438737
0.001138640 0.390132815 0.587855995
0.006198666 0.396204978 0.601011753
0.000759097 0.395572007 0.600126505
0.108032964 0.398734719 0.602150261
0.225553319 0.416192174 0.608728766
0.326881737 0.434914827 0.618595839
0.425553411 0.460468262 0.630866647
0.537254810 0.492093801 0.650980413
0.006451829 0.517899752 0.647185266
0.033143621 0.522201240 0.646805644
0.106135502 0.521568716 0.640860021
0.184187457 0.519038558 0.641492844
0.267931730 0.521062613 0.647185266
0.366097540 0.538646519 0.658443689
0.472485811 0.559013486 0.674889266
0.578494370 0.585325778 0.691081703
0.226438969 0.637950540 0.691587150
0.238962665 0.639595270 0.685262561
0.267425805 0.636938691 0.683111787
0.317267537 0.640480697 0.697659612
0.369639635 0.649588704 0.703225970
0.445920259 0.654269338 0.705756128
0.534977853 0.673750758 0.718026578
0.644275427 0.696521044 0.742947578
0.423149556 0.754838586 0.741682589
0.415053666 0.765970767 0.751043618
0.441745520 0.766097307 0.753067672
0.473497748 0.770777941 0.757495463
0.516508698 0.776597023 0.766856253
0.580771565 0.792030334 0.781530499
0.665275335 0.808095813 0.808728874
0.768247604 0.833269596 0.833396494
