Assets/Shaders/EldamarStudio/100 Sci-Fi LUTs Pack/LUTs/cube/Sophia LUT.cube
LUT_3D_SIZE 5
DOMAIN_MIN 0.000000 0.000000 0.000000
DOMAIN_MAX 0.903226 0.903226 0.903226
0.003922000 0.000000000 0.058823999
0.065781116 0.017330708 0.085641995
0.230866402 0.042504575 0.124224991
0.398355246 0.125616997 0.176596999
0.611005723 0.223782644 0.278684646
0.006577994 0.115116984 0.120682694
0.107273981 0.122959986 0.128146991
0.249841809 0.153699979 0.156609699
0.405186385 0.209614113 0.219734415
0.618848741 0.284250528 0.296267807
0.130802989 0.292978972 0.217710406
0.187729403 0.304743797 0.230866402
0.296900809 0.312586963 0.254396379
0.432004958 0.347881407 0.283111989
0.643643498 0.416698217 0.356483221
0.271727145 0.493485123 0.334598124
0.306767970 0.508538723 0.356736541
0.389879823 0.512080967 0.360657722
0.512080967 0.528779149 0.392283261
0.691334605 0.587349653 0.444149226
0.472485572 0.769259751 0.533712804
0.511068583 0.768121481 0.538140297
0.573054790 0.770398438 0.559392989
0.664516211 0.782542586 0.579253614
0.783554792 0.790006399 0.618975520
0.000000000 0.021252289 0.145477697
0.061859697 0.022896998 0.151043415
0.217457101 0.076533571 0.187349692
0.380012661 0.159898862 0.247565120
0.596204758 0.240733802 0.317520708
0.016698286 0.113472693 0.163440987
0.106641397 0.130170405 0.181783408
0.238076985 0.165464982 0.213155985
0.391018450 0.216192529 0.263503999
0.600126505 0.293358684 0.335104704
0.140923694 0.290322810 0.263124675
0.189626992 0.297533393 0.274003386
0.289057404 0.311954409 0.285135984
0.428715944 0.346616387 0.322074711
0.635799944 0.415053666 0.382922083
0.274003983 0.489183992 0.363314539
0.305123538 0.497407109 0.374699414
0.384566665 0.505882561 0.385831982
0.502593517 0.521568418 0.406324685
0.682732522 0.582795799 0.467931688
0.475395292 0.759645879 0.542947471
0.499557018 0.764832497 0.552814782
0.570398569 0.767109215 0.570398211
0.659582496 0.774952352 0.588108599
0.777608752 0.789753497 0.628083467
0.000632584 0.017583590 0.289057791
0.075901411 0.036306284 0.286401391
0.229601398 0.087665990 0.296268404
0.379632950 0.163820133 0.333206534
0.582162917 0.245919973 0.399620384
0.035041120 0.143580109 0.292346805
0.115749404 0.154332399 0.291967094
0.239342406 0.178874105 0.313219398
0.386464417 0.228589267 0.343959421
0.594307303 0.296268225 0.412017792
0.148513407 0.289690405 0.344592392
0.207336992 0.299810112 0.350158095
0.312586993 0.340037793 0.379253834
0.430992991 0.356103688 0.399494380
0.625426769 0.414673954 0.449336231
0.284124106 0.488551259 0.442630976
0.311954439 0.501328528 0.441492647
0.390765131 0.507526815 0.448323697
0.501707792 0.523212850 0.465275556
0.685135901 0.586464345 0.522580802
0.455914199 0.752814353 0.575584829
0.498292089 0.757115722 0.591397703
0.561290443 0.761290610 0.604300976
0.660974383 0.770777822 0.623402774
0.776344180 0.787476420 0.664642572
0.002023998 0.065781124 0.452372104
0.111954562 0.085768417 0.456167132
0.266919822 0.130550280 0.460088372
0.404301256 0.187349856 0.459076285
0.588741601 0.253130823 0.506894231
0.072359122 0.186970562 0.455281228
0.152688116 0.197469831 0.450474262
0.277672082 0.216824695 0.456799269
0.415306836 0.247185409 0.465908140
0.598861516 0.303731680 0.519544661
0.183428273 0.327007979 0.473751128
0.229222104 0.336116225 0.480961114
0.327008396 0.348893076 0.484250128
0.448703229 0.366856247 0.495509535
0.631245732 0.409993798 0.553953230
0.278558016 0.499304116 0.529791296
0.311827987 0.504870415 0.528019905
0.394939810 0.516255558 0.548007309
0.540544093 0.552308381 0.585579157
0.701454937 0.589879930 0.608222783
0.460341454 0.748260438 0.662618577
0.488677949 0.758633733 0.673244655
0.550790608 0.760278463 0.675268948
0.654775620 0.771410286 0.687412739
0.780644953 0.790385842 0.721441746
0.040859953 0.146615803 0.714231610
0.179000676 0.159645975 0.712333560
0.344085813 0.190385550 0.703731775
0.510562956 0.231246099 0.707400441
0.671094596 0.279949814 0.709044755
0.101834260 0.239341974 0.701834202
0.200885370 0.244022638 0.709044755
0.347375035 0.263250947 0.706388593
0.513472378 0.290702105 0.705376327
0.675395429 0.326754928 0.709044755
0.157495424 0.380518824 0.701707304
0.227830276 0.383554667 0.709424317
0.366223812 0.389752954 0.709677160
0.525616527 0.407084286 0.714610934
0.686906755 0.437571228 0.719544590
0.284756303 0.567615449 0.732574403
0.323592782 0.570272028 0.730297506
0.414041817 0.564452946 0.731941581
0.550664186 0.567362130 0.733206749
0.717899919 0.594307303 0.748133957
0.462112606 0.757368565 0.760025382
0.489183724 0.762302279 0.786337912
0.554838598 0.763946712 0.781530380
0.653383911 0.777988434 0.790891826
0.788614750 0.817583621 0.818722546
