Assets/Shaders/EldamarStudio/100 Sci-Fi LUTs Pack/LUTs/cube/Sophia LUT.cube
DOMAIN_MIN 0 0 0
DOMAIN_MAX 1 1 1
LUT_3D_SIZE 32
0.003922000 0.000000000 0.058823999
0.003922000 0.000000000 0.061859611
0.003922000 0.000000000 0.062744997
0.003922000 0.000000000 0.060215000
0.005439999 0.001138547 0.056040544
0.017583998 0.010246934 0.065148935
0.039848000 0.014294676 0.076787002
0.065781116 0.017330708 0.085641995
0.090828992 0.019608000 0.090195999
0.109045014 0.019607998 0.090196006
0.133079991 0.016698129 0.096014999
0.159392759 0.021758251 0.104111254
0.185578987 0.030866642 0.112080999
0.209614038 0.039468966 0.118152998
0.230866402 0.042504575 0.124224991
0.254522592 0.052751601 0.132700801
0.280329198 0.066413797 0.140290990
0.307020962 0.079696156 0.146362990
0.331309021 0.085768946 0.152435020
0.352814376 0.094623655 0.164073005
0.374066740 0.109424472 0.170524731
0.398355246 0.125616997 0.176596999
0.428463012 0.137760982 0.188867494
0.452751815 0.149905011 0.204047918
0.479317278 0.164326280 0.219228283
0.508032978 0.178114980 0.233016983
0.538899183 0.190765068 0.245667070
0.572296262 0.205945432 0.260847420
0.611005723 0.223782644 0.278684646
0.648703337 0.240227729 0.296900928
0.687792540 0.255407572 0.311574996
0.733332992 0.270588011 0.317647010
0.000885613 0.000000000 0.052751228
0.003922000 0.000000000 0.055787612
0.003922000 0.000000000 0.063124768
0.002656839 0.001265161 0.068311386
0.003542159 0.003795386 0.069702841
0.023655998 0.010246934 0.068184547
0.040859997 0.016825000 0.074762613
0.065781116 0.018722387 0.080961324
0.092346996 0.019608002 0.086401105
0.115117013 0.019608004 0.093232393
0.136242867 0.028336870 0.099051386
0.160404891 0.033902511 0.105123378
0.184440643 0.041871995 0.113219641
0.206578419 0.048829675 0.120936356
0.227830783 0.054649349 0.124224991
0.249083176 0.062491961 0.125489995
0.274257183 0.072485805 0.132700801
0.300948948 0.083997376 0.142188564
0.325237036 0.094876565 0.155471414
0.355091751 0.106514625 0.164326042
0.377103120 0.115875736 0.172422469
0.399367392 0.128652602 0.178621262
0.425679594 0.141049623 0.189120486
0.455787420 0.159013405 0.210119903
0.484630167 0.171157390 0.225300267
0.512713611 0.182795659 0.237697661
0.541935444 0.194307387 0.247691453
0.575331926 0.212017417 0.257811815
0.611385226 0.227197796 0.275648355
0.652245343 0.246805772 0.292093784
0.691208184 0.263630360 0.309930593
0.730297387 0.276659995 0.326755404
0.000000000 0.004300999 0.055281550
0.000885613 0.006451774 0.056167159
0.001771226 0.004300999 0.065654777
0.004301226 0.006830999 0.068438001
0.006578094 0.011132224 0.071347445
0.026059708 0.017204225 0.075395070
0.046932545 0.021125998 0.079949550
0.068437539 0.027197996 0.086021550
0.092979223 0.029727999 0.089563675
0.114484243 0.032511003 0.095888719
0.138013870 0.039089099 0.102087222
0.163314238 0.046173736 0.110183477
0.185452506 0.052877899 0.114105001
0.206199035 0.058190804 0.120177254
0.231246397 0.066160828 0.127008349
0.254649013 0.072485961 0.131941766
0.275901407 0.081593968 0.134977758
0.301328361 0.091334760 0.142820984
0.325616807 0.103478789 0.153447211
0.353320748 0.113472559 0.163061425
0.379885972 0.125616536 0.172169507
0.400379479 0.135989770 0.181530863
0.422517240 0.148133755 0.193042010
0.450853825 0.162302032 0.208222672
0.481214583 0.173813999 0.224921048
0.510183573 0.187349647 0.240101069
0.538520038 0.198988065 0.251233339
0.571916401 0.215559751 0.261986434
0.610119820 0.233269796 0.272612184
0.650094509 0.248450175 0.294370621
0.689057410 0.268058181 0.308918595
0.722960234 0.282732546 0.325111002
0.002529999 0.019228159 0.065148838
0.000000000 0.018469386 0.062618837
0.001265161 0.019734547 0.067425996
0.005059999 0.017963320 0.078305155
0.013029545 0.023655772 0.073371604
0.032131709 0.028842159 0.080708228
0.051613316 0.034914482 0.084756486
0.071979985 0.038330317 0.092093997
0.095509097 0.044402320 0.097406901
0.114231177 0.050474323 0.100442529
0.138266906 0.055281159 0.106387995
0.164579406 0.062618509 0.114484251
0.189626813 0.067552641 0.121315643
0.208729029 0.070588291 0.121695131
0.236053392 0.077672407 0.128779247
0.258443981 0.085642159 0.135483831
0.281214178 0.093232028 0.140290990
0.303099126 0.101707987 0.147627980
0.327387989 0.112587176 0.154965013
0.353194207 0.123213358 0.163820356
0.377355963 0.134218991 0.172928736
0.402656108 0.145351127 0.184061110
0.421884835 0.157242149 0.199114308
0.448070914 0.169386163 0.211258814
0.473877400 0.180518284 0.223150283
0.504111648 0.189879641 0.235800296
0.531942010 0.204553992 0.251486123
0.564579248 0.218975276 0.265148908
0.605818868 0.236812130 0.274636149
0.645793319 0.255787313 0.291334212
0.687412798 0.270082116 0.312966406
0.718912184 0.287539840 0.322833836
0.007084001 0.045414094 0.078810550
0.002909548 0.039721545 0.074636094
0.002909773 0.040101320 0.075395323
0.008855385 0.042251997 0.079064161
0.019481093 0.042631544 0.087413445
0.040733479 0.045667157 0.090449058
0.059456091 0.053004317 0.092093542
0.077672534 0.058823705 0.095888704
0.096268095 0.062239546 0.103858449
0.117520496 0.068311542 0.106894068
0.141682744 0.072232679 0.112080544
0.167236239 0.078557797 0.119417801
0.192283630 0.085389093 0.126249090
0.213283002 0.088678442 0.129791483
0.240227833 0.091840573 0.133080125
0.261480004 0.100063339 0.138519540
0.281593740 0.108412348 0.144212186
0.302719563 0.116887599 0.148007527
0.327008426 0.122960396 0.160151571
0.351296574 0.134598553 0.170271918
0.374066740 0.145983547 0.179000735
0.396963686 0.157495126 0.190133125
0.424288034 0.166603506 0.205186993
0.448829800 0.178494558 0.217331007
0.471600294 0.190259084 0.227198288
0.496647745 0.201770663 0.236685857
0.527008593 0.211385101 0.246552587
0.557368517 0.223529086 0.264769346
0.599493861 0.239848077 0.274636149
0.641113102 0.259456158 0.290448725
0.680581748 0.278810978 0.310309589
0.720050931 0.290955007 0.325489998
0.001012001 0.063630864 0.081846938
0.010120386 0.060594477 0.090955324
0.010246934 0.061353706 0.095382869
0.015812997 0.064389773 0.095888935
0.028589480 0.066919543 0.093485445
0.049841866 0.069955930 0.096521065
0.068563931 0.072991543 0.104617313
0.086780474 0.077039704 0.107273929
0.104996935 0.080076098 0.110309996
0.123592496 0.083491936 0.116002455
0.147754729 0.092473060 0.116128936
0.170019254 0.096521191 0.119165190
0.192283630 0.100569285 0.123213291
0.213283002 0.103858054 0.126755089
0.231498986 0.109930053 0.135863468
0.258443862 0.120303601 0.141555935
0.282732397 0.127387732 0.150663942
0.305249900 0.132067934 0.159392595
0.323972046 0.138140008 0.163187966
0.348260790 0.149778783 0.178115308
0.372548908 0.158127934 0.186590925
0.396331251 0.167235926 0.196205124
0.421252400 0.178747505 0.211258993
0.448576838 0.187855914 0.223403007
0.475395262 0.197470218 0.233270288
0.501707613 0.209867164 0.243769988
0.530044198 0.223529130 0.255407929
0.560404956 0.235673860 0.267804980
0.593421698 0.245161012 0.275395066
0.630613387 0.261100441 0.289057404
0.668437541 0.279822975 0.307779908
0.707906127 0.297026992 0.325489998
0.000000000 0.089437321 0.097532995
0.011638064 0.086400934 0.096521392
0.018595677 0.087666094 0.101328224
0.025679834 0.090702161 0.104490675
0.039848093 0.093358316 0.102466673
0.058950249 0.094243929 0.107653059
0.080202632 0.097280316 0.113219641
0.096773922 0.100315928 0.117394321
0.114104867 0.104111187 0.118153222
0.132321328 0.108918801 0.122453995
0.153826743 0.112713441 0.120177321
0.174066991 0.119797312 0.126249060
0.197090313 0.123339638 0.132574320
0.221378744 0.126375616 0.138393357
0.244149312 0.130170316 0.142947733
0.262365311 0.138646111 0.149652317
0.289310187 0.147627994 0.155724317
0.314610809 0.152940899 0.165211901
0.336622328 0.160910651 0.172043294
0.360405058 0.170019031 0.186211050
0.379000574 0.182163313 0.199494153
0.403415233 0.188488454 0.206831321
0.430487007 0.195952117 0.217077985
0.450601250 0.205059901 0.224415004
0.482479572 0.216445565 0.236558989
0.513092935 0.227198303 0.248703331
0.543200433 0.240733638 0.261985987
0.573561192 0.252877891 0.274129987
0.611638069 0.267425805 0.283491313
0.648576856 0.278304607 0.294876486
0.686654210 0.297659546 0.314990550
0.726122618 0.320809305 0.338140309
0.006577994 0.115116984 0.120682694
0.013788708 0.113725305 0.112713374
0.028209701 0.116634756 0.109044932
0.035546862 0.114611141 0.112080865
0.051106796 0.116128854 0.113598861
0.071853563 0.117393695 0.120935693
0.086021610 0.119924016 0.123718925
0.107273981 0.122959986 0.128146991
0.122453794 0.125995800 0.129664987
0.139784977 0.131182969 0.133586213
0.159266159 0.135989830 0.134092569
0.180138990 0.139405414 0.135863438
0.199493632 0.144338772 0.143832698
0.225553066 0.147881031 0.152181998
0.249841809 0.153699979 0.156609699
0.272612423 0.158254206 0.160404980
0.292346209 0.164326206 0.164959177
0.318785131 0.171536684 0.172169685
0.343073964 0.181656957 0.182289973
0.362429023 0.187476352 0.195319355
0.385958254 0.198481977 0.208601758
0.405186385 0.209614113 0.219734415
0.434914678 0.214168489 0.226565495
0.459203094 0.223276511 0.234155700
0.485515594 0.234661564 0.243137389
0.516128957 0.245414659 0.255281389
0.550031483 0.257305712 0.270208776
0.583807826 0.269449681 0.283491403
0.618848741 0.284250528 0.296267807
0.659961820 0.297659665 0.308918148
0.699430823 0.313345879 0.324984163
0.738899291 0.339911401 0.350031704
0.022517091 0.137128100 0.141176000
0.025553480 0.138646096 0.132068008
0.035547193 0.142188191 0.124984093
0.051486157 0.144971162 0.121948160
0.060215093 0.136242986 0.124605000
0.082226865 0.138140157 0.132574156
0.096141770 0.141935319 0.134850994
0.111068696 0.144212380 0.138772801
0.130803093 0.147248194 0.141050085
0.145983502 0.150284588 0.147122085
0.164073184 0.156230092 0.150284767
0.184313431 0.160278365 0.154079735
0.204806730 0.162555560 0.156736001
0.226059124 0.166097164 0.162808061
0.249841809 0.175205410 0.168880180
0.274130583 0.180265903 0.173307896
0.296141893 0.184060991 0.177862078
0.317393631 0.187729180 0.182796031
0.341555953 0.199620202 0.194940105
0.360531390 0.205692455 0.207084104
0.381404161 0.212903082 0.217710078
0.404427290 0.223276109 0.227324218
0.432005376 0.232258007 0.236432567
0.462998003 0.240733996 0.245540813
0.491081297 0.251359999 0.255408287
0.519164741 0.263630658 0.265907973
0.546995223 0.273245007 0.278052002
0.585705280 0.285389006 0.292979330
0.622137845 0.299430907 0.308159202
0.658570290 0.312840044 0.322580159
0.703984618 0.328526109 0.338646173
0.743453085 0.352814913 0.356862992
0.049841486 0.152308494 0.141176015
0.052877881 0.158380508 0.141176015
0.055914268 0.162049279 0.138519779
0.064642809 0.165211827 0.136622503
0.078431100 0.166602999 0.136749014
0.084503882 0.160531014 0.136749014
0.101455003 0.164958492 0.139658183
0.119291477 0.167615011 0.147501424
0.136875093 0.168500587 0.156230494
0.152055502 0.171536982 0.156230494
0.170145735 0.177482486 0.159392625
0.190386206 0.181530759 0.164452523
0.210499957 0.183428496 0.168121010
0.229095519 0.184313938 0.168880060
0.250347883 0.193421558 0.174952820
0.274130583 0.200126618 0.181024954
0.295382977 0.206072494 0.188488290
0.314358026 0.212017983 0.197975665
0.335610479 0.218089998 0.210120484
0.362555355 0.229980990 0.222264498
0.387476474 0.237950504 0.230613485
0.409740984 0.244275495 0.235926613
0.428968996 0.250474006 0.239468962
0.462365419 0.256546795 0.248576581
0.491081297 0.265022188 0.259962082
0.519797325 0.277039647 0.271979988
0.550031602 0.291460991 0.284124017
0.580392301 0.303604990 0.296267986
0.621758640 0.315749645 0.311195344
0.658570588 0.328020424 0.324604452
0.698545158 0.343706429 0.338646173
0.752561510 0.367994517 0.356862992
0.050980002 0.179126874 0.155723870
0.068564259 0.182289734 0.155723870
0.067299098 0.179759741 0.157874644
0.071347289 0.184313878 0.156356707
0.083997414 0.191903740 0.154712006
0.102719866 0.190891743 0.154712006
0.116382316 0.187349424 0.157242328
0.130929857 0.193927571 0.160278022
0.146615878 0.197722733 0.167109311
0.163946480 0.198608354 0.171410874
0.179126874 0.198734865 0.174319997
0.197343633 0.204806864 0.177356139
0.216571987 0.208728641 0.180265740
0.234788060 0.210499868 0.180265740
0.253384262 0.211638317 0.181024820
0.274636656 0.220746547 0.189500183
0.295382977 0.225806668 0.197596326
0.314863950 0.230486989 0.207336858
0.338393122 0.236559018 0.219481081
0.359645516 0.245414361 0.226059839
0.386717319 0.255534619 0.236053124
0.411006123 0.261606604 0.242125124
0.431499362 0.265780866 0.245540977
0.459329784 0.271852940 0.257431954
0.488172144 0.282479703 0.264262855
0.518279552 0.292220056 0.277925462
0.550158143 0.303858101 0.291587800
0.580518842 0.316002727 0.296520978
0.616192579 0.330802888 0.319291621
0.659962058 0.343200535 0.333459824
0.697912574 0.358001441 0.345603824
0.738393128 0.380265743 0.359772116
0.065148249 0.204427496 0.162808269
0.075269029 0.211511895 0.162808269
0.086527474 0.208095983 0.162934780
0.087286249 0.207084298 0.169766009
0.096774079 0.216192499 0.171663254
0.116382182 0.216192499 0.174952254
0.128526047 0.217710182 0.173434570
0.145351142 0.214674219 0.178115249
0.159013346 0.220746413 0.181530401
0.175964519 0.222011253 0.186337695
0.189247116 0.224035501 0.187476113
0.204427496 0.226059243 0.188487992
0.222643986 0.229854241 0.192663014
0.240860075 0.232257992 0.194687217
0.259076834 0.235799968 0.196457997
0.279696763 0.240987048 0.205692440
0.300949186 0.248577252 0.213282630
0.320303798 0.252118915 0.221884921
0.343200564 0.256799251 0.232637271
0.364705920 0.263630331 0.239215434
0.384060532 0.268943727 0.241492718
0.412017971 0.277799129 0.250221133
0.436179966 0.283111989 0.255534500
0.457811654 0.291081250 0.265781254
0.487160265 0.299683571 0.275395513
0.514484644 0.311827958 0.280075848
0.546616077 0.321568310 0.294117719
0.578494608 0.332194865 0.301707566
0.616192579 0.346995652 0.319291621
0.652624846 0.358633697 0.336495966
0.694749892 0.370525241 0.349525571
0.729285002 0.388361990 0.362808257
0.089816280 0.233270273 0.177229643
0.093611762 0.238963023 0.177229643
0.101834506 0.241872370 0.177229643
0.110815637 0.238582954 0.178874299
0.116887726 0.244276091 0.189500287
0.132068515 0.245034978 0.194054291
0.143832967 0.246426314 0.192536309
0.157874405 0.247311696 0.194433987
0.175332099 0.245034978 0.198987991
0.190512493 0.247691154 0.201644152
0.203921631 0.250727504 0.204047635
0.215812892 0.252625018 0.205186278
0.234408617 0.255660921 0.206324920
0.252877682 0.255913883 0.212397635
0.271979809 0.261100262 0.216318861
0.291461438 0.267172605 0.225426629
0.311575174 0.270967960 0.232257724
0.332827538 0.276407570 0.237697929
0.354079992 0.279443324 0.245793700
0.375332385 0.286400646 0.254395664
0.393548638 0.293991029 0.257811278
0.412776768 0.296015292 0.260847420
0.442631483 0.304744095 0.269576281
0.463883638 0.313851744 0.275648534
0.491208196 0.324098557 0.285895288
0.521315634 0.333459616 0.294497311
0.550158083 0.345097691 0.299557060
0.584187031 0.354206055 0.312333614
0.620619774 0.368627459 0.328652650
0.659456134 0.382542819 0.344465613
0.698544800 0.393422216 0.358380616
0.735736609 0.405819267 0.373813987
0.118658997 0.268691003 0.208602041
0.119418032 0.268691003 0.208349004
0.125110775 0.272486001 0.208349004
0.134724900 0.276028007 0.210373208
0.143453091 0.276660472 0.213536039
0.149525866 0.279696107 0.213536039
0.160152003 0.280455053 0.210499719
0.175585046 0.280455053 0.212903023
0.192789137 0.280455053 0.216698050
0.207969546 0.280455053 0.216698050
0.223149911 0.283364862 0.222517043
0.234535247 0.284377009 0.226312295
0.248323992 0.285262614 0.229601637
0.272612065 0.288298994 0.233144030
0.293864399 0.291334599 0.239216030
0.312207580 0.296521068 0.246932238
0.330929995 0.299810022 0.252245009
0.349272519 0.300442606 0.253383607
0.370524973 0.303479016 0.256420046
0.391777366 0.311574668 0.266034007
0.409740686 0.322580487 0.272991747
0.427451164 0.331183046 0.277799100
0.448956519 0.331689030 0.286907464
0.476280957 0.340923160 0.287286997
0.505629539 0.352055609 0.296141982
0.536242962 0.362555385 0.307147354
0.567362070 0.371916115 0.317014098
0.603794813 0.381024450 0.332194448
0.637570798 0.395445853 0.347374856
0.674509525 0.410626203 0.362302184
0.714484572 0.425553590 0.377861977
0.760025024 0.440733999 0.396077991
0.130802989 0.292978972 0.217710406
0.139911368 0.292978972 0.214674011
0.140670404 0.292978972 0.214420989
0.148893148 0.294243962 0.219481304
0.161669821 0.295002967 0.228969410
0.167741850 0.300948471 0.234788403
0.173813984 0.303984702 0.227198079
0.187729403 0.304743797 0.230866402
0.204427823 0.304743797 0.236432493
0.217077911 0.304743797 0.228842825
0.232258275 0.307652920 0.234661818
0.245414406 0.308664978 0.236685827
0.256926000 0.308664978 0.239595413
0.272612065 0.309550583 0.245288029
0.296900809 0.312586963 0.254396379
0.310942411 0.315623194 0.255661398
0.330423981 0.319291621 0.262112647
0.351549834 0.321694970 0.269322991
0.367488593 0.324731380 0.277672380
0.388740957 0.327767015 0.269576043
0.409993321 0.337760866 0.276280761
0.432004958 0.347881407 0.283111989
0.458064884 0.352941364 0.289943069
0.485389322 0.365085393 0.299051464
0.512713671 0.374320090 0.306261688
0.543453634 0.382669359 0.317393899
0.576217473 0.390385807 0.328905821
0.609866858 0.402276814 0.341302812
0.643643498 0.416698217 0.356483221
0.680581927 0.431878567 0.369892359
0.717394173 0.446173370 0.382668972
0.750917435 0.458949983 0.396077991
0.150157794 0.324477792 0.226818800
0.152055383 0.319670767 0.233396396
0.159012988 0.319670767 0.234661564
0.164579302 0.320935935 0.237444580
0.177103251 0.322074592 0.245793983
0.181150988 0.324098587 0.247817993
0.192030594 0.330044091 0.241239667
0.199746877 0.329791069 0.240353972
0.214168385 0.329031974 0.247943997
0.226312816 0.329031974 0.243769661
0.241366044 0.331941694 0.249209791
0.256546438 0.332953572 0.251233786
0.269070268 0.332953572 0.252372146
0.281214595 0.333206594 0.256672978
0.296900809 0.336243004 0.259329617
0.321188986 0.339278787 0.268437982
0.333333373 0.342315167 0.268437982
0.354079962 0.345350981 0.274889380
0.374572873 0.348386973 0.283997774
0.395319164 0.351423234 0.288425237
0.416571528 0.358254343 0.288804591
0.438836038 0.367868781 0.296394795
0.464769483 0.373814255 0.302466780
0.492093921 0.379126996 0.309297889
0.521695018 0.391271561 0.318406284
0.550537467 0.401897758 0.327513903
0.582416117 0.411005765 0.338646322
0.613915205 0.423149765 0.350790769
0.644908488 0.437950611 0.360784024
0.685389102 0.453130990 0.377735585
0.722580552 0.469196767 0.392030358
0.751423180 0.484376788 0.405692607
0.169892386 0.350284398 0.243516982
0.171410188 0.348766178 0.249588996
0.171157390 0.343959183 0.254395783
0.178494215 0.346489191 0.253636986
0.190765351 0.349778533 0.258697003
0.198355243 0.350917190 0.260973990
0.204427630 0.352941185 0.256420076
0.214927673 0.355597675 0.254016191
0.224794388 0.354079485 0.258570194
0.236938983 0.354838580 0.258570194
0.250474304 0.354712069 0.262871712
0.265654445 0.357242376 0.267931998
0.281973183 0.357242376 0.270208985
0.294876873 0.357242376 0.273118228
0.307021171 0.359013617 0.271853387
0.325743169 0.362049371 0.279063761
0.345477372 0.365085393 0.283617973
0.359519541 0.368121594 0.284882963
0.382922202 0.371157229 0.293105781
0.401391566 0.374193519 0.296394825
0.424161732 0.379506737 0.302466780
0.446426243 0.388615131 0.308539063
0.470841467 0.395319670 0.314611167
0.498165905 0.401138276 0.320683181
0.523213148 0.409487575 0.327514291
0.553573489 0.418848962 0.335230976
0.584946156 0.430740118 0.345224261
0.617330670 0.442884386 0.358380884
0.649209619 0.457684785 0.372422338
0.683870912 0.472865164 0.388361394
0.728525996 0.489816576 0.403921604
0.759012997 0.508665204 0.417836994
0.186843991 0.369765967 0.267172545
0.190512180 0.372801751 0.268943965
0.189879760 0.370018542 0.272612393
0.191903979 0.368374139 0.271853149
0.200632155 0.374446154 0.267299145
0.215053499 0.377735466 0.273371160
0.220746309 0.377609134 0.271220893
0.227704093 0.377609134 0.271473855
0.238203987 0.378368050 0.273750573
0.250348002 0.381404459 0.273750573
0.261226982 0.379253685 0.276660442
0.275395244 0.380265802 0.281720579
0.291714162 0.382163554 0.286527574
0.309677124 0.382163554 0.292599559
0.322201222 0.382163554 0.290702403
0.337887555 0.383934319 0.295382768
0.355218172 0.386337727 0.301201552
0.370398551 0.389373958 0.301201552
0.391650975 0.392409593 0.307273567
0.407969773 0.396078348 0.308412164
0.428209960 0.400379539 0.311574578
0.451865643 0.407463700 0.317646682
0.476154417 0.416445553 0.323845923
0.502972901 0.425047249 0.330423981
0.527008235 0.434787840 0.337128580
0.553700268 0.443137109 0.343200564
0.583554983 0.449715197 0.350790620
0.619607568 0.461733460 0.365970999
0.654016435 0.475901276 0.383175135
0.689184010 0.491713732 0.402529746
0.724224746 0.506135166 0.420240194
0.766729593 0.527387559 0.429348588
0.198988050 0.394054055 0.288424999
0.205060050 0.397090465 0.285389394
0.206578016 0.395825237 0.289310992
0.210120216 0.395066172 0.290069938
0.218848974 0.398735017 0.285515964
0.224920958 0.404807001 0.291587949
0.231752008 0.403036326 0.287539959
0.240860030 0.401897997 0.286654294
0.253510147 0.402656913 0.288931012
0.268564045 0.405692548 0.288931012
0.274889022 0.405819058 0.291840881
0.287539274 0.407590270 0.296901017
0.303858310 0.409488022 0.300696015
0.321821928 0.409488022 0.301707983
0.337001532 0.409488022 0.307779968
0.349525660 0.409488022 0.308286011
0.365211964 0.409741014 0.312080979
0.382542580 0.410626441 0.316381991
0.397723019 0.413662076 0.316381991
0.416192025 0.419481039 0.319671363
0.436052799 0.423402816 0.322454214
0.457558155 0.428716153 0.326754987
0.479190052 0.437697977 0.332953542
0.503478885 0.443769991 0.342061937
0.530297279 0.454648972 0.350917310
0.561290324 0.465148658 0.358381003
0.595699012 0.474004060 0.365971088
0.623023391 0.483112425 0.381151438
0.659076571 0.495130002 0.396331817
0.695256352 0.511068940 0.413535923
0.729032516 0.526375592 0.429348588
0.757621944 0.536496043 0.438456982
0.233396739 0.446173459 0.318026751
0.233902737 0.440860510 0.309424430
0.242125511 0.443896353 0.310689807
0.245287925 0.442125261 0.313599378
0.250221372 0.441746116 0.311322361
0.251486361 0.443011105 0.312587380
0.260088682 0.444023103 0.316129059
0.268058419 0.442884743 0.315749705
0.278304964 0.442884743 0.317267656
0.289436847 0.443896621 0.315243363
0.304237753 0.446805745 0.318153262
0.312334001 0.446805745 0.321189106
0.325996369 0.449083030 0.324225008
0.342062384 0.450474709 0.324478030
0.354712278 0.447944403 0.328020394
0.372295707 0.452751398 0.331688583
0.386717200 0.455028594 0.335104406
0.403668523 0.456293762 0.339911729
0.420999736 0.457179159 0.339911729
0.436179399 0.460214734 0.345477730
0.458190858 0.462491721 0.348513603
0.480328858 0.464642525 0.352561355
0.501834214 0.470082372 0.358633399
0.528779149 0.476154357 0.365085632
0.550790608 0.486780375 0.374193430
0.579886019 0.497533053 0.383301675
0.612903118 0.507147372 0.390765369
0.637950778 0.518532455 0.399114430
0.670588076 0.532953858 0.414294839
0.708665133 0.546995580 0.429475188
0.744338810 0.565085292 0.445793957
0.773561001 0.581783772 0.458697379
0.256546736 0.474256992 0.327514261
0.254648983 0.475774974 0.331688613
0.259203047 0.478051960 0.333080530
0.267046273 0.481087893 0.329791427
0.270334989 0.478937715 0.328020245
0.270334989 0.475901723 0.331056237
0.279823035 0.477798998 0.335484147
0.290575713 0.476154715 0.338519752
0.299937099 0.477419704 0.341556102
0.309044987 0.479696721 0.340796977
0.320176840 0.478810847 0.337887585
0.335104257 0.481720477 0.342821211
0.345351011 0.481720477 0.344718456
0.359519303 0.483744711 0.344465435
0.371663719 0.482353061 0.344212413
0.390512466 0.486527473 0.347248673
0.410246640 0.488045275 0.351802468
0.424920887 0.489690006 0.356610000
0.439342201 0.489690006 0.356610000
0.460468143 0.492473096 0.364073753
0.475648195 0.497406483 0.372042984
0.497912705 0.496394336 0.371030867
0.518406034 0.497912467 0.372675478
0.543959618 0.505755723 0.378747821
0.568627238 0.514484465 0.388994455
