Assets/Shaders/EldamarStudio/100 Sci-Fi LUTs Pack/LUTs/cube/Sophie LUT.cube
DOMAIN_MIN 0 0 0
DOMAIN_MAX 1 1 1
LUT_3D_SIZE 32
0.113724999 0.035294000 0.043136999
0.113724999 0.035294000 0.043136999
0.118026547 0.039595000 0.047437999
0.121569000 0.043136999 0.050980002
0.122327998 0.043895997 0.051739097
0.128399998 0.049968001 0.057811871
0.131941676 0.053510323 0.061353676
0.138266698 0.059835702 0.067678705
0.145857096 0.067425899 0.075268902
0.148893490 0.070461519 0.078304522
0.151929125 0.073497869 0.078431003
0.154965267 0.076533742 0.080455258
0.161416993 0.080708288 0.085768647
0.172802031 0.087033965 0.094117999
0.175838411 0.096141569 0.094117999
0.181277990 0.102845997 0.098924994
0.188867807 0.110436186 0.106514804
0.198608145 0.119544566 0.115622565
0.210752964 0.128652975 0.124730960
0.217331007 0.134977996 0.125489995
0.227197990 0.144844994 0.133079991
0.241366252 0.155977130 0.145224258
0.259456456 0.165211990 0.157115996
0.274636090 0.177356005 0.163188010
0.294370294 0.189499989 0.173813999
0.314231336 0.200252667 0.185957983
0.333966076 0.210373074 0.198102131
0.361290425 0.225553438 0.210246891
0.396584600 0.243389949 0.222390980
0.431246132 0.263377160 0.239848167
0.468184531 0.284629583 0.261100590
0.513724983 0.305882007 0.282353014
0.116761386 0.038330387 0.046173386
0.119797774 0.041366000 0.049209002
0.119797774 0.043516774 0.051359776
0.124099001 0.047438227 0.055281546
0.128399998 0.049968097 0.057811771
0.134471998 0.056040771 0.063883871
0.135483995 0.062112771 0.064895995
0.138013676 0.064010382 0.069070384
0.142820701 0.068184994 0.074510001
0.145857096 0.073497906 0.075268909
0.154712483 0.076533519 0.081214383
0.160025403 0.081594124 0.085515387
0.165211990 0.086780772 0.090701997
0.172802031 0.093105964 0.097153611
0.175838411 0.102213562 0.097153611
0.178874195 0.106514797 0.099557415
0.187349603 0.111954384 0.106514804
0.197343156 0.118911996 0.114990152
0.204680964 0.125616595 0.121695362
0.219607651 0.143074334 0.130803034
0.228336349 0.148260653 0.135356992
0.240354121 0.154964998 0.142188132
0.256546587 0.162302107 0.148387104
0.274636090 0.177356005 0.163188010
0.289816260 0.191777274 0.173813999
0.310942322 0.204680368 0.184566662
0.334472001 0.215939119 0.195066378
0.364326030 0.228589833 0.207210496
0.394307226 0.246426359 0.222011417
0.429980934 0.264642328 0.241619378
0.469070166 0.285515189 0.265907943
0.516761422 0.308918387 0.291461378
0.117647000 0.047817998 0.053510774
0.122833610 0.048703387 0.052245390
0.125870004 0.051739547 0.055281550
0.124604836 0.057305612 0.059582770
0.127640769 0.061353322 0.063124999
0.131942004 0.062112872 0.065655001
0.135104224 0.070335224 0.070968002
0.140037924 0.071473934 0.067679003
0.144844770 0.072485998 0.071726993
0.149272487 0.078558005 0.074510001
0.153826877 0.081720680 0.078178227
0.160910994 0.086780548 0.084250741
0.166983008 0.092853002 0.090322770
0.172802031 0.098671973 0.096141741
0.175838411 0.103984565 0.098039001
0.183175191 0.112586804 0.104743801
0.187728986 0.117140993 0.109297998
0.198608145 0.123212993 0.117773339
0.207716957 0.129285023 0.125363931
0.215686426 0.140037954 0.127767429
0.228968769 0.150664225 0.136875033
0.239341989 0.156988993 0.145224258
0.253383726 0.165717497 0.152182266
0.269576013 0.180897906 0.167362675
0.289816260 0.191777274 0.175964773
0.309171319 0.205565974 0.188108757
0.333460003 0.218722120 0.198988065
0.360530972 0.234155878 0.212776765
0.395192623 0.247311965 0.221125811
0.430866569 0.270841151 0.243390143
0.468564332 0.290195763 0.266287416
0.513346016 0.311954230 0.289817005
0.118912160 0.058697160 0.060088836
0.121188991 0.061227158 0.059582774
0.126375601 0.060847610 0.059582770
0.130676821 0.062618837 0.063883997
0.126881540 0.071726546 0.069196999
0.126375943 0.072232939 0.069196999
0.134471670 0.074256673 0.072991841
0.138266698 0.079316713 0.076281004
0.145857096 0.077799097 0.072486095
0.151423156 0.083365165 0.078052163
0.154585704 0.086527705 0.081214294
0.158381000 0.092852995 0.086274356
0.164453015 0.098924994 0.092346832
0.170778036 0.104743972 0.098418832
0.175838411 0.107779577 0.102466576
0.182416350 0.114357956 0.109044962
0.190006152 0.123212993 0.114105158
0.197975725 0.129284978 0.120809570
0.210752964 0.135357007 0.129917800
0.219861001 0.145477518 0.133206829
0.228463158 0.152688161 0.137634575
0.239595026 0.159772292 0.144718185
0.251738995 0.171663299 0.156230330
0.268058091 0.185705066 0.171410739
0.289057285 0.197596282 0.182289839
0.307906151 0.206831142 0.187349990
0.332700908 0.219987154 0.200000077
0.357747972 0.238203719 0.215180442
0.390132576 0.253637135 0.226186156
0.430866569 0.268311143 0.242125303
0.468564570 0.293864578 0.266793132
0.507274032 0.312460154 0.285009831
0.121948451 0.068564542 0.064262994
0.119671158 0.074256994 0.067678928
0.122327544 0.073877320 0.067805447
0.127260983 0.072106093 0.069576450
0.133332998 0.072485544 0.075268999
0.124225385 0.081593938 0.075268999
0.134218678 0.081720226 0.078178227
0.142441168 0.081593707 0.080834709
0.145857096 0.085009545 0.084250547
0.148893490 0.088045925 0.087286927
0.151929125 0.091081671 0.090322673
0.154965267 0.097406700 0.095002994
0.159140006 0.105376542 0.101074994
0.165718004 0.111195512 0.107147060
0.174952865 0.114231125 0.113219090
0.181657448 0.119671054 0.118532605
0.187729448 0.126881808 0.122327998
0.194940016 0.135357082 0.123845957
0.210120440 0.141429111 0.132953599
0.222517461 0.153067723 0.139278546
0.232384726 0.161417007 0.145350933
0.242251858 0.168501139 0.150411412
0.251738995 0.177735984 0.153826535
0.269955814 0.189880013 0.168753907
0.291966975 0.202403545 0.182036534
0.312460214 0.213156223 0.190385684
0.330044061 0.223023534 0.195066512
0.357368410 0.241239533 0.210246891
0.387349606 0.259076655 0.225047812
0.425047457 0.274889499 0.243770152
0.467426032 0.289310604 0.264136970
0.500822425 0.310562998 0.282353014
0.124984063 0.083744928 0.076407000
0.128020450 0.086780541 0.082479768
0.127893925 0.086021766 0.079443388
0.127640769 0.084250867 0.076913066
0.127260998 0.084630318 0.078304611
0.133332998 0.087665938 0.081340998
0.136875063 0.094244003 0.086401001
0.141176000 0.095508933 0.088677935
0.143200248 0.097532995 0.090701997
0.148893490 0.103225544 0.096394546
0.151929125 0.106261924 0.099430934
0.154965267 0.109297670 0.102466673
0.159140006 0.114484347 0.107147001
0.165718004 0.120303907 0.113219067
0.177861989 0.123339511 0.119291827
0.184693053 0.128778920 0.120556869
0.190765053 0.134851068 0.124604993
0.197469637 0.141429156 0.129664987
0.207084045 0.147501886 0.135989994
0.219481066 0.159139886 0.142314941
0.227830529 0.167489007 0.148386940
0.237444863 0.174573123 0.153447196
0.251738995 0.183807984 0.156862929
0.269955814 0.195952013 0.169006944
0.288171977 0.210373282 0.183934271
0.307400316 0.222264588 0.194433928
0.327134907 0.231878921 0.201012000
0.357368410 0.244275928 0.213282496
0.387349606 0.259835750 0.225806713
0.419481128 0.279064149 0.243770152
0.455787301 0.297912896 0.264136970
0.491714060 0.316635013 0.282353014
0.125489995 0.098924674 0.086021319
0.125996068 0.099430606 0.087033451
0.129032448 0.102466770 0.090955451
0.131941989 0.100189835 0.088551641
0.133459777 0.099304222 0.088931091
0.137381002 0.102340378 0.091966935
0.140923321 0.107906319 0.089943320
0.145351037 0.112334028 0.094370611
0.147754639 0.113219641 0.096015096
0.153826967 0.115749642 0.100316331
0.154459447 0.118911862 0.108538546
0.159519330 0.119923994 0.111574933
0.164199993 0.124730960 0.113472320
0.170019031 0.131941959 0.116508350
0.175332308 0.134977579 0.120303832
0.185072511 0.142820805 0.128779188
0.194307387 0.149019316 0.133712858
0.203036055 0.155723900 0.140164584
0.212143973 0.163693950 0.144339338
0.224035650 0.170272008 0.150411338
0.238076881 0.180518731 0.160278305
0.247058794 0.188235447 0.166603446
0.259455800 0.197343796 0.169892788
0.280075818 0.207084000 0.179633006
0.298291981 0.221505269 0.189500287
0.319291294 0.235293970 0.201391667
0.340797126 0.246552736 0.209614322
0.367109627 0.260720998 0.221758306
0.402529597 0.280581802 0.241492659
0.434661567 0.295762181 0.255408168
0.472485781 0.315496594 0.276027948
0.515496612 0.335357308 0.297533005
0.128778994 0.110815704 0.096773989
0.125489995 0.112460412 0.095129706
0.127640769 0.114610761 0.097280055
0.131941989 0.116381988 0.099051282
0.136116445 0.113725245 0.098671831
0.134092063 0.114231639 0.099177770
0.142061606 0.119797699 0.102087311
0.146742716 0.122580700 0.102340281
0.149020001 0.126375988 0.105376087
0.153320998 0.128146991 0.108412482
0.156863004 0.129411831 0.113978542
0.159266278 0.132067993 0.115749255
0.165338293 0.134345278 0.119923994
0.171410337 0.142694697 0.121441990
0.175838411 0.147121996 0.125869706
0.185325906 0.153320506 0.128779188
0.194433913 0.162428886 0.137887195
0.206451982 0.168627411 0.146995574
0.216571763 0.176723674 0.152055979
0.225173995 0.183048710 0.157875016
0.237571239 0.189373732 0.166097701
0.253763258 0.199493989 0.176217705
0.265148669 0.209487781 0.180265978
0.284882903 0.221631795 0.190891802
0.305502683 0.233649254 0.199999988
0.325110316 0.247438326 0.209108010
0.350664049 0.259582400 0.218722418
0.378368169 0.273624152 0.230866686
0.408348918 0.292472810 0.250980496
0.446299583 0.310183167 0.263757169
0.482353151 0.329791188 0.282479554
0.529411972 0.353320688 0.307526708
0.133332998 0.121442094 0.107399993
0.129538089 0.124478288 0.104364380
0.129158765 0.126755223 0.106388323
0.131941989 0.129285097 0.109677091
0.138393551 0.129285097 0.109677091
0.131562263 0.126628935 0.107020929
0.135609999 0.128146991 0.109298095
0.144465417 0.132448003 0.113725379
0.149778903 0.133207083 0.116761185
0.149778903 0.139279082 0.119797572
0.155597910 0.141809002 0.122074865
0.159645841 0.143832937 0.122580744
0.163820088 0.148007289 0.122959994
0.169892088 0.154080003 0.129032046
0.175964728 0.160152003 0.135104179
0.186843887 0.165465087 0.136369184
0.196711197 0.172296196 0.140164286
0.206451982 0.181404576 0.149272501
0.218596011 0.187603116 0.158380881
0.227451101 0.193675116 0.163947001
0.237318084 0.199747086 0.171916738
0.249968156 0.207084194 0.180012986
0.268184930 0.219228178 0.186084986
0.286401093 0.233775988 0.196964011
0.306894392 0.247438192 0.207590193
0.328905642 0.259582311 0.216698408
0.351170063 0.272233069 0.226818159
0.384060413 0.284630090 0.239215881
0.413661957 0.301328182 0.259329796
0.447311461 0.318532258 0.274762988
0.486148059 0.336622298 0.285515547
0.528652906 0.366983116 0.312839985
0.133332998 0.136622503 0.113472000
0.136369392 0.139658108 0.110436387
0.136875480 0.140543535 0.113852002
0.137001991 0.141935185 0.119797483
0.138393551 0.144465506 0.124857478
0.147501931 0.144465506 0.124857478
0.143200323 0.139279008 0.122201331
0.144465417 0.140291005 0.122833773
0.149778903 0.145351112 0.125869572
0.152814522 0.148387492 0.128905967
0.158633530 0.157368630 0.129032478
0.162681788 0.162049279 0.131182730
0.166856483 0.166223988 0.135104001
0.172928482 0.172296003 0.141176060
0.179000482 0.178368002 0.147248834
0.189879507 0.182036817 0.148513973
0.198987901 0.186717495 0.151549965
0.206451982 0.193548590 0.158380896
0.218596011 0.202656999 0.167488515
0.233523369 0.208855510 0.171030864
0.246426478 0.214927495 0.177988738
0.258570492 0.222011626 0.186084986
0.271220535 0.231372967 0.192156985
0.289437324 0.243516997 0.198229000
0.309930772 0.258064777 0.209107995
0.332574457 0.271726936 0.219734177
0.357242078 0.284377068 0.229854569
0.384566426 0.299557418 0.245034933
0.417457461 0.314611286 0.265401810
0.452371866 0.331688881 0.284882933
0.488930672 0.351549655 0.303478569
0.525616527 0.376091510 0.324983984
0.139151990 0.148892999 0.116634868
0.136369392 0.154838488 0.119418249
0.135104224 0.157874644 0.118532866
0.135610297 0.159898579 0.121821709
0.137634456 0.162175551 0.124730997
0.141682193 0.159645870 0.119671002
0.143200263 0.164705858 0.127261326
0.144465417 0.163440868 0.129032284
0.149778903 0.166223958 0.132068098
0.152814522 0.169260353 0.135104477
0.155850887 0.172296003 0.138140127
0.159898624 0.177356139 0.136116385
0.166350424 0.180392236 0.138519868
0.175964862 0.184692994 0.144591868
0.182036862 0.190764993 0.150663957
0.190512061 0.196837604 0.156736121
0.199114382 0.201897860 0.160784125
0.206451982 0.207969859 0.167488694
0.218596011 0.214800984 0.176596910
0.233523369 0.223909348 0.180139229
0.246805996 0.230107874 0.185072869
0.257938147 0.237191722 0.193169117
0.268564373 0.246299624 0.201138869
0.289563805 0.255661011 0.207210883
0.312333971 0.267805010 0.215559572
0.332827449 0.280961454 0.228462636
0.354585946 0.293611825 0.242125124
0.381910294 0.308791548 0.259709299
0.419860631 0.323971927 0.272232860
0.453763247 0.344465494 0.292726159
0.489057153 0.366729826 0.311195433
0.525489986 0.391018122 0.328399867
0.141176000 0.171157241 0.133839503
0.138140380 0.171157509 0.128779382
0.135104224 0.175078765 0.129664987
0.135862991 0.175585151 0.127134994
0.138899282 0.177102968 0.129411802
0.138646320 0.177355930 0.134851500
0.143200263 0.179886252 0.133333310
0.144844979 0.184313536 0.139152706
0.149778903 0.185452089 0.142188415
0.152814522 0.188488483 0.145224482
0.157874614 0.193548366 0.150284380
0.160911009 0.194560260 0.147248253
0.167362258 0.197596639 0.147627994
0.179000735 0.200885504 0.153699994
0.185072735 0.206957504 0.159771979
0.191524193 0.213029593 0.165844500
0.200632200 0.217584178 0.171916500
0.208475724 0.223150238 0.176723510
0.220619753 0.229222268 0.181657225
0.233523369 0.236053348 0.189247087
0.246805996 0.245161727 0.194181204
0.259962142 0.251360267 0.201265112
0.271473974 0.259709001 0.210373238
0.290828615 0.272612393 0.218342990
0.314358234 0.283997506 0.226692215
0.335863233 0.296141475 0.235799819
0.356609792 0.308285981 0.250221133
0.386970133 0.321947783 0.268437892
0.416825026 0.339152306 0.281340986
0.454522163 0.354332685 0.295256168
0.489942759 0.377862215 0.316002578
0.527514219 0.402150244 0.333460003
0.138898998 0.198481634 0.152435347
0.137001738 0.196584374 0.146742597
0.136242867 0.197849497 0.145224631
0.135862991 0.200632438 0.146109998
0.140796542 0.197596729 0.140417546
0.137760937 0.199114338 0.151043937
0.142315000 0.201011956 0.151043683
0.146742716 0.204048201 0.151296720
0.150537997 0.207842916 0.155092001
0.153953165 0.211258769 0.158507153
0.161036998 0.214927286 0.163314298
0.166223913 0.218089640 0.164705649
0.169259995 0.219228283 0.159772292
0.181403995 0.222264603 0.165844291
0.189246997 0.227450982 0.171916276
0.196457639 0.234661624 0.179126948
0.204047844 0.240354180 0.184060991
0.213156223 0.243390560 0.190132990
0.224794298 0.248956650 0.191145003
0.238077059 0.256167293 0.199493945
0.252498627 0.261859745 0.205565825
0.264642626 0.271979988 0.213662609
0.279822975 0.278431505 0.222770274
0.298038989 0.291587919 0.230866551
0.320809543 0.304490983 0.239974916
0.344592273 0.316635251 0.250221580
0.364326358 0.329285234 0.259835273
0.396457702 0.342061609 0.276786894
0.429095477 0.360657632 0.293105632
0.461733162 0.380518824 0.309297800
0.499936432 0.396584630 0.328020185
0.539658606 0.420366645 0.349778622
0.132826999 0.225047067 0.161796063
0.133332998 0.225047067 0.161796063
0.135230735 0.226944804 0.163187742
0.137760878 0.230234161 0.166223884
0.140543506 0.233017519 0.169006586
0.137507901 0.229981124 0.165970981
0.142061964 0.229222029 0.163187742
0.146742716 0.231119707 0.163693756
0.150537997 0.234408990 0.167741999
0.156609997 0.240480989 0.173813984
0.165591121 0.240733996 0.176976860
0.172675505 0.242757812 0.179506734
0.177862391 0.246046677 0.181024671
0.181403995 0.249082997 0.178242028
0.193547994 0.252118587 0.184314027
0.203035846 0.259708852 0.192536250
0.212397188 0.267299056 0.198608190
0.221758530 0.272991627 0.202530026
0.230866939 0.276028007 0.208602056
0.245287642 0.284377366 0.216698363
0.262112439 0.290196300 0.222770289
0.278811008 0.295762062 0.228083253
0.291460991 0.307906061 0.240101501
0.309930027 0.317140937 0.246300042
0.332194567 0.328779042 0.254902273
0.356989294 0.340923309 0.265907973
0.382290095 0.353573978 0.278305024
0.409614444 0.368753612 0.290449023
0.446805775 0.388993829 0.310056835
0.484756380 0.411764383 0.331309170
0.523466229 0.435041100 0.354332566
0.565971076 0.453257114 0.381657004
0.126754999 0.243263826 0.173940822
0.132826999 0.243263826 0.173940822
0.133332998 0.243263826 0.169639274
0.132700741 0.246426404 0.169259742
0.131688878 0.251486540 0.172295958
0.134471521 0.254269868 0.175079346
0.139025584 0.251233488 0.174573407
0.145098001 0.253763378 0.177229822
0.150537997 0.257684976 0.183428302
0.156609997 0.258696973 0.192029983
0.165591121 0.258949965 0.195192844
0.172675505 0.260974228 0.194180727
0.178747997 0.265148818 0.195825279
0.184440374 0.270335346 0.199494392
0.193547994 0.273370951 0.199494407
0.200885609 0.278811008 0.205566406
0.210626408 0.285515815 0.210752636
0.222137973 0.291587800 0.215053558
0.233902559 0.297280371 0.223782405
0.245793581 0.303099394 0.224288404
0.260467738 0.311701715 0.233775988
0.277292848 0.318532795 0.240986541
0.294497371 0.326122820 0.246173501
0.318785429 0.338266820 0.255281895
0.337254971 0.352055669 0.266034395
0.362302363 0.365211785 0.280328959
0.391903758 0.377862036 0.296774030
0.424794823 0.393042356 0.311701387
0.454775333 0.410878778 0.326502204
0.492346585 0.431498557 0.346489578
0.533839583 0.455154777 0.369512975
0.581151426 0.480582207 0.396837413
0.118279196 0.266286969 0.186084986
0.124351807 0.263883799 0.186084986
0.128273040 0.266034007 0.188235208
0.131055996 0.268817306 0.187982112
0.131815195 0.273751050 0.190639049
0.132827058 0.272738904 0.185578927
0.138393000 0.277925462 0.190891981
0.141176000 0.276533782 0.190891981
0.147248581 0.280328870 0.195445985
0.156609997 0.281973571 0.202909321
0.163187936 0.281973571 0.206198677
0.170271799 0.283997297 0.205186546
0.177482828 0.285894990 0.204427451
0.185072958 0.289436996 0.208981961
0.194180578 0.294623345 0.211132184
0.208095789 0.300062805 0.218342990
0.214168176 0.304617375 0.219860807
0.224541336 0.309803963 0.223655552
0.236685827 0.315875977 0.236305952
0.251233608 0.321947992 0.239468798
0.265274853 0.331815451 0.243263796
0.282479137 0.341429651 0.252371788
0.302213669 0.349019498 0.257178962
0.324225008 0.358886778 0.268564075
0.348513573 0.368754059 0.279949754
0.372549295 0.383681446 0.292093754
0.402909577 0.397849590 0.307779849
0.434408516 0.414927214 0.322960228
0.457937926 0.432763755 0.330929816
0.500695527 0.450980186 0.354965359
0.540038168 0.472485572 0.379886359
0.579506993 0.498292208 0.407210797
0.118279189 0.292093188 0.199747190
0.118279584 0.289057583 0.204300985
0.123719223 0.290322423 0.206451595
0.125489995 0.292093188 0.208222374
0.132194549 0.297280371 0.213029996
0.137887195 0.296521276 0.207337245
0.138393000 0.299557388 0.204807192
0.144212380 0.302340388 0.209107995
0.146489277 0.303099304 0.210626185
0.157874778 0.306135476 0.216698378
0.164199799 0.306261986 0.215306669
0.171789989 0.308286101 0.218849123
0.179000631 0.311321735 0.216951385
0.188109025 0.311954200 0.219861194
0.197216958 0.316761374 0.224161953
0.208095789 0.321315199 0.230486989
0.221758366 0.327387571 0.235041186
0.229095355 0.331056386 0.234534934
0.241239935 0.337128401 0.247944340
0.256167352 0.341682196 0.250474542
0.271347612 0.351549655 0.258444160
0.288551241 0.361670196 0.264516175
0.309803486 0.370271862 0.270714700
0.331055880 0.379379869 0.281467378
0.354585558 0.390006483 0.295129359
0.380265623 0.401897848 0.307274103
0.411005855 0.417078137 0.318912119
0.442377955 0.434281975 0.332068235
0.469322979 0.452498376 0.346868992
0.499177337 0.470714390 0.358001351
0.549019575 0.491587549 0.392789543
0.582542956 0.516508222 0.423908979
0.122960016 0.318152547 0.213662416
0.121315561 0.317014515 0.225300163
0.120683007 0.317646950 0.227577344
0.125489995 0.320682704 0.230613559
0.126628548 0.320682704 0.230993003
0.141302943 0.323466063 0.231245980
0.143200263 0.326502293 0.226818547
0.144465417 0.327261537 0.225047424
0.151296899 0.327388048 0.228209585
0.160404518 0.330423653 0.234282359
0.166602999 0.331182539 0.229348406
0.175331831 0.333206803 0.231372491
0.184440061 0.336875498 0.235800549
0.193548456 0.339911133 0.236306548
0.202656835 0.342947543 0.242378548
0.212397173 0.346615911 0.247185558
0.222390801 0.350537360 0.251486570
0.235167980 0.355977535 0.251486540
0.247312024 0.362049520 0.260594934
0.262871802 0.365338176 0.263251543
0.277419716 0.373434424 0.268943965
0.294624031 0.384187549 0.280328959
0.316002131 0.390259534 0.286527485
0.337760478 0.398861229 0.295635879
0.360657543 0.410246521 0.309297830
0.387602597 0.423150212 0.321821302
0.415433109 0.438836545 0.334472060
0.448702991 0.454142690 0.343832701
0.478810608 0.470714629 0.362934351
0.511574686 0.490196079 0.380771399
0.545983195 0.508538723 0.397596538
0.591524422 0.535863161 0.443136990
0.110816002 0.339405030 0.222770080
0.125996366 0.345477819 0.244022444
0.122201197 0.346489996 0.242757782
0.120682999 0.349272966 0.240987003
0.126628548 0.354079962 0.246173441
0.135736927 0.354079962 0.249209046
0.142821014 0.356862664 0.246932358
0.146489695 0.356609762 0.245288014
0.151296914 0.354586005 0.246299878
0.160404533 0.354712516 0.249462008
0.166603014 0.357748121 0.246805936
0.176723525 0.360531271 0.249588966
0.187476322 0.364706010 0.254522681
0.196584091 0.370272011 0.257559001
0.205692470 0.373308420 0.263630986
0.217204049 0.378748000 0.264896005
0.227577224 0.383048773 0.268438011
0.238203615 0.386337638 0.272738993
0.253384054 0.389373988 0.272738993
0.271094024 0.392662644 0.281847388
0.285262525 0.399493754 0.286401242
0.300696135 0.408855200 0.293232024
0.322074920 0.417584002 0.304743528
0.346362978 0.423656017 0.313851923
0.368121266 0.434534997 0.327514291
0.395192623 0.446679384 0.338519961
0.427577168 0.460089028 0.346616119
0.457937926 0.478305012 0.361796498
0.485894799 0.490954995 0.379126966
0.518785357 0.510689437 0.399367213
0.554079652 0.531815588 0.419860661
0.588488102 0.548007965 0.443137050
0.115370005 0.391271472 0.265275121
0.119418383 0.394560188 0.269829482
0.123845994 0.396331400 0.276028067
0.122960359 0.397596568 0.271347582
0.129032359 0.401012212 0.272106379
0.135736927 0.398608387 0.272738814
0.147375003 0.398608387 0.275775045
0.152308732 0.398102462 0.274889737
0.156103998 0.397343725 0.276407719
0.163187891 0.401391745 0.281467587
0.177735716 0.404300869 0.281467587
0.183807716 0.407337010 0.280455738
0.194434017 0.408096105 0.283871084
0.205692396 0.408981413 0.286653996
0.219860777 0.412017822 0.287665993
0.236179352 0.417457402 0.296141803
0.249082744 0.420493394 0.300316364
0.260721296 0.422264338 0.305123389
0.275901705 0.425300717 0.305123389
0.291081399 0.433902383 0.313472748
0.311195105 0.436938465 0.316888392
0.325996250 0.444275886 0.319038600
0.341935873 0.453257740 0.325869381
0.363567740 0.459329754 0.337634623
0.392409712 0.469955742 0.349019736
0.419354677 0.484882712 0.366477013
0.450853854 0.499810129 0.381530732
0.481214613 0.513472676 0.398987830
0.514231503 0.529032528 0.414168209
0.545350850 0.546616256 0.435800135
0.582542539 0.569892645 0.458950043
0.621631742 0.590765357 0.482099742
0.115749262 0.426944971 0.291840732
0.122580640 0.429981083 0.291081637
0.129158989 0.432763726 0.295762241
0.130423829 0.430233717 0.294497401
0.135863349 0.431751996 0.292599738
0.141935736 0.433269799 0.295635730
0.151170000 0.436559200 0.296268314
0.163314402 0.434914529 0.302593708
0.167868733 0.434914827 0.302593619
0.173940733 0.442125469 0.305249989
0.183048874 0.443390310 0.307400733
0.195951998 0.444528729 0.305502981
0.205439627 0.447564840 0.307779968
0.218595773 0.446552485 0.311321735
0.233776137 0.449588895 0.311321735
0.247564718 0.451233476 0.316634774
0.265781134 0.457305461 0.325743169
0.278684705 0.458697051 0.330929726
0.292600006 0.461733431 0.330929726
0.311575145 0.468437850 0.337381363
0.324857473 0.475648195 0.346489727
0.344085872 0.478684336 0.346489727
0.357621968 0.485894978 0.348766446
0.380645156 0.491966963 0.357368797
0.406831473 0.504490733 0.373307973
