Assets/Shaders/EldamarStudio/100 Sci-Fi LUTs Pack/LUTs/cube/Sophie LUT.cube
LUT_3D_SIZE 5
DOMAIN_MIN 0.000000 0.000000 0.000000
DOMAIN_MAX 0.903226 0.903226 0.903226
0.113724999 0.035294000 0.043136999
0.138266698 0.059835702 0.067678705
0.175838411 0.096141569 0.094117999
0.241366252 0.155977130 0.145224258
0.396584600 0.243389949 0.222390980
0.128778994 0.110815704 0.096773989
0.146742716 0.122580700 0.102340281
0.175838411 0.147121996 0.125869706
0.253763258 0.199493989 0.176217705
0.408348918 0.292472810 0.250980496
0.126754999 0.243263826 0.173940822
0.145098001 0.253763378 0.177229822
0.193547994 0.273370951 0.199494407
0.277292848 0.318532795 0.240986541
0.454775333 0.410878778 0.326502204
0.120809123 0.454269379 0.311069131
0.170398295 0.469323546 0.321821839
0.247944400 0.483997405 0.336622119
0.357242256 0.514105201 0.374826252
0.539405465 0.587729096 0.454143047
0.415180385 0.744338751 0.584946454
0.452118695 0.755850732 0.586211562
0.509297550 0.761290610 0.599873185
0.603668571 0.776723266 0.632257700
0.719797552 0.803162396 0.684503555
0.124478295 0.048703291 0.085641995
0.137887001 0.069955997 0.095129706
0.172928706 0.110183276 0.126881406
0.236685589 0.173940405 0.179127410
0.388994038 0.252118945 0.248576805
0.128778994 0.116381988 0.120303407
0.149398699 0.133712694 0.133080691
0.175205827 0.159898698 0.156609714
0.248197123 0.207969561 0.199493989
0.400505602 0.292726099 0.278051943
0.124098592 0.242251709 0.198102415
0.140796870 0.256040663 0.209234416
0.191903710 0.278937519 0.228589684
0.275015712 0.320177257 0.260973990
0.451106876 0.407210499 0.346489489
0.132321283 0.451360226 0.325363547
0.168753833 0.465401530 0.340417117
0.246679232 0.479190111 0.354206085
0.351675957 0.504617512 0.384313673
0.534851193 0.585452259 0.475015640
0.406831384 0.739784598 0.581657052
0.441619277 0.747627616 0.592409849
0.501454830 0.756103754 0.608475566
0.590006292 0.774066746 0.632637441
0.711574674 0.802276671 0.680708289
0.124224991 0.070588000 0.165464565
0.136621997 0.085641995 0.162808001
0.167994574 0.116381995 0.181783825
0.235167712 0.174952537 0.225679830
0.389374018 0.254396230 0.314737380
0.132700577 0.136369690 0.186084688
0.139531702 0.145477697 0.188361809
0.174826294 0.167742118 0.208601981
0.239721701 0.216445416 0.253130823
0.400505602 0.297912687 0.332321376
0.128779411 0.247184977 0.253131211
0.141809002 0.262238979 0.260594696
0.193547994 0.304743797 0.296268374
0.285262376 0.334851384 0.331309259
0.448197186 0.414800763 0.397722781
0.126122534 0.460088372 0.373181134
0.166477114 0.468311012 0.386211127
0.248956531 0.486274123 0.410752654
0.357621551 0.514105201 0.439848542
0.539152205 0.588741183 0.517773569
0.400000006 0.737128198 0.607716203
0.429222286 0.745603740 0.615180075
0.492219716 0.753446758 0.627324283
0.591017962 0.773434281 0.656799555
0.713219583 0.805945396 0.702087164
0.104870126 0.103984997 0.277799129
0.128399700 0.118659131 0.285262406
0.176217690 0.145856991 0.299304128
0.246300116 0.198102266 0.322833389
0.392409891 0.267931521 0.401391506
0.113345712 0.160784140 0.299557239
0.127134711 0.175205410 0.303858519
0.175205827 0.197217107 0.315622687
0.254142702 0.235420555 0.345350832
0.410246313 0.310056806 0.425806522
0.092726424 0.279569715 0.349272251
0.120556705 0.293991119 0.366350234
0.186970413 0.312966526 0.380645394
0.287539512 0.349904984 0.411764532
0.458696783 0.418975502 0.481846929
0.109930247 0.471853137 0.449462265
0.151170254 0.480708241 0.468943983
0.241113529 0.501581430 0.489563376
0.386717260 0.550411165 0.540544152
0.556230187 0.601138234 0.591650784
0.387476116 0.737887442 0.657937706
0.418089509 0.746995568 0.665907621
0.483744174 0.760404706 0.675016046
0.587096453 0.777735412 0.697280228
0.727008343 0.810120106 0.742441416
0.003922000 0.150410995 0.553573430
0.014168033 0.164832145 0.552055478
0.177861989 0.196964234 0.559518993
0.323718905 0.245035097 0.573813736
0.477798581 0.316634804 0.601897597
0.005819009 0.212903112 0.556609690
0.006325193 0.223782539 0.555850685
0.177609101 0.247311786 0.565464616
0.329285204 0.291461110 0.583048582
0.490575433 0.355597675 0.607843161
0.009234826 0.337507784 0.578367770
0.001644708 0.346616209 0.584566712
0.174573258 0.371536791 0.597975731
0.349146366 0.405945480 0.615306735
0.519038141 0.457937777 0.639216006
0.046679400 0.544971406 0.654269397
0.131688669 0.553447247 0.648956597
0.253383785 0.550790668 0.657811582
0.401771218 0.569766223 0.669575870
0.590385437 0.612903237 0.701960742
0.423149556 0.754838586 0.741682589
0.440986514 0.764579594 0.753067374
0.496900976 0.771157146 0.764073372
0.599493802 0.794054627 0.784566939
0.768247604 0.833269596 0.833396494
