Assets/Shaders/EldamarStudio/100 Sci-Fi LUTs Pack/LUTs/cube/Theodrith LUT.cube
DOMAIN_MIN 0 0 0
DOMAIN_MAX 1 1 1
LUT_3D_SIZE 32
0.011765000 0.000000000 0.000000000
0.011765000 0.000000000 0.000000000
0.018216226 0.000000000 0.000000000
0.029854160 0.000000000 0.000000000
0.046173092 0.000000000 0.000000000
0.070461869 0.000000000 0.000000000
0.082100317 0.002530322 0.000000000
0.097786278 0.003922000 0.000000000
0.120556287 0.003162904 0.000000001
0.147881463 0.000126516 0.000000004
0.178114995 0.000000000 0.005818999
0.204427496 0.000000000 0.005819260
0.235547274 0.002276998 0.006198998
0.277799040 0.007590032 0.011765000
0.317267388 0.004554423 0.011765000
0.366350383 0.001518196 0.004554200
0.420999557 0.000000000 0.000000000
0.476787090 0.000632576 0.001264991
0.525363982 0.003668965 0.007337000
0.582290113 0.001138643 0.007843000
0.639974713 0.001897740 0.005945744
0.693611324 0.002909872 0.002909872
0.739278972 0.000000000 0.000000000
0.787855804 0.000000000 0.000000000
0.834155858 0.000000000 0.000000000
0.879696608 0.000000000 0.000000000
0.923213065 0.000000000 0.000000000
0.956609428 0.000000000 0.000000000
0.984692812 0.000000000 0.000000000
0.996078014 0.000000000 0.000000000
0.996078014 0.000000000 0.000000000
0.996078014 0.000000000 0.000000000
0.005693000 0.009108387 0.006072000
0.011765000 0.006072000 0.000000000
0.020366998 0.010372999 0.000000000
0.032890547 0.012143999 0.002529999
0.048070934 0.011764548 0.005313001
0.064389870 0.009108387 0.000000000
0.083618000 0.006578065 0.000000000
0.102467015 0.008602321 0.000000000
0.124351770 0.009994000 0.001517999
0.144845068 0.009234903 0.006072001
0.175079346 0.009108387 0.006072001
0.207463622 0.007084130 0.005819260
0.239342272 0.006072000 0.003922000
0.278052062 0.007337000 0.005439968
0.320303798 0.001518036 0.002656613
0.366982967 0.000885613 0.007463608
0.416445345 0.000000000 0.003036003
0.469576269 0.000000000 0.000632576
0.525363982 0.000632580 0.004301385
0.582290113 0.000885612 0.002024031
0.634282470 0.000000000 0.001771000
0.685515642 0.001897741 0.000885613
0.733333468 0.003036387 0.000126512
0.784819424 0.003036387 0.003036387
0.835673451 0.000759099 0.000759099
0.881340921 0.000000000 0.001391672
0.923719108 0.000000000 0.003036387
0.959645808 0.000000000 0.003036387
0.985072374 0.000000000 0.005692542
0.997849226 0.001771217 0.002530018
0.998228788 0.002150779 0.001770991
0.996078014 0.000000000 0.006072000
0.001771226 0.018216226 0.007843000
0.005693000 0.021632161 0.003921774
0.018216224 0.018595774 0.002150774
0.031625383 0.023402937 0.000885613
0.046805773 0.023908999 0.004300999
0.061986156 0.020872936 0.005313000
0.077546000 0.017836679 0.000000000
0.100695699 0.016445000 0.003288997
0.123213321 0.019734418 0.003542097
0.140038013 0.022517778 0.005439775
0.172042966 0.024668001 0.005692774
0.202403724 0.024668001 0.009740771
0.240227625 0.021758420 0.008223000
0.279949337 0.019987516 0.007463968
0.320556819 0.012017780 0.000632584
0.365717798 0.012902999 0.002656770
0.414294571 0.005313200 0.004174582
0.464768887 0.001518198 0.000000001
0.522454143 0.000000000 0.001518195
0.573687553 0.000000000 0.003289417
0.631372631 0.001897740 0.002150774
0.679696560 0.001138646 0.001138646
0.727514446 0.001897738 0.000126512
0.783174932 0.003922000 0.003162904
0.830486894 0.001644712 0.001644712
0.879316628 0.000000000 0.000000000
0.921568334 0.000000000 0.001771226
0.958001077 0.000000000 0.001771226
0.985957980 0.000000000 0.002277155
0.996078014 0.000000000 0.003542000
0.996963859 0.002656834 0.000000000
0.993927777 0.002150774 0.003542000
0.000000000 0.033649322 0.005313001
0.004301225 0.035926614 0.003542226
0.012144227 0.034282226 0.006452000
0.028589321 0.032511000 0.006452000
0.044149160 0.035547387 0.003036161
0.060214929 0.034282226 0.005566161
0.079190485 0.032511000 0.002783001
0.095888533 0.031119321 0.003288997
0.120936029 0.034155317 0.007843000
0.136622503 0.041239966 0.005313322
0.169259861 0.040607288 0.003922000
0.203162491 0.044149160 0.004174835
0.233523265 0.045287803 0.007969839
0.278684199 0.042758159 0.008222871
0.321189225 0.036685910 0.003162751
0.365464777 0.034661509 0.003668643
0.413788527 0.031119199 0.002403808
0.463630259 0.018469580 0.000632576
0.520682931 0.015433345 0.001265162
0.571283937 0.008855159 0.001518196
0.621758223 0.003162579 0.002656839
0.678431273 0.003162840 0.002656839
0.724984288 0.000000000 0.000000000
0.780392051 0.001897743 0.001897743
0.826438725 0.001644712 0.001644712
0.869449794 0.000000000 0.000000000
0.913978219 0.000506064 0.000000000
0.951169848 0.001265161 0.000000000
0.984692812 0.000000000 0.000000000
0.997343183 0.001265161 0.001265161
0.996457577 0.000379553 0.002150543
0.993421853 0.002656839 0.002529999
0.000379548 0.056419998 0.000000000
0.005692549 0.053763162 0.000000000
0.011385000 0.049715094 0.005692774
0.023655772 0.046173092 0.012144452
0.041872546 0.045793545 0.010626453
0.060088545 0.048829932 0.004554453
0.082226641 0.049715545 0.002150677
0.102719828 0.049335998 0.003288997
0.118658639 0.051233545 0.007463549
0.136875436 0.063377537 0.007463547
0.168880403 0.060341541 0.005313322
0.205060035 0.061227087 0.003036291
0.239974722 0.066919640 0.000758999
0.270841509 0.069702998 0.000506032
0.318912238 0.069702998 0.003289416
0.365844309 0.068058290 0.005566192
0.413662016 0.063883454 0.005186551
0.465528071 0.055660676 0.000253028
0.520177007 0.052625045 0.003289417
0.572422564 0.040354270 0.001138643
0.622517467 0.025932904 0.000000000
0.672738791 0.013029641 0.000000000
0.727261007 0.006704654 0.000000000
0.778874159 0.005692640 0.000000000
0.820999265 0.004174544 0.000000000
0.861226976 0.001138547 0.000000000
0.899557471 0.000126516 0.000000000
0.939025819 0.003162900 0.000000000
0.978114724 0.001265167 0.000379548
0.997469664 0.001391669 0.001391669
0.999114394 0.003036392 0.004048383
0.996078014 0.000000000 0.007084001
0.003415935 0.068563998 0.000000000
0.003415935 0.068563998 0.000000000
0.006578161 0.070208706 0.002150774
0.020240160 0.070461869 0.008728839
0.044908158 0.070082322 0.013662064
0.063124932 0.067045927 0.001518066
0.078811251 0.070082322 0.005566064
0.100442991 0.069323227 0.006830999
0.121694930 0.068311095 0.007084098
0.139911041 0.072485939 0.004427937
0.166856661 0.084629923 0.007337064
0.205313429 0.083618186 0.009361320
0.244528919 0.086654216 0.009108290
0.279949129 0.093990996 0.006578031
0.316381872 0.093990996 0.003542422
0.366856456 0.096394800 0.001518196
0.414421082 0.099936858 0.002530192
0.462238759 0.100948811 0.002783359
0.514105022 0.095129833 0.000253033
0.568753719 0.094876863 0.000506064
0.620999217 0.086654067 0.000000000
0.672106385 0.075521797 0.000000000
0.724225402 0.064389817 0.000000000
0.775837839 0.052245796 0.000000000
0.816065609 0.042125225 0.000000000
0.857178986 0.026438972 0.000000000
0.899178028 0.008728871 0.000000000
0.929917455 0.000126513 0.000000000
0.966729641 0.000506065 0.002656833
0.989499986 0.000000000 0.001644718
0.996584058 0.000506065 0.000506065
0.996078014 0.000000000 0.001012001
0.001391678 0.095888637 0.010119998
0.001391678 0.093358316 0.010119998
0.007843452 0.095509090 0.014420997
0.017963320 0.096015155 0.012776837
0.040354095 0.094749995 0.013156323
0.058570866 0.093864381 0.009614322
0.084377319 0.095888637 0.012650320
0.102846697 0.098924607 0.013788613
0.127008423 0.099177413 0.013662094
0.150537655 0.102213800 0.014168480
0.182542607 0.106388636 0.011891128
0.213915244 0.114484631 0.006831263
0.253763586 0.116382316 0.005566357
0.292599678 0.123845637 0.003036033
0.338140428 0.128399640 0.004554423
0.376976401 0.133206636 0.001518196
0.431119561 0.139405504 0.000000000
0.481973320 0.145857051 0.001391678
0.533586621 0.145477310 0.000253032
0.590512037 0.142441645 0.000000000
0.639468551 0.144338891 0.000000000
0.688804567 0.138772637 0.000000000
0.738646507 0.129917651 0.000126512
0.785452545 0.122580633 0.002530322
0.830234170 0.110436633 0.002530322
0.871347249 0.101075292 0.005313313
0.915876031 0.087160207 0.006578322
0.952308297 0.082099833 0.002530322
0.977861881 0.075901277 0.000126510
0.993042290 0.072359294 0.003162895
0.998608351 0.072612263 0.001644714
0.998608351 0.075901277 0.000000000
0.000000000 0.124604695 0.012397002
0.000000000 0.124857724 0.014041712
0.001518069 0.122833468 0.016698003
0.013156455 0.123339534 0.021505164
0.032890551 0.121062241 0.014674449
0.057432156 0.122327402 0.013409289
0.083238609 0.126502007 0.015180292
0.107273981 0.124604695 0.019608000
0.129285470 0.126881406 0.015053614
0.155724496 0.129032180 0.014547779
0.188867867 0.132068574 0.016698129
0.222264245 0.142061979 0.012903262
0.254522294 0.148134261 0.003795355
0.293991387 0.154206395 0.000505999
0.346742779 0.160278395 0.004933705
0.391397774 0.167994693 0.001518196
0.438456744 0.175584897 0.000000000
0.494750232 0.183428273 0.000000001
0.546363294 0.186464146 0.000000003
0.601897418 0.187223032 0.003288997
0.653636932 0.186337650 0.003288997
0.701201856 0.188361391 0.001264999
0.750157952 0.183807403 0.000252992
0.794181049 0.180771396 0.004807193
0.837444782 0.173434407 0.003922000
0.879949570 0.165465072 0.005313317
0.924225032 0.160152048 0.009108293
0.963693380 0.157115638 0.003036298
0.989879608 0.154712111 0.001265167
0.998355269 0.150284410 0.000126509
0.999240875 0.145983383 0.002277292
1.000000000 0.150537387 0.000000000
0.000000000 0.153447092 0.006325002
0.000000000 0.154206395 0.008602292
0.001517998 0.155218318 0.012397227
0.003289163 0.152941018 0.016192064
0.019987546 0.150663733 0.018089905
0.052624930 0.153700128 0.014674067
0.085515320 0.156989098 0.014168001
0.109550700 0.158001095 0.015812710
0.134598181 0.154965088 0.017330905
0.158886984 0.154965088 0.008222518
0.191903859 0.158634067 0.011385098
0.223782241 0.165971011 0.011385165
0.258317381 0.177735373 0.009867356
0.289943129 0.184061050 0.001771030
0.345604122 0.190638989 0.007337090
0.393674880 0.199873477 0.003795101
0.443010747 0.208981290 0.000759096
0.497660071 0.218089670 0.000126520
0.549399137 0.221379057 0.000000006
0.603035748 0.223655835 0.004048007
0.653889954 0.225553289 0.006325002
0.701961100 0.226312190 0.005819003
0.753320515 0.226185709 0.000000001
0.796457946 0.225553289 0.004807003
0.838962674 0.222517297 0.004807197
0.880708277 0.217836767 0.003795319
0.922707081 0.215813160 0.006325002
0.962175369 0.213282838 0.000759008
0.989879608 0.212144196 0.002277094
0.998228788 0.209614083 0.000000000
0.996963620 0.208222389 0.003035997
1.000000000 0.208222389 0.003035997
0.000000000 0.186843500 0.000253002
0.000000000 0.180771515 0.000253000
0.004300998 0.183681026 0.004680513
0.006325158 0.186843514 0.010625996
0.007843542 0.187096536 0.015053511
0.035167914 0.190132946 0.008981513
0.077925302 0.188108683 0.008095996
0.109550692 0.187096506 0.009740707
0.134598181 0.188361511 0.011258902
0.171030983 0.194433510 0.008222512
0.204047859 0.200253248 0.004933870
0.233396232 0.202151000 0.002277228
0.265527934 0.205060467 0.002656515
0.305123508 0.211385459 0.007843031
0.350663841 0.220493078 0.010879415
0.396710902 0.231878623 0.006831488
0.445288032 0.242378280 0.003795483
0.497660071 0.251486063 0.003162907
0.552309036 0.260594487 0.000126519
0.604047835 0.261100501 0.000000004
0.653889954 0.263124734 0.000253003
0.701455116 0.266034365 0.000253003
0.747248530 0.268690526 0.000000003
0.792789757 0.265654922 0.000000001
0.835927010 0.265022486 0.000253000
0.877040088 0.263377815 0.000126516
0.916635096 0.261353582 0.000253002
0.956103444 0.264389992 0.000253004
0.987602651 0.261859655 0.007969819
0.998228788 0.257179022 0.006072284
0.996963620 0.253890097 0.003541981
1.000000000 0.256799966 0.015179998
0.000000000 0.220240608 0.002909871
0.000000000 0.222896740 0.000000000
0.000000000 0.225426733 0.000000000
0.002024001 0.231498733 0.002024001
0.001391677 0.234408289 0.004048002
0.008476065 0.232384682 0.003036001
0.061100446 0.230360419 0.002024001
0.104870237 0.233902439 0.005312997
0.137508050 0.236938506 0.007337131
0.173940852 0.236558720 0.002150516
0.207463726 0.239721611 0.002024001
0.238836363 0.241745874 0.003036386
0.270461708 0.240607232 0.002909871
0.308665216 0.242378056 0.005186839
0.354206234 0.259456187 0.008222545
0.397343427 0.268564403 0.006451938
0.446932346 0.278684527 0.002403808
0.499304205 0.287159711 0.001644707
0.549399197 0.293990850 0.003162906
0.598481894 0.300315857 0.005692517
0.648070455 0.304364324 0.003921743
0.695635617 0.308412611 0.003921741
0.741049945 0.311068743 0.005566007
0.783807874 0.305249780 0.000000001
0.827071667 0.304490864 0.000000000
0.869576454 0.304490864 0.001391672
0.910057127 0.302466750 0.003415806
0.947122276 0.298292309 0.005818999
0.981277585 0.301328033 0.003162844
0.997722924 0.300568849 0.004174784
0.997216880 0.298544854 0.002656599
0.994180977 0.299557000 0.012776872
0.004047996 0.265781224 0.001897744
0.000000000 0.272865355 0.000885613
0.000000000 0.271979481 0.000000000
0.001265161 0.275521487 0.000000000
0.001644708 0.280075490 0.001138547
0.001391679 0.281973153 0.006072253
0.027704338 0.282985419 0.000000000
0.087033413 0.278304756 0.000000000
0.133713037 0.283997416 0.004554100
0.179000974 0.283490986 0.002277255
0.210499600 0.288298607 0.000000000
0.254016757 0.285262227 0.000000000
0.283238888 0.286400884 0.001897744
0.317014515 0.285641760 0.001897744
0.357241958 0.295003325 0.003162581
0.406451583 0.306008756 0.003415552
0.448956370 0.315117151 0.001897744
0.501581073 0.322960079 0.000000000
0.552941024 0.327640742 0.001644714
0.597469747 0.335736513 0.002656651
0.644149184 0.339911252 0.003795004
0.691587389 0.344845116 0.001897744
0.737128258 0.347880751 0.003921517
0.781530797 0.347501487 0.003542255
0.822011292 0.343959242 0.002024256
0.864516020 0.345350921 0.000632584
0.904996872 0.345983505 0.001897744
0.938393593 0.342947483 0.003415549
0.974193752 0.340796649 0.005186845
0.995192945 0.340290725 0.002150783
1.000000000 0.338266760 0.000885608
0.996204972 0.335989743 0.007717004
0.005566002 0.331056178 0.002276998
0.001771000 0.335610300 0.000000000
0.000000000 0.339531779 0.000000000
0.000126517 0.340037555 0.000000000
0.002783356 0.338519543 0.000000000
0.000506065 0.340037555 0.006831292
0.012271004 0.342441231 0.004174679
0.057432394 0.343959540 0.000000000
0.121948287 0.340164453 0.000000000
0.181910455 0.343200058 0.002656839
0.220240280 0.346868992 0.001012129
0.262744993 0.347122014 0.000000000
0.309045285 0.343326569 0.000000000
0.337381691 0.345856965 0.000000000
0.374699235 0.347122312 0.000000000
0.417457044 0.353826761 0.001138644
0.466793001 0.359519094 0.000000000
0.509930313 0.367362350 0.000000000
0.563061237 0.370398611 0.000000000
0.608855069 0.380139202 0.000000000
0.655534148 0.384313643 0.000000000
0.700063229 0.386337906 0.000000000
0.745224118 0.389120579 0.000000000
0.788741350 0.391144812 0.002024260
0.829727888 0.390765280 0.002783356
0.868310928 0.390511960 0.002530328
0.909803748 0.392536342 0.000506064
0.941429496 0.391903907 0.001138644
0.973687589 0.390385747 0.001518189
0.991397977 0.388488144 0.002150783
1.000000000 0.384566903 0.000885608
1.000000000 0.378494918 0.003922000
0.000253032 0.415307075 0.007337000
0.000000000 0.412523687 0.001771000
0.000000000 0.415433109 0.000253032
0.000253032 0.421505123 0.000000000
0.000253032 0.426059037 0.000000000
0.000253032 0.413915038 0.000000000
0.002277290 0.412397057 0.000759032
0.032890972 0.414041758 0.000000000
0.102973245 0.416571975 0.000000000
0.178874448 0.419607580 0.000000000
0.230107695 0.419734061 0.000000000
0.278684437 0.419734061 0.000000000
0.326502293 0.419481099 0.000253032
0.368501067 0.419734061 0.000253032
0.407969415 0.416698456 0.000253032
0.445540607 0.420873106 0.002403804
0.486780405 0.423150063 0.002403808
0.534977674 0.424035490 0.000000000
0.580518961 0.427071154 0.000000000
0.628336787 0.437950760 0.000505999
0.678051710 0.442758054 0.000253032
0.727387249 0.442758054 0.000000000
0.769891977 0.442758054 0.000000000
0.809487700 0.442758054 0.000000000
0.848956287 0.442758054 0.000000000
0.887286305 0.443896413 0.000000000
0.923466086 0.446173131 0.000253032
0.959898829 0.443137497 0.003289416
0.988361776 0.442252040 0.001265167
0.999746978 0.442252040 0.000000000
0.999494016 0.440734029 0.000632576
0.999494016 0.434662044 0.003668968
0.003289416 0.457811803 0.001265006
0.000253029 0.457811803 0.001265006
0.000000000 0.457179219 0.002150774
0.001265161 0.460974216 0.002024255
0.003289416 0.465907663 0.000000000
0.003289416 0.462491781 0.000000000
0.000759094 0.465527773 0.007590321
0.000632584 0.468690455 0.004933705
0.042757951 0.470208704 0.000000000
0.151550099 0.468184292 0.000000000
0.218722329 0.468310773 0.000000000
0.269576073 0.468310773 0.000000000
0.322707146 0.467172414 0.001138644
0.377609402 0.465275198 0.003289416
0.414041400 0.468310803 0.003289416
0.455913544 0.472485989 0.003289416
0.492599547 0.470968008 0.002403808
0.532321513 0.466919780 0.000000001
0.580518961 0.472612262 0.000000006
0.623276770 0.478431225 0.005566003
0.667046487 0.483871132 0.004680738
0.714484572 0.485262811 0.002277288
0.763819933 0.485262811 0.000000000
0.806324780 0.485262811 0.000000000
0.845920384 0.485262811 0.000000000
0.885388970 0.485262811 0.000000000
0.923213065 0.485895216 0.000000000
0.956862450 0.485642254 0.000253032
0.985325396 0.479949772 0.000632584
0.996710598 0.478684783 0.000000000
0.995825231 0.477799177 0.000000000
0.993421972 0.474130392 0.000632584
0.001518196 0.502719760 0.000000000
0.003289417 0.509930551 0.002403804
0.000253030 0.509930551 0.000253030
0.001265161 0.511195421 0.001518196
0.003542452 0.516128898 0.000758999
0.001518196 0.519165277 0.004806995
0.001391678 0.514104605 0.002783326
0.001644708 0.516887605 0.005313296
0.014547998 0.518405795 0.000000000
0.093738586 0.517014086 0.000000000
0.193801761 0.519291401 0.000000000
0.258570760 0.521315634 0.002024256
0.310183436 0.517140925 0.002403804
0.366097450 0.510815799 0.003668968
0.411131978 0.513851941 0.001518196
0.447564602 0.519291401 0.001518196
0.496141374 0.519291759 0.003036388
0.536369324 0.512333989 0.001771228
0.577862203 0.513092756 0.000000005
0.623276770 0.516761601 0.003162813
0.671473742 0.520935833 0.007337064
0.713472486 0.523972094 0.005313321
0.757747948 0.525363803 0.002277292
0.800252795 0.525363803 0.000000000
0.840480804 0.525363803 0.000000000
0.879949570 0.525363803 0.000000000
0.917900145 0.525363803 0.000000000
0.949399233 0.525363803 0.000000000
0.977482617 0.522453964 0.000000000
0.995951712 0.518153191 0.001771217
0.998481810 0.515749753 0.001518196
0.996963978 0.511195540 0.000000000
0.003035997 0.549778342 0.003035997
0.003036387 0.557368517 0.001518195
0.001771226 0.561543345 0.001771226
0.001265161 0.560278177 0.000000000
0.003542452 0.563566923 0.000379548
0.000506065 0.570778012 0.005313194
0.000000000 0.568248153 0.003795131
0.000126516 0.563946605 0.002277292
0.002403823 0.565464616 0.000000001
0.038836479 0.566982567 0.000000001
0.151802778 0.562302232 0.003035997
0.237318352 0.566856444 0.003542061
0.298798531 0.567615569 0.003162807
0.350917071 0.557368398 0.002403808
0.399493814 0.557874799 0.000632584
0.446046799 0.561796129 0.000000000
0.488551557 0.564832151 0.000000000
0.540670276 0.560025156 0.002403808
0.578874171 0.557874382 0.000253034
0.623655856 0.557368755 0.001265165
0.668437719 0.558886826 0.002783259
0.714990258 0.560910583 0.004807003
0.751549482 0.563440859 0.002403808
0.792662621 0.564832151 0.000759096
0.832890630 0.561796188 0.001518192
0.870968103 0.561796188 0.000126520
0.910310030 0.561290264 0.001011999
0.943706691 0.560278356 0.003035997
0.971410632 0.559139729 0.000000000
0.991397977 0.556103408 0.000253025
1.000000000 0.554838777 0.006831398
1.000000000 0.550664365 0.007590186
0.007210585 0.596457720 0.006578009
0.004174812 0.604427278 0.002403576
0.001771226 0.607083857 0.000000000
0.000632585 0.608855128 0.000000000
0.003289424 0.606577694 0.000758999
0.000506065 0.615180016 0.004048349
0.000632576 0.614168406 0.001391678
0.000000000 0.611132383 0.000000000
0.000632578 0.609740734 0.000000000
0.000632638 0.615812659 0.000000003
0.106008679 0.605060101 0.004554008
0.208349004 0.605692685 0.007210585
0.281846941 0.608981669 0.005566003
0.339026064 0.605692208 0.000000001
0.387982219 0.602276921 0.000000001
0.438330263 0.603415310 0.000000000
0.487160236 0.604933083 0.000000001
0.537002087 0.604300678 0.000632576
0.579506993 0.604300678 0.000632576
0.624161959 0.602782845 0.000632576
0.668437481 0.600379527 0.000000000
0.709550679 0.600379527 0.000632576
0.746109903 0.600253046 0.000506064
0.785578549 0.602276802 0.000000001
0.825047255 0.599746704 0.002277289
0.862492323 0.596457720 0.002530328
0.897913039 0.596457720 0.000000002
0.937001824 0.593548536 0.005819004
0.967109203 0.591271520 0.003162598
0.987982154 0.589500308 0.000632594
1.000000000 0.586970150 0.001265054
1.000000000 0.590006530 0.016445465
0.004174971 0.635927022 0.000506003
0.001138584 0.651107371 0.003542384
0.000253034 0.652625203 0.001518193
0.000000000 0.652625203 0.000000000
0.000253032 0.655155420 0.000758999
0.000253032 0.658191025 0.006830993
0.002530320 0.656673312 0.002530034
0.002024258 0.653637290 0.000000002
0.000759095 0.652119100 0.000000000
0.003668967 0.655281961 0.000000000
0.058949776 0.646806180 0.000000000
0.162681758 0.649589300 0.002530256
0.259582907 0.655028999 0.003036326
0.326882035 0.654269934 0.000000007
0.378494352 0.648197114 0.000000004
0.427450627 0.647185028 0.000000001
0.473244429 0.647437990 0.000000001
0.518785357 0.646805584 0.000632579
0.573434949 0.643769979 0.003668965
0.615939736 0.646552622 0.003668965
0.660594642 0.643390000 0.001771226
0.703858078 0.639847994 0.001012127
0.743073523 0.639721513 0.003542453
0.782542765 0.636685908 0.000506067
0.822011232 0.636432946 0.002277292
0.858696997 0.635926962 0.002530331
0.891840994 0.635926962 0.000000004
0.922200978 0.635926962 0.000000010
0.955976784 0.627704203 0.003162873
0.980012357 0.622896791 0.003669046
0.994433939 0.619860649 0.002783472
1.000000000 0.617331028 0.001265166
0.006704647 0.717141449 0.002783357
0.003668970 0.715623140 0.000253031
0.000632583 0.724351764 0.001138643
0.000000000 0.723213255 0.000000000
0.000000000 0.722834110 0.000000000
0.000000000 0.723466516 0.001264996
0.000000000 0.718911827 0.004807318
0.001138643 0.718912125 0.001138649
0.000000000 0.718153000 0.000000000
0.001012127 0.717140853 0.000000000
0.003542121 0.716887951 0.000000000
0.125995949 0.709803820 0.002024256
0.245540828 0.711701393 0.005060354
0.328652740 0.711448431 0.005313037
0.380265713 0.707906663 0.002783358
0.431878746 0.706641495 0.000379553
0.482352883 0.703605473 0.001518192
0.529285073 0.700442851 0.002150781
0.577482939 0.697406709 0.000885611
0.626565754 0.702719748 0.001138643
0.669070423 0.700063109 0.001138643
0.712713599 0.696015120 0.000000000
0.754079700 0.695888579 0.001265155
0.796205103 0.692852259 0.003542452
0.835673630 0.689816654 0.005060065
0.872359037 0.687919080 0.005313330
0.904743671 0.686021447 0.003795356
0.932826996 0.683744729 0.008349361
0.965844512 0.678431749 0.042884119
0.983301699 0.674763143 0.072232932
0.992156982 0.671853483 0.094497442
0.994433999 0.666920125 0.108538859
0.004048004 0.758507252 0.005819256
0.004807387 0.759266317 0.000885613
0.003668966 0.762681723 0.000000000
0.001897740 0.764958918 0.005059999
0.001897740 0.763061762 0.006071994
0.001897740 0.766097724 0.000000000
0.001897740 0.762934804 0.004427578
0.001897740 0.760151446 0.002530259
0.001138645 0.762175739 0.000000000
0.000000002 0.760277987 0.000000000
0.003794996 0.758254230 0.000000000
0.082352988 0.758001208 0.000126516
0.215559825 0.754206181 0.002024260
0.310689420 0.753700137 0.004048004
0.373814225 0.749019384 0.002656682
0.425426900 0.746489763 0.001518196
0.481594294 0.748007536 0.001518192
0.529917717 0.744338989 0.004554414
0.569133461 0.742567718 0.004048025
0.623150051 0.742188513 0.000000000
0.664136767 0.742567718 0.000000000
0.706641555 0.738519728 0.000000000
0.749019742 0.738646269 0.000000000
0.789753318 0.739152312 0.001265164
0.829981327 0.736115932 0.008096448
