Assets/Shaders/EldamarStudio/100 Sci-Fi LUTs Pack/LUTs/cube/Theodrith LUT.cube
LUT_3D_SIZE 5
DOMAIN_MIN 0.000000 0.000000 0.000000
DOMAIN_MAX 0.903226 0.903226 0.903226
0.011765000 0.000000000 0.000000000
0.097786278 0.003922000 0.000000000
0.317267388 0.004554423 0.011765000
0.693611324 0.002909872 0.002909872
0.984692812 0.000000000 0.000000000
0.000000000 0.124604695 0.012397002
0.107273981 0.124604695 0.019608000
0.346742779 0.160278395 0.004933705
0.701201856 0.188361391 0.001264999
0.989879608 0.154712111 0.001265167
0.003289416 0.457811803 0.001265006
0.000632584 0.468690455 0.004933705
0.414041400 0.468310803 0.003289416
0.714484572 0.485262811 0.002277288
0.985325396 0.479949772 0.000632584
0.000000000 0.780771255 0.005819002
0.002909872 0.789500117 0.004554003
0.356230497 0.785072505 0.000000000
0.691461146 0.770904243 0.011132118
0.958127677 0.758507431 0.116002738
0.002656833 0.960910797 0.299936593
0.049715072 0.970398545 0.328526199
0.389374018 0.965718031 0.331815183
0.653257251 0.954712093 0.351296633
0.878684640 0.946615756 0.387476444
0.000000000 0.001644708 0.195572391
0.144212693 0.000000000 0.199494392
0.334345192 0.001644708 0.220873088
0.695256293 0.000000000 0.309677541
0.986590624 0.001265167 0.285768569
0.000000000 0.141935408 0.221378684
0.068690993 0.123972110 0.216824681
0.362428784 0.102340281 0.246932521
0.709298015 0.000000000 0.264262974
0.991144776 0.000000000 0.266919404
0.003288997 0.438836217 0.287413090
0.001644708 0.453257799 0.276913702
0.375079095 0.451613098 0.260973960
0.716382146 0.452624768 0.274003386
0.982416034 0.458823472 0.299683392
0.002023998 0.773181558 0.319671512
0.002277292 0.778114855 0.326755106
0.332574159 0.771537006 0.334977835
0.680075824 0.766982794 0.343073666
0.948386908 0.749272525 0.370651364
0.052245669 0.963061213 0.452118605
0.225047231 0.960657895 0.474509656
0.460467845 0.958380818 0.490575790
0.673118174 0.951549649 0.485642105
0.874383092 0.942694843 0.504237652
0.000000000 0.000000000 0.635673821
0.197849691 0.000000000 0.629474878
0.466287225 0.000000000 0.640986562
0.699430525 0.001012128 0.620367110
0.976849914 0.000000000 0.631625593
0.000000000 0.108538993 0.645161510
0.001644708 0.086021699 0.644149184
0.434914798 0.026312394 0.645793498
0.704364419 0.000000000 0.636053026
0.981403947 0.001644708 0.626691878
0.003922000 0.470208377 0.647944391
0.000000000 0.459709227 0.657178760
0.344085783 0.442124814 0.662365377
0.700063109 0.440859795 0.653510511
0.950031400 0.479570061 0.635546982
0.000000000 0.764073133 0.656420231
0.001644712 0.765338540 0.661606789
0.360151470 0.760404944 0.659076393
0.688298404 0.755218208 0.672485650
0.914610982 0.764705718 0.678431511
0.186210915 0.955218196 0.645794034
0.383427948 0.953193963 0.677798867
0.597343147 0.942694843 0.709424198
0.734977722 0.941429675 0.709803939
0.893864393 0.936875343 0.725237191
0.000000000 0.003922000 0.888551295
0.114105262 0.000000000 0.886780560
0.414547384 0.000632584 0.883618116
0.665781140 0.001012128 0.887413144
0.915116608 0.000000000 0.888171971
0.001012128 0.044908091 0.887413144
0.000000000 0.035800092 0.893991172
0.376344085 0.022390818 0.887160003
0.649209380 0.004301290 0.879569709
0.915117025 0.019860949 0.897027373
0.001012128 0.425426930 0.888045669
0.001264999 0.438203812 0.884377122
0.378747195 0.450347900 0.888678253
0.642125368 0.458823502 0.877039671
0.908159196 0.474256784 0.887160182
0.008728874 0.694497287 0.864010155
0.088678278 0.711701572 0.885136008
0.464389384 0.726375818 0.875648141
0.712080956 0.748387098 0.871727109
0.909803808 0.764073133 0.866920054
0.206577927 0.948639989 0.864516318
0.361669809 0.952182055 0.874636292
0.552561402 0.942062199 0.853384137
0.767362237 0.938520074 0.865528226
0.907020628 0.935483932 0.880329072
0.001265167 0.000000000 0.993421853
0.016445404 0.001012124 0.997722745
0.335357398 0.002656833 0.993421853
0.565464854 0.000000000 1.000000000
0.779379785 0.000000000 0.998734832
0.001012124 0.029601391 0.993168831
0.000000000 0.035167683 0.997722745
0.320429981 0.034535099 0.997722685
0.556356609 0.045414377 0.998987854
0.780518770 0.124983974 0.997722745
0.001265006 0.420493394 0.995445549
0.167994663 0.429981083 0.997469783
0.400379628 0.438203633 0.996837378
0.602150619 0.455914199 0.994560242
0.805565774 0.488551378 0.995572388
0.393548429 0.692852795 0.986844003
0.466793180 0.710183442 0.986717224
0.596963882 0.731688797 0.983807802
0.725489974 0.744086266 0.982795656
0.859455943 0.769006789 0.982289672
0.541808724 0.880075991 0.985831797
0.584693313 0.886780739 0.979885995
0.673624575 0.899683595 0.980518818
0.798355341 0.914737821 0.980139315
0.917899966 0.936242759 0.967362165
