Assets/Shaders/EldamarStudio/100 Sci-Fi LUTs Pack/LUTs/cube/Theodrith LUT.cube
LUT_3D_SIZE 8
DOMAIN_MIN 0.000000 0.000000 0.000000
DOMAIN_MAX 0.903226 0.903226 0.903226
0.011765000 0.000000000 0.000000000
0.046173092 0.000000000 0.000000000
0.120556287 0.003162904 0.000000001
0.235547274 0.002276998 0.006198998
0.420999557 0.000000000 0.000000000
0.639974713 0.001897740 0.005945744
0.834155858 0.000000000 0.000000000
0.984692812 0.000000000 0.000000000
0.000379548 0.056419998 0.000000000
0.041872546 0.045793545 0.010626453
0.118658639 0.051233545 0.007463549
0.239974722 0.066919640 0.000758999
0.413662016 0.063883454 0.005186551
0.622517467 0.025932904 0.000000000
0.820999265 0.004174544 0.000000000
0.978114724 0.001265167 0.000379548
0.000000000 0.153447092 0.006325002
0.019987546 0.150663733 0.018089905
0.134598181 0.154965088 0.017330905
0.258317381 0.177735373 0.009867356
0.443010747 0.208981290 0.000759096
0.653889954 0.225553289 0.006325002
0.838962674 0.222517297 0.004807197
0.989879608 0.212144196 0.002277094
0.005566002 0.331056178 0.002276998
0.002783356 0.338519543 0.000000000
0.121948287 0.340164453 0.000000000
0.309045285 0.343326569 0.000000000
0.466793001 0.359519094 0.000000000
0.655534148 0.384313643 0.000000000
0.829727888 0.390765280 0.002783356
0.973687589 0.390385747 0.001518189
0.003035997 0.549778342 0.003035997
0.003542452 0.563566923 0.000379548
0.002403823 0.565464616 0.000000001
0.298798531 0.567615569 0.003162807
0.488551557 0.564832151 0.000000000
0.668437719 0.558886826 0.002783259
0.832890630 0.561796188 0.001518192
0.971410632 0.559139729 0.000000000
0.004048004 0.758507252 0.005819256
0.001897740 0.763061762 0.006071994
0.001138645 0.762175739 0.000000000
0.215559825 0.754206181 0.002024260
0.481594294 0.748007536 0.001518192
0.664136767 0.742567718 0.000000000
0.829981327 0.736115932 0.008096448
0.964705765 0.721315682 0.074762955
0.004553996 0.872106314 0.064768814
0.001644712 0.877419591 0.095508814
0.001644712 0.874636412 0.116002820
0.148766533 0.871347368 0.116129115
0.433017373 0.865907550 0.128779352
0.611891210 0.862998247 0.145477548
0.771790028 0.851866245 0.163567260
0.925616324 0.854775727 0.190006226
0.002656833 0.960910797 0.299936593
0.000000000 0.968880653 0.333080500
0.095761970 0.966856718 0.333839595
0.313219011 0.969007194 0.329917580
0.475015640 0.963820338 0.335610121
0.617583632 0.955724001 0.344971538
0.751676321 0.952814519 0.363061517
0.878684640 0.946615756 0.387476444
0.000000000 0.000000000 0.074383095
0.057558544 0.000000000 0.082605645
0.117014542 0.003542452 0.082605645
0.239088923 0.002783356 0.109550998
0.421884567 0.000000000 0.140164182
0.635926485 0.001518192 0.130297005
0.829474628 0.000000000 0.112840086
0.982542336 0.001265167 0.113346078
0.007463549 0.053636547 0.073118538
0.032891002 0.049335998 0.085768551
0.117773637 0.045793545 0.086527549
0.236559018 0.021631649 0.104490638
0.420240372 0.000379548 0.106135540
0.615433276 0.000000000 0.099810541
0.796078324 0.000000000 0.100190088
0.952940881 0.003922000 0.092347085
0.003542452 0.142820731 0.097406641
0.001517998 0.153447196 0.107653543
0.121694736 0.154965192 0.099430993
0.259329647 0.156862825 0.104111187
0.448956102 0.169892281 0.097913086
0.641239524 0.156862646 0.098924637
0.827830553 0.141303018 0.093991287
0.983301580 0.131056264 0.108032793
0.003542355 0.314990461 0.129791185
0.003542355 0.320176989 0.116255544
0.031498745 0.327261001 0.102087542
0.285009921 0.328020006 0.103605434
0.450854093 0.342567652 0.101201728
0.637823880 0.355597705 0.088425100
0.811638117 0.358507276 0.081088275
0.955344677 0.352182090 0.083364807
0.000000000 0.538393140 0.093484998
0.001138644 0.549019516 0.079822995
0.002783357 0.546236753 0.083871089
0.264769167 0.554585576 0.077798732
0.480075985 0.547501385 0.082099997
0.651739299 0.544718742 0.087918736
0.822517455 0.544971466 0.096394993
0.964073360 0.538772821 0.118153170
0.002024260 0.744592309 0.122959994
0.000000000 0.745477557 0.132953614
0.001518192 0.746616244 0.135989904
0.165718094 0.741302967 0.138899267
0.465527922 0.739278734 0.150158107
0.651107013 0.738519728 0.164326102
0.820366681 0.726755202 0.172169819
0.956229925 0.717267752 0.219228625
0.000379548 0.860214829 0.206578195
0.000000000 0.866287112 0.224794373
0.000379548 0.865148544 0.223782390
0.133586302 0.861479938 0.225806355
0.424794614 0.859835267 0.238835916
0.606831074 0.848703265 0.241871998
0.761796236 0.844149292 0.249462351
0.912840188 0.840860307 0.256926030
0.002909560 0.963693798 0.363440573
0.016445443 0.963693798 0.381024420
0.136116043 0.962934792 0.385452151
0.337760955 0.959898710 0.389626622
0.484124005 0.957115352 0.391397536
0.625679612 0.955976784 0.396331161
0.752561569 0.950537801 0.414420903
0.871473849 0.944465339 0.430487335
0.000759096 0.003162904 0.242631197
0.069576092 0.000000000 0.257937849
0.177609280 0.000759096 0.245794088
0.269955486 0.000000000 0.248576730
0.428969264 0.000000000 0.287286371
0.641619205 0.000000000 0.342062175
0.838077307 0.001644712 0.359772295
0.980012715 0.001265167 0.341682196
0.010626452 0.040986542 0.242758095
0.000379548 0.041113544 0.245794177
0.149399191 0.023908546 0.255660743
0.268943727 0.007463548 0.246932641
0.422264129 0.000000000 0.294117630
0.623402596 0.000379548 0.322706968
0.806831181 0.001644712 0.332321078
0.969892740 0.000379548 0.314105093
0.000000000 0.176091090 0.266160399
0.000000000 0.175332084 0.266160369
0.089943193 0.158887088 0.269196391
0.276786745 0.149145827 0.277545869
0.454016447 0.124604806 0.303732067
0.659203112 0.031625479 0.319671154
0.841366470 0.009108200 0.319544405
0.985072553 0.022011280 0.319544375
0.000379548 0.318279475 0.289310575
0.002783356 0.324983895 0.297785848
0.000759101 0.330044359 0.294876575
0.251739353 0.332447439 0.292599469
0.465528429 0.327008277 0.299936712
0.651739180 0.317900002 0.297280371
0.825426877 0.313978702 0.302213728
0.963820219 0.320303649 0.312207490
0.000000001 0.538899362 0.337508082
0.000000000 0.541176498 0.345477372
0.000000000 0.545983434 0.334345192
0.160784379 0.547121942 0.321315736
0.462112457 0.545224547 0.321062386
0.653384268 0.535356879 0.320936173
0.817457259 0.534345210 0.329917908
0.957242191 0.534977734 0.346615821
0.002783356 0.744591951 0.373814195
0.002024260 0.745857239 0.376976311
0.000000000 0.744465470 0.376597166
0.124984182 0.736495674 0.371790260
0.453763694 0.735104442 0.380265623
0.639595091 0.729538321 0.382542908
0.813788831 0.725237012 0.389500111
0.950916946 0.714611113 0.411385119
0.000000000 0.852751255 0.386211365
0.000379548 0.859076262 0.402529985
0.004807222 0.861227095 0.417584181
0.209993854 0.855534732 0.411891192
0.446046561 0.851107180 0.419987172
0.611638367 0.846046746 0.417457372
0.764959037 0.839468241 0.420493305
0.908918262 0.842504799 0.428842664
0.106641367 0.960278034 0.491081357
0.178494334 0.957368493 0.512080908
0.299177825 0.955091655 0.508412242
0.415559679 0.957874358 0.515243411
0.530676663 0.953194141 0.522200882
0.647059023 0.948513567 0.515496373
0.762428761 0.942314923 0.523086607
0.874383211 0.941429675 0.534345269
0.000000000 0.000000000 0.518026888
0.067678638 0.000000000 0.513345778
0.240101546 0.000379548 0.515622914
0.376217633 0.002783356 0.512966275
0.508159459 0.000000000 0.510942698
0.650853574 0.000759096 0.518659174
0.833016872 0.001138644 0.539785028
0.983427942 0.000000000 0.545224428
0.000759096 0.011764904 0.493358552
0.000000000 0.001897643 0.509045184
0.184313729 0.000379548 0.509424627
0.350917280 0.000759096 0.517014265
0.488171935 0.001518192 0.498544902
0.634028971 0.000759096 0.501581192
0.817583859 0.002024260 0.535230994
0.969892681 0.002024264 0.527893722
0.000000000 0.187476635 0.514863908
0.003162904 0.169133201 0.525490284
0.004680911 0.150790647 0.538646638
0.314357936 0.125616655 0.528272986
0.498165458 0.087918930 0.531815290
0.657558918 0.033649739 0.536242962
0.839089513 0.020240640 0.551169872
0.984692991 0.023529468 0.532827258
0.001138644 0.374572903 0.531056225
0.002783356 0.374952465 0.543832898
0.005566002 0.358507246 0.541176379
0.234028906 0.337633908 0.550031900
0.470841199 0.333333343 0.540543914
0.648197353 0.322706908 0.535863280
0.820113838 0.318153262 0.535989881
0.955976903 0.344718367 0.529538333
0.000000000 0.546489716 0.541176617
0.000379548 0.553067505 0.551549435
0.002276997 0.550031304 0.551549375
0.148640022 0.545224309 0.560910583
0.454902172 0.546110094 0.559139609
0.646806002 0.540543973 0.560404956
0.812776625 0.544085920 0.558760345
0.942314863 0.562807977 0.560531497
0.000000000 0.736748993 0.579253256
0.006072264 0.740417242 0.582036674
0.000000000 0.738140285 0.582668960
0.173181549 0.731815338 0.579127133
0.474003732 0.730423450 0.584945977
0.645540595 0.728399694 0.586464047
0.806451678 0.721948087 0.586337745
0.932321072 0.728273153 0.601265013
0.002783356 0.849589288 0.557494998
0.003036094 0.861985922 0.568753719
0.002656661 0.857052505 0.574952722
0.318405807 0.853004634 0.589626610
0.509424746 0.849589288 0.608475745
0.647311866 0.844908416 0.599240839
0.770651579 0.838962615 0.600252986
0.910436332 0.841745555 0.605819166
0.266666234 0.951929152 0.610120237
0.344465226 0.951169789 0.629854202
0.447944492 0.949651778 0.651233375
0.518912196 0.952055573 0.652624846
0.603036165 0.944718599 0.650727391
0.693358481 0.946869135 0.654395938
0.786337912 0.942315280 0.661100745
0.889437139 0.937381148 0.661606491
0.001518192 0.000000000 0.734977365
0.008349283 0.001138644 0.729285359
0.228842288 0.000000000 0.732574403
0.393801451 0.000000000 0.733333349
0.553320408 0.001518192 0.731941342
0.684883177 0.005060257 0.731182337
0.830360353 0.000759096 0.728652596
0.978241742 0.001265167 0.720809579
0.002656546 0.001138644 0.712207496
0.000379548 0.000000000 0.731815159
0.176344186 0.001518192 0.730297267
0.366476744 0.000000000 0.727513909
0.527387381 0.000000000 0.726502180
0.665654719 0.001518192 0.718532383
0.810373068 0.000000000 0.711954594
0.960277975 0.001138640 0.708032787
0.001517999 0.144086093 0.727008283
0.000379548 0.146109834 0.732320905
0.000000004 0.127514094 0.743074000
0.306641608 0.100822292 0.735863268
0.500695944 0.040101282 0.731815279
0.664895833 0.025427017 0.726375461
0.823402762 0.019102190 0.734345198
0.979885876 0.025427012 0.720682919
0.000000000 0.355850905 0.739658475
0.000759096 0.353573650 0.737001777
0.000759096 0.340544075 0.740923584
0.197975844 0.332067907 0.736495614
0.455661178 0.328905731 0.733333468
0.641872168 0.320935905 0.729032099
0.809487998 0.315496713 0.719544828
0.955218256 0.322960198 0.701581180
0.000000000 0.535231173 0.736748993
0.002403808 0.543453634 0.748639941
0.006325001 0.538267016 0.747754216
0.184566543 0.537381232 0.741935611
0.462871552 0.542821348 0.736748993
0.642630994 0.540164411 0.732827425
0.805692673 0.546110153 0.725237191
0.938899398 0.567995131 0.714610994
0.000000000 0.717646837 0.749652147
0.001138644 0.724984288 0.754206181
0.001518192 0.724098384 0.751170039
0.219607994 0.725236893 0.754079342
0.477672160 0.723972261 0.745983422
0.655408025 0.723213255 0.742314994
0.799999952 0.731941521 0.740290940
0.912840128 0.745098114 0.743074179
0.003162904 0.856673241 0.725869536
0.000000000 0.858950078 0.724604785
0.002277108 0.859076321 0.721315145
0.293991208 0.853889883 0.717014611
0.517394423 0.848956585 0.727514088
0.676027715 0.840986371 0.735357225
0.784440219 0.840101242 0.735990107
0.899430573 0.842758000 0.739785075
0.115369618 0.952941000 0.700695992
0.234534785 0.952435136 0.706008971
0.385578752 0.951043606 0.720176995
0.532194614 0.946615994 0.737381458
0.658064365 0.941682577 0.762175798
0.735989690 0.941935718 0.768500924
0.815306962 0.935230672 0.765464962
0.899936557 0.935736835 0.770145357
0.000000000 0.001897740 0.864262760
0.001518192 0.000379548 0.860214770
0.188235104 0.000000000 0.860973835
0.355091810 0.001138644 0.857811689
0.497280478 0.002024260 0.862618566
0.644528687 0.000000000 0.860088766
0.776344061 0.000379548 0.854649007
0.936115861 0.000000000 0.860847592
0.003415545 0.000000000 0.854648888
0.001518192 0.003922000 0.853889883
0.109171644 0.000379548 0.855028331
0.329158902 0.000759096 0.850600779
0.486021370 0.001138644 0.848703265
0.628968716 0.000000000 0.843390465
0.764452875 0.000759096 0.842504561
0.919165194 0.001518192 0.850600779
0.002024260 0.122833282 0.866160452
0.000000000 0.119544372 0.861733019
0.004048011 0.104111537 0.864642501
0.270588428 0.086147927 0.859961987
0.459708929 0.044275746 0.862239182
0.616824925 0.030107725 0.860594511
0.769133687 0.030487275 0.853510380
0.931055963 0.033776101 0.861859441
0.000000000 0.312333912 0.847058475
0.000000000 0.320683241 0.858064353
0.002024274 0.317773908 0.850980341
0.212523535 0.319291800 0.854269385
0.438330442 0.321568996 0.847817481
0.600632370 0.321442276 0.842378438
0.745350897 0.319797397 0.841239810
0.917899787 0.316635013 0.848956227
0.000000000 0.509550691 0.861985922
0.004301257 0.515875816 0.853257596
0.011764841 0.516888261 0.854269385
0.282859176 0.523845553 0.852877975
0.468944103 0.538772821 0.854016542
0.619987249 0.538266957 0.845414758
0.761416554 0.543200850 0.844149470
0.924098551 0.546869099 0.848703325
0.005692737 0.674257040 0.850854039
0.001897740 0.675901771 0.864262700
0.091460913 0.687665761 0.860594571
0.347248465 0.690701783 0.856419742
0.522833347 0.698924661 0.853889942
0.669576466 0.714990735 0.848450720
0.790892005 0.723086715 0.849462390
0.913599074 0.728146672 0.841872394
0.000379548 0.817457318 0.855660737
0.004301257 0.824161589 0.852245271
0.116761580 0.826692104 0.852118731
0.345351070 0.829474866 0.849462569
0.518785357 0.830613494 0.841745555
0.674130499 0.832258284 0.838330090
0.786464274 0.835673749 0.831625462
0.894623518 0.845667303 0.844528735
0.164326102 0.950663984 0.834155679
0.260973513 0.950031638 0.831878304
0.369259477 0.950410843 0.836685836
0.482226402 0.945350945 0.830486834
0.617077947 0.942947447 0.828209817
0.743579745 0.937507927 0.840733767
0.835673451 0.937002063 0.858317614
0.906767845 0.936242759 0.863377512
0.002277288 0.000000000 0.954838574
0.002277288 0.000000000 0.947754562
0.131688908 0.000000000 0.950031340
0.307653338 0.000000000 0.951422930
0.449209392 0.000000000 0.946995556
0.583807766 0.002024260 0.943706572
0.711701512 0.002277288 0.939152539
0.849588931 0.002277288 0.941176772
0.001897740 0.000000000 0.937634289
0.000000000 0.002277288 0.943706572
0.035673656 0.003162904 0.938013852
0.278304994 0.000000000 0.935736656
0.429980844 0.003542452 0.940797329
0.573434472 0.001897740 0.938140392
0.707020998 0.000000000 0.934851408
0.834155440 0.000000000 0.927387655
0.000759096 0.092093378 0.941808999
0.003795093 0.095762260 0.949145973
0.006451722 0.091208190 0.942315102
0.246426433 0.076786935 0.950411260
0.420872986 0.063504174 0.946236432
0.567489147 0.055154841 0.939658642
0.706894398 0.077039838 0.939911306
0.840607107 0.128905818 0.944718301
0.004427648 0.302466542 0.939785004
0.001518095 0.310942531 0.941935658
0.024667921 0.312334120 0.939531982
0.228589550 0.315243542 0.940290928
0.420873016 0.320936203 0.933206677
0.561796069 0.321695179 0.934598088
0.703984916 0.333839267 0.931309223
0.835673988 0.344591856 0.931182742
0.003921807 0.489563257 0.935357273
0.003035997 0.502214074 0.937001944
0.161796182 0.516002357 0.932827353
0.349146008 0.527008295 0.930929542
0.482226342 0.522327602 0.933712780
0.602403462 0.527893424 0.927514255
0.727893472 0.538140237 0.928272963
0.848197281 0.551549613 0.930676997
0.084250174 0.656419754 0.925996244
0.180139184 0.658064306 0.936495721
0.313725650 0.667172849 0.932447791
0.444655359 0.680961370 0.940796971
0.572169363 0.697406471 0.931056261
0.679949224 0.711068749 0.927008033
0.769006789 0.716508448 0.924478054
0.880708516 0.724478185 0.930043876
0.146109909 0.771157563 0.921189249
0.263251096 0.775458574 0.919291556
0.361037374 0.779000521 0.927261233
0.473497897 0.789120793 0.918532252
0.586970150 0.803162515 0.922074258
0.702593505 0.815812707 0.921189249
0.802150309 0.829981029 0.921189249
0.892979026 0.841113389 0.919797301
0.370398462 0.914863944 0.934092164
0.407716811 0.920809627 0.941808999
0.464642674 0.919670939 0.937381387
0.549399137 0.924351454 0.932447612
0.637318313 0.929537952 0.933080077
0.729285240 0.934598088 0.924730778
0.826565266 0.934218645 0.921821237
0.916888297 0.931688786 0.924224973
0.001265167 0.000000000 0.993421853
0.002656833 0.000000000 0.996078014
0.062998474 0.000000000 0.997469962
0.259203464 0.001265167 0.996204793
0.401771039 0.001138640 0.997216642
0.531056643 0.000759092 1.000000000
0.659202993 0.000000000 0.997469962
0.779379785 0.000000000 0.998734832
0.000000000 0.000000000 0.994813144
0.001265167 0.002024167 0.997722745
0.015180283 0.000000000 0.993042231
0.247185543 0.003289108 0.998734832
0.393927753 0.001138640 0.998861372
0.524857461 0.001518192 0.996204793
0.648070693 0.000379548 0.993927538
0.773055255 0.002277285 0.993927538
0.000000000 0.088298395 0.992156982
0.000000000 0.094244361 0.996205032
0.000759109 0.096900620 0.998481989
0.231499135 0.100190014 0.997469962
0.392536283 0.102087379 0.997596204
0.527261198 0.112713434 0.996710896
0.656799436 0.134977564 0.996710896
0.778747678 0.191777080 0.995445728
0.001518189 0.304111540 0.993421853
0.001138547 0.308539003 0.992030382
0.055787466 0.313852191 0.998734832
0.264010340 0.318152934 0.996204793
0.406198680 0.328399718 0.993801355
0.543580174 0.333333462 0.991903841
0.663250923 0.345730364 0.992409945
0.786590636 0.374826103 0.992409945
0.231372193 0.527261198 0.996963978
0.282099873 0.534471929 0.993801355
0.322454214 0.528779328 0.997469962
0.392410010 0.523719251 0.994560421
0.494244188 0.528146565 0.992030144
0.595319510 0.537887216 0.991903961
0.704111576 0.545730710 0.989500165
0.809740603 0.568627357 0.988867819
0.384946406 0.668817282 0.986590922
0.413282752 0.674763203 0.986084819
0.472106338 0.685894787 0.990765393
0.549652398 0.698798239 0.988488138
0.622643650 0.711827993 0.988361776
0.688551545 0.709930539 0.986590683
0.768627286 0.716888011 0.980392158
0.851866007 0.737128377 0.985072732
0.439848304 0.772928417 0.985704780
0.471473813 0.779000521 0.984060705
0.520683169 0.782415926 0.981277823
0.591018260 0.798102677 0.984060705
0.665907860 0.808348894 0.987223268
0.749525487 0.827071488 0.979127288
0.819228172 0.838836074 0.971157551
0.890322626 0.844781935 0.979380310
0.541808724 0.880075991 0.985831797
0.564073443 0.889183760 0.981025040
0.599367440 0.888804555 0.980391979
0.645920575 0.895509005 0.978115022
0.707020760 0.900948763 0.976470649
0.778873980 0.911954761 0.977861941
0.849462211 0.922833562 0.974066794
0.917899966 0.936242759 0.967362165
