Assets/Shaders/EldamarStudio/100 Sci-Fi LUTs Pack/LUTs/cube/Theton LUT.cube
LUT_3D_SIZE 5
DOMAIN_MIN 0.000000 0.000000 0.000000
DOMAIN_MAX 0.903226 0.903226 0.903226
0.000000000 0.000000000 0.000000000
0.219734401 0.014041712 0.044149287
0.459709227 0.048449989 0.125616819
0.675775111 0.170778006 0.230613112
0.899936557 0.300948799 0.355850816
0.264516115 0.182163119 0.206325114
0.328905404 0.188994408 0.185072407
0.500569522 0.246552810 0.228209987
0.698671699 0.310689390 0.296900839
0.918152928 0.405566394 0.408475667
0.547248423 0.505502343 0.502213836
0.572169781 0.522580385 0.499557376
0.629601359 0.481340796 0.421125829
0.758507371 0.533965528 0.453510523
0.946236193 0.608855188 0.534345210
0.817837000 0.796458244 0.875395477
0.835167706 0.814041972 0.943073809
0.852119148 0.809740722 0.837824225
0.899304152 0.751296282 0.671980143
0.985325873 0.780012667 0.718279183
0.967489004 0.962302148 0.994687021
0.976090789 0.965844512 0.998734832
0.974699378 0.964199543 0.999367416
0.971536875 0.966603637 0.995066166
0.987096965 0.936115980 1.000000000
0.006831295 0.041871995 0.172295704
0.227577403 0.007842999 0.192915976
0.470840961 0.058570698 0.252751291
0.673750699 0.158633873 0.321062416
0.892093778 0.289816767 0.413029671
0.193548411 0.209234402 0.244528979
0.325616419 0.197849676 0.261227101
0.500189841 0.235800102 0.300822377
0.680708289 0.299810529 0.362934828
0.902466595 0.393421531 0.452245533
0.503732145 0.471473783 0.476407081
0.562681615 0.502593100 0.524098694
0.604427695 0.465654373 0.444275707
0.736622095 0.536875248 0.487792790
0.934092522 0.602023900 0.557495058
0.794433832 0.789500535 0.825933218
0.814547956 0.802656591 0.897659898
0.840101421 0.797343135 0.845920563
0.884629846 0.740543723 0.676027775
0.978368104 0.783048928 0.743453264
0.966096997 0.957747936 1.000000000
0.968374252 0.967742145 0.994054198
0.978241503 0.966476679 1.000000000
0.972422540 0.963946879 0.994813144
0.982795894 0.939531803 0.998355269
0.000000000 0.137380987 0.411385208
0.092346728 0.043136999 0.409993798
0.472105980 0.021631572 0.412650377
0.664010108 0.152814701 0.471853524
0.890701950 0.257052392 0.528905392
0.104490593 0.290702105 0.461986095
0.243896410 0.216824695 0.463377535
0.510310173 0.207969815 0.455787361
0.681973398 0.268437684 0.496015251
0.902087331 0.359139830 0.548513770
0.360910833 0.474130362 0.519164979
0.429475397 0.474130362 0.525996089
0.572801769 0.452498794 0.517773867
0.717646956 0.499304265 0.544971704
0.930550218 0.576217413 0.597722769
0.680075824 0.739531815 0.697912693
0.733586311 0.750031829 0.752055407
0.816571832 0.782668829 0.899051130
0.851613104 0.732701123 0.705502748
0.956989408 0.796457827 0.833396554
0.947375238 0.952435195 1.000000000
0.956482768 0.956989169 0.998735011
0.976597011 0.964199543 0.998102427
0.976597011 0.963946819 0.995066285
0.983174980 0.945477784 0.998735011
0.001012128 0.256167114 0.665148258
0.000000000 0.161290139 0.655281246
0.451486260 0.084123708 0.637950540
0.684503198 0.120683119 0.621885002
0.907147408 0.249968782 0.662238896
0.000000000 0.378620833 0.687792540
0.024667881 0.320809692 0.694497287
0.480581790 0.236053243 0.658570707
0.700696111 0.250853688 0.646173716
0.919544756 0.349652261 0.684883058
0.209234446 0.646679282 0.796078205
0.362681538 0.615053654 0.783933938
0.521568477 0.498418808 0.741050065
0.741809130 0.479443789 0.689689934
0.936369240 0.548133731 0.729032338
0.504111230 0.760152102 0.818595469
0.544591844 0.762428820 0.823276758
0.649968386 0.746362925 0.812270761
0.796331286 0.719038427 0.792030394
0.944339097 0.765085399 0.903731465
0.848956287 0.923971772 0.997343183
0.872232735 0.927387714 0.997090340
0.928526163 0.941049635 0.998735011
0.984566629 0.968880415 1.000000000
0.979000628 0.943579793 0.996710837
0.001265167 0.391144812 1.000000000
0.000000000 0.332953960 0.996711016
0.003289416 0.226438954 0.992030203
0.603415608 0.234788060 0.995825291
0.894623578 0.288171589 0.993547976
0.000000000 0.484376490 1.000000000
0.001012124 0.446046799 0.998987913
0.031878684 0.345477641 0.998355269
0.619354844 0.342567623 0.996963918
0.907400429 0.380645335 0.994433701
0.212903187 0.729285181 0.992789388
0.239847749 0.697785795 0.997090280
0.403162599 0.624035597 0.996710598
0.673624337 0.571790040 1.000000000
0.926755130 0.563946784 0.996078193
0.705882072 0.905502796 0.998987854
0.731815457 0.904996753 0.999367416
0.786970317 0.889310658 0.995445848
0.816698313 0.806325257 0.998734832
0.960025430 0.762175918 1.000000000
0.836053252 0.957115591 1.000000000
0.838583291 0.955850780 1.000000000
0.866540015 0.953193903 0.991397619
0.924857676 0.952308595 1.000000000
0.968880653 0.941555798 1.000000000
