Assets/Shaders/EldamarStudio/100 Sci-Fi LUTs Pack/LUTs/cube/Theton LUT.cube
DOMAIN_MIN 0 0 0
DOMAIN_MAX 1 1 1
LUT_3D_SIZE 32
0.000000000 0.000000000 0.000000000
0.018215999 0.006072000 0.003036387
0.040733546 0.007843000 0.006072226
0.068817154 0.010372999 0.009108162
0.103352092 0.015686000 0.013662547
0.145856872 0.015686000 0.028842937
0.183301643 0.015686000 0.036433000
0.219734401 0.014041712 0.044149287
0.253131002 0.013282998 0.054016192
0.277419031 0.019354997 0.066160977
0.322074592 0.013789002 0.072485998
0.355471253 0.019860990 0.082605988
0.387349635 0.029727997 0.094749995
0.426312089 0.036305998 0.107400060
0.459709227 0.048449989 0.125616819
0.490702003 0.062997796 0.139025986
0.522580564 0.079696380 0.154205993
0.554079950 0.097280398 0.171789557
0.578368068 0.112460062 0.186969995
0.605439365 0.133206367 0.207716361
0.640354216 0.152561471 0.219480991
0.675775111 0.170778006 0.230613112
0.703099489 0.188867494 0.251359493
0.730423868 0.204047918 0.260467887
0.760025561 0.223782271 0.276407570
0.790385962 0.243643314 0.296015292
0.821758091 0.261859983 0.316761136
0.858190835 0.280075997 0.334977895
0.899936557 0.300948799 0.355850816
0.937128127 0.323971927 0.380645156
0.969639182 0.347374588 0.407084197
1.000000000 0.368627012 0.431373000
0.018215999 0.015180387 0.009108387
0.039468385 0.015180387 0.009108388
0.061985932 0.021252386 0.016445227
0.086274385 0.028083384 0.023782160
0.114357643 0.037317932 0.030739998
0.148893267 0.039974775 0.037950546
0.186338037 0.034914777 0.043010935
0.222770378 0.037191771 0.048576996
0.258443892 0.039089389 0.058570381
0.289563805 0.040607389 0.075268596
0.319670767 0.043769516 0.087413356
0.358507097 0.046173513 0.095762119
0.392283261 0.054016773 0.105755642
0.428842425 0.060341738 0.115749411
0.456672847 0.069702379 0.125616819
0.490069419 0.077039994 0.141429797
0.522580564 0.091840766 0.157242388
0.554712534 0.108791985 0.175458372
0.581404448 0.121568441 0.193041980
0.608475745 0.145098105 0.205439717
0.635800123 0.162808508 0.220240369
0.668690741 0.180898517 0.232637390
0.700189590 0.201138750 0.251738995
0.730423868 0.219228297 0.269576281
0.762302279 0.234408662 0.283238649
0.794813275 0.251360029 0.299304277
0.828336179 0.268438071 0.317267060
0.867299199 0.289184362 0.338013500
0.903731942 0.307400346 0.356230259
0.940164506 0.330044389 0.377103150
0.971789956 0.353447378 0.404554158
1.000000000 0.374699801 0.437444985
0.049335547 0.034661774 0.031119771
0.059835158 0.041113544 0.031119771
0.083238319 0.038962770 0.033270001
0.107526772 0.043769933 0.037317935
0.131814867 0.053257547 0.042884320
0.159898803 0.061606705 0.050727546
0.197975859 0.061353773 0.058570318
0.229475334 0.060215063 0.063250996
0.262871534 0.064263001 0.070082098
0.294876695 0.064263001 0.084123783
0.329664767 0.069323450 0.094370745
0.362049013 0.074383318 0.104490735
0.394939631 0.079317123 0.114737287
0.427830309 0.084124029 0.125110775
0.457052410 0.089437120 0.136116415
0.493484795 0.102593385 0.152182013
0.522327363 0.111701764 0.164326414
0.551929355 0.128020331 0.179379970
0.577736020 0.141682565 0.194560021
0.611511588 0.158507496 0.209360942
0.636938691 0.177103028 0.221505702
0.665022254 0.192283347 0.236685887
0.697280228 0.211132228 0.256040514
0.729664803 0.229348779 0.274256825
0.764453053 0.245288044 0.290196270
0.795066416 0.261859745 0.305376649
0.827956855 0.277799070 0.322074533
0.867425501 0.295762420 0.344971210
0.897786021 0.314357936 0.361416638
0.941302717 0.334345162 0.379632920
0.973940432 0.357368827 0.404048026
1.000000000 0.378621221 0.439215988
0.084503159 0.060974158 0.060974158
0.090575479 0.063757390 0.059709318
0.104490705 0.069323547 0.060594708
0.132574320 0.065022320 0.062365480
0.156862408 0.068438157 0.059709318
0.181151196 0.078811154 0.066161089
0.214294478 0.083365157 0.072738841
0.243390113 0.087539449 0.082732156
0.271473974 0.090575255 0.088804156
0.301834017 0.091081329 0.097406484
0.335483730 0.094370738 0.103984870
0.369892240 0.101708151 0.114357889
0.403288931 0.105503157 0.124604449
0.431372344 0.108918287 0.136749148
0.462744981 0.113978416 0.148893148
0.492725939 0.124098793 0.163314149
0.528399348 0.135230988 0.176976353
0.553953111 0.148640126 0.188614711
0.579506993 0.164453149 0.202656344
0.611132205 0.177103207 0.215053678
0.641239464 0.192283407 0.228336468
0.666540086 0.208475411 0.242504999
0.696394861 0.223782301 0.262998343
0.726375937 0.239721820 0.277799010
0.760784388 0.255661249 0.293738276
0.794307649 0.272232950 0.308918655
0.822138011 0.289436996 0.324098945
0.859329224 0.303858280 0.346109837
0.895761967 0.321695119 0.367488980
0.930423439 0.341682315 0.381910086
0.974572718 0.362934738 0.406324714
1.000000000 0.384187132 0.440480828
0.118658639 0.092852548 0.094370544
0.125869870 0.087539546 0.093991473
0.135104552 0.091840774 0.091208540
0.154206246 0.096521541 0.089690544
0.186464086 0.090069994 0.089310996
0.210752860 0.096142001 0.089310996
0.238962531 0.102214001 0.092220224
0.262744933 0.109550834 0.098292083
0.283997536 0.117140643 0.108918086
0.314357579 0.120177031 0.114990093
0.344718277 0.122201093 0.119670965
0.376343787 0.127514243 0.128779083
0.408981353 0.133206993 0.139784738
0.441872448 0.133966029 0.152182490
0.475015819 0.143073663 0.164453000
0.500695765 0.151802346 0.176217541
0.526502192 0.160151631 0.186843738
0.559266150 0.168374136 0.197343558
0.589627028 0.186590940 0.218595982
0.617204368 0.196078300 0.229475349
0.644908309 0.208981276 0.240860537
0.671473682 0.224035248 0.253510535
0.699051023 0.242125496 0.271600038
0.724098861 0.254522562 0.281214446
0.754838824 0.269323260 0.294876724
0.787223279 0.285515517 0.310436666
0.817963600 0.302719533 0.325237483
0.848323524 0.314863533 0.340417057
0.891207874 0.331941634 0.365844488
0.931815326 0.351929158 0.386211514
0.966603577 0.373181581 0.404427558
1.000000000 0.394433975 0.443895996
0.158127815 0.114104934 0.127766937
0.173308194 0.114104934 0.145983711
0.178368092 0.117393926 0.137002096
0.189247251 0.125237152 0.125616938
0.210752860 0.129538387 0.116635382
0.235040858 0.120429993 0.113598995
0.256799340 0.126501992 0.118658990
0.277925342 0.132573992 0.119291641
0.299177915 0.138393030 0.121062875
0.329537958 0.141429424 0.127134874
0.359898657 0.156103805 0.141935736
0.388235182 0.160657614 0.153067872
0.416571558 0.163566992 0.161796212
0.444908082 0.164326027 0.167362094
0.472232461 0.173434407 0.182542473
0.507779658 0.180138856 0.192409799
0.534092188 0.189753324 0.202024132
0.559266150 0.201518208 0.211764917
0.589627028 0.216950938 0.224667981
0.617204368 0.224035710 0.240354374
0.646426439 0.236306041 0.254522741
0.673245072 0.249462053 0.266160935
0.696015418 0.260341495 0.274636418
0.729411840 0.275521934 0.289816827
0.759013593 0.292472929 0.303984612
0.791271567 0.308791637 0.320556402
0.824162066 0.323971927 0.337255001
0.857431889 0.336115927 0.349525452
0.895761669 0.350916743 0.372675568
0.936242640 0.370145172 0.399241149
0.971663535 0.391397595 0.423149884
1.000000000 0.412650019 0.449968010
0.215306640 0.145477325 0.168753639
0.220367029 0.148007646 0.174320087
0.229095638 0.152308628 0.179633319
0.233775958 0.157115802 0.170145646
0.246552855 0.162935093 0.162049636
0.264389634 0.162428707 0.161164016
0.283617646 0.155850634 0.150537312
0.306514740 0.160278350 0.150031313
0.328779399 0.165464953 0.148387000
0.357368648 0.170272127 0.154459000
0.377608716 0.179885864 0.166730180
0.403921515 0.193042517 0.179886311
0.430739969 0.199873313 0.190891966
0.457811385 0.204300672 0.196710929
0.482859045 0.208855048 0.202782720
0.517393589 0.222770438 0.217963114
0.547754407 0.229221955 0.225806311
0.571916461 0.237444907 0.233902574
0.602277339 0.245035022 0.244149342
0.632384360 0.256926030 0.261606365
0.661606431 0.266793311 0.269196749
0.688931108 0.281340778 0.282858998
0.710436523 0.293485135 0.295129508
0.739025950 0.303858548 0.305502921
0.770145535 0.316761643 0.320683271
0.803289294 0.333080292 0.338646293
0.838330388 0.348260701 0.357495397
0.873751044 0.362428963 0.371663630
0.909930050 0.379759461 0.389373630
0.942314446 0.394939810 0.406577945
0.974319875 0.415559590 0.436306059
1.000000000 0.438456327 0.473750949
0.264516115 0.182163119 0.206325114
0.264263093 0.181910098 0.206072092
0.274383396 0.183807701 0.213535696
0.275395393 0.189879686 0.207210541
0.281087935 0.193295524 0.200758979
0.296268344 0.196331456 0.200758979
0.317267418 0.195066392 0.193927750
0.328905404 0.188994408 0.185072407
0.355471253 0.192030594 0.179000407
0.384566903 0.197216973 0.181530401
0.404807091 0.204553828 0.190132737
0.425426930 0.214041501 0.195698991
0.448577046 0.227324635 0.210120291
0.474889457 0.237950444 0.220999703
0.500569522 0.246552810 0.228209987
0.527893722 0.254269511 0.239215493
0.558254123 0.264895707 0.248323902
0.581910253 0.272865266 0.254901826
0.609235048 0.279949665 0.264009982
0.641239762 0.284756690 0.278178424
0.668311179 0.298545390 0.291840434
0.698671699 0.310689390 0.296900839
0.722074509 0.324984193 0.312966406
0.749398887 0.334092587 0.323592603
0.780645251 0.347122401 0.340543985
0.811005652 0.359266371 0.354332685
0.846426487 0.373687685 0.374320149
0.881720841 0.387729406 0.390639126
0.918152928 0.405566394 0.408475667
0.952561498 0.422011167 0.428083360
0.977229357 0.439848185 0.441112995
1.000000000 0.464136422 0.481341302
0.303225994 0.219355002 0.241240099
0.301707804 0.217836797 0.239721894
0.308538973 0.217710286 0.245161191
0.320177078 0.219481185 0.248197138
0.314864099 0.224794179 0.234914288
0.328146935 0.227451026 0.234914288
0.348640114 0.228716195 0.226818278
0.365338176 0.227704093 0.219987199
0.373687267 0.220114097 0.214674100
0.407084435 0.223149702 0.208602101
0.428083777 0.226818085 0.211132109
0.450095266 0.235673442 0.213915199
0.472106516 0.247817740 0.217710301
0.492599934 0.262745082 0.235421002
0.517394423 0.277419388 0.247564986
0.542315006 0.287666082 0.261227161
0.567362309 0.293738097 0.270335168
0.592283607 0.300442666 0.274636567
0.613789141 0.315370083 0.283744246
0.644655466 0.319671094 0.294876814
0.672359347 0.326881737 0.305503070
0.697154105 0.341050208 0.317394137
0.727387607 0.353067666 0.326502502
0.754711986 0.362175882 0.338014096
0.785072744 0.375838280 0.354712307
0.818596005 0.388868093 0.371789992
0.849462152 0.400506139 0.384946138
0.882859230 0.412397176 0.403162897
0.918912053 0.429854661 0.420620054
0.953573465 0.445540845 0.445161253
0.981783986 0.464136183 0.465401560
1.000000000 0.488424987 0.480581999
0.339658022 0.249715015 0.280708522
0.342694402 0.252751410 0.283744901
0.345477760 0.255534768 0.286527693
0.354079843 0.258444309 0.286148012
0.366476536 0.261226982 0.280455500
0.366476536 0.261226982 0.280455500
0.379759341 0.263883829 0.265275478
0.395319223 0.266793281 0.252498776
0.410120070 0.265654534 0.245034903
0.425300449 0.253510535 0.241998523
0.444148988 0.250727117 0.235926509
0.466540009 0.258191019 0.236432761
0.490701973 0.272485971 0.240480989
0.513851583 0.290069491 0.247565016
0.525996327 0.302213490 0.259708971
0.548386931 0.316887796 0.276660591
0.574193120 0.327134490 0.290069759
0.601391196 0.333839059 0.298924565
0.628716469 0.342947483 0.308032960
0.655787826 0.355091512 0.317141324
0.681467474 0.362934500 0.324478477
0.705755770 0.371410310 0.332827479
0.730423987 0.383428454 0.344718486
0.757748365 0.392536104 0.353826910
0.785072744 0.406198323 0.365338475
0.816824853 0.418595701 0.377861977
0.852498531 0.427830577 0.391018152
0.885894895 0.436938941 0.409234911
0.921948135 0.454142958 0.424794853
0.956609607 0.468816996 0.454269618
0.984693110 0.485515058 0.486780465
1.000000000 0.512712955 0.504869998
0.379000604 0.288804621 0.320176870
0.393674999 0.291840255 0.320303380
0.390259594 0.292725861 0.319038779
0.391018569 0.295003176 0.320556581
0.399240762 0.298798263 0.319417864
0.409360737 0.306388617 0.314357877
0.414421380 0.306388617 0.304237872
0.428462893 0.310689747 0.299936861
0.443642974 0.313472509 0.296394765
0.458823323 0.307779759 0.286907136
0.465274841 0.295635760 0.272232771
0.483491361 0.292599350 0.268184483
0.507147491 0.298038989 0.268310994
0.532700717 0.308917999 0.271094024
0.550157785 0.323718846 0.280581862
0.564705729 0.338266671 0.292725861
0.584440231 0.354965270 0.306894511
0.605060101 0.367868602 0.316761732
0.623276234 0.379253715 0.323592871
0.656167328 0.391144723 0.335483879
0.683744729 0.399493724 0.344718724
0.709044814 0.405565739 0.351802856
0.733459651 0.414041489 0.360404849
0.760784030 0.428715825 0.377861887
0.790385723 0.433270007 0.384692967
0.822517335 0.443137407 0.395572305
0.857938170 0.451739758 0.409234822
0.888931274 0.458444327 0.429854751
0.917014658 0.478178650 0.450727642
0.947375119 0.494876474 0.466414034
0.975837946 0.509930015 0.490575850
0.997090161 0.531182706 0.508791864
0.422517240 0.338393480 0.357621491
0.429601640 0.337381095 0.357621491
0.435800493 0.340290755 0.357495010
0.433523327 0.341555923 0.358254254
0.437318027 0.344212741 0.361669481
0.447817773 0.348387420 0.358886480
0.452877611 0.353953481 0.353826731
0.462239385 0.353953481 0.341682315
0.475521654 0.358507425 0.341682345
0.488171726 0.358000994 0.330803514
0.498671770 0.348260760 0.317773372
0.504743755 0.334092468 0.302593499
0.525237262 0.331056118 0.300695747
0.550664008 0.334977508 0.301201761
0.567109227 0.348386645 0.308538914
0.580897748 0.363567054 0.313978225
0.597596347 0.375711441 0.323086232
0.615812957 0.391777575 0.333586305
0.632384300 0.405313283 0.341050029
0.660214841 0.419481516 0.352688015
0.684124231 0.431625485 0.364832461
0.710056961 0.438962638 0.373055249
0.734724522 0.446046740 0.379253745
0.765844405 0.455534428 0.391777515
0.793421805 0.465654761 0.406957269
0.829348505 0.471473813 0.422770232
0.866540313 0.481087983 0.437065512
0.898418844 0.490195960 0.450727671
0.924098551 0.505502820 0.465907753
0.949652135 0.523213148 0.488930881
0.974952579 0.540164113 0.506641269
0.998102248 0.559519231 0.525995970
0.470334917 0.398734927 0.404300898
0.472232670 0.396837175 0.404300898
0.476407379 0.398102343 0.408854902
0.479443759 0.401138425 0.410246551
0.482099921 0.404174834 0.414800555
0.488931209 0.404933929 0.413282573
0.491840571 0.405439913 0.409614235
0.499810040 0.409361273 0.400506139
0.510436654 0.410120368 0.391397566
0.519164801 0.413156092 0.383428395
0.531182706 0.409108132 0.369133174
0.541556299 0.395952284 0.356103539
0.549905300 0.379633278 0.340923637
0.573181272 0.376090884 0.339658618
0.587476015 0.382036269 0.339531988
0.604806900 0.395445704 0.346616119
0.616571665 0.407589823 0.350031257
0.635420799 0.417330801 0.356735855
0.654142916 0.432005286 0.365844280
0.677292645 0.449462652 0.377735317
0.697786152 0.461606622 0.388741136
0.718026638 0.473750889 0.399873763
0.742567599 0.482985735 0.406198740
0.774952710 0.490069628 0.415306866
0.804933906 0.498418897 0.428968966
0.832384646 0.506388605 0.441745311
0.872359395 0.515496373 0.467046410
0.904490769 0.527007878 0.475015998
0.933333278 0.541808724 0.487539619
0.959898353 0.558127403 0.504490554
0.979759574 0.573307872 0.525236845
1.000000000 0.594054282 0.545730293
0.519924045 0.466034025 0.465781063
0.519671082 0.466793060 0.466793060
0.524224997 0.468437850 0.473877072
0.529791236 0.471726924 0.482732207
0.532195032 0.475268602 0.485389024
0.532195032 0.478304982 0.479317039
0.532448053 0.473751038 0.472233027
0.538520038 0.472359329 0.461986363
0.548640072 0.475142121 0.450348049
0.554712057 0.478178531 0.450348049
0.566603065 0.481214195 0.433649391
0.577988565 0.472865343 0.418975055
0.590133071 0.457052767 0.405945450
0.602277040 0.438836068 0.390765071
0.614421010 0.429727703 0.375584692
0.635673642 0.435167581 0.380265594
0.653384268 0.445540845 0.387096822
0.664516568 0.455787182 0.391144574
0.685768962 0.467931986 0.400252998
0.704238057 0.487413347 0.412144095
0.721062779 0.501581311 0.423149794
0.738773048 0.511954248 0.432258159
0.762934506 0.524225533 0.441366494
0.792915821 0.533586144 0.450474143
0.823023498 0.542947352 0.464389324
0.851106942 0.550917089 0.475647986
0.876407087 0.557242095 0.482732087
0.903731465 0.566350460 0.497912467
0.935863435 0.580265820 0.513092875
0.966476977 0.597216964 0.529791057
0.990891576 0.614041626 0.547501266
1.000000000 0.629222035 0.559646070
0.547248423 0.505502343 0.502213836
0.544212759 0.514610767 0.514357805
0.550411046 0.513219595 0.511068821
0.560151696 0.515243769 0.515116990
0.568501234 0.521062613 0.522201240
0.565591395 0.529917300 0.524857402
0.568121731 0.525363386 0.508665383
0.572169781 0.522580385 0.499557376
0.577988803 0.523212790 0.492346704
0.579000771 0.523718894 0.489816397
0.590891838 0.526755273 0.481088251
0.596964061 0.523719192 0.464010119
0.605313361 0.513472497 0.449335814
0.617457449 0.499556750 0.436306208
0.629601359 0.481340796 0.421125829
0.646552980 0.467425406 0.410752445
0.667552650 0.468563974 0.407590002
0.685009778 0.477798522 0.405945390
0.700948536 0.495256335 0.412396997
0.719418287 0.504617035 0.424288720
0.739532113 0.520050287 0.440227807
0.758507371 0.533965528 0.453510523
0.778114855 0.548513532 0.462618858
0.799367309 0.563693881 0.471726477
0.827071309 0.575331807 0.487665951
0.856419921 0.585452080 0.501075089
0.886021495 0.593421817 0.509550452
0.918911815 0.599746823 0.519164801
0.946236193 0.608855188 0.534345210
0.969512939 0.624541342 0.549525559
0.988488376 0.640100956 0.568880379
1.000000000 0.650474370 0.593042433
0.576976597 0.554585397 0.536242783
0.581151128 0.561289966 0.538772821
0.591018498 0.561796367 0.548766613
0.599367321 0.561290443 0.551549613
0.607337177 0.567362309 0.559898734
0.604300797 0.580518425 0.556862652
0.608728886 0.574572563 0.554205775
0.603542149 0.573434293 0.540923476
0.606578171 0.574193418 0.535610557
0.613156557 0.574193418 0.534218907
0.617583811 0.574699461 0.522959828
0.631752014 0.573687315 0.509804249
0.637444794 0.565717757 0.491967112
0.646046758 0.553573370 0.477039754
0.649588764 0.539658427 0.461859375
0.661732733 0.521441817 0.449082822
0.678431332 0.506261826 0.438456625
0.697280347 0.506767809 0.431246012
0.714231670 0.519670904 0.432004780
0.737001717 0.524731219 0.441239715
0.757115722 0.537634313 0.457178980
0.777356267 0.552814722 0.474383116
0.795699060 0.567868590 0.486274481
0.816951513 0.580771685 0.495382696
0.840480626 0.595952094 0.499936283
0.866287112 0.611005545 0.516128838
0.894117832 0.623149872 0.527766883
0.923719227 0.631119609 0.538773000
0.951802611 0.639848411 0.553193808
0.972042978 0.652498305 0.568374157
0.987856030 0.668311000 0.587982178
1.000000000 0.678937614 0.616824806
0.608855188 0.603162587 0.565085411
0.620999575 0.607716322 0.574193358
0.621378958 0.610373139 0.573054969
0.637824178 0.611132324 0.582163334
0.644908190 0.614800572 0.594054401
0.645287395 0.626565337 0.594813406
0.642251790 0.624541461 0.586717248
0.647565186 0.620493293 0.584946096
0.639974594 0.622011483 0.574320316
0.650601149 0.621252358 0.570525169
0.654016674 0.619734168 0.561922848
0.660594642 0.619228125 0.550790429
0.673497736 0.616192043 0.539026201
0.679949164 0.605439544 0.522327483
0.682479143 0.594560444 0.505881965
0.686021149 0.579127014 0.494623542
0.698165536 0.559392393 0.477925390
0.711448371 0.544845223 0.465781391
0.726122975 0.547754407 0.460088581
0.751423240 0.549778521 0.465148538
0.775332093 0.558886707 0.476913184
0.794560254 0.573055208 0.491081178
0.812650323 0.587476611 0.504743457
0.836686075 0.598228991 0.516634941
0.858697355 0.611132503 0.524225116
0.880202293 0.626312494 0.530044019
0.903732061 0.644402146 0.544465363
0.929032445 0.656546652 0.556609869
0.954838574 0.670208812 0.568374515
0.972042978 0.678304911 0.585072339
0.987223446 0.697026730 0.609107971
1.000000000 0.712333977 0.642631352
0.646046698 0.646806121 0.593801498
0.662365735 0.652371705 0.610752702
0.662492335 0.653510273 0.614927113
0.660341561 0.657811522 0.613915265
0.678178072 0.663883507 0.623023689
0.685009122 0.669955492 0.634914696
0.682226360 0.668437839 0.629348695
0.680076063 0.665781558 0.621885121
0.684250534 0.666287422 0.619987607
0.690322518 0.663251042 0.604807198
0.692852795 0.660214841 0.597090483
0.697280526 0.659835100 0.587729394
0.704491079 0.658696771 0.577229559
0.713598669 0.655408144 0.570651531
0.720050097 0.646679282 0.553193927
0.723212659 0.633396327 0.540290833
0.726122320 0.617077470 0.527640879
0.737002134 0.595825136 0.507020950
0.743074179 0.583681107 0.494876951
0.765464902 0.579506516 0.494750172
0.790259421 0.584566534 0.500316143
0.812144458 0.595445633 0.509803593
0.827830076 0.607716918 0.516128540
0.855155110 0.617836654 0.530802906
0.877293229 0.629222095 0.542694271
0.897153914 0.644023001 0.552435219
0.916382074 0.659202635 0.562555492
0.937761009 0.677292824 0.574825943
0.960404515 0.695509076 0.586843729
0.975837767 0.708538711 0.603162646
0.984819591 0.718279123 0.626185715
1.000000000 0.745603561 0.671726942
0.697659969 0.683238983 0.639342070
0.706767559 0.698418617 0.651486874
0.708032787 0.697533011 0.661986291
0.704490840 0.697279990 0.667299211
0.705502570 0.703352034 0.671600640
0.720682979 0.709424019 0.680709004
0.730044246 0.707906306 0.682480037
0.732700944 0.703226030 0.676534295
0.732447922 0.699936867 0.668944061
0.729790986 0.702719569 0.662492514
0.730044007 0.699683905 0.650221288
0.732321262 0.700695693 0.636559367
0.737887621 0.701201618 0.620746732
0.746995866 0.697912991 0.604048014
0.756103456 0.691841006 0.591904044
0.764958739 0.680708349 0.574446440
0.767235756 0.668311000 0.561543345
0.767362237 0.653510392 0.549525917
0.773435056 0.632258058 0.531309068
0.785073042 0.617330670 0.524731040
0.804174721 0.612902999 0.521315753
0.824667990 0.615939021 0.521568835
0.843010545 0.622896612 0.525236964
0.870334923 0.638076961 0.537381053
0.890828609 0.650474608 0.552055299
0.909298003 0.666793644 0.565338373
0.928526103 0.686527848 0.577735901
0.952814817 0.701707482 0.592915535
0.971536875 0.719797671 0.613155842
0.984946191 0.736243129 0.636938691
0.993168950 0.750664234 0.664389908
1.000000000 0.766855955 0.696015060
0.757621765 0.747501731 0.748893201
0.766730070 0.748766720 0.755471289
0.771536708 0.753194094 0.765465319
0.771030784 0.750917077 0.770778239
0.769892097 0.753194094 0.771916866
0.773054719 0.754459083 0.773814440
0.778115094 0.760531068 0.772802174
0.781783760 0.756609738 0.769260168
0.783301771 0.752055705 0.762049496
0.786337674 0.753067613 0.755977511
0.786211133 0.753067613 0.744086504
0.786211133 0.748007715 0.729917943
0.789626718 0.745351076 0.712460876
0.796837330 0.740670741 0.692093790
0.803415298 0.737128377 0.669829130
0.812523544 0.735863388 0.655281365
0.820113778 0.726754904 0.635926247
0.821505129 0.715243340 0.617330849
0.823276401 0.698292494 0.590512574
0.823782444 0.679822743 0.575079143
0.837824106 0.664642334 0.565212131
0.855281532 0.661226869 0.560531735
0.871726751 0.665401638 0.561796546
0.891081333 0.669956028 0.565970719
0.913851619 0.680581808 0.573560774
0.929791391 0.692220032 0.588614643
0.944718659 0.707779765 0.606072426
0.962175488 0.720683277 0.630360663
0.975838304 0.738519669 0.656166911
0.990259349 0.754965186 0.677672267
0.997722983 0.771030962 0.707400560
1.000000000 0.788108349 0.745351136
0.795572460 0.778241694 0.818722486
0.800885320 0.789626718 0.828589439
0.803794920 0.787729442 0.838709533
0.810626030 0.785199106 0.844022751
0.812397122 0.785452068 0.845540822
0.809360743 0.791524470 0.851613224
0.813788831 0.788994491 0.866160572
0.811891079 0.791777492 0.863124609
0.812903166 0.789247453 0.855028570
0.818975449 0.791524470 0.845540941
0.821125746 0.785831749 0.827957153
0.824920774 0.785578728 0.813788950
0.826059401 0.782922387 0.796331525
0.830866456 0.779380441 0.775079131
0.833649516 0.776344061 0.752435148
0.844022512 0.773813725 0.729664385
0.853130937 0.770777702 0.709930182
0.858949900 0.762049079 0.688298345
0.860214770 0.749399483 0.661733150
0.862112463 0.735230744 0.645287812
0.865907490 0.718911707 0.624415219
0.880075753 0.702719450 0.608222902
0.894370496 0.699304223 0.600379705
0.910815775 0.698798180 0.591018617
0.927513957 0.706388414 0.600126505
