Assets/Shaders/EldamarStudio/100 Sci-Fi LUTs Pack/LUTs/cube/Theton LUT.cube
LUT_3D_SIZE 8
DOMAIN_MIN 0.000000 0.000000 0.000000
DOMAIN_MAX 0.903226 0.903226 0.903226
0.000000000 0.000000000 0.000000000
0.103352092 0.015686000 0.013662547
0.253131002 0.013282998 0.054016192
0.387349635 0.029727997 0.094749995
0.522580564 0.079696380 0.154205993
0.640354216 0.152561471 0.219480991
0.760025561 0.223782271 0.276407570
0.899936557 0.300948799 0.355850816
0.118658639 0.092852548 0.094370544
0.186464086 0.090069994 0.089310996
0.283997536 0.117140643 0.108918086
0.408981353 0.133206993 0.139784738
0.526502192 0.160151631 0.186843738
0.644908309 0.208981276 0.240860537
0.754838824 0.269323260 0.294876724
0.891207874 0.331941634 0.365844488
0.303225994 0.219355002 0.241240099
0.314864099 0.224794179 0.234914288
0.373687267 0.220114097 0.214674100
0.472106516 0.247817740 0.217710301
0.567362309 0.293738097 0.270335168
0.672359347 0.326881737 0.305503070
0.785072744 0.375838280 0.354712307
0.918912053 0.429854661 0.420620054
0.470334917 0.398734927 0.404300898
0.482099921 0.404174834 0.414800555
0.510436654 0.410120368 0.391397566
0.549905300 0.379633278 0.340923637
0.616571665 0.407589823 0.350031257
0.697786152 0.461606622 0.388741136
0.804933906 0.498418897 0.428968966
0.933333278 0.541808724 0.487539619
0.608855188 0.603162587 0.565085411
0.644908190 0.614800572 0.594054401
0.639974594 0.622011483 0.574320316
0.673497736 0.616192043 0.539026201
0.698165536 0.559392393 0.477925390
0.775332093 0.558886707 0.476913184
0.858697355 0.611132503 0.524225116
0.954838574 0.670208812 0.568374515
0.795572460 0.778241694 0.818722486
0.812397122 0.785452068 0.845540822
0.812903166 0.789247453 0.855028570
0.826059401 0.782922387 0.796331525
0.853130937 0.770777702 0.709930182
0.865907490 0.718911707 0.624415219
0.927513957 0.706388414 0.600126505
0.979253650 0.756736457 0.686147809
0.887792289 0.889816284 0.987603009
0.902213693 0.888930976 0.995698571
0.909930587 0.895888269 0.998481870
0.906135261 0.892093599 1.000000000
0.902972817 0.883997381 0.996837080
0.919924259 0.872865498 0.978621244
0.946362972 0.838456571 0.876787066
0.985831976 0.833649278 0.864769042
0.967489004 0.962302148 0.994687021
0.969133377 0.969639421 0.994939983
0.978873849 0.969386756 1.000000000
0.979000628 0.970272064 1.000000000
0.972675800 0.967489004 0.998481810
0.972042918 0.969386756 0.998102248
0.982416034 0.960025430 1.000000000
0.987096965 0.936115980 1.000000000
0.000000000 0.019987451 0.078304999
0.106894545 0.007843000 0.098292544
0.258190751 0.016445097 0.130803078
0.391271651 0.040607091 0.168374181
0.522707164 0.089943185 0.213535741
0.635040998 0.156862527 0.258570284
0.752182007 0.225426987 0.314105272
0.897659302 0.294750094 0.376217782
0.094750091 0.113219537 0.131941631
0.179380089 0.105756000 0.153194547
0.283997625 0.121821642 0.166097090
0.409360826 0.133965895 0.194307089
0.522580564 0.164452881 0.233902544
0.637444735 0.211764723 0.280075938
0.762555242 0.274004012 0.333965540
0.909298062 0.342314988 0.405565798
0.283618093 0.217330649 0.239721984
0.321948171 0.227577642 0.259329289
0.365085214 0.220493555 0.235800192
0.457558244 0.256926179 0.261606276
0.560657680 0.290195853 0.293358743
0.657937825 0.325110584 0.325489908
0.773561001 0.368121386 0.374826014
0.908159375 0.422390729 0.432637602
0.454648912 0.381151348 0.388614804
0.469196469 0.385831445 0.417204440
0.488804370 0.395192653 0.395698845
0.529917836 0.370651603 0.345224351
0.611132145 0.407969475 0.363314271
0.692979038 0.463250995 0.405692577
0.810626209 0.503984809 0.459076464
0.937381268 0.552814782 0.513851643
0.592536211 0.590258956 0.552814782
0.611005425 0.591651022 0.577229559
0.638076961 0.609866917 0.578747690
0.647944391 0.601644576 0.534345388
0.685262501 0.544085920 0.483617812
0.756356776 0.557368815 0.488424718
0.846300006 0.614421010 0.528779268
0.945603967 0.677545488 0.576723814
0.779127300 0.765338540 0.784187019
0.788488448 0.774699748 0.801391244
0.810119808 0.779253781 0.841365993
0.813535511 0.774572790 0.786590815
0.834914744 0.762428641 0.703351974
0.853636920 0.709044993 0.617330849
0.919544518 0.703605473 0.607716739
0.980897784 0.757242441 0.688425004
0.874383569 0.877672553 1.000000000
0.877545834 0.881340981 0.996711016
0.898039043 0.888045371 0.998481870
0.902466714 0.886780679 0.999240935
0.895635307 0.884882987 1.000000000
0.910815537 0.875395358 0.971663296
0.946616173 0.842758060 0.907020330
0.985958278 0.840607405 0.902340531
0.966982722 0.959898710 0.999620438
0.965591252 0.965211689 0.998355269
0.972801924 0.967489004 0.997090399
0.976344168 0.967615187 0.996078014
0.976723492 0.967742026 0.998481810
0.972548902 0.965844274 0.995445907
0.979380310 0.958127737 0.999620438
0.983428001 0.939658701 0.998734832
0.001517998 0.054016192 0.197343186
0.062365443 0.015686098 0.217837095
0.262492180 0.009360997 0.222517088
0.396458089 0.033270352 0.253004402
0.525110245 0.079696380 0.285136193
0.635294378 0.144971475 0.327640980
0.752941251 0.204300985 0.369006991
0.886780620 0.279696584 0.423402905
0.074889451 0.148893088 0.247944549
0.138266638 0.112839997 0.230613634
0.294117749 0.104997002 0.251106650
0.418469161 0.124098644 0.271094173
0.534092665 0.157495186 0.304111153
0.635040820 0.197343379 0.328905553
0.765844047 0.255914241 0.386843652
0.905629337 0.329664350 0.445161194
0.219355002 0.234282091 0.274130285
0.280202538 0.236179650 0.289184123
0.362049222 0.235041186 0.294624090
0.458064646 0.249462545 0.317773640
0.559519291 0.275016099 0.346363187
0.657178879 0.313725442 0.379632831
0.775585234 0.354712248 0.415053666
0.906514645 0.412902981 0.472991675
0.402656376 0.362428546 0.373181641
0.434029192 0.371916294 0.392789662
0.482606083 0.388614923 0.425806463
0.520682871 0.365211815 0.385325491
0.592410147 0.415812552 0.417963445
0.686401188 0.457811624 0.450853735
0.805566132 0.495508909 0.487665921
0.937254548 0.547628045 0.538772643
0.557115495 0.561543345 0.535104334
0.581404209 0.571790218 0.555344641
0.630866349 0.591397583 0.587856054
0.638583362 0.588361502 0.554332733
0.663757384 0.537381172 0.498292267
0.751676023 0.564705729 0.518659115
0.841366291 0.629728198 0.557115674
0.951170146 0.675015807 0.604427576
0.757495105 0.752814710 0.751802564
0.771916330 0.757748246 0.775078714
0.801391721 0.765970707 0.826312244
0.806578100 0.771916449 0.803162575
0.823656142 0.755850732 0.714737654
0.841619372 0.701328456 0.624161661
0.912713647 0.711448371 0.629348874
0.969765961 0.763820350 0.713851631
0.867046237 0.869829535 0.995319307
0.869702578 0.876281023 0.999240994
0.890955150 0.880961537 0.998355269
0.903099298 0.884376884 0.995193005
0.898798168 0.881594181 0.996837139
0.911448538 0.876407325 0.980265558
0.936369181 0.840733826 0.932068050
0.976344228 0.844276071 0.933965802
0.966856122 0.959013045 1.000000000
0.965211689 0.958507240 0.999240994
0.966350317 0.963693976 0.992283046
0.976596773 0.964832127 0.994813144
0.976596951 0.966350317 0.997343302
0.974952698 0.965464711 0.996078014
0.977103114 0.957748055 0.998102248
0.980012536 0.942062080 0.996584296
0.002783356 0.106514998 0.338013649
0.000000000 0.048829637 0.345856726
0.236938640 0.020366902 0.343200296
0.405819267 0.008981644 0.356989652
0.531309187 0.074636638 0.383554637
0.639468610 0.135357082 0.414927512
0.748892963 0.199620277 0.450600982
0.896014988 0.263124466 0.496015161
0.000379548 0.179759547 0.363061547
0.033523187 0.148134097 0.365212202
0.275015980 0.106894448 0.360784531
0.426312298 0.113219544 0.366223723
0.539911151 0.146868736 0.394813359
0.645414531 0.191018090 0.419102162
0.762049496 0.244276077 0.457811534
0.902972639 0.304870218 0.503478885
0.168880463 0.309044749 0.419607639
0.238963082 0.285895109 0.407337159
0.335863650 0.233396277 0.403162718
0.467046261 0.232637197 0.407842696
0.563187897 0.260847479 0.426312208
0.662744880 0.292979121 0.443390310
0.773814023 0.335610449 0.482605875
0.901327968 0.386843562 0.517014444
0.318911999 0.389626920 0.441745579
0.360025644 0.390765369 0.450853825
0.419987261 0.388108730 0.452119172
0.508285642 0.372295916 0.445160925
0.583807528 0.395825714 0.465401381
0.682479441 0.430740297 0.489310741
0.800885260 0.471473545 0.526881635
0.931308985 0.531562090 0.563946664
0.469576091 0.528399765 0.504364550
0.494876623 0.541049838 0.521948099
0.556483269 0.545224309 0.549145877
0.617077947 0.570398390 0.574446380
0.650221586 0.535863400 0.529285014
0.727767169 0.584060729 0.555597425
0.830613375 0.622391045 0.582542717
0.947627962 0.664010167 0.635800242
0.695508897 0.724604726 0.685768723
0.720556736 0.728905380 0.707653224
0.754838467 0.741682529 0.748513639
0.798355639 0.760910571 0.821884930
0.806830823 0.748387337 0.745477796
0.828336477 0.699304223 0.648829818
0.898165643 0.720429778 0.672612250
0.957368791 0.769765794 0.762808204
0.844022572 0.864768922 0.983427942
0.851106942 0.865148485 0.998102427
0.865022361 0.872739017 0.998861372
0.898924291 0.883238256 0.998861372
0.897659719 0.883491755 0.997216642
0.905629337 0.872106314 0.991777301
0.930550337 0.839089215 0.938520133
0.967868209 0.849209249 0.950157821
0.958253980 0.953446984 0.996964037
0.959139705 0.958380818 0.994813144
0.969513059 0.966729999 0.995825231
0.972802043 0.969386280 1.000000000
0.976596773 0.966729879 0.996204793
0.973307908 0.965085149 0.996584296
0.977862000 0.959771752 1.000000000
0.988614738 0.938899636 0.995951772
0.003035997 0.166223809 0.492726386
0.000000000 0.125996277 0.489184022
0.121569015 0.059456185 0.490322381
0.399999738 0.021125998 0.477419555
0.532195210 0.053763181 0.489057183
0.643010974 0.128652528 0.516382217
0.756736577 0.191018194 0.539785206
0.900316119 0.260215014 0.562175810
0.003542452 0.223655730 0.508791804
0.003922000 0.192283541 0.509930193
0.173560739 0.133080095 0.501834512
0.419355065 0.117899835 0.490322381
0.539658546 0.129664734 0.497153729
0.646805882 0.182036728 0.520303369
0.767741859 0.241872177 0.548513234
0.910436630 0.304996729 0.576217175
0.131815001 0.347754478 0.538140476
0.190891743 0.325363845 0.537508011
0.271094114 0.269449979 0.539152145
0.454142928 0.243643284 0.525363743
0.570525169 0.246046886 0.524225235
0.663757145 0.285515666 0.538013816
0.778747559 0.328146458 0.558760226
0.908791721 0.380771697 0.581404209
0.251486093 0.495256037 0.570524991
0.304743975 0.491840452 0.572675467
0.400885642 0.456546366 0.573687315
0.488551706 0.380518377 0.552308559
0.596331358 0.377735615 0.542567790
0.692726195 0.416192085 0.564326406
0.806830823 0.452371627 0.579759598
0.931941748 0.500189841 0.602530122
0.399747193 0.558507323 0.577735364
0.421252668 0.565338612 0.578747749
0.475775003 0.561037302 0.582416296
0.550537646 0.547374725 0.576849997
0.624541163 0.534345150 0.573561132
0.718406379 0.561163664 0.586590707
0.831878483 0.589753211 0.618848503
0.940543950 0.635546982 0.664769173
0.554079592 0.690448999 0.633396685
0.574320316 0.695129454 0.638203800
0.634281814 0.698165417 0.655407906
0.711195529 0.712586761 0.706388235
0.778620839 0.734218478 0.774573028
0.798987746 0.691460729 0.684123933
0.879063785 0.731435835 0.728146434
0.946362793 0.767488897 0.804553747
0.776723444 0.837065279 0.916888118
0.782795846 0.841619313 0.935863316
0.811385274 0.847185552 0.968880355
0.854775488 0.858949959 0.998861372
0.905882299 0.883871317 1.000000000
0.898165703 0.868437827 0.999620438
0.914357960 0.833523273 0.947501242
0.956989169 0.857558489 0.977229476
0.934092402 0.947880983 0.997596204
0.947628260 0.951296628 0.997596204
0.952814758 0.954206169 0.994686961
0.965464830 0.962555230 0.996964037
0.978494465 0.968500793 0.996078014
0.979886174 0.968627632 1.000000000
0.978114784 0.960277975 1.000000000
0.978115022 0.941935599 0.994180620
0.000000000 0.236938730 0.626691997
0.005566196 0.211005732 0.624415159
0.002783376 0.119797476 0.619607568
0.364200085 0.079064094 0.613915086
0.539026201 0.053383730 0.590765238
0.650094450 0.107526734 0.595572472
0.764832079 0.178494573 0.617963731
0.909677505 0.254775673 0.641492784
0.000000000 0.285136074 0.634535491
0.003922000 0.257178754 0.628083646
0.010499662 0.180391818 0.620619893
0.380771369 0.148640186 0.614547849
0.547754288 0.137002081 0.603795052
0.662871480 0.173055291 0.611511886
0.786970258 0.230866373 0.631499290
0.926754773 0.305882335 0.658696890
0.004048017 0.395066440 0.654395759
0.024794731 0.379506648 0.657052517
0.194433913 0.319038719 0.657558680
0.405565739 0.266539842 0.645161033
0.563440919 0.249209538 0.620999634
0.680202365 0.271094084 0.613029778
0.797090292 0.316761464 0.637318075
0.919544756 0.381783813 0.657811463
0.212523550 0.555597842 0.715370119
0.275648564 0.539658368 0.711068630
0.356609911 0.497786015 0.683111906
0.443643302 0.414168358 0.678304434
0.595825255 0.401391715 0.651992261
0.711448431 0.404301196 0.649715364
0.822896957 0.450600892 0.665654719
0.948639750 0.505882561 0.697027028
0.334724903 0.670588255 0.752055347
0.364073426 0.669323087 0.750790477
0.436306447 0.663883924 0.747248948
0.527261496 0.628589869 0.728020549
0.621505320 0.553447127 0.691461265
0.731056392 0.546742380 0.674509704
0.844528556 0.584819674 0.700442731
0.948387027 0.614547908 0.739405096
0.485894978 0.730803192 0.751802444
0.494244069 0.724731445 0.750031650
0.542567849 0.723972380 0.750916839
0.606704473 0.716508627 0.754585803
0.676786959 0.703605294 0.740037978
0.765970707 0.683617771 0.726249218
0.853763521 0.710183442 0.768880486
0.948133767 0.740037739 0.839974403
0.626312792 0.804680526 0.825932980
0.644402206 0.802909732 0.820746362
0.685388803 0.807210386 0.854522228
0.749525726 0.819607675 0.905123055
0.826945007 0.836938322 0.971663296
0.890448987 0.873118341 0.999620497
0.900695920 0.829728305 0.968753815
0.940417588 0.871347547 0.994560301
0.875521779 0.927260935 0.998102248
0.886907101 0.933965504 0.997722805
0.901327968 0.932700634 0.995319247
0.925616682 0.942567766 0.998481989
0.961543143 0.956736088 0.996457577
0.981783807 0.967109203 1.000000000
0.975711524 0.962681651 0.998102248
0.979253650 0.942820966 1.000000000
0.007843000 0.316255569 0.824920774
0.001644712 0.290828526 0.832004786
0.001518192 0.209740564 0.821125925
0.176091194 0.146868929 0.809740424
0.500442982 0.128146470 0.776976585
0.657431960 0.116761535 0.739405036
0.787476540 0.175078988 0.753699780
0.911574781 0.250980318 0.785198927
0.003542452 0.361416548 0.867931545
0.003794996 0.339911580 0.857937872
0.004554190 0.270588458 0.848956108
0.178747892 0.209740475 0.837444782
0.503858387 0.197343826 0.807210743
0.669323444 0.189247176 0.769007087
0.798102736 0.230360821 0.781024575
0.925869524 0.302972585 0.822896957
0.004048100 0.455787450 0.900695801
0.000758999 0.441365927 0.881467402
0.001517998 0.385199279 0.870841265
0.181277767 0.314231634 0.862871528
0.503605127 0.303732097 0.828842640
0.673371196 0.286021739 0.780139327
0.801518083 0.315370172 0.796078324
0.925363362 0.377103060 0.812017441
0.002783356 0.602656603 0.958760142
0.001517999 0.586337924 0.952814460
0.120556563 0.555597842 0.944212556
0.294244438 0.488298595 0.930297196
0.508918464 0.452498257 0.887286365
0.691587806 0.428842813 0.833396375
0.822138250 0.450727344 0.836685538
0.938140452 0.502972782 0.870714664
0.209993452 0.756609619 0.996837318
0.273371100 0.748134255 0.989500225
0.367615342 0.724478126 0.986843526
0.454649210 0.689689994 0.968374252
0.533965766 0.604427338 0.952308774
0.700695932 0.572801888 0.893737972
0.834788203 0.578621089 0.883111954
0.935736656 0.618722200 0.913978219
0.467172563 0.821125567 0.996457517
0.485009253 0.823529243 0.997722745
0.526375353 0.818848670 0.999240935
0.601012409 0.816571534 0.998481989
0.681087971 0.790385604 0.997596323
0.723845661 0.718658924 0.959898531
0.850094736 0.699683726 0.946868956
0.930297077 0.730170488 0.967109442
0.613155782 0.868817270 1.000000000
0.616066158 0.851233125 0.999620438
0.646806121 0.860341311 0.998355269
0.693864524 0.854775250 0.997722983
0.750790715 0.846173286 0.995446026
0.813282788 0.842758060 0.998102307
0.875648558 0.825047314 0.998355269
0.945983648 0.854269326 1.000000000
0.721821427 0.908412397 1.000000000
0.739784896 0.904616892 1.000000000
0.766982794 0.909550607 1.000000000
0.825932860 0.917267561 0.998481870
0.880455375 0.930550098 0.997596204
0.942694485 0.947248697 0.999620438
0.977609277 0.969892502 0.999620438
0.976344168 0.943706393 1.000000000
0.001265167 0.391144812 1.000000000
0.000379548 0.373307794 0.997722745
0.001265167 0.316255420 0.996205032
0.005566002 0.229095623 0.996964037
0.267425925 0.227830783 0.997343183
0.546995401 0.237064764 0.997343183
0.747501433 0.220872581 0.982416093
0.894623578 0.288171589 0.993547976
0.001265167 0.429601520 0.998734832
0.000000000 0.412902892 0.990512490
0.000379548 0.365211993 0.992409825
0.002783166 0.278684169 0.996710956
0.292346448 0.287413180 0.994433939
0.567235947 0.288551271 1.000000000
0.759646058 0.273371607 0.986717284
0.911448300 0.335863173 0.998734832
0.000000000 0.514484227 0.997975767
0.004554085 0.497659624 0.998355329
0.000000001 0.467045903 0.997975767
0.002024177 0.395699114 0.997343183
0.319670886 0.375711471 0.999240935
0.572802067 0.376217544 0.995445728
0.761416614 0.354332507 0.998734832
0.910689473 0.403921455 0.994939864
0.002783356 0.649968266 0.997469962
0.000379548 0.638330221 1.000000000
0.047438283 0.615686357 0.999240935
0.200252920 0.570777833 1.000000000
0.408348978 0.524857759 1.000000000
0.618342519 0.509930134 0.997722983
0.787223101 0.485515416 0.997596204
0.928779602 0.519797444 0.998481810
0.432764143 0.798735142 0.998861313
0.439974457 0.793674588 0.997596204
0.470208585 0.774952471 0.998481989
0.505755842 0.737887561 0.998861313
0.555217981 0.684756160 0.998861313
0.680329025 0.649841905 0.997216642
0.820999265 0.611764848 0.998102427
0.940543950 0.624794543 0.998734832
0.663630009 0.894623697 1.000000000
0.671979785 0.895382822 1.000000000
0.701960623 0.889310360 0.994813323
0.733712792 0.875268579 1.000000000
0.755471110 0.839848518 0.996837080
0.776976287 0.780771554 1.000000000
0.859456062 0.741302609 1.000000000
0.958254457 0.730803311 0.998482049
0.792915821 0.935231090 0.998734832
0.789500117 0.935483634 0.994307101
0.806704640 0.931815147 0.998734832
0.839595139 0.932700455 0.998861432
0.872739017 0.939405680 0.997469962
0.906262040 0.932700634 0.999620438
0.909550965 0.874003828 0.997722745
0.971284032 0.851233125 0.991650760
0.836053252 0.957115591 1.000000000
0.836685538 0.959771812 0.996204793
0.840860188 0.957115650 1.000000000
0.864389598 0.959266365 0.998861372
0.881593764 0.954585612 0.992030144
0.918532670 0.955850780 1.000000000
0.946995378 0.952561855 0.999620438
0.968880653 0.941555798 1.000000000
