Assets/Shaders/EldamarStudio/100 Sci-Fi LUTs Pack/LUTs/cube/Tiddis LUT.cube
LUT_3D_SIZE 8
DOMAIN_MIN 0.000000 0.000000 0.000000
DOMAIN_MAX 0.903226 0.903226 0.903226
0.109803997 0.035294000 0.043136999
0.121948451 0.043516546 0.051359549
0.141176000 0.062744997 0.070588000
0.160278350 0.081846647 0.085768647
0.184946194 0.106514804 0.107400186
0.213535741 0.133206993 0.125489995
0.270208687 0.173813999 0.161417007
0.358633757 0.228968799 0.213282809
0.125110537 0.064642541 0.063883543
0.125489995 0.071726546 0.070967548
0.142314538 0.087792896 0.083871000
0.162681550 0.100695543 0.100315996
0.181024805 0.122580640 0.110815734
0.219480991 0.150031552 0.138014004
0.272106439 0.184819803 0.166350543
0.353446931 0.242124781 0.214547977
0.129411995 0.119165003 0.099556997
0.130550444 0.121821545 0.100695550
0.148260906 0.125363901 0.102593198
0.165844351 0.141429558 0.118658736
0.187349990 0.161416993 0.137887180
0.224794462 0.188361824 0.157115638
0.284250557 0.224668086 0.191903800
0.374446809 0.275648087 0.230993062
0.133965999 0.177735284 0.132321283
0.134471640 0.180518627 0.135104641
0.148260906 0.189879626 0.141049996
0.170904279 0.201264992 0.151928991
0.195066199 0.219734639 0.174446449
0.234534815 0.243137628 0.190638736
0.295508921 0.278684288 0.223655641
0.393042237 0.333712608 0.267552257
0.127893806 0.266413808 0.188867807
0.140923351 0.264642566 0.186338082
0.150537997 0.267046392 0.188741282
0.173308089 0.282352835 0.204806834
0.202783182 0.296015203 0.214548185
0.249715477 0.318658978 0.238836184
0.323972285 0.357748479 0.270082176
0.422517329 0.415939152 0.325236797
0.123592742 0.373940706 0.258443981
0.141555548 0.378241271 0.258823544
0.158760354 0.378368109 0.259203076
0.186717540 0.390638590 0.270461738
0.235293716 0.402403444 0.288551539
0.287539721 0.422770470 0.307400703
0.365338266 0.459203005 0.337761015
0.477925479 0.512713552 0.393168807
0.183554560 0.521441996 0.359392554
0.182415828 0.519544721 0.356483102
0.214168072 0.527640820 0.363187850
0.255281627 0.538266897 0.375711262
0.301075250 0.543200374 0.386590540
0.369765997 0.559013247 0.408728272
0.440354526 0.576976597 0.433523268
0.537255049 0.619607687 0.484124094
0.352561533 0.685641587 0.518405557
0.365844101 0.692093611 0.514104843
0.387855411 0.700189769 0.526248932
0.417583585 0.706641257 0.535610437
0.463124603 0.711954236 0.547248244
0.527008057 0.723339617 0.573560655
0.592030168 0.742314577 0.598229051
0.655787349 0.757495403 0.624414384
0.120809905 0.039974999 0.067046449
0.121189453 0.040354453 0.060341999
0.142314643 0.067805447 0.082732454
0.162301987 0.088931449 0.096395001
0.179886445 0.117140837 0.119924188
0.216698244 0.146868736 0.142820731
0.266034245 0.183681250 0.175205737
0.351802498 0.232131794 0.215686530
0.129032448 0.075648546 0.075268999
0.133332998 0.076407544 0.086654447
0.136369184 0.089310996 0.088931449
0.156356648 0.107779637 0.107779637
0.184186995 0.129284993 0.129284993
0.224921182 0.155850813 0.152435258
0.266287267 0.193801537 0.178874016
0.351928771 0.239848092 0.219607532
0.130171001 0.117520094 0.105376452
0.140796557 0.127387539 0.114863642
0.142314643 0.132827550 0.113219537
0.159519449 0.142947555 0.126881987
0.185325533 0.166476637 0.149652094
0.220493540 0.190765545 0.167615294
0.278052270 0.226312369 0.198988095
0.372295678 0.279063821 0.247817814
0.130929902 0.184440643 0.143706650
0.140417099 0.186464190 0.149272650
0.154459000 0.188361734 0.154712453
0.165338278 0.198481634 0.162555650
0.192663088 0.218089744 0.175837740
0.230739832 0.243137434 0.197343290
0.291587621 0.275901645 0.227071285
0.382921964 0.328652531 0.268817186
0.130550444 0.261226743 0.192409545
0.139658108 0.261985749 0.198987991
0.151676342 0.268943727 0.198102280
0.173308104 0.279949635 0.209614441
0.205312997 0.294876546 0.221758381
0.250853837 0.316761643 0.244275987
0.321315736 0.353573829 0.275268704
0.419987261 0.414041638 0.325995892
0.121948451 0.372295916 0.256799281
0.136495814 0.376217544 0.260088474
0.158253998 0.381277472 0.265780926
0.189626902 0.388614833 0.276407450
0.234914273 0.402782917 0.290448993
0.287539721 0.425806463 0.312713504
0.363187551 0.456040531 0.342821002
0.477292597 0.513851702 0.402276963
0.165970817 0.508538842 0.354079545
0.189247280 0.518912017 0.362428874
0.211005360 0.522201061 0.365844101
0.254522711 0.529158771 0.377229482
0.306767881 0.541302919 0.394813091
0.364073008 0.556736469 0.410120279
0.436179996 0.575711429 0.435673505
0.525996327 0.612523675 0.475774825
0.344085664 0.685009599 0.526249230
0.362302214 0.687539577 0.518911958
0.381024867 0.695762038 0.531056166
0.417457193 0.704238057 0.538772702
0.464516193 0.709930301 0.550411105
0.523339689 0.724984109 0.573181212
0.584946156 0.740164161 0.594560325
0.658696949 0.754332364 0.631878853
0.115243189 0.049336094 0.088551901
0.122707449 0.056799546 0.089690447
0.138772994 0.072105996 0.103478998
0.158760458 0.092093542 0.115622737
0.182669088 0.120682992 0.133965984
0.219607994 0.150790736 0.164579004
0.269449770 0.187982187 0.195825383
0.352055609 0.235673651 0.240354061
0.121189453 0.074383184 0.099177547
0.130929887 0.087033898 0.110942543
0.148640454 0.092472993 0.111322001
0.158380911 0.112839997 0.121821538
0.180265993 0.135483995 0.142947644
0.219481081 0.164073348 0.170524642
0.266666740 0.200126737 0.200126737
0.352308303 0.245793760 0.241872251
0.130929992 0.124605000 0.127767086
0.137254909 0.134851098 0.130044088
0.150537997 0.139405191 0.141808987
0.163060993 0.150410995 0.147248179
0.184946194 0.171537086 0.166856185
0.221252739 0.198987991 0.188361824
0.277925342 0.230993077 0.221631885
0.370524764 0.282732666 0.264515996
0.137254998 0.187223285 0.162934989
0.143959358 0.191144988 0.159772292
0.153699994 0.196584284 0.173560724
0.166603446 0.210752994 0.179759637
0.194307387 0.225173727 0.196584195
0.233396366 0.247817725 0.215812743
0.292473018 0.282226443 0.245034903
0.386843830 0.330170542 0.289563656
0.131056100 0.270209104 0.208349079
0.143200457 0.268184751 0.214674279
0.152182102 0.275648296 0.220999286
0.172422186 0.285895109 0.225932822
0.203795090 0.301581293 0.238077179
0.249462634 0.321062297 0.255660832
0.320177197 0.361037254 0.293611556
0.418216139 0.414547801 0.341303170
0.130550355 0.375458717 0.278937399
0.143200547 0.379000336 0.281593740
0.159519359 0.384313554 0.288551629
0.189879835 0.394687086 0.291713715
0.234028980 0.404807180 0.304617375
0.284123987 0.423529387 0.324857473
0.363440812 0.458317816 0.358887017
0.472106248 0.515749395 0.418595701
0.168121561 0.514484525 0.367109269
0.186084375 0.517014682 0.383934110
0.212650076 0.524478316 0.382795453
0.250980467 0.530803502 0.391397864
0.300063372 0.544971347 0.405565977
0.367362261 0.555850685 0.424288273
0.434155822 0.574699223 0.445287853
0.532953680 0.614547670 0.493358493
0.344085842 0.690701962 0.529537857
0.361796111 0.690195799 0.524731100
0.375078917 0.695508838 0.534977674
0.415559649 0.702340364 0.545224428
0.464642495 0.711321831 0.560404599
0.518912256 0.721315384 0.573434472
0.589500129 0.737507820 0.603542030
0.666034400 0.758254349 0.633396387
0.124351643 0.061100997 0.124984354
0.123086900 0.068184897 0.129285097
0.140037641 0.079569645 0.132827342
0.159140006 0.096395001 0.139532000
0.176723629 0.125743344 0.162175983
0.211258739 0.154712260 0.184440255
0.265780926 0.193421990 0.220366642
0.353320777 0.240480781 0.266287178
0.123086900 0.095256448 0.129664645
0.134092093 0.095256351 0.139152452
0.144718453 0.101075090 0.138772994
0.159519449 0.116002187 0.149272650
0.181910187 0.136243001 0.169639647
0.214674100 0.164452896 0.191524446
0.269829333 0.207590014 0.226059645
0.354711950 0.253637165 0.272232503
0.138014004 0.128146544 0.155218005
0.131688997 0.131182641 0.150031537
0.146616101 0.143327102 0.161417097
0.163820088 0.157874733 0.177482635
0.191271096 0.176217273 0.190765634
0.221378729 0.204806924 0.217457443
0.280708641 0.241619438 0.248197094
0.372549236 0.288298666 0.292472810
0.137760654 0.188361630 0.190006644
0.136495903 0.192663074 0.191524550
0.152561545 0.207210630 0.205692634
0.173181280 0.224794284 0.223655641
0.195825279 0.239342630 0.226312175
0.233522996 0.259962261 0.244275987
0.295508921 0.292726278 0.274762988
0.397090435 0.336116076 0.325363636
0.133459806 0.276913613 0.239721999
0.131688893 0.280455291 0.241240084
0.150917351 0.288677752 0.253383815
0.173054993 0.295256197 0.256799400
0.211511791 0.308159590 0.274130374
0.257305533 0.331182569 0.288551718
0.322454095 0.364199877 0.321568638
0.426691741 0.417963326 0.365970999
0.130297095 0.379885972 0.302087247
0.140291095 0.385705113 0.309044629
0.157621801 0.391903728 0.311321616
0.191777378 0.401644468 0.322580367
0.236052826 0.412270725 0.332700551
0.291966975 0.431499094 0.349272460
0.368500739 0.465401709 0.382289827
0.477672219 0.519417942 0.439468920
0.179000556 0.515875936 0.391397566
0.185578912 0.524984002 0.397723019
0.208728656 0.527640820 0.401138544
0.255281627 0.533839583 0.414421171
0.304237753 0.544844627 0.425174296
0.365211755 0.560911000 0.442631304
0.439721853 0.578621328 0.469955891
0.537507713 0.621631682 0.518153071
0.346109569 0.685768366 0.545477390
0.350537479 0.694370270 0.538519919
0.377229363 0.698039114 0.549651742
0.413409233 0.703858614 0.557495415
0.459582746 0.711954236 0.573813975
0.520303547 0.724098504 0.589626729
0.585578561 0.741049707 0.613535881
0.665401638 0.758380771 0.645161450
0.123086803 0.076027803 0.160531193
0.127008185 0.079949193 0.164453194
0.141935095 0.092473090 0.170651287
0.158001363 0.108538538 0.179759637
0.178620994 0.127640992 0.195825189
0.212776735 0.158633739 0.220114186
0.266287267 0.198988289 0.253763378
0.353193969 0.243516773 0.304364353
0.118279189 0.102593087 0.172296196
0.131309345 0.104996897 0.170398653
0.142694190 0.113978542 0.176217183
0.158380806 0.128526002 0.188867897
0.186970457 0.142568201 0.200126633
0.218595982 0.171157628 0.224667981
0.268564105 0.208855450 0.257558554
0.356482953 0.254396170 0.307273805
0.131815001 0.140923381 0.188741088
0.136495903 0.148513556 0.196711108
0.149019808 0.154332891 0.195066288
0.161163554 0.167235643 0.207969636
0.184946194 0.180898279 0.222517267
0.226059631 0.205565825 0.247058913
0.280202270 0.245920181 0.281088263
0.375837743 0.293990910 0.333965808
0.132447988 0.204554081 0.223276272
0.146868914 0.203668281 0.221632093
0.147375092 0.208222389 0.228716090
0.167742103 0.226312175 0.247185647
0.194686651 0.242378622 0.262492001
0.234534815 0.265907824 0.280328989
0.299810171 0.299936980 0.315622896
0.397849292 0.341682434 0.352941245
0.126376003 0.278810978 0.258570194
0.138140202 0.278431624 0.272232801
0.144971281 0.293738127 0.281847179
0.178621188 0.311321735 0.300695986
0.219355181 0.327387542 0.317140996
0.264262915 0.347374737 0.330423564
0.331309170 0.374446362 0.354712486
0.436432779 0.425174177 0.403162360
0.130171001 0.389247268 0.340037972
0.132953539 0.394687086 0.341049820
0.158254191 0.401264727 0.348513335
0.194181100 0.415812641 0.361796379
0.242758185 0.424035698 0.370777905
0.297026902 0.442378461 0.391524196
0.381530881 0.474130005 0.420872748
0.483870745 0.524478316 0.468437999
0.172675565 0.525363564 0.428210169
0.185831726 0.528905988 0.432890266
0.211132258 0.530803382 0.439215660
0.251106977 0.541049540 0.449841917
0.304996669 0.554459274 0.456546545
0.372422278 0.566856384 0.479570001
0.443516642 0.585705340 0.496268451
0.547501564 0.626312494 0.546742082
0.332068384 0.692346215 0.561669767
0.342568040 0.693231940 0.560531139
0.367488742 0.695508838 0.566097319
0.405060232 0.704996943 0.577229202
0.456166923 0.713598967 0.589373827
0.518785536 0.727893710 0.607336998
0.588108778 0.745350897 0.634028614
0.669702351 0.761416733 0.662998140
0.119671263 0.090069994 0.221125737
0.125616997 0.096015260 0.226312459
0.140037641 0.108538635 0.231752083
0.157622010 0.121821731 0.235293731
0.179759532 0.138646185 0.246173531
0.217330739 0.168374479 0.262238979
0.265401572 0.203162730 0.295382500
0.362555444 0.248450592 0.351422966
0.124478266 0.115243092 0.229095727
0.128399745 0.115116991 0.230992988
0.141176090 0.124857634 0.232131526
0.156356648 0.139405191 0.236052811
0.182669193 0.158127800 0.249462634
0.223402977 0.180897996 0.270588517
0.268943548 0.211132258 0.300569177
0.354712009 0.255281568 0.348007441
0.132953733 0.156356737 0.252498746
0.128146634 0.162934899 0.243137434
0.141935095 0.169512749 0.251360089
0.160025105 0.179380178 0.258823633
0.188867807 0.196204722 0.270967960
0.224667996 0.216951177 0.287665755
0.279570282 0.249082893 0.317141116
0.379126757 0.295888454 0.374572903
0.126375899 0.215306893 0.277545810
0.129032448 0.216445535 0.273371279
0.141303003 0.221505389 0.282226741
0.162934989 0.237318382 0.289690077
0.193042457 0.251359969 0.301707715
0.234534815 0.269702703 0.317773432
0.293737918 0.300189734 0.343073994
0.397216976 0.344592214 0.400632352
0.116635263 0.290701926 0.318405718
0.126376003 0.293485284 0.319923908
0.140543908 0.303478837 0.331815422
0.170904189 0.314737171 0.341429383
0.211891249 0.334724724 0.359013140
0.264642477 0.352687925 0.373054922
0.335230678 0.381783932 0.397343725
0.437444597 0.426692069 0.447564989
0.111827739 0.395319462 0.375837982
0.126502261 0.395825535 0.381277651
0.149272636 0.405060202 0.392662823
0.187982380 0.418089569 0.401770979
0.244149372 0.441619456 0.424035698
0.311068714 0.464010179 0.448450744
0.390133023 0.486654013 0.470588475
0.492472827 0.524984241 0.507906437
0.161163718 0.528526425 0.464769453
0.181910023 0.529538095 0.474762976
0.205566064 0.535483837 0.475648224
0.251486719 0.546362936 0.491714090
0.310183644 0.564958811 0.503605187
0.374699533 0.579506576 0.517520249
0.452118546 0.592536509 0.536496043
0.561290085 0.634029150 0.580139458
0.333080322 0.690828443 0.592283249
0.343453377 0.696900308 0.596837461
0.366729707 0.696647644 0.603288889
0.400506109 0.706641376 0.607463479
0.446046829 0.716761410 0.614800930
0.516634762 0.732447803 0.636306167
0.590006292 0.748133838 0.657558262
0.670714438 0.767994523 0.685515583
0.108159281 0.116635285 0.320809543
0.111827739 0.120303735 0.323718995
0.130296990 0.128399894 0.326375276
0.160784304 0.142441571 0.328652561
0.191144899 0.162934810 0.338140279
0.236053020 0.186717257 0.348260552
0.287160277 0.213029996 0.365591258
0.367615521 0.256419808 0.406071961
0.108412005 0.132827252 0.323718995
0.113472454 0.137760788 0.311827809
0.127514452 0.145730287 0.321695000
0.156103894 0.158633843 0.330297261
0.193168938 0.176723540 0.337001920
0.235167533 0.199620292 0.354965031
0.286906838 0.227450833 0.370018810
0.363441080 0.264010280 0.408981532
0.104617007 0.173813999 0.327767193
0.111954458 0.182416290 0.334851354
0.125616699 0.191018388 0.335736871
0.157242268 0.199746996 0.342441618
0.194940194 0.214548007 0.352182180
0.242631376 0.236432374 0.369006813
0.298798174 0.263124555 0.389626563
0.378494501 0.298671633 0.428336382
0.092852719 0.233270273 0.353447258
0.099936813 0.239595175 0.351170272
0.123213001 0.245540917 0.356736273
0.153447360 0.254522264 0.364579529
0.198861375 0.270967990 0.378747553
0.249209538 0.288551539 0.390385538
0.312460631 0.311195642 0.411764920
0.396963984 0.346742451 0.448450238
0.067931913 0.317900091 0.392915547
0.086653985 0.316255182 0.398861617
0.110057004 0.324098557 0.403289109
0.151296720 0.330550492 0.412650257
0.205186382 0.342188358 0.418975443
0.268184751 0.361416936 0.435040832
0.341176271 0.386717498 0.454775333
0.437950671 0.423149705 0.493991256
0.069197007 0.423909009 0.451233298
0.092220351 0.422517717 0.455281407
0.128399804 0.429095477 0.460721016
0.176976383 0.435800016 0.466666549
0.240354374 0.448197275 0.478304744
0.310309708 0.466286987 0.498292267
0.393928021 0.495762199 0.519797564
0.497533500 0.531182885 0.558886766
0.152181968 0.531562269 0.519418120
0.162681818 0.539025843 0.514357984
0.193801552 0.540290654 0.520556390
0.243516624 0.547248304 0.529285312
0.304237753 0.566856265 0.551170230
0.385705441 0.591271639 0.569639266
0.475648522 0.614547849 0.594307303
0.578367949 0.644782007 0.621884942
0.326754928 0.691460907 0.636559129
0.337002039 0.695888638 0.635547161
0.358127594 0.697027028 0.633902669
0.396331221 0.707779884 0.646173298
0.446806014 0.722580612 0.655281663
0.515496314 0.734471679 0.676786721
0.591271162 0.750157595 0.690575659
0.681846738 0.774067044 0.719038129
0.012650385 0.140037969 0.475142419
0.021758419 0.143706545 0.474130303
0.085895136 0.156483069 0.478557676
0.145477653 0.168374270 0.483111948
0.209234819 0.191397816 0.489310235
0.275648296 0.222011626 0.494876772
0.346869081 0.250095099 0.508412600
0.430739582 0.287918955 0.532700598
0.012650385 0.162049383 0.468058407
0.020240530 0.163314551 0.467299402
0.077799007 0.173560828 0.476660103
0.141555846 0.188614875 0.479822755
0.209361017 0.208602011 0.487792373
0.275015712 0.230866656 0.495888412
0.346868992 0.261606663 0.507273793
0.430613458 0.297026783 0.527387619
0.006325193 0.208348989 0.475774825
0.017457683 0.210373253 0.476280868
0.065528229 0.217077911 0.490195870
0.139278755 0.231878668 0.489563465
0.208096176 0.245540828 0.496647567
0.278810889 0.269702822 0.505755842
0.359013557 0.297785938 0.523086488
0.441998720 0.329284906 0.543959498
0.000000000 0.264136791 0.489183754
0.004048201 0.270082176 0.491714120
0.034788396 0.276786715 0.502213418
0.130676657 0.287792623 0.508159280
0.204047740 0.303605139 0.513599038
0.281214714 0.322454363 0.521821380
0.363567531 0.344465256 0.537887275
0.452371925 0.375838041 0.558254242
0.001138640 0.355724216 0.518911958
0.002403812 0.353953183 0.526249230
0.009993847 0.357621849 0.526122749
0.103605196 0.361416787 0.533966005
0.209107995 0.371537000 0.539278805
0.292346448 0.393421829 0.551422954
0.382669032 0.416192293 0.567741990
0.475395441 0.446173161 0.586337805
0.000000000 0.468311369 0.574952364
0.003795089 0.467678785 0.576976597
0.060215127 0.473877281 0.573054671
0.147375137 0.472865462 0.575964510
0.223529443 0.472865254 0.585831761
0.325363547 0.485135734 0.597596467
0.424920976 0.512207270 0.613156378
0.528399706 0.537507713 0.629474699
0.151296571 0.585072637 0.620113611
0.166350380 0.589626729 0.623149753
0.203289106 0.589753091 0.629601419
0.253004640 0.594939709 0.628715873
0.312713355 0.603162289 0.638203442
0.391271085 0.611005723 0.651233494
0.482226402 0.622137725 0.661227167
0.592409730 0.653004467 0.690575600
0.335483551 0.713092566 0.693358779
0.349399209 0.714611113 0.697659671
0.372295737 0.715116799 0.700822294
0.401644588 0.722074211 0.704111218
0.453383565 0.728905737 0.717014551
0.517900229 0.744212508 0.722833335
0.602024078 0.761037350 0.748007178
0.710689366 0.790132582 0.785072565
