Assets/Shaders/EldamarStudio/100 Sci-Fi LUTs Pack/LUTs/cube/Tiddis LUT.cube
LUT_3D_SIZE 5
DOMAIN_MIN 0.000000 0.000000 0.000000
DOMAIN_MAX 0.903226 0.903226 0.903226
0.109803997 0.035294000 0.043136999
0.136621997 0.058190994 0.066033997
0.171916410 0.093485415 0.097406581
0.223655999 0.141303003 0.129538000
0.358633757 0.228968799 0.213282809
0.129411995 0.106261700 0.091208287
0.142188698 0.112460412 0.095762290
0.172928706 0.137002110 0.119291283
0.238709584 0.185072988 0.159898862
0.368121475 0.267551810 0.224414811
0.135230586 0.223023400 0.162175998
0.146109700 0.228589684 0.166096985
0.186337575 0.249841809 0.188361824
0.253763407 0.288424969 0.222011119
0.409613788 0.370904207 0.293738395
0.123592995 0.405313104 0.277672142
0.155724406 0.410499543 0.280961543
0.222138107 0.429095656 0.298292249
0.321948260 0.459203273 0.332701117
0.492346495 0.537760615 0.415433079
0.352561533 0.685641587 0.518405557
0.382542551 0.697406590 0.524730742
0.443263978 0.711068988 0.540543735
0.541682720 0.729411602 0.579379737
0.655787349 0.757495403 0.624414384
0.118279584 0.044781707 0.081720419
0.137254998 0.066033997 0.092852995
0.167361990 0.102972709 0.119670987
0.229222119 0.156609714 0.165085137
0.352055609 0.235167518 0.233522967
0.129411995 0.112460412 0.114104696
0.146742716 0.119670987 0.123592407
0.173561111 0.148766696 0.142567992
0.232131585 0.191904113 0.184060857
0.366476774 0.272106409 0.255154788
0.132953718 0.221379101 0.175837994
0.153953299 0.229854688 0.187349707
0.186969995 0.250474393 0.206325129
0.256040275 0.291714370 0.239721686
0.407969326 0.375837922 0.313725531
0.137634277 0.405565828 0.291334867
0.158001542 0.413155943 0.297659814
0.223149821 0.429474950 0.313978404
0.317014396 0.458191127 0.349652112
0.489057511 0.540290773 0.434282064
0.346109688 0.690195560 0.525490165
0.371030837 0.698291898 0.533965707
0.440986693 0.705882609 0.550663888
0.536369443 0.728399754 0.582289636
0.663251102 0.756230235 0.628589392
0.121569000 0.069955580 0.146489829
0.136621997 0.081720419 0.152055711
0.167994574 0.111827575 0.161543414
0.223403111 0.169386253 0.208981544
0.353320777 0.240733802 0.285262614
0.135610297 0.127514407 0.163187698
0.140543997 0.132067993 0.167741701
0.172928691 0.159898698 0.188361824
0.227198124 0.201771125 0.227956861
0.370398462 0.276660562 0.300569087
0.129411995 0.227577820 0.223655984
0.142820701 0.244275689 0.235420823
0.190891996 0.273370981 0.262871832
0.262618542 0.308032960 0.292346805
0.410246342 0.384692937 0.363693804
0.125489995 0.413788944 0.336242646
0.157242283 0.423909098 0.349272430
0.225679830 0.440860391 0.366350234
0.324857384 0.474256814 0.397090375
0.496647775 0.547880948 0.471346915
0.338646144 0.686147988 0.550284207
0.365717858 0.695002854 0.555724084
0.435420811 0.705123425 0.569766045
0.532447696 0.727767289 0.605186164
0.663630545 0.761416614 0.649714947
0.116634868 0.097153865 0.242378116
0.134977713 0.107526705 0.247944415
0.172296122 0.139026120 0.263630837
0.232511118 0.181530863 0.287539124
0.362555444 0.251486689 0.362807900
0.125110716 0.147754416 0.258317590
0.133333415 0.159139708 0.261227161
0.171283990 0.178874105 0.276786983
0.237065271 0.219734415 0.301834136
0.378873914 0.289057821 0.382416189
0.110689454 0.258064687 0.307400405
0.138519824 0.264262974 0.311321825
0.182416409 0.286148101 0.334218651
0.265907526 0.319544554 0.365338117
0.421758294 0.387222946 0.435420752
0.112840123 0.430740118 0.407210380
0.142947271 0.439215720 0.422517419
0.227703974 0.458823353 0.438962698
0.346489370 0.499431074 0.479823142
0.511954248 0.553067803 0.537001789
0.336116552 0.688551426 0.598608732
0.361163527 0.697912335 0.611891091
0.421884686 0.713978291 0.623023391
0.528273046 0.736242771 0.646426439
0.673750699 0.766982675 0.692852437
0.012650385 0.140037969 0.475142419
0.067931928 0.154712111 0.478051871
0.177229568 0.179253817 0.486906767
0.293864816 0.229601815 0.495382756
0.430739582 0.287918955 0.532700598
0.007590039 0.196204990 0.476280689
0.051866222 0.205692694 0.485641599
0.172296107 0.225047395 0.490575254
0.297786057 0.264642686 0.508791685
0.439468861 0.320935935 0.536875308
0.002656833 0.307526797 0.510942340
0.007337317 0.312966675 0.516255200
0.166097149 0.329032212 0.526755154
0.310183257 0.364705682 0.544338703
0.474510014 0.415433228 0.574446559
0.004554010 0.495888799 0.583554626
0.072106443 0.503478527 0.587982118
0.205819100 0.503099382 0.590765238
0.358253956 0.517773509 0.609993756
0.541302860 0.563566923 0.643390059
0.335483551 0.713092566 0.693358779
0.366476506 0.715369821 0.697533309
0.427576989 0.726122737 0.709171414
0.537381589 0.751549661 0.730676711
0.710689366 0.790132582 0.785072565
