Assets/Shaders/EldamarStudio/100 Sci-Fi LUTs Pack/LUTs/cube/Tiddis LUT.cube
DOMAIN_MIN 0 0 0
DOMAIN_MAX 1 1 1
LUT_3D_SIZE 32
0.109803997 0.035294000 0.043136999
0.112839609 0.035294000 0.043136999
0.118026547 0.039595000 0.047437999
0.121569000 0.043136999 0.050980002
0.121948451 0.043516546 0.051359549
0.124984063 0.046552934 0.054395933
0.130549997 0.052118998 0.059961997
0.136621997 0.058190994 0.066033997
0.141176000 0.062744997 0.070588000
0.141176000 0.062745005 0.070588000
0.146995738 0.068563998 0.073497869
0.153068006 0.074635997 0.078557998
0.160278350 0.081846647 0.085768647
0.168880031 0.090449028 0.094370969
0.171916410 0.093485415 0.097406581
0.177355990 0.098924994 0.102845997
0.184946194 0.106514804 0.107400186
0.193421990 0.114990152 0.111068986
0.199494019 0.121062942 0.117141008
0.205566019 0.127135009 0.123213001
0.213535741 0.133206993 0.125489995
0.223655999 0.141303003 0.129538000
0.236053005 0.153320506 0.141682014
0.254269809 0.162428916 0.153826818
0.270208687 0.173813999 0.161417007
0.288171649 0.185957983 0.170271978
0.308918148 0.198608071 0.182922065
0.327134907 0.213788435 0.198102444
0.358633757 0.228968799 0.213282809
0.388488144 0.244149178 0.226691961
0.420240164 0.260214984 0.239721596
0.462745011 0.278430998 0.254902005
0.115875997 0.038330387 0.046173386
0.106767610 0.041366000 0.043136999
0.116255552 0.043516774 0.049588773
0.124099001 0.047438227 0.054016385
0.128020450 0.049968097 0.055154931
0.131056070 0.055661321 0.063504316
0.126501992 0.058697063 0.064010382
0.135483697 0.062618703 0.067425676
0.144212395 0.067299381 0.071347095
0.144212395 0.071853384 0.073624387
0.147122264 0.074762523 0.076533519
0.153068006 0.080708511 0.081594124
0.159140006 0.084503770 0.086527735
0.166097388 0.087666385 0.091587611
0.171916410 0.093485415 0.097406581
0.177355990 0.098924994 0.098039001
0.184946194 0.106514804 0.104364187
0.193421990 0.114990152 0.111068986
0.199494019 0.121062949 0.117141008
0.208349362 0.132700995 0.120430358
0.216571644 0.137381256 0.126249388
0.226691872 0.144338876 0.132574394
0.239089370 0.156356871 0.144718379
0.257305413 0.165464520 0.156862438
0.270967603 0.176850185 0.164452612
0.288171649 0.187602699 0.171916276
0.309930146 0.198608071 0.182415992
0.333206892 0.213788435 0.195066050
0.354079783 0.228968799 0.210246414
0.385958135 0.247691154 0.223656014
0.420240164 0.264515966 0.237571359
0.462745011 0.278430998 0.254902005
0.117647000 0.052118998 0.053510774
0.119291387 0.048703387 0.050474387
0.118785545 0.051739547 0.051739547
0.123339996 0.053510774 0.057052772
0.126249447 0.055281550 0.057811771
0.132827058 0.057811871 0.065148935
0.136875004 0.063504450 0.070968002
0.130803004 0.066540062 0.069323294
0.140164226 0.070335232 0.072106004
0.142947227 0.076407231 0.076533712
0.148007870 0.081720680 0.081720680
0.157115996 0.086780548 0.086780548
0.162302345 0.091714352 0.091714352
0.167362288 0.093232222 0.095003001
0.173434764 0.099304222 0.101074994
0.177355990 0.103225991 0.100189775
0.184946194 0.107779801 0.103225768
0.193421990 0.116255142 0.111701563
0.199494019 0.125363946 0.119291782
0.208349362 0.132701010 0.120430358
0.217457250 0.142947733 0.127261251
0.227577254 0.149525553 0.135610476
0.239848495 0.161543503 0.147501767
0.256040752 0.170651644 0.155597791
0.269702762 0.182036564 0.167488769
0.286021411 0.192789659 0.174952433
0.307273835 0.202909485 0.184060708
0.329917908 0.218089432 0.194559991
0.360151798 0.228968799 0.211511582
0.381404161 0.247691154 0.226691946
0.416824788 0.268943578 0.240986958
0.460594773 0.284882784 0.259202987
0.120177001 0.062744997 0.060088836
0.122454152 0.060468160 0.058317609
0.127640769 0.062112771 0.060847610
0.128146842 0.062618837 0.062618837
0.123592839 0.062618837 0.062998384
0.131815061 0.062618837 0.068185002
0.135863006 0.067678839 0.071727000
0.140416995 0.073371612 0.076660454
0.138140082 0.076407224 0.075901158
0.144718155 0.081973165 0.081973165
0.148260579 0.085515581 0.085515581
0.155850828 0.091587834 0.091587834
0.165717840 0.097659834 0.097659834
0.168626994 0.100822031 0.100063004
0.172675505 0.105882153 0.102086991
0.177609354 0.110815801 0.104743652
0.183681026 0.116382122 0.107526995
0.192789406 0.120682731 0.114231564
0.199494019 0.132194772 0.123339973
0.209614202 0.137507990 0.126628995
0.217457250 0.144212574 0.128526419
0.227577254 0.153320968 0.137634292
0.239848495 0.165085509 0.149272993
0.255028903 0.174193904 0.155345008
0.270462006 0.184313819 0.165970996
0.285515487 0.197596505 0.177988499
0.305249959 0.207210839 0.187602967
0.324225426 0.221631527 0.197469860
0.357368588 0.236558825 0.212017640
0.390006155 0.248956323 0.225933179
0.415686160 0.268437743 0.243769974
0.460088849 0.288931161 0.262744993
0.125110537 0.064642541 0.063883543
0.123213388 0.067299381 0.064642541
0.125490457 0.071347453 0.067805000
0.128526375 0.074762933 0.071346998
0.125489995 0.071726546 0.070967548
0.131561995 0.071726546 0.074003935
0.133712545 0.077166095 0.075648546
0.136621997 0.082858868 0.078557998
0.142314538 0.087792896 0.083871000
0.151422933 0.090828516 0.089942999
0.152561545 0.091713995 0.090954997
0.156230003 0.095382541 0.094623543
0.162681550 0.100695543 0.100315996
0.168753549 0.106767543 0.106387995
0.169006541 0.109930411 0.100822002
0.174193606 0.115749538 0.103984542
0.181024805 0.122580640 0.110815734
0.190132573 0.131309405 0.118785568
0.199240983 0.140417039 0.127893969
0.211132005 0.145097911 0.134977996
0.219480991 0.150031552 0.138014004
0.227956712 0.157115683 0.140291125
0.240101472 0.166350543 0.149525985
0.255028903 0.175711900 0.156104013
0.272106439 0.184819803 0.166350543
0.289942980 0.196331203 0.177735522
0.309424132 0.210626096 0.190259129
0.321568906 0.222770080 0.202403888
0.353446931 0.242124781 0.214547977
0.389499903 0.259202868 0.226059645
0.425553173 0.272233039 0.238836512
0.461986005 0.287413448 0.263124555
0.122074932 0.079822935 0.072991937
0.128146932 0.079822935 0.079063937
0.126249224 0.078178227 0.077672161
0.127261221 0.080455385 0.077418998
0.128526390 0.083871320 0.077039555
0.125489995 0.080834940 0.074003935
0.134092316 0.088425256 0.082100317
0.138393223 0.093738161 0.086401224
0.141176000 0.096521065 0.089184001
0.142314553 0.096900523 0.089943007
0.148513809 0.102845997 0.096014999
0.151549682 0.105882250 0.099051252
0.157368645 0.108285934 0.102593288
0.165717945 0.109803930 0.106387995
0.171789929 0.115875930 0.112459995
0.179253742 0.123845801 0.114104800
0.184819803 0.129411727 0.117647126
0.190132573 0.134092048 0.121062934
0.199240983 0.140417054 0.121821977
0.211132005 0.152308717 0.133713007
0.219480991 0.159139931 0.141049996
0.228589118 0.166224062 0.145098135
0.243137076 0.175458908 0.149525985
0.255281866 0.187602937 0.161670014
0.270208687 0.196964294 0.170525283
0.285894722 0.207463846 0.178747922
0.304111123 0.219607994 0.187350005
0.333712906 0.228842854 0.202403888
0.356482953 0.243642986 0.214547977
0.388108581 0.263377160 0.230233938
0.422011495 0.281340659 0.246932268
0.455913991 0.296521068 0.266160935
0.126628995 0.092473000 0.082100317
0.127640992 0.092473000 0.083112314
0.129411995 0.092473000 0.084883317
0.129285157 0.092346482 0.084756486
0.131941676 0.096395001 0.086021319
0.131056055 0.095509388 0.085135937
0.133080319 0.097532995 0.087160319
0.138899282 0.103352383 0.092979290
0.142694190 0.105629317 0.096015096
0.146236643 0.105629325 0.097786322
0.149525419 0.108917996 0.101074994
0.153573945 0.112966254 0.105123252
0.157748327 0.117140993 0.109297998
0.165212005 0.120177023 0.113219291
0.171283990 0.123972312 0.112459995
0.177355990 0.130044311 0.118532605
0.186337873 0.139026195 0.124731123
0.193295300 0.144086063 0.130423665
0.204300985 0.148260340 0.134218678
0.213662326 0.159898385 0.137761012
0.225806311 0.168248147 0.148007736
0.234155446 0.175332189 0.153700188
0.246299818 0.184440181 0.156989187
0.260847807 0.194181010 0.166730002
0.277545989 0.206324995 0.178873986
0.294370294 0.218469322 0.188235343
0.311195135 0.231751993 0.195446000
0.333459854 0.242884114 0.204554111
0.366097242 0.257305443 0.219607979
0.392156452 0.270714730 0.235293940
0.424920857 0.291461200 0.253510207
0.459962010 0.313219637 0.271726996
0.129411995 0.106261700 0.091208287
0.131056279 0.104616992 0.091208287
0.135989994 0.104616992 0.092852995
0.130929992 0.105882153 0.091587834
0.132447720 0.108538993 0.093864545
0.134977713 0.108538993 0.095129706
0.142441317 0.111069091 0.099304311
0.142188698 0.112460412 0.095762290
0.145983413 0.115496606 0.101075001
0.152055964 0.116381988 0.106767766
0.155218124 0.119291537 0.109803833
0.158254266 0.123971954 0.109550543
0.161290348 0.127008051 0.112586930
0.166856349 0.132574052 0.118152998
0.172928706 0.137002110 0.119291283
0.179000705 0.142441690 0.123465888
0.185072705 0.148513690 0.129538283
0.194686979 0.156862989 0.137254581
0.206831023 0.160910755 0.142314717
0.214547649 0.169006705 0.147248358
0.225553706 0.179000467 0.150790736
0.238709584 0.185072988 0.159898862
0.249335781 0.193548203 0.164579004
0.264516205 0.202656612 0.175205603
0.281973690 0.214041695 0.184945986
0.298797995 0.226185679 0.194307342
0.318279177 0.241113067 0.203668714
0.339911610 0.254395694 0.212017700
0.368121475 0.267551810 0.224414811
0.401264846 0.284250408 0.241366357
0.432131261 0.299051583 0.262238979
0.469322979 0.324858010 0.282732695
0.129411995 0.119165003 0.099556997
0.133206710 0.118405707 0.101075001
0.136748776 0.117520094 0.101707771
0.140796900 0.118785255 0.102213845
0.130550444 0.121821545 0.100695550
0.136243001 0.122200996 0.104490936
0.143579915 0.123213321 0.106261902
0.149778530 0.124605000 0.108665392
0.148260906 0.125363901 0.102593198
0.154332906 0.128399506 0.114737198
0.159772128 0.132194951 0.118911959
0.162808269 0.136495993 0.119417839
0.165844351 0.141429558 0.118658736
0.168880031 0.144465163 0.121189065
0.174446732 0.150031745 0.125742987
0.182036892 0.156103894 0.132574081
0.187349990 0.161416993 0.137887180
0.194054574 0.168753982 0.143326610
0.206072122 0.175079018 0.146362975
0.214927003 0.181151018 0.152941093
0.224794462 0.188361824 0.157115638
0.235673964 0.196458086 0.161417052
0.250853598 0.202783078 0.170524657
0.266034007 0.212523907 0.182036713
0.284250557 0.224668086 0.191903800
0.303352386 0.236812070 0.200379342
0.319038242 0.248956084 0.207970068
0.345604330 0.263883412 0.220367074
0.374446809 0.275648087 0.230993062
0.405313134 0.293611407 0.248197287
0.438203663 0.311195582 0.265275538
0.477672100 0.332448006 0.292599976
0.129411995 0.125237003 0.105629005
0.135483995 0.131309003 0.111701004
0.132827491 0.132700503 0.111068778
0.131182835 0.133965656 0.108285844
0.133586064 0.137001947 0.106767558
0.136622459 0.140037566 0.115875944
0.134724677 0.137887329 0.109550692
0.137254506 0.136749014 0.110942230
0.142188132 0.137507915 0.117773585
0.145224527 0.140543520 0.120809980
0.157115519 0.146489739 0.127134964
0.162808269 0.150411233 0.131056219
0.165844351 0.153573662 0.133839130
0.168880031 0.156609952 0.136369452
0.171916410 0.159645572 0.133333072
0.182289496 0.165211514 0.140290797
0.189626709 0.169765711 0.146236673
0.194054574 0.174825981 0.149399385
0.203162983 0.186970025 0.152435020
0.217963129 0.193295032 0.161037356
0.230866462 0.199367493 0.166223735
0.240986988 0.205566496 0.170271769
0.247817978 0.211891487 0.176597431
0.262998402 0.224035501 0.185705066
0.282732755 0.238330290 0.194939807
0.305249959 0.251992464 0.204048157
0.328146636 0.264136463 0.214042068
0.346363395 0.276280463 0.229222432
0.378241777 0.285894811 0.236306474
0.411385119 0.305755645 0.253257424
0.443896204 0.329158574 0.273750752
0.474636495 0.344591975 0.286527991
0.126502126 0.145856872 0.117520742
0.135483995 0.143200740 0.111954004
0.132954001 0.144971743 0.118026547
0.134471998 0.147501737 0.121062875
0.142061874 0.151802868 0.123339735
0.142567933 0.152308807 0.124857806
0.143074006 0.152814746 0.126375869
0.143706590 0.153447151 0.121695027
0.148513734 0.154712006 0.124225095
0.153700367 0.155597389 0.127261475
0.153826877 0.155723870 0.127388000
0.161922872 0.161796123 0.133459985
0.166983008 0.166856289 0.138519868
0.171789899 0.171410874 0.142567992
0.174826279 0.171790317 0.136875451
0.182669058 0.179632932 0.143453673
0.194307387 0.184693053 0.151043862
0.202783287 0.188994437 0.156736404
0.211891100 0.198861763 0.164326042
0.220999479 0.205439746 0.164579004
0.230233863 0.211511731 0.171410605
0.241366252 0.218596131 0.176470727
0.253510505 0.226692349 0.182795972
0.268690914 0.236053005 0.194686979
0.283871263 0.245920286 0.201517880
0.303858638 0.259835631 0.209993660
0.327134937 0.274003923 0.219607994
0.352561891 0.288551718 0.232384562
0.376090944 0.303351849 0.247564927
0.410499454 0.316508144 0.259709179
0.444149196 0.337507576 0.278810859
0.474510014 0.356736004 0.295003116
0.127514258 0.161036998 0.123592734
0.132574126 0.162049368 0.123592734
0.134977743 0.161163986 0.126122534
0.131435737 0.161163986 0.127134994
0.139784753 0.164958984 0.129411995
0.143073738 0.164958984 0.129411995
0.147122264 0.169006988 0.133459985
0.147122264 0.169006988 0.133459985
0.149778903 0.171663344 0.132321149
0.154585734 0.172928512 0.135357216
0.160910994 0.174952254 0.135483727
0.162934721 0.176976502 0.137507975
0.167868376 0.181909859 0.142441630
0.173308030 0.186590731 0.147375226
0.179886401 0.186590731 0.146615997
0.183681190 0.195825696 0.156609789
0.192789197 0.200379506 0.159645796
0.203162730 0.203542247 0.164199889
0.210879058 0.211258978 0.171916544
0.222011089 0.219608247 0.174699247
0.233017206 0.225680247 0.180391982
0.242378384 0.232764110 0.186590984
0.257558733 0.241872221 0.192915976
0.272738636 0.250980347 0.205060005
0.289943278 0.262112260 0.212650001
0.306514978 0.274003625 0.220113665
0.328146785 0.288172066 0.229222059
0.355471134 0.300316393 0.239848241
0.384187192 0.317520350 0.256672800
0.412017614 0.334471643 0.271853149
0.447944432 0.350790471 0.287918985
0.480582267 0.370904237 0.306134999
0.133965999 0.177735284 0.132321283
0.135863259 0.179633021 0.134219036
0.136748642 0.180518627 0.137128636
0.134471640 0.180518627 0.140417650
0.134471640 0.180518627 0.135104641
0.139025643 0.180518627 0.135104641
0.143959358 0.184440285 0.139026001
0.146742716 0.188361645 0.139532000
0.148260906 0.189879626 0.141049996
0.151676178 0.193295479 0.144465163
0.161669880 0.196331397 0.149145633
0.166729733 0.197090253 0.147754267
0.170904279 0.201264992 0.151928991
0.174193636 0.204300672 0.154459387
0.182416409 0.205186278 0.155724227
0.187855840 0.212523594 0.164958790
0.195066199 0.219734639 0.174446449
0.203541994 0.220999628 0.173307627
0.209614009 0.227071643 0.179380283
0.220113650 0.234788343 0.182669282
0.234534815 0.243137628 0.190638736
0.246679604 0.249209642 0.199747130
0.261733502 0.258317262 0.205945626
0.276913375 0.268437535 0.216065645
0.295508921 0.278684288 0.223655641
0.314863980 0.292219937 0.231119305
0.334092140 0.307400227 0.241239712
0.360784054 0.317773432 0.251613081
0.393042237 0.333712608 0.267552257
0.423403025 0.351929039 0.287412822
0.457305551 0.371031225 0.304364234
0.494244337 0.389500260 0.322833270
0.144338965 0.201771036 0.150031999
0.144338965 0.201517999 0.149778962
0.144592002 0.201771036 0.150031999
0.142820969 0.202024072 0.149778962
0.137507960 0.202024072 0.150284961
0.137507960 0.202024072 0.150284961
0.139784679 0.204301357 0.152561679
0.141935036 0.207337320 0.151170000
0.142947152 0.210626036 0.148134053
0.149019942 0.216698036 0.154206067
0.160152003 0.219860896 0.165338039
0.166729733 0.219101802 0.166097060
0.170904279 0.219481066 0.164073050
0.177229956 0.225553066 0.170145065
0.183301955 0.228589445 0.167109460
0.189626992 0.233523026 0.171030983
0.198229000 0.238330185 0.176596984
0.209361032 0.241998985 0.182669058
0.215433046 0.248071015 0.188741073
0.224288389 0.254396051 0.192283392
0.238583013 0.262112767 0.200758994
0.255281210 0.270209014 0.211385131
0.267678976 0.276407510 0.220619977
0.282985926 0.288425028 0.226944998
0.302719772 0.298545301 0.233270034
0.324224681 0.310183614 0.240733698
0.346236140 0.325363964 0.250854105
0.370524883 0.340543538 0.266034454
0.404680550 0.355723828 0.280961812
0.437571317 0.372675419 0.300189912
0.471727014 0.392030597 0.324351609
0.514231026 0.413283020 0.345604002
0.135230586 0.223023400 0.162175998
0.135230586 0.219987005 0.159139603
0.137381360 0.221884757 0.161037356
0.139784843 0.224288568 0.160910830
0.140543580 0.226312816 0.159645572
0.140543580 0.226312816 0.165464565
0.140543580 0.226312816 0.165464565
0.146109700 0.228589684 0.166096985
0.151043415 0.230866402 0.166350171
0.152055547 0.231878415 0.172422811
0.155218452 0.235041276 0.175584942
0.164199740 0.236053407 0.180518672
0.170904279 0.237697825 0.180518821
0.177229956 0.243769825 0.182289824
0.186337575 0.249841809 0.188361824
0.194813386 0.250474393 0.190132603
0.201770991 0.254775405 0.192282975
0.209740579 0.260214955 0.194813147
0.218469426 0.266286999 0.200885847
0.227324769 0.275142342 0.206957832
0.238330409 0.281720400 0.214294657
0.253763407 0.288424969 0.222011119
0.270714581 0.294623464 0.226691976
0.288931370 0.303731859 0.238836005
0.308792233 0.315749407 0.247438282
0.331435800 0.327260941 0.255914062
0.355597466 0.340543628 0.266034484
0.382668883 0.355723917 0.281214833
0.409613788 0.370904207 0.293738395
0.440606922 0.387855798 0.304743737
0.475395352 0.407843351 0.323212773
0.520303845 0.431498975 0.351675987
0.130929798 0.246679589 0.176723793
0.135736808 0.241239384 0.173687398
0.135736808 0.240353778 0.172801793
0.139784992 0.241871983 0.173055157
0.142820805 0.243390173 0.170778066
0.138772801 0.243390173 0.174825802
0.145983607 0.245793983 0.175837800
0.145983607 0.245793983 0.175837800
0.152055800 0.248829797 0.177355796
0.155344814 0.252118796 0.183428153
0.160657868 0.252624840 0.184187114
0.165717989 0.257684976 0.189246982
0.171030805 0.258443981 0.191524193
0.175079182 0.261985987 0.191777229
0.186337575 0.268057972 0.195698991
0.190638810 0.271726787 0.199367806
0.199747205 0.274762779 0.202403411
0.208602205 0.280834764 0.205186382
0.221252173 0.286906779 0.213029951
0.230360553 0.290955156 0.219101995
0.245161667 0.301960796 0.225173995
0.259329677 0.309044778 0.233775929
0.276154011 0.315243274 0.239721790
0.294370800 0.324351668 0.247311816
0.314864278 0.333460063 0.254901797
0.337507933 0.346868902 0.266666651
0.361796141 0.360530853 0.279316992
0.387223214 0.375711203 0.296394616
0.412143767 0.395698607 0.311321974
0.453636527 0.409108192 0.327008396
0.488424957 0.426945359 0.342441350
0.526376009 0.449715614 0.369765788
0.127893806 0.266413808 0.188867807
0.135483995 0.264895588 0.193421990
0.137254998 0.260088384 0.183427989
0.135989830 0.263883531 0.188488305
0.140923351 0.264642566 0.186338082
0.138266996 0.264642566 0.185958058
0.144845322 0.265654713 0.191018179
0.149020001 0.267046392 0.187982187
0.150537997 0.267046392 0.188741282
0.156609997 0.271600395 0.194054380
0.161163807 0.273371190 0.195825189
0.167235807 0.277419180 0.199873194
0.173308089 0.282352835 0.204806834
0.174320146 0.282985359 0.204933345
0.182668999 0.287792206 0.205439404
0.192156613 0.291460991 0.209993616
0.202783182 0.296015203 0.214548185
0.211891562 0.302087188 0.218216375
0.225300431 0.308159173 0.226439163
0.234914348 0.311448544 0.229728207
0.249715477 0.318658978 0.238836184
0.266920120 0.330803245 0.244908184
0.282352835 0.338013858 0.253383994
0.301960617 0.347121894 0.259455979
0.323972285 0.357748479 0.270082176
0.342441648 0.366856486 0.277545840
0.367868245 0.381783247 0.292473257
0.395192862 0.396963626 0.309677362
0.422517329 0.415939152 0.325236797
0.455154717 0.434914410 0.345224380
0.501454771 0.449715585 0.365212172
0.532447994 0.470967978 0.389500380
0.126754984 0.284123540 0.198608145
0.133965820 0.286527365 0.208222777
0.136622429 0.283744544 0.203921586
0.137254819 0.282732546 0.196457729
0.134597987 0.291081935 0.207463950
0.137381360 0.291334957 0.202150255
0.144212753 0.291967541 0.207463458
0.148387432 0.291334957 0.208981559
0.149905428 0.291334957 0.205186650
0.155977428 0.291334957 0.208223045
0.159772128 0.294876665 0.210626259
0.165464565 0.299304128 0.215053558
0.172169268 0.304237604 0.219354630
0.178747982 0.307273984 0.222643986
0.182922140 0.310309708 0.220746130
0.192536131 0.312713355 0.223655552
0.205818802 0.317900121 0.230360359
0.222770557 0.322707146 0.234535396
0.231878966 0.328779161 0.240607411
0.242251799 0.333333313 0.241745993
0.255787462 0.339531809 0.248703569
0.272992134 0.349651814 0.258823574
0.288425475 0.361543536 0.265148550
0.309677273 0.370145261 0.272232562
0.332574129 0.382163137 0.284503251
0.356483191 0.393548429 0.297533214
0.373687625 0.403162122 0.308159560
0.406830966 0.418215990 0.323466390
0.436306179 0.434788197 0.337381303
0.470208764 0.454269499 0.357241958
0.503858566 0.472106159 0.379000634
0.537254989 0.493358552 0.403289437
0.132826984 0.311447978 0.210752964
0.132826999 0.311448038 0.210752979
0.133586034 0.309550822 0.216066033
0.136116028 0.308791846 0.218848795
0.140670002 0.312333614 0.222643599
0.140670002 0.315369993 0.225679979
0.143453375 0.318153352 0.227957264
0.145351052 0.317647278 0.228210241
0.146869048 0.315623045 0.226439074
0.152941048 0.315623045 0.229475483
0.159013048 0.321442038 0.229601994
0.166856259 0.325237274 0.231878683
0.175711602 0.328526348 0.234028980
0.184820011 0.331562042 0.234788030
0.196963996 0.334598452 0.240860030
0.205945775 0.335230976 0.241365999
0.215306759 0.340038180 0.246426195
0.225806192 0.346995980 0.252751440
0.237950996 0.346995980 0.249715060
0.252625346 0.355850607 0.253004432
0.265401930 0.362555027 0.259582758
0.279064149 0.370904267 0.267931998
0.294497490 0.382795990 0.274256974
0.315749913 0.388867974 0.286401004
0.337002248 0.402024239 0.298039019
0.364073604 0.415559977 0.310436368
0.394940019 0.427450985 0.323339999
0.422264397 0.439594954 0.341555983
0.447438627 0.451992661 0.351549834
0.479316890 0.471726894 0.368248135
0.512207270 0.492852598 0.387096971
0.537255049 0.508539021 0.400253087
0.127766997 0.344339073 0.236812383
0.130550355 0.347121745 0.239595026
0.134851351 0.344971508 0.239595026
0.137381196 0.344465584 0.240607172
0.141176000 0.346742302 0.239848182
0.141176000 0.344971657 0.238076955
0.148766324 0.348007411 0.243643001
0.152308732 0.346110016 0.243643358
0.154965356 0.344212383 0.242884368
0.161037356 0.348260373 0.247944504
0.169892713 0.354079396 0.248071015
0.171916723 0.356103390 0.248071015
0.179886356 0.358380646 0.251486361
0.190639049 0.361669719 0.255028397
0.200253353 0.367235780 0.258570731
0.214800537 0.367868364 0.264642715
0.224667847 0.370904356 0.268437743
0.234408334 0.377482593 0.274383396
0.246552616 0.379633367 0.273497760
0.258697361 0.385199398 0.281594068
0.277672708 0.392409742 0.284629971
0.294497371 0.399493873 0.290955007
0.311448514 0.409867346 0.297153533
0.327387929 0.421252370 0.306641400
0.353194296 0.429601669 0.316508681
0.376850307 0.442378342 0.329538375
0.405060410 0.455028445 0.343074381
0.432384759 0.469449729 0.356736362
0.465022117 0.484250546 0.372296184
0.495003134 0.500063300 0.390512317
0.532194555 0.521441936 0.414547592
0.567868412 0.540417433 0.436179399
0.123592742 0.373940706 0.258443981
0.130423650 0.373181343 0.255787343
0.135610253 0.373813748 0.258570462
0.139152259 0.374572992 0.259835303
0.141555548 0.378241271 0.258823544
0.143073738 0.378241658 0.258823514
0.146869063 0.376470387 0.259582460
0.152688026 0.381151140 0.260720760
0.158760354 0.378368109 0.259203076
0.168247998 0.383301467 0.264136732
0.173434868 0.387476206 0.266286999
0.182163253 0.389500201 0.268184751
0.186717540 0.390638590 0.270461738
0.198861733 0.393674761 0.276027739
0.209614396 0.398102432 0.277419418
0.221631914 0.399367452 0.280961722
0.235293716 0.402403444 0.288551539
0.246046543 0.407843053 0.295002997
0.259455770 0.410879433 0.297532976
0.275395453 0.416698456 0.302087337
0.287539721 0.422770470 0.307400703
0.306768119 0.427830338 0.311448455
0.324351728 0.435294002 0.317773461
0.344844908 0.447438478 0.328652620
0.365338266 0.459203005 0.337761015
