Assets/Shaders/EldamarStudio/100 Sci-Fi LUTs Pack/LUTs/cube/Tilly LUT.cube
LUT_3D_SIZE 8
DOMAIN_MIN 0.000000 0.000000 0.000000
DOMAIN_MAX 0.903226 0.903226 0.903226
0.003922000 0.000000000 0.070588000
0.001517999 0.000379548 0.071346998
0.063377999 0.007843001 0.086274996
0.141302645 0.023023643 0.105881996
0.231751978 0.057052381 0.130044192
0.338772744 0.093864992 0.156609997
0.472738832 0.128399700 0.181024998
0.672612429 0.153067827 0.223655820
0.000379548 0.033270452 0.083871000
0.010879094 0.041872546 0.083871000
0.072739087 0.056799546 0.098797999
0.155471444 0.073624186 0.119544543
0.236432374 0.097533345 0.139531896
0.346362740 0.123339534 0.162934795
0.483364999 0.159392551 0.190385997
0.669449389 0.187349796 0.231878370
0.003795096 0.115117088 0.126122996
0.040986545 0.119797193 0.121821545
0.108792096 0.129158989 0.137128100
0.178114727 0.154333100 0.143327087
0.266160548 0.166729897 0.163693890
0.374952465 0.191397831 0.189247444
0.517267585 0.225553080 0.217836991
0.707020760 0.255660832 0.257937819
0.069576278 0.216445640 0.172675639
0.096141987 0.218469188 0.180645451
0.149778634 0.227830365 0.184566543
0.221505284 0.242757991 0.192283645
0.311827838 0.262744814 0.211132437
0.418216228 0.286653876 0.223023638
0.568627477 0.309550911 0.249462634
0.744592190 0.348639905 0.287160009
0.155724183 0.333712995 0.221505180
0.175332189 0.335104197 0.240986541
0.219987184 0.343706369 0.236685902
0.283238471 0.351549357 0.241999179
0.381151378 0.375079364 0.254649192
0.493738353 0.396204978 0.269702733
0.639468729 0.424288392 0.293611556
0.801770747 0.465148568 0.346742183
0.270082474 0.485515475 0.292093724
0.288804263 0.485388964 0.302087426
0.330550134 0.490196049 0.305502981
0.395951748 0.499177724 0.314231366
0.489943355 0.515496910 0.324730903
0.594939947 0.532447457 0.342441738
0.722454250 0.553320885 0.367236167
0.847817659 0.598102450 0.421378672
0.451486558 0.645287812 0.400253296
0.455660790 0.647564530 0.396710575
0.496774375 0.652245402 0.410879284
0.547880828 0.658696949 0.421125531
0.616824567 0.667172551 0.427197635
0.705882311 0.676027834 0.451992303
0.790385842 0.692346215 0.468817264
0.882605791 0.715116978 0.517773688
0.660974205 0.801770747 0.570651412
0.680834830 0.802150309 0.577988386
0.693864465 0.807083726 0.582922220
0.724225402 0.809993565 0.592915535
0.771283567 0.813535750 0.608349204
0.822896719 0.824414909 0.619481325
0.870208800 0.833775759 0.645413935
0.932447553 0.846173644 0.677798569
0.003542452 0.003922000 0.098418549
0.001138547 0.000379548 0.083871000
0.066919640 0.010499547 0.101834089
0.141682282 0.039468545 0.121442094
0.229854539 0.070841543 0.145730376
0.334977627 0.104870282 0.175964728
0.475142568 0.133965999 0.204047844
0.670082390 0.158253998 0.242757976
0.007084001 0.034029547 0.096774541
0.014421546 0.041872546 0.111701541
0.075901188 0.058317643 0.117520086
0.152688086 0.078304894 0.139531910
0.236052737 0.106894538 0.164326563
0.345730513 0.131182536 0.183681354
0.469576269 0.157368809 0.207969740
0.647438347 0.185578689 0.239468843
0.008855546 0.116635092 0.148133993
0.043390453 0.119797193 0.146109641
0.104111187 0.132321090 0.153194442
0.174952641 0.151929095 0.165338188
0.266539931 0.171916455 0.182922527
0.369765818 0.195445836 0.200885728
0.515369892 0.223529339 0.232257828
0.705123305 0.257938117 0.268058091
0.078937188 0.209360927 0.184819981
0.098165534 0.221252546 0.195951998
0.146363080 0.225047648 0.194307178
0.219861269 0.243517086 0.206451640
0.307906717 0.260721266 0.218596101
0.410752565 0.279063821 0.232257918
0.552688181 0.305629343 0.258696914
0.723592877 0.341682613 0.291461170
0.155724183 0.334472001 0.244528890
0.174573198 0.333206862 0.241745532
0.215180278 0.342188269 0.251486301
0.288424909 0.355976939 0.260974079
0.372422367 0.370018750 0.267172873
0.494497120 0.389879555 0.280834764
0.633396804 0.422517627 0.306767613
0.790512085 0.460468054 0.345477283
0.273371011 0.480835170 0.308159739
0.288678259 0.483364701 0.311701298
0.333333462 0.486907154 0.319923818
0.397469819 0.499177843 0.325869262
0.486780435 0.508538902 0.334345281
0.588994205 0.528526425 0.346110106
0.719671309 0.553573430 0.373814017
0.845034659 0.594686866 0.430107504
0.440607578 0.638330281 0.406451374
0.460594535 0.648829818 0.411764562
0.492093325 0.648323655 0.413282543
0.546995521 0.657684863 0.425679713
0.615306675 0.666540563 0.432510793
0.697154045 0.673371315 0.455155104
0.785199165 0.687160015 0.475395083
0.874636233 0.710562825 0.517014384
0.658190548 0.804048002 0.564958632
0.678304851 0.799620330 0.572928250
0.688551366 0.806324840 0.582542539
0.724098384 0.808095992 0.594307363
0.766097128 0.813915312 0.606198430
0.820113778 0.823908806 0.625300407
0.872232676 0.835420489 0.647691429
0.932321548 0.845667481 0.673877597
0.003162905 0.009360998 0.127007991
0.001518095 0.004301452 0.124984451
0.057937998 0.014800998 0.141808987
0.142441288 0.045413997 0.161037445
0.234914273 0.075142190 0.188108891
0.343326807 0.101707987 0.211891338
0.478937536 0.134092286 0.243769795
0.682352662 0.150410995 0.280961543
0.000758999 0.048197549 0.126882091
0.006957996 0.050094999 0.138266623
0.071980089 0.062619001 0.156736091
0.150663733 0.085768543 0.176344097
0.242758080 0.109297633 0.197596297
0.346616000 0.135863349 0.219101653
0.480455279 0.159772187 0.239342541
0.664516091 0.181404442 0.276407540
0.017078094 0.119038090 0.170019090
0.049209096 0.126502544 0.171916649
0.104870096 0.136243090 0.185705081
0.178873733 0.151549742 0.197849542
0.270841300 0.175458282 0.220240176
0.377608836 0.198608458 0.231878459
0.519671142 0.221632093 0.264010191
0.712207556 0.254269332 0.295382887
0.080455184 0.221632093 0.219355091
0.111195281 0.219228283 0.214168534
0.154965177 0.228968814 0.225173742
0.221505284 0.243896633 0.238204092
0.313093275 0.262365282 0.249968186
0.412650019 0.283364981 0.261226922
0.561796248 0.306514710 0.285515338
0.728399575 0.339658350 0.321821272
0.162049174 0.332068294 0.276660204
0.175584927 0.336369544 0.273877442
0.221505180 0.344592214 0.276534081
0.289183944 0.354332834 0.279570073
0.373434484 0.368754178 0.286780268
0.492852807 0.385958165 0.307147264
0.634282351 0.420620173 0.331435889
0.790006399 0.460974216 0.373940736
0.276786536 0.482479393 0.340797007
0.290955067 0.485894829 0.338772714
0.334092557 0.489816844 0.342315018
0.400252998 0.500316381 0.349778533
0.488045812 0.513725340 0.357242078
0.591018438 0.527387798 0.373181701
0.717141032 0.551170409 0.405059844
0.850221336 0.596204698 0.454269290
0.434282362 0.636812270 0.426059395
0.461480141 0.643769622 0.427956939
0.492979079 0.646046758 0.437571198
0.546362698 0.653130829 0.445920020
0.616951227 0.662618577 0.454775572
0.693105578 0.669576406 0.468184650
0.784946442 0.681467295 0.492346257
0.877925217 0.709550917 0.537634492
0.668311179 0.801011860 0.588108718
0.675015867 0.799873531 0.593042612
0.688551545 0.805818737 0.589373410
0.726628423 0.808855057 0.606577873
0.767741740 0.815812886 0.621884942
0.813409209 0.824541390 0.635167360
0.871600211 0.833522916 0.657684922
0.924857557 0.847691655 0.686906517
0.003922000 0.012903354 0.172675639
0.000379548 0.012017544 0.171030641
0.053131092 0.022264548 0.187982187
0.138520002 0.043769997 0.209614351
0.239974633 0.081467383 0.238583446
0.346362740 0.104870088 0.256167084
0.487918913 0.126122698 0.283617973
0.689816236 0.133332998 0.325869650
0.000000000 0.059456091 0.189626887
0.012903451 0.059076544 0.182795629
0.070841543 0.071979992 0.204554096
0.153447181 0.090069987 0.222896740
0.237950474 0.113978639 0.238962889
0.351928920 0.137507632 0.268058091
0.497912586 0.154459283 0.292979091
0.679316640 0.161922559 0.328399807
0.027703645 0.131182641 0.220619738
0.060341809 0.133459643 0.230487093
0.106388189 0.146109641 0.226438984
0.179632828 0.155851007 0.242504627
0.272486091 0.173814192 0.258949816
0.382289797 0.196204737 0.281847090
0.530170798 0.218975544 0.309424400
0.716634929 0.239595264 0.347248524
0.102592997 0.220872983 0.253383636
0.123339541 0.222391084 0.265275449
0.162428632 0.237318173 0.264769197
0.223782271 0.248956278 0.278052002
0.315749794 0.263503820 0.292599559
0.422897100 0.283111632 0.307779908
0.574826181 0.304996610 0.336369336
0.742568076 0.335610449 0.365211904
0.171789840 0.336748987 0.315369725
0.185325354 0.340164602 0.314484537
0.231625468 0.345730662 0.321189165
0.291587591 0.359012932 0.323466271
0.387096733 0.371916384 0.330170631
0.501454890 0.395951927 0.352561355
0.640480816 0.419861168 0.374826014
0.798861444 0.458317697 0.417963356
0.289816737 0.483997494 0.385578722
0.303605258 0.485009521 0.380012482
0.344465554 0.489310473 0.385325491
0.405313373 0.495635450 0.387982130
0.495509177 0.511827826 0.402276814
0.595319152 0.530929446 0.417077631
0.719165087 0.552941144 0.438836098
0.850980282 0.596204698 0.488045603
0.448197544 0.638456523 0.466033936
0.467425793 0.643390119 0.471220553
0.493358821 0.648070872 0.476154476
0.549525499 0.657558620 0.482732624
0.613662243 0.663377464 0.492473274
0.702593386 0.672865391 0.507400334
0.789373517 0.685641944 0.523719251
0.879443169 0.714737415 0.568754077
0.662239432 0.803035915 0.619734466
0.673371077 0.798608482 0.616824865
0.696774006 0.801897585 0.625426590
0.721948147 0.809487581 0.629095256
0.762175977 0.814294755 0.638330221
0.816192389 0.822770417 0.657052398
0.877419531 0.831625581 0.674509585
0.927260756 0.853130579 0.702466965
0.001518192 0.026565386 0.235041186
0.002403808 0.030486997 0.234155178
0.060215097 0.042251803 0.249842182
0.142820835 0.058317639 0.272232622
0.241999179 0.085389003 0.289943188
0.351169914 0.111574732 0.316382200
0.498545557 0.128526196 0.347754478
0.689816177 0.135989830 0.396204978
0.001138644 0.074003734 0.246299729
0.011511896 0.077925347 0.245793983
0.077039637 0.086907089 0.260467827
0.154585630 0.097912893 0.275775075
0.248956174 0.115243092 0.290575385
0.355091721 0.139405191 0.325110257
0.496900558 0.155977294 0.350158274
0.687792361 0.161796346 0.393801451
0.039848000 0.148007289 0.268691093
0.060974192 0.151929289 0.275016010
0.114231095 0.156609997 0.283618182
0.182036623 0.163314536 0.296521425
0.271600395 0.175458282 0.319671065
0.386211127 0.197722822 0.341176420
0.536748827 0.216951385 0.370398462
0.726881504 0.232131824 0.410879344
0.106388278 0.231752262 0.309044600
0.131056532 0.231372729 0.314231306
0.170145646 0.243137538 0.310562730
0.235547274 0.256926090 0.333206832
0.319670796 0.263883442 0.343832999
0.434282154 0.285894871 0.367615610
0.582036614 0.297153950 0.390638471
0.753573835 0.318912089 0.424415261
0.191018179 0.331941366 0.361163974
0.210246727 0.337887615 0.358253926
0.249715284 0.344465464 0.364959061
0.308412254 0.359012932 0.376470536
0.395319581 0.381404191 0.391651005
0.510815918 0.395951927 0.407337368
0.651486337 0.413535476 0.434029073
0.804933608 0.446299642 0.471979797
0.303984910 0.482479483 0.433269978
0.320303798 0.482732713 0.431119621
0.358380556 0.490575612 0.432637930
0.413662106 0.504743934 0.446046740
0.492346644 0.512460530 0.450348198
0.604807198 0.527008295 0.469449729
0.730929673 0.554459274 0.496141940
0.855028391 0.590638638 0.533586144
0.461733341 0.640733838 0.511448503
0.475142092 0.644149184 0.527134478
0.503858447 0.648450494 0.523086607
0.547880828 0.655914009 0.529411674
0.619354844 0.666666627 0.538772643
0.704364002 0.674130082 0.556862593
0.788741589 0.686907113 0.566856503
0.889437139 0.716129065 0.610499740
0.658443928 0.797975540 0.644402266
0.666540265 0.801771045 0.643390417
0.683997452 0.804554045 0.651612878
0.718279243 0.809108138 0.660720885
0.759898782 0.814041793 0.669449806
0.813535869 0.820619881 0.679696620
0.871094346 0.835926652 0.699557126
0.928778946 0.849968374 0.722200751
0.004048004 0.046805993 0.309297979
0.001517999 0.054395933 0.308791906
0.076533988 0.061480355 0.321441829
0.163946733 0.075521640 0.340290815
0.257937729 0.091714188 0.363946915
0.360025465 0.111574732 0.383681446
0.501075268 0.131688699 0.416445464
0.699936390 0.132068157 0.474762708
0.000000000 0.089943185 0.321062475
0.009487733 0.093991183 0.321315527
0.087918930 0.101834185 0.333586395
0.170525089 0.111574538 0.342567831
0.259962082 0.117520288 0.363820523
0.360277981 0.144212291 0.379759461
0.499557197 0.152814701 0.414294749
0.674636364 0.160404742 0.462745160
0.034914572 0.164453089 0.348513544
0.068058088 0.165212095 0.346110284
0.126375839 0.169892102 0.357368708
0.194813371 0.175078735 0.368500829
0.291840285 0.183681548 0.385199249
0.399241120 0.197470099 0.410752743
0.538393497 0.215939462 0.436685622
0.729791224 0.229095429 0.486147970
0.110815980 0.245287627 0.365211844
0.139658630 0.250094742 0.372549266
0.174699709 0.254775643 0.377609015
0.243769631 0.259582639 0.395319372
0.334851354 0.268184721 0.416445285
0.440734088 0.279822737 0.432005376
0.576470673 0.293105841 0.459456384
0.749398887 0.314864010 0.502593338
0.210626185 0.350284636 0.422897160
0.214674115 0.355850726 0.421631813
0.262112379 0.366477191 0.433143467
0.325996041 0.373181522 0.444022447
0.406578124 0.381277561 0.460088909
0.514610946 0.387222916 0.476533890
0.652245581 0.408475816 0.501581013
0.800379574 0.437950522 0.537634313
0.324351430 0.475648195 0.479696721
0.337760925 0.479949266 0.485515475
0.378747463 0.489310473 0.496141821
0.432384610 0.498418838 0.505123436
0.510562956 0.516381919 0.523465931
0.612650216 0.534471631 0.538266718
0.730170727 0.554079711 0.561922729
0.855660915 0.573434293 0.589120805
0.465274841 0.631372571 0.560151756
0.494370520 0.635420918 0.576849818
0.521441996 0.643010557 0.580265760
0.564706028 0.648323715 0.590891838
0.622896969 0.655407548 0.599493742
0.699304461 0.670335591 0.600505888
0.788614571 0.686653495 0.617710471
0.891587496 0.715749502 0.657938242
0.671220720 0.790512562 0.701960742
0.679949164 0.796457648 0.686653674
0.690069377 0.795319259 0.695003033
0.720303416 0.807083726 0.701454639
0.754079521 0.815306604 0.709044933
0.806072056 0.822770417 0.713851810
0.864642501 0.834155321 0.728652894
0.928652644 0.852751434 0.754079521
0.003289004 0.072865285 0.432258278
0.012397286 0.076407261 0.421884835
0.106261797 0.082226284 0.440607548
0.202530265 0.090322636 0.451992184
0.307526976 0.096394710 0.473750561
0.418089718 0.092599712 0.495129734
0.543959260 0.111448288 0.509677529
0.702087462 0.127134711 0.551043510
0.000379548 0.106135249 0.417330861
0.023655636 0.110183254 0.430739969
0.111068897 0.115243092 0.435420573
0.203668624 0.121442281 0.451233208
0.302213877 0.125363708 0.465907961
0.419860899 0.127007991 0.495129704
0.540670216 0.138519540 0.512333810
0.691966832 0.151296988 0.546615958
0.011891297 0.177102998 0.444402456
0.063630536 0.181404546 0.455155015
0.142441377 0.184820101 0.463377655
0.227197930 0.187602744 0.472359121
0.330929488 0.195066288 0.492346466
0.453763574 0.190259382 0.516634941
0.577482820 0.203668401 0.536242723
0.729411602 0.225173637 0.570272028
0.093611643 0.261353552 0.483871281
0.124604613 0.265021980 0.487286627
0.182669014 0.266919553 0.488804907
0.263503909 0.272991925 0.500189543
0.365717828 0.274509817 0.513851941
0.478051722 0.276407272 0.536242664
0.606831193 0.288172275 0.552308917
0.754838705 0.308032900 0.578241885
0.201897174 0.376597375 0.513725460
0.225047737 0.381024748 0.521062493
0.266919494 0.383681297 0.529158473
0.328526020 0.383807391 0.536116123
0.415559530 0.385325581 0.553573668
0.529664695 0.388867617 0.567741573
0.662239075 0.400252908 0.586464286
0.808602214 0.426438928 0.619861126
0.342188001 0.506641448 0.575458527
0.361163914 0.514105022 0.579253554
0.397469729 0.517267466 0.584440172
0.448323727 0.519924164 0.588994265
0.517520666 0.526628792 0.601897538
0.610626459 0.529411495 0.617583990
0.734471798 0.546616197 0.637951016
0.851613045 0.573687673 0.664389849
0.484123528 0.627324581 0.629601300
0.491207868 0.632005095 0.628083587
0.522707343 0.637444854 0.636938334
0.572042823 0.645287573 0.649209261
0.631246388 0.653130829 0.658823252
0.703732073 0.668437779 0.675648332
0.795572281 0.686780572 0.692979276
0.887792647 0.707147539 0.710183203
0.682605863 0.788235426 0.742441058
0.688425064 0.789121032 0.734219015
0.700821996 0.791903734 0.740037799
0.725110650 0.799114227 0.750157773
0.761669934 0.807969451 0.757242262
0.808222771 0.820872903 0.767488599
0.852878034 0.837318242 0.775711060
0.926881373 0.852371871 0.795066535
0.000000000 0.098165818 0.613788426
0.046805795 0.098418549 0.607590139
0.167868242 0.099304169 0.614674330
0.274509460 0.099304169 0.624035180
0.389120996 0.093738154 0.642884433
0.513093114 0.080582261 0.654775381
0.648829937 0.055660903 0.671726584
0.783807397 0.096774153 0.694749713
0.000000000 0.134598374 0.601011872
0.053004082 0.132953972 0.598734617
0.159013212 0.130423829 0.613408983
0.272738516 0.132827342 0.624541342
0.384187371 0.131309539 0.635673404
0.507400334 0.122833550 0.650727451
0.643010914 0.102466658 0.667931437
0.780392170 0.130929992 0.686780572
0.005692725 0.200126261 0.622896552
0.066160843 0.202909380 0.623908877
0.178747818 0.202023998 0.635926664
0.284376711 0.201770648 0.640733778
0.399999976 0.200632200 0.653636694
0.527134657 0.199746996 0.669702709
0.664010346 0.189627007 0.689437032
0.800758541 0.217710182 0.708032727
0.016318813 0.282985449 0.631119251
0.088551819 0.287792742 0.637064874
0.189753622 0.285135895 0.646046877
0.298165470 0.289437115 0.652498186
0.415686488 0.289436847 0.665022254
0.537887216 0.287413180 0.678810716
0.673750758 0.286780298 0.691460907
0.807716370 0.310563266 0.710815787
0.183175400 0.408602178 0.668563962
0.207590207 0.407337368 0.662997842
0.250853628 0.402909636 0.668817282
0.331941754 0.401770979 0.675774813
0.445540845 0.401897192 0.682858586
0.567488551 0.402276725 0.698418617
0.703984857 0.405692667 0.713219643
0.842757642 0.431372374 0.733206630
0.385578543 0.548639774 0.705123425
0.394560188 0.553953052 0.704870343
0.427197665 0.551929295 0.707400203
0.474509776 0.549778640 0.711068690
0.531182766 0.542947292 0.711701274
0.629854381 0.546236694 0.732953489
0.752182066 0.547754705 0.751676202
0.869323313 0.575079203 0.764326453
0.535357416 0.673877358 0.738772750
0.546109676 0.681846976 0.735104322
0.570271850 0.680076063 0.739531875
0.607336998 0.681340933 0.747248411
0.661100566 0.683997214 0.754332602
0.726249278 0.687539518 0.765085280
0.793295383 0.690701962 0.778114796
0.890322506 0.714611113 0.800252795
0.692219675 0.791397750 0.792662561
0.699683845 0.805439174 0.796963811
0.718405724 0.801897585 0.798608303
0.734471560 0.805818617 0.804300785
0.767235696 0.811005771 0.814927399
0.815180302 0.822011352 0.820872664
0.860721052 0.835420489 0.833269596
0.921947777 0.859455705 0.858064413
