Assets/Shaders/EldamarStudio/100 Sci-Fi LUTs Pack/LUTs/cube/Tilly LUT.cube
DOMAIN_MIN 0 0 0
DOMAIN_MAX 1 1 1
LUT_3D_SIZE 32
0.003922000 0.000000000 0.070588000
0.003922000 0.000000000 0.070588000
0.001771226 0.000000000 0.070588000
0.000000000 0.000000000 0.070588000
0.001517999 0.000379548 0.071346998
0.013661998 0.003415935 0.077418998
0.028336320 0.003922000 0.083491646
0.045161411 0.005566289 0.086274996
0.063377999 0.007843001 0.086274996
0.081594020 0.007843004 0.086275004
0.099809997 0.013661999 0.092093997
0.120050244 0.017710255 0.100189731
0.141302645 0.023023643 0.105881996
0.162302062 0.031879000 0.106135026
0.180518821 0.037950993 0.109171413
0.205945775 0.046426188 0.119417988
0.231751978 0.057052381 0.130044192
0.256040126 0.067931995 0.137254998
0.280328989 0.074004017 0.137255013
0.312966377 0.082859360 0.145604357
0.338772744 0.093864992 0.156609997
0.363061249 0.103984997 0.164706007
0.393801451 0.110183500 0.165085509
0.433269918 0.119291902 0.174193904
0.472738832 0.128399700 0.181024998
0.516382277 0.136115983 0.188488305
0.565971136 0.141682059 0.198608071
0.620619833 0.144718453 0.213788435
0.672612429 0.153067827 0.223655820
0.727767050 0.163946956 0.239848167
0.781909764 0.176090971 0.256672978
0.827450991 0.188235000 0.262744993
0.006957613 0.003036387 0.073624387
0.003922000 0.000000000 0.070588000
0.001771226 0.000000000 0.074889004
0.000000000 0.001265161 0.079190321
0.001897547 0.002656839 0.082732774
0.016698387 0.000379548 0.083491765
0.031372707 0.008475934 0.081973456
0.044908382 0.013282998 0.088172317
0.061100706 0.016192291 0.091587901
0.081594020 0.013915003 0.089310616
0.105628997 0.019733999 0.098039486
0.126122251 0.027830251 0.104237989
0.143959284 0.035167642 0.107779741
0.159519419 0.043769967 0.106387995
0.180518821 0.047058605 0.112207025
0.205945775 0.053131223 0.117647216
0.230234176 0.063124768 0.123972192
0.254269511 0.075268984 0.130044177
0.283365369 0.086148009 0.137255013
0.307653427 0.092220008 0.145604357
0.338393480 0.099177606 0.154712260
0.367109507 0.108032733 0.164705738
0.399873465 0.116255499 0.171157494
0.439341933 0.125363901 0.180265903
0.478810847 0.134471700 0.187096998
0.521062613 0.142188340 0.194560662
0.568500817 0.147754714 0.203162774
0.620619833 0.150790453 0.210752830
0.672612429 0.159139827 0.220619529
0.727767050 0.168248191 0.236811757
0.783680737 0.180012748 0.254522204
0.833522975 0.194306999 0.262744993
0.005692774 0.006072226 0.076660231
0.002656613 0.007337387 0.075774617
0.001771226 0.008601999 0.070588000
0.001265161 0.008601999 0.080455162
0.003668773 0.011511772 0.088045776
0.017077934 0.015559837 0.086274996
0.036559321 0.011891320 0.083744682
0.051739704 0.017710289 0.083997712
0.065148868 0.023276420 0.092093900
0.083618268 0.024415072 0.094623528
0.105628997 0.032257773 0.101075098
0.123845249 0.034281772 0.104111224
0.145983294 0.043010641 0.109930225
0.162681997 0.051865999 0.110689066
0.182036623 0.056799348 0.116761543
0.208095998 0.064389609 0.120682828
0.233902588 0.070461996 0.126755223
0.255787581 0.080708571 0.131055981
0.281594187 0.091334783 0.138646200
0.310689807 0.097912781 0.147754580
0.336875498 0.105882026 0.153067961
0.367995113 0.113219127 0.161669642
0.401391476 0.122453980 0.170777723
0.436811924 0.133586138 0.179886132
0.478431076 0.144845247 0.188868001
0.520683169 0.149778545 0.194939986
0.567235827 0.154838935 0.204301298
0.618848503 0.161163539 0.215306997
0.668311417 0.165211827 0.221884921
0.728779256 0.177862182 0.238076940
0.784945905 0.187729597 0.255787373
0.835294008 0.200379550 0.264895767
0.002656839 0.015433322 0.079696164
0.000885613 0.019734547 0.078431003
0.000000000 0.017710386 0.080455154
0.002529999 0.023276322 0.074383162
0.007084385 0.022896772 0.088045545
0.020113997 0.028462933 0.086780936
0.038583159 0.032511000 0.086274683
0.055281699 0.031372610 0.087792553
0.071980089 0.033649322 0.090069838
0.088172495 0.038709972 0.097659528
0.106641129 0.046426285 0.102593154
0.128905565 0.051992159 0.109677158
0.144085675 0.053130802 0.111954153
0.167994916 0.061733156 0.117773190
0.188235149 0.067805156 0.122833833
0.209866777 0.076280951 0.127767339
0.235673368 0.082605995 0.131055981
0.260594547 0.088045575 0.137128145
0.283112019 0.095888980 0.143200338
0.311448574 0.104744002 0.150790527
0.342441559 0.111448415 0.158633575
0.370778084 0.119544163 0.161669970
0.404047996 0.128652483 0.170271665
0.438583046 0.141935170 0.179380074
0.476280719 0.151549414 0.187223285
0.521441936 0.159392998 0.197469980
0.566983044 0.160404995 0.204553992
0.617077410 0.168753698 0.218975276
0.667299092 0.177608982 0.227450982
0.723972082 0.183934167 0.238582999
0.785452187 0.199999958 0.259835422
0.834029138 0.210246831 0.270461857
0.000379548 0.033270452 0.083871000
0.000379548 0.039342549 0.081593707
0.000379548 0.035800319 0.085262321
0.002909548 0.033523157 0.088804543
0.010879094 0.041872546 0.083871000
0.026059480 0.038836159 0.086907379
0.043769542 0.047691096 0.089943223
0.059076414 0.054142710 0.094243996
0.072739087 0.056799546 0.098797999
0.093991488 0.056799550 0.098797999
0.109803669 0.062618539 0.102087319
0.132321209 0.068311088 0.110056996
0.155471444 0.073624186 0.119544543
0.170904085 0.076660514 0.125869498
0.194939822 0.082605995 0.129158869
0.215180084 0.091461249 0.134977996
0.236432374 0.097533345 0.139531896
0.260974079 0.100948572 0.143579602
0.288298517 0.103984974 0.149652407
0.316002369 0.115370005 0.155345023
0.346362740 0.123339534 0.162934795
0.379126817 0.129791081 0.170398131
0.409867018 0.135989562 0.173560992
0.446552813 0.150663897 0.182416365
0.483364999 0.159392551 0.190385997
0.524225295 0.164073229 0.198861539
0.572675645 0.167995006 0.210626096
0.618215978 0.174066991 0.222770080
0.669449389 0.187349796 0.231878370
0.725616276 0.197596520 0.242757499
0.782415807 0.206831068 0.256799132
0.830993414 0.225047097 0.278051555
0.003415935 0.048450064 0.096014999
0.003415935 0.054522835 0.099051386
0.003415935 0.056293935 0.094623864
0.005945935 0.056040704 0.093611933
0.013915482 0.060088545 0.092979386
0.035167869 0.063124932 0.096014999
0.052877929 0.067678869 0.099051386
0.069449641 0.069829158 0.102087222
0.084124096 0.069323093 0.104869999
0.100063495 0.071979940 0.104870006
0.118405990 0.077798933 0.110688999
0.138140187 0.081847191 0.114231318
0.159266353 0.086527869 0.118785642
0.176976860 0.091840900 0.122833893
0.195192859 0.094876513 0.131941497
0.219228595 0.105628990 0.140037864
0.242504850 0.112713248 0.145604193
0.266793132 0.116381921 0.149905279
0.291334897 0.122200973 0.158760011
0.321441919 0.133586004 0.162049428
0.349398732 0.140037730 0.167489007
0.379759401 0.145604059 0.174066931
0.412903398 0.154206350 0.179632992
0.452371836 0.163313970 0.185705006
0.491334260 0.173434287 0.199114338
0.530297041 0.179253608 0.209993660
0.572802126 0.183301866 0.219607994
0.621252358 0.192282990 0.228842854
0.674762487 0.201011822 0.235673860
0.728905261 0.211132199 0.245793909
0.781909764 0.221505523 0.258823514
0.827957034 0.237191871 0.275015920
0.001391678 0.068690322 0.103098996
0.003922000 0.074763089 0.103605062
0.008223000 0.076534316 0.106641449
0.011511999 0.077799156 0.102972835
0.018722545 0.080455318 0.102466673
0.035673935 0.081340931 0.107653059
0.054395996 0.086906999 0.110689320
0.072612405 0.089690000 0.112080999
0.089437313 0.089816317 0.114990316
0.106388494 0.094623476 0.118532315
0.124477997 0.098039314 0.114231318
0.144718245 0.102087058 0.122327574
0.165970638 0.107400313 0.127514318
0.185578749 0.114863992 0.131941959
0.203795314 0.120176896 0.136495575
0.231625289 0.123213120 0.145603806
0.251612842 0.131941646 0.151676193
0.274130136 0.135989890 0.155344993
0.302213967 0.140164658 0.162555382
0.327008009 0.149272338 0.168627352
0.361163467 0.157621309 0.173560992
0.392409712 0.162302256 0.180645123
0.425933272 0.169766307 0.188361824
0.462997913 0.176470742 0.196837649
0.497912854 0.187855631 0.205186337
0.542441249 0.197216988 0.217077658
0.588488221 0.203036323 0.226691991
0.639089167 0.210120171 0.237824127
0.690449178 0.219228461 0.241745993
0.741555929 0.230107605 0.256673157
0.794686794 0.242631301 0.271979898
0.845161319 0.259456009 0.287160307
0.000000000 0.091587409 0.112460412
0.011258670 0.092726052 0.107526705
0.011511996 0.097786278 0.112966478
0.020113997 0.097786278 0.113472544
0.026944995 0.100822084 0.111574702
0.038330223 0.103352405 0.117646694
0.060973991 0.106767699 0.119544312
0.079190403 0.107906409 0.124224991
0.095888995 0.110183306 0.123466089
0.112334013 0.117140695 0.126881704
0.130549997 0.120303564 0.124604702
0.150790244 0.126628861 0.127008244
0.169765651 0.128526121 0.134977996
0.190765068 0.135863408 0.141303033
0.214547813 0.141935408 0.147121996
0.235799968 0.143959507 0.150031522
0.264642566 0.150031492 0.159139514
0.282226384 0.156230137 0.163061440
0.310562968 0.160278663 0.169133723
0.337001741 0.165591359 0.175205708
0.365591168 0.174446419 0.179632992
0.402023941 0.181530535 0.187729254
0.436053455 0.188362166 0.197343692
0.470967710 0.195951983 0.204933912
0.510056794 0.203288972 0.212397411
0.547628284 0.214041650 0.221505374
0.598481953 0.222643986 0.230613649
0.650094986 0.228715986 0.241618991
0.701707661 0.237444818 0.252371818
0.754838586 0.245034948 0.254522443
0.801644444 0.260721177 0.275774866
0.853257298 0.280455410 0.292473286
0.003795096 0.115117088 0.126122996
0.017457098 0.112839803 0.116255708
0.025932770 0.116255194 0.121568866
0.027703999 0.120556287 0.124098934
0.040986545 0.119797193 0.121821545
0.048956089 0.124351770 0.127514005
0.067425512 0.128652871 0.129285097
0.089816406 0.130676806 0.131815195
0.108792096 0.129158989 0.137128100
0.120936111 0.138266608 0.134092480
0.138899088 0.142314866 0.134725094
0.156862438 0.147881255 0.137255087
0.178114727 0.154333100 0.143327087
0.193801120 0.154586062 0.149146050
0.222643808 0.160152003 0.157242313
0.244149074 0.162935004 0.159898996
0.266160548 0.166729897 0.163693890
0.292852938 0.175205246 0.172801659
0.317141056 0.181278035 0.179000944
0.344971478 0.185325831 0.183554992
0.374952465 0.191397831 0.189247444
0.405060142 0.199747130 0.193042159
0.441619396 0.208855510 0.204933897
0.476281017 0.217963293 0.211005911
0.517267585 0.225553080 0.217836991
0.560531378 0.231498763 0.224541560
0.604554117 0.241113096 0.235168025
0.656167209 0.247691095 0.245034724
0.707020760 0.255660832 0.257937819
0.758886456 0.265275061 0.265780985
0.812270284 0.275901169 0.273497581
0.854775071 0.300189972 0.294750005
0.018975500 0.136369497 0.144338995
0.018975496 0.136369497 0.132195011
0.032637492 0.140543982 0.139532268
0.044908009 0.145351142 0.144339338
0.053130560 0.147122368 0.137001947
0.074382938 0.141049594 0.140037566
0.082353130 0.145604178 0.143200338
0.095888965 0.151549980 0.146110207
0.114864096 0.156483412 0.149272889
0.136116505 0.159519017 0.152308494
0.154079482 0.165717497 0.155091882
0.168248013 0.169639274 0.155977502
0.185325965 0.172928646 0.158507496
0.208981529 0.175838456 0.164326459
0.230233893 0.178874075 0.167362064
0.251865774 0.184440002 0.170651317
0.274509877 0.190259010 0.175078988
0.298924953 0.196457654 0.181910053
0.323213041 0.202530459 0.191018462
0.353067756 0.208602518 0.191651016
0.385199219 0.214547992 0.197596744
0.416445106 0.220746487 0.204427838
0.444655001 0.227071509 0.207969517
0.484124243 0.236179918 0.214041516
0.527893782 0.245287672 0.222390801
0.573307991 0.251486182 0.229980990
0.619734526 0.256293505 0.238203660
0.671346843 0.268437475 0.256420374
0.720303118 0.275015473 0.266287088
0.769006789 0.286527187 0.273876995
0.818722486 0.303099066 0.285894543
0.869955480 0.324478000 0.312965989
0.042884000 0.157621875 0.153826877
0.037064999 0.160530984 0.147501856
0.043516770 0.164832532 0.146110088
0.058191027 0.167109564 0.154459119
0.068817191 0.167615548 0.155091554
0.074888937 0.174193740 0.158127815
0.093611643 0.168121606 0.161163419
0.107779987 0.172675863 0.164199710
0.125996187 0.178747863 0.167236090
0.145098373 0.183934256 0.170272261
0.160530999 0.184060752 0.170398742
0.180771247 0.190132737 0.171410874
0.196710765 0.194054514 0.171410874
0.215433031 0.197090834 0.173181832
0.236685395 0.200126454 0.170904443
0.260341585 0.207969666 0.178747669
0.283617854 0.214547724 0.184313864
0.308538675 0.220619723 0.190385863
0.335104048 0.226691961 0.197216988
0.362176061 0.232764006 0.203541994
0.394307584 0.238835990 0.207589984
0.426692098 0.242883980 0.213662252
0.456420213 0.245287493 0.216824859
0.495888710 0.254395902 0.222896874
0.535357237 0.263504267 0.231246158
0.579632938 0.274003714 0.240354180
0.627198160 0.281593949 0.246426046
0.683618128 0.286527723 0.247818023
0.729917467 0.303984702 0.268690914
0.780012369 0.309297949 0.278811067
0.827071548 0.320809722 0.289563715
0.870588005 0.340037853 0.310815871
0.057052251 0.184946507 0.160910994
0.057052501 0.187982112 0.160910726
0.063757017 0.185072541 0.159266204
0.070335403 0.191144988 0.163567305
0.082100250 0.190765247 0.168500960
0.090069570 0.194939926 0.168247938
0.105755627 0.199493974 0.175332189
0.119038694 0.196710974 0.175078794
0.136116251 0.202023983 0.177356094
0.154332712 0.208095968 0.180392474
0.169639379 0.210373238 0.182542726
0.188867494 0.212397486 0.180518985
0.210119888 0.217330858 0.181657344
0.227324307 0.220619977 0.183048725
0.246805891 0.225426823 0.185325578
0.270461559 0.231245786 0.189880058
0.296268165 0.237318188 0.195952058
0.320429802 0.242884234 0.200252995
0.344971269 0.248956248 0.203542024
0.372295797 0.257052511 0.211638272
0.403415948 0.261226773 0.213915259
0.436812371 0.266160399 0.218722120
0.468817472 0.267425507 0.222137749
0.512080908 0.274636149 0.232005253
0.551549733 0.283744544 0.242378280
0.593801081 0.294244230 0.250094980
0.638330162 0.305376261 0.259076238
0.686907291 0.309930414 0.263630450
0.735989988 0.322200954 0.271727055
0.779759586 0.336875379 0.285894990
0.828842521 0.344212830 0.297659904
0.870588005 0.361290514 0.315876245
0.069576278 0.216445640 0.172675639
0.073751025 0.217204258 0.174572900
0.080961637 0.216065645 0.174319640
0.092726156 0.212776631 0.175711319
0.096141987 0.218469188 0.180645451
0.106767990 0.219228283 0.177609056
0.121694990 0.222011283 0.181277677
0.138393342 0.227071270 0.186084926
0.149778634 0.227830365 0.184566543
0.167994648 0.233522907 0.187602833
0.183301508 0.236685500 0.191777408
0.201391533 0.238583252 0.191903904
0.221505284 0.242757991 0.192283645
0.242757678 0.245793670 0.195319250
0.261859804 0.250980288 0.200505629
0.284882963 0.258190930 0.204300955
0.311827838 0.262744814 0.211132437
0.337887198 0.266413629 0.212903067
0.359139621 0.272485614 0.212397009
0.387096643 0.280202359 0.220746368
0.418216228 0.286653876 0.223023638
0.452625245 0.291713774 0.227071643
0.486274630 0.295129627 0.230613276
0.528779209 0.301201612 0.240733817
0.568627477 0.309550911 0.249462634
0.613156259 0.317773610 0.259962022
0.658190787 0.329917639 0.267046124
0.698292255 0.337254643 0.279190272
0.744592190 0.348639905 0.287160009
0.790765345 0.361922681 0.299557388
0.833270192 0.374952644 0.313092828
0.878557622 0.390132993 0.331815630
0.088552028 0.248576999 0.193422034
0.093864992 0.246299639 0.194180995
0.100442998 0.245414034 0.191524297
0.108032994 0.245667070 0.190006167
0.119924061 0.246046618 0.193042487
0.125996068 0.249083012 0.190006092
0.136369035 0.249336034 0.190006033
0.152055413 0.252878070 0.191397712
0.169766009 0.257938117 0.193927959
0.187982008 0.260974497 0.196963578
0.203794867 0.264010131 0.202909738
0.220999509 0.265022010 0.204934001
0.239469022 0.267552078 0.207211003
0.258191049 0.273371041 0.213030025
0.279443413 0.276407421 0.216065630
0.303352028 0.283997804 0.216951028
0.329917371 0.290069818 0.220999226
0.358886629 0.293738008 0.228336483
0.380139053 0.299809992 0.225300103
0.409740746 0.305882007 0.232384354
0.441998810 0.312207073 0.234914735
0.475648284 0.318785191 0.236180037
0.512460470 0.327893525 0.248071030
0.549272835 0.334092051 0.254143029
0.586211562 0.342188329 0.258191288
0.628589690 0.350158006 0.264010370
0.678937197 0.357242107 0.273371100
0.721441865 0.369386107 0.285515875
0.766603470 0.381530672 0.295762211
0.811132133 0.395446181 0.310942173
0.855534196 0.410879433 0.332574189
0.898038983 0.426059067 0.356862992
0.115876392 0.266792983 0.208602414
0.112840004 0.272864997 0.217710018
0.122453980 0.272738397 0.212017745
0.128272980 0.274003565 0.204174668
0.132321075 0.276407361 0.199494004
0.144212827 0.279443741 0.205186471
0.147754505 0.277419508 0.209740400
0.162555113 0.281594098 0.211258397
0.180897996 0.287792802 0.211132079
0.194054008 0.288298875 0.209108353
0.215179861 0.291334510 0.215053827
0.233143494 0.292346388 0.217077985
0.252498627 0.295762032 0.219354987
0.273371398 0.303731769 0.225174025
0.297659367 0.306767374 0.228210405
0.323718756 0.312207580 0.231246024
0.347374588 0.317394197 0.233649597
0.371789694 0.321062386 0.238583401
0.398355812 0.327134371 0.243516862
0.427956820 0.333206385 0.240480468
0.460215151 0.341176152 0.247564733
0.491587937 0.347627938 0.252119124
0.521568894 0.352182269 0.257179379
0.567109346 0.361289918 0.263251424
0.608475506 0.367488980 0.269323379
0.648323953 0.375585109 0.276154637
0.691334903 0.384566516 0.285262764
0.736622214 0.396711200 0.294623464
0.781783819 0.408855200 0.312081218
0.820240498 0.422770560 0.323086560
0.857937992 0.438836366 0.337381184
0.898038983 0.456419826 0.356862992
0.135989994 0.301834404 0.209361196
0.137761205 0.298291773 0.223276421
0.136875600 0.300062776 0.221631810
0.148007601 0.301327944 0.221632004
0.152941048 0.303984791 0.220872775
0.159013048 0.304996908 0.218848795
0.173181459 0.312587291 0.220113799
0.182795480 0.309550911 0.224541515
0.201011881 0.314105064 0.225300595
0.214800611 0.315749794 0.223909274
0.228462666 0.318658888 0.224794805
0.245667040 0.319670767 0.226818800
0.266919613 0.320809424 0.229095802
0.290955037 0.327134788 0.234661803
0.315243602 0.332321137 0.235547408
0.337128371 0.340164393 0.240987003
0.361416787 0.346236765 0.244022608
0.385199130 0.350158006 0.247058764
0.416065902 0.354458779 0.251359999
0.441366613 0.360531390 0.251486450
0.475521594 0.370398372 0.256040543
0.510436416 0.379000574 0.265148669
0.542315006 0.383301795 0.270841181
0.581024706 0.385578692 0.272359192
0.624288321 0.396963596 0.282985777
0.665401399 0.404680640 0.289310783
0.705376327 0.414294600 0.298924983
0.749019384 0.426438868 0.313725322
0.796963632 0.433775961 0.325995833
0.835420728 0.447691143 0.338899374
0.869702756 0.462871552 0.350663990
0.907652974 0.479569793 0.368880808
0.155724183 0.333712995 0.221505180
0.161796570 0.333712578 0.230613574
0.161163986 0.328905374 0.233776182
0.164959148 0.331435382 0.231499016
0.175332189 0.335104197 0.240986541
0.177229434 0.337381184 0.236053184
0.187349707 0.338899523 0.232005194
0.204047889 0.345983684 0.233649522
0.219987184 0.343706369 0.236685902
0.235926479 0.345983684 0.237444997
0.249715179 0.349019676 0.240480989
0.266919434 0.351549357 0.241999179
0.283238471 0.351549357 0.241999179
0.308918417 0.354206204 0.247059152
0.331941992 0.359013349 0.248323992
0.353827000 0.367488772 0.253131002
0.381151378 0.375079364 0.254649192
0.402403742 0.380518794 0.257684797
0.432258189 0.383554429 0.260720968
0.460341901 0.389373720 0.262492180
0.493738353 0.396204978 0.269702733
0.529158533 0.406325251 0.275774986
0.564958692 0.412523866 0.283364683
0.599999845 0.416698188 0.287539393
0.639468729 0.424288392 0.293611556
0.677798808 0.435041040 0.305755943
0.718026400 0.444655389 0.311575055
0.761543214 0.456799358 0.324731171
0.801770747 0.465148568 0.346742183
0.846046567 0.475015551 0.357115358
0.880329192 0.491081357 0.370651364
0.916761398 0.506894171 0.390133202
0.176976562 0.361163706 0.246299565
0.185452372 0.365970701 0.249335960
0.187855765 0.364705712 0.248323992
0.188614711 0.362428725 0.251486421
0.197723106 0.367741704 0.253383547
0.198482126 0.373307735 0.250094920
0.206072286 0.373054862 0.246426553
0.219481528 0.374320120 0.244655430
0.236432537 0.378874123 0.247058660
0.254648536 0.378874123 0.250095069
0.269955426 0.381783843 0.254775584
0.288551390 0.384819865 0.258191258
0.311195225 0.387349516 0.261986405
0.329664975 0.387602538 0.262239426
0.350917339 0.390638947 0.265275121
0.372169733 0.397849321 0.268816978
0.398229152 0.405439347 0.272865176
0.429095507 0.410879523 0.271094561
0.450347960 0.413915157 0.274130195
0.478684723 0.420366704 0.276533931
0.514105260 0.426438719 0.284629971
0.551549673 0.431878239 0.293358564
0.585199058 0.438077480 0.293611556
0.619607449 0.447185218 0.302213877
0.656293392 0.455660820 0.310309947
0.692346632 0.466034174 0.317899942
0.726755202 0.475142598 0.330044091
0.772043288 0.487160116 0.333460003
0.806957722 0.496647805 0.357242107
0.845034719 0.507527113 0.377735347
0.884503603 0.520177126 0.390006155
0.920936406 0.538393140 0.414294988
0.198229030 0.400632948 0.261480004
0.204301015 0.400632948 0.264516383
0.210626051 0.401138961 0.258950233
0.214674175 0.400632948 0.259456038
0.218975559 0.401138961 0.268563986
0.228083938 0.401138961 0.262492001
0.236432657 0.404174626 0.264263362
0.248829752 0.406704724 0.264896005
0.263503969 0.409235001 0.265148968
0.275900990 0.409235001 0.265275478
0.291207880 0.412144125 0.265402019
0.308412522 0.415180326 0.265908003
0.331435978 0.418216348 0.269576371
0.360025048 0.420999050 0.277419090
0.381277412 0.424035460 0.280455500
0.402529806 0.429475039 0.278684199
0.426818222 0.435799986 0.282479197
0.453383595 0.441239625 0.289310604
0.474636048 0.444276035 0.292346984
0.498671800 0.452878356 0.292599946
0.531056523 0.459835976 0.298545271
0.566730142 0.464895844 0.305882156
0.600379527 0.468437552 0.308791995
0.639847934 0.477545947 0.314864010
0.674256861 0.484376967 0.325743020
0.706767976 0.494876653 0.334598005
0.738899231 0.508539081 0.342188150
0.778368294 0.517647445 0.354332924
0.813029766 0.527008176 0.368374825
0.849968135 0.537887454 0.388362110
0.887033224 0.550032020 0.407716930
0.917900026 0.562682033 0.426439047
0.238962740 0.445667386 0.282226384
0.239468738 0.445667386 0.282479405
0.245540738 0.445667386 0.285515785
0.251612723 0.444402546 0.282732725
0.256546378 0.443264186 0.286907196
0.263250947 0.445667386 0.283238381
0.272359341 0.448197693 0.287286371
0.283111751 0.449589103 0.287286729
0.296394587 0.452245742 0.287666380
0.308539063 0.456293762 0.291714370
0.326375604 0.456420243 0.288931012
0.343579739 0.457432121 0.292979032
0.362934649 0.460847735 0.293358654
0.387349427 0.465275109 0.295382679
0.406072110 0.465781152 0.298418432
0.434535325 0.468817532 0.303858012
0.459962279 0.472991884 0.301960558
0.486654043 0.478431314 0.304743767
0.510056734 0.485768706 0.307779640
0.536875069 0.488804400 0.313599378
0.563061118 0.496015012 0.321189374
0.596837282 0.502087295 0.329158604
0.632131398 0.507021070 0.332321048
0.668943644 0.513472617 0.338393718
0.701581299 0.522580445 0.346742421
0.734471977 0.529158711 0.356989026
0.766223848 0.539658725 0.365970790
0.798861682 0.551043868 0.380392253
0.830360234 0.562808394 0.397849321
0.867172599 0.573813677 0.416698158
0.903984666 0.587729216 0.437950581
0.934345007 0.603668749 0.458064377
0.270082474 0.485515475 0.292093724
0.271979719 0.485515475 0.307273716
0.274383456 0.483617753 0.296141773
0.281720310 0.486147732 0.300442994
0.288804263 0.485388964 0.302087426
0.296394467 0.486906797 0.302087069
0.306894034 0.488045275 0.306641459
0.317647129 0.489436954 0.307779759
0.330550134 0.490196049 0.305502981
0.343832940 0.495129764 0.309298009
0.359898716 0.497280478 0.312333882
0.380012453 0.499177724 0.311574727
0.395951748 0.499177724 0.314231366
0.415686220 0.503984749 0.312207699
0.440480530 0.508918464 0.318532288
0.462618589 0.509424508 0.320176721
0.489943355 0.515496910 0.324730903
0.515623271 0.519291580 0.323719144
0.538646519 0.525869727 0.326754779
0.565717816 0.527514100 0.334471703
0.594939947 0.532447457 0.342441738
0.621252179 0.539531589 0.351549625
0.654016197 0.546363235 0.354711771
0.688677788 0.550664425 0.360784560
0.722454250 0.553320885 0.367236167
