Assets/Shaders/EldamarStudio/100 Sci-Fi LUTs Pack/LUTs/cube/Tilly LUT.cube
LUT_3D_SIZE 5
DOMAIN_MIN 0.000000 0.000000 0.000000
DOMAIN_MAX 0.903226 0.903226 0.903226
0.003922000 0.000000000 0.070588000
0.045161411 0.005566289 0.086274996
0.180518821 0.037950993 0.109171413
0.363061249 0.103984997 0.164706007
0.672612429 0.153067827 0.223655820
0.000000000 0.091587409 0.112460412
0.079190403 0.107906409 0.124224991
0.214547813 0.141935408 0.147121996
0.402023941 0.181530535 0.187729254
0.701707661 0.237444818 0.252371818
0.115876392 0.266792983 0.208602414
0.162555113 0.281594098 0.211258397
0.297659367 0.306767374 0.228210405
0.491587937 0.347627938 0.252119124
0.781783819 0.408855200 0.312081218
0.304491252 0.520936131 0.309298098
0.353067517 0.527893245 0.328020543
0.474383205 0.547501683 0.339531809
0.648577094 0.572928250 0.372802019
0.856926084 0.631499112 0.446173221
0.660974205 0.801770747 0.570651412
0.685768425 0.805818558 0.581151247
0.743073761 0.812903166 0.600758553
0.835800052 0.827956617 0.626818419
0.932447553 0.846173644 0.677798569
0.001644708 0.007843000 0.114104696
0.036685407 0.009487708 0.123592407
0.187096819 0.055914123 0.162175983
0.374193698 0.114104711 0.215180248
0.682099700 0.156230167 0.269070536
0.007210997 0.100062989 0.151043400
0.079822987 0.108918697 0.166729972
0.214547396 0.145224407 0.191271693
0.399114192 0.187982127 0.225300282
0.704364300 0.234534934 0.282479405
0.118405983 0.273371398 0.236053407
0.164832413 0.283871204 0.244908109
0.296647668 0.305123091 0.255028397
0.492599785 0.345983803 0.280835092
0.778114796 0.408855200 0.343074083
0.319291681 0.513852000 0.347627938
0.353067517 0.524984121 0.355217844
0.471094221 0.542567968 0.363061219
0.645667255 0.570398688 0.390892118
0.855028272 0.627830386 0.468437791
0.670082271 0.802782834 0.583048403
0.686021447 0.804048002 0.588867724
0.742694259 0.812523484 0.611132443
0.825806439 0.825047433 0.636432767
0.927134633 0.845920324 0.686906517
0.003922000 0.018975416 0.205312997
0.031752121 0.030739997 0.214800701
0.180518821 0.068057984 0.246552393
0.376217276 0.114737131 0.290069550
0.690954566 0.133965582 0.359771967
0.017710410 0.122959986 0.237065107
0.088678107 0.125237122 0.242884293
0.214547813 0.147501275 0.272359103
0.408601940 0.181150988 0.310309708
0.715116680 0.213156402 0.371157527
0.136748388 0.269449800 0.304743797
0.185452104 0.283491671 0.312586963
0.308791816 0.315243810 0.335483402
0.498545200 0.344339132 0.362681955
0.783681452 0.396457791 0.427830607
0.332068533 0.521948278 0.424035132
0.367488801 0.525869668 0.424161702
0.475901097 0.544212282 0.435547382
0.649462283 0.570651531 0.458823383
0.860341489 0.623023510 0.527261198
0.657558143 0.793927670 0.616824985
0.676154315 0.801517844 0.630360484
0.737128198 0.808981359 0.648956418
0.832764089 0.825047493 0.673497677
0.920556605 0.851486564 0.707779765
0.002023998 0.055914126 0.336622119
0.060594697 0.067046285 0.343453228
0.214294523 0.086654283 0.374193668
0.398482263 0.117647000 0.413030088
0.705755711 0.132068157 0.494243920
0.014927154 0.145224556 0.357115835
0.099810280 0.151675835 0.369512975
0.246046796 0.162808403 0.397090405
0.434408396 0.182795689 0.433017254
0.730803192 0.210626081 0.507400095
0.159898698 0.305502653 0.415306807
0.212650239 0.311321795 0.425427139
0.331055790 0.324098676 0.456293344
0.521442235 0.343327224 0.487918973
0.793168724 0.380391926 0.548134208
0.369892091 0.514105201 0.519165099
0.395446122 0.526249111 0.522960007
0.499430925 0.543200374 0.546110272
0.660215139 0.574952245 0.579759419
0.867805243 0.612903118 0.625300229
0.676533580 0.788741589 0.710815907
0.688551247 0.796584606 0.708412349
0.734471798 0.808981359 0.714484513
0.819733858 0.825047433 0.729791224
0.925616443 0.852498412 0.761163890
0.000000000 0.098165818 0.613788426
0.137001768 0.100062996 0.613156259
0.325995743 0.100063406 0.631372154
0.549019575 0.071473874 0.659076273
0.783807397 0.096774153 0.694749713
0.004933705 0.183174819 0.619607747
0.149652258 0.185072809 0.625806451
0.338013887 0.185072824 0.646679282
0.561037362 0.171916410 0.675015569
0.798734546 0.197216675 0.703478634
0.075522050 0.342694640 0.655407786
0.194180816 0.345350981 0.661100686
0.377482355 0.349272639 0.676407456
0.595319688 0.348893106 0.697533071
0.833396435 0.372801960 0.729285181
0.418216199 0.576217234 0.712207794
0.455787539 0.581530631 0.716761351
0.542061925 0.581151128 0.723719060
0.674636304 0.578874052 0.741302788
0.875395298 0.608981669 0.775711596
0.692219675 0.791397750 0.792662561
0.711068571 0.804427564 0.802403748
0.751549363 0.808348954 0.809740543
0.825806618 0.824035585 0.823655725
0.921947777 0.859455705 0.858064413
