Assets/Shaders/EldamarStudio/100 Sci-Fi LUTs Pack/LUTs/cube/Toby LUT.cube
LUT_3D_SIZE 8
DOMAIN_MIN 0.000000 0.000000 0.000000
DOMAIN_MAX 0.903226 0.903226 0.903226
0.074510001 0.074510001 0.074510001
0.103858545 0.067425996 0.071726546
0.173181191 0.083112098 0.096394897
0.264010280 0.117140643 0.127261356
0.357242376 0.155092001 0.157495201
0.466160476 0.207589984 0.205692738
0.581277251 0.256166995 0.247690991
0.716887772 0.313978642 0.302213967
0.094876997 0.124225549 0.091334544
0.124604993 0.128905550 0.095635995
0.189627096 0.145350635 0.119544543
0.267173082 0.166476652 0.144212291
0.357621819 0.197469994 0.175585181
0.462998062 0.238203809 0.208855450
0.579253554 0.280835032 0.259203285
0.704111338 0.333712995 0.304617345
0.133965999 0.225679994 0.146489099
0.159772202 0.227577642 0.153953552
0.231119186 0.242884189 0.166856185
0.307147175 0.259329289 0.193548203
0.391777277 0.284377068 0.213156089
0.489942849 0.312207431 0.250601083
0.607084334 0.350284576 0.290702105
0.738519669 0.397469908 0.345983535
0.206324920 0.343706280 0.228715986
0.231372729 0.352308333 0.225427285
0.279570073 0.359013021 0.239721984
0.353194267 0.372295916 0.259582639
0.436558813 0.386464030 0.277672648
0.522580743 0.404553920 0.294117659
0.625173926 0.434535265 0.330297261
0.743074119 0.475268632 0.384440243
0.282985181 0.473118365 0.293864787
0.298418999 0.481088191 0.300316632
0.339279085 0.489689976 0.320556283
0.403542161 0.496015191 0.325237185
0.487286180 0.508412361 0.340038210
0.571157515 0.521821380 0.366729975
0.665148437 0.542947471 0.398734897
0.771157682 0.579759538 0.450727493
0.383933991 0.627197981 0.399873465
0.401517749 0.634408534 0.409487545
0.434155464 0.633776367 0.415812850
0.485895097 0.637824357 0.423402727
0.553446949 0.640607238 0.438583463
0.626818478 0.652245760 0.458317488
0.709424734 0.664769232 0.489057750
0.806072056 0.691713870 0.540290534
0.484250575 0.734851301 0.502213657
0.503225803 0.742441714 0.507527292
0.527640641 0.746742368 0.520683289
0.570145249 0.749905288 0.536495566
0.619481385 0.750664234 0.543453395
0.679696441 0.748007536 0.558001280
0.752814531 0.760025561 0.582542837
0.820493519 0.779126823 0.621631682
0.639848471 0.851359785 0.656672776
0.651866019 0.860974193 0.659582376
0.664768994 0.863124788 0.669196844
0.694117665 0.864389658 0.670841277
0.729537964 0.867172599 0.681467652
0.775964677 0.871473551 0.702972651
0.826438665 0.878431320 0.717393935
0.881593704 0.887918949 0.745730460
0.066666998 0.066666998 0.099556997
0.100316092 0.070967548 0.099556997
0.182163551 0.096394904 0.117899738
0.260467798 0.134345546 0.153573900
0.348640203 0.178621188 0.186084747
0.448830158 0.223023355 0.225300536
0.570145309 0.265148550 0.264896005
0.704238057 0.312839806 0.315117091
0.092093542 0.127767086 0.116761088
0.135989547 0.129664540 0.132068545
0.187223181 0.146489188 0.138266638
0.264010072 0.177482545 0.165338203
0.350917101 0.210373357 0.198734552
0.449589163 0.246805787 0.232637480
0.560404956 0.281214595 0.269070536
0.694623590 0.332447797 0.320936263
0.145730197 0.226059541 0.177482635
0.170398548 0.233143538 0.181024984
0.230739728 0.240101531 0.187982097
0.299683630 0.258949816 0.215939447
0.389753550 0.281214297 0.235800192
0.481847167 0.311069012 0.264010102
0.592915654 0.346995562 0.300063312
0.717900097 0.396205068 0.353067309
0.203162640 0.337001801 0.236432463
0.226312280 0.341808945 0.237697646
0.272865534 0.353573829 0.251739621
0.342947364 0.364452928 0.266287178
0.418848544 0.384186924 0.279949635
0.511701524 0.400632530 0.305502892
0.614294827 0.429095566 0.338519931
0.734218895 0.469449818 0.387982070
0.270588636 0.463377833 0.301960737
0.296268195 0.469323397 0.310815543
0.337634295 0.475521982 0.323212832
0.400379270 0.489310563 0.335736841
0.475522161 0.503099382 0.353067607
0.558127820 0.514357865 0.371663511
0.656166911 0.535104394 0.401771098
0.765085161 0.571030855 0.455281615
0.373054981 0.614041746 0.404427469
0.393168986 0.616698503 0.408855081
0.426945090 0.622011304 0.412017375
0.479443491 0.626818359 0.426059484
0.544465244 0.632258177 0.446426272
0.617330611 0.640860260 0.457432270
0.703984916 0.655787468 0.492220104
0.796584427 0.685515463 0.544212401
0.476154268 0.723213255 0.504996836
0.491334528 0.733080089 0.509930551
0.520809352 0.734977841 0.512966394
0.560784280 0.735610306 0.525869548
0.613409400 0.743073821 0.540544093
0.671347260 0.749398828 0.555471182
0.737634122 0.760025561 0.587855995
0.816951215 0.777608991 0.615939498
0.641239882 0.853004515 0.653257132
0.651739359 0.860974193 0.661606550
0.662492216 0.862745285 0.662365615
0.689184010 0.861986041 0.671726704
0.728020191 0.862365603 0.682099819
0.772042871 0.868310988 0.694496870
0.819481313 0.872991621 0.716128886
0.875648439 0.883491814 0.735863447
0.058823999 0.072105996 0.148893103
0.099936642 0.072485641 0.145730093
0.174699187 0.100316100 0.166097090
0.264895886 0.140670642 0.200632185
0.352561295 0.183301896 0.229601383
0.452245742 0.229980826 0.262871653
0.572549284 0.274130285 0.302340209
0.707653463 0.327514082 0.350916982
0.096774451 0.124984451 0.159392655
0.139152542 0.139911547 0.172801659
0.192789197 0.153194547 0.189247549
0.270714641 0.184946090 0.213535652
0.355597496 0.219101727 0.239468545
0.455914170 0.254269749 0.267172903
0.561543286 0.294244230 0.303858370
0.702719629 0.339658260 0.347501546
0.148893103 0.225679994 0.217078090
0.183048546 0.227198079 0.222517177
0.235927001 0.246805996 0.234282076
0.302466989 0.267173022 0.246426553
0.387856096 0.289943010 0.274257004
0.484883070 0.316128731 0.298924744
0.592156649 0.351802379 0.335357308
0.719417751 0.398228824 0.383681178
0.211891636 0.340670377 0.273750633
0.232257724 0.344592273 0.274130195
0.277293086 0.352814734 0.287033617
0.343074292 0.362555355 0.299178004
0.418975264 0.382163197 0.313219368
0.510563254 0.402530193 0.339911371
0.617204249 0.433017194 0.371536732
0.731815279 0.473371208 0.411132365
0.280581981 0.463883460 0.336243093
0.290575385 0.468943834 0.344338953
0.332953870 0.474004000 0.344718277
0.394813180 0.487033546 0.358128011
0.473245054 0.499937177 0.371284068
0.554206014 0.508791804 0.394433826
0.655787468 0.535863340 0.425300270
0.759266257 0.576597273 0.479443282
0.378368109 0.609360754 0.424035192
0.390006274 0.610373259 0.425300390
0.424794108 0.620872736 0.442631483
0.478684485 0.622897208 0.448830098
0.546110153 0.628083706 0.466539919
0.617836773 0.639721811 0.481720477
0.696774125 0.653004766 0.511068761
0.798355579 0.684629977 0.558380604
0.478052109 0.720683277 0.517014265
0.491840392 0.727134347 0.525110841
0.513725281 0.733459771 0.531941354
0.555597603 0.732194960 0.541935444
0.609487593 0.740417361 0.556862652
0.671726882 0.745098114 0.567741573
0.741935372 0.758507371 0.594687164
0.821379066 0.776597023 0.633143365
0.632763982 0.851866066 0.661479890
0.638836205 0.854016602 0.661733329
0.658950031 0.852751434 0.668563962
0.682985306 0.859961867 0.677545786
0.721821725 0.863250792 0.687665999
0.767868340 0.864642680 0.697659492
0.817457318 0.874383390 0.719671190
0.875774741 0.883238554 0.748386562
0.064516351 0.075648353 0.216318995
0.111321993 0.084250644 0.217457548
0.175964549 0.112460546 0.227071270
0.255028635 0.148513645 0.255534291
0.354838580 0.191524640 0.285641819
0.457558453 0.233902633 0.311068892
0.574572921 0.274636358 0.348007292
0.711068571 0.328652829 0.394686967
0.109297641 0.141429543 0.234282196
0.137634441 0.146995455 0.233902633
0.187602639 0.164958641 0.251992553
0.268691003 0.189626887 0.266413987
0.359646201 0.222517177 0.291081637
0.455914080 0.257431746 0.316128731
0.571790278 0.297786176 0.352435201
0.702213764 0.344971627 0.396457791
0.159139901 0.235167906 0.269070536
0.179000646 0.235800102 0.279316723
0.227577642 0.261859894 0.280708730
0.304364532 0.271980107 0.303226113
0.388235539 0.293864906 0.326375753
0.480329096 0.322833359 0.345856845
0.600126266 0.360404879 0.379506737
0.725490212 0.403542280 0.428842813
0.218595996 0.346995264 0.325110286
0.230613619 0.347374827 0.330170631
0.280455261 0.358760267 0.335990101
0.346995264 0.368880272 0.343074292
0.421252400 0.386970282 0.358633369
0.515243411 0.406578153 0.385831714
0.622896910 0.433902264 0.416571587
0.736622095 0.478178412 0.459709078
0.280075729 0.472106636 0.382036537
0.298039436 0.472485989 0.382289380
0.342441261 0.477925390 0.395445734
0.399240792 0.487033576 0.403162539
0.474636197 0.498798549 0.415686548
0.561416745 0.517141163 0.441240072
0.653384030 0.540290833 0.465781182
0.760784447 0.580518663 0.512840152
0.381657004 0.609360754 0.470968008
0.394813359 0.612903178 0.471853167
0.433270186 0.618342996 0.477166474
0.474763006 0.619861126 0.485388815
0.545351207 0.629222214 0.497533172
0.615053475 0.639468610 0.510436594
0.697785974 0.655408025 0.539278805
0.791650712 0.686653733 0.583807766
0.479317278 0.721821249 0.553193986
0.497533143 0.729411662 0.553952992
0.519038677 0.731056333 0.559645772
0.562175930 0.735357225 0.565591574
0.612650275 0.739278913 0.579253912
0.674004018 0.748766661 0.594813228
0.747248292 0.756103516 0.623402834
0.821884632 0.778494716 0.649589062
0.625553429 0.851233661 0.674509823
0.639848173 0.855534494 0.675268590
0.654522359 0.858570516 0.688930988
0.682732821 0.859202802 0.692852795
0.718785524 0.860847533 0.701581001
0.767741561 0.865528047 0.714863896
0.817584038 0.873245060 0.734345376
0.878304780 0.882985473 0.757622004
0.079949193 0.094117999 0.289943188
0.114737540 0.102593191 0.287033528
0.187350005 0.128525987 0.304744005
0.258949637 0.159392640 0.321188986
0.353320390 0.198229000 0.347881168
0.461732894 0.234534919 0.380012274
0.577988267 0.279823095 0.416192263
0.714231610 0.329791158 0.455281287
0.114484191 0.151929200 0.300696194
0.148134097 0.160278544 0.300316542
0.198608458 0.172422186 0.318912089
0.276280671 0.199873298 0.330676973
0.362049401 0.229980841 0.349778503
0.456925809 0.260974199 0.381530464
0.574446499 0.298165739 0.412776679
0.702466607 0.346616000 0.456293553
0.171537086 0.239848197 0.328146487
0.189626992 0.250727296 0.345477194
0.241492897 0.256167203 0.344592154
0.305629283 0.274256885 0.361543536
0.387097001 0.297786176 0.383175164
0.485262722 0.322453946 0.404933453
0.597596288 0.358886898 0.439468503
0.727260947 0.403794914 0.482099980
0.220240191 0.346615821 0.385831624
0.239342541 0.351296723 0.392915696
0.284756511 0.359898716 0.398735285
0.350537747 0.370398492 0.410499364
0.420872837 0.387349635 0.418216258
0.516129255 0.410878897 0.438203603
0.620746315 0.439342260 0.467931628
0.738646328 0.476027638 0.511068821
0.282100171 0.464642584 0.438709378
0.297912896 0.474509746 0.439468563
0.339279085 0.480329186 0.451360166
0.401138365 0.490575373 0.458444178
0.476407170 0.503858149 0.472486198
0.562555313 0.521821380 0.486527383
0.658064365 0.540038168 0.516382098
0.762808144 0.576976538 0.555724204
0.380518526 0.610246718 0.517646730
0.402656466 0.614041865 0.517646730
0.431752086 0.615433216 0.523718953
0.484250277 0.624920726 0.535990238
0.541049719 0.628842771 0.544971704
0.619861007 0.639089048 0.552434981
0.703984976 0.658570468 0.586463988
0.797090411 0.686653733 0.618469298
0.480329156 0.723213136 0.583048463
0.494117558 0.730297089 0.598102570
0.520177007 0.731941521 0.597090602
0.556230187 0.734977722 0.603668690
0.617457271 0.742062271 0.617330551
0.672611952 0.747880995 0.628336608
0.741935492 0.758507371 0.644655466
0.826185822 0.779885828 0.680202305
0.616571784 0.852498412 0.697659552
0.630866766 0.856420100 0.697533071
0.645414352 0.856799603 0.712207496
0.678051770 0.858823359 0.715243399
0.717267573 0.863250971 0.719670773
0.763820529 0.865527987 0.733206749
0.818595648 0.874383509 0.749904752
0.881467223 0.884123802 0.773560643
0.092220262 0.113598995 0.373940706
0.127387539 0.124098733 0.378368169
0.198608458 0.144465730 0.388361573
0.271853268 0.168880537 0.401897460
0.361037374 0.204933733 0.422137976
0.452118725 0.242757991 0.442504466
0.571789980 0.277672738 0.477292746
0.707653463 0.327007800 0.523845434
0.121062733 0.165464818 0.373055011
0.155218109 0.170778006 0.379886270
0.204047933 0.185325727 0.396710902
0.280328989 0.203288928 0.405186743
0.359392673 0.233143643 0.425300270
0.460468233 0.267678559 0.448830187
0.574067175 0.296521455 0.477799177
0.700189292 0.343833268 0.519670904
0.163947001 0.248703450 0.415812552
0.195319280 0.252498537 0.428209841
0.238330096 0.264769167 0.424288720
0.309424162 0.280202359 0.435041040
0.389626861 0.297659993 0.449462265
0.485641986 0.329159111 0.475015789
0.597469568 0.358001083 0.498798251
0.727007985 0.404553980 0.547121823
0.215433374 0.353826374 0.453004628
0.237824440 0.356736004 0.458064467
0.282858998 0.361796379 0.463883817
0.346110195 0.370398283 0.470588386
0.427956790 0.385704905 0.487033576
0.518785655 0.411258459 0.502846360
0.618722439 0.435800016 0.526755035
0.736875415 0.478684217 0.570145488
0.281467646 0.468311191 0.512080729
0.301075637 0.471220940 0.511448443
0.340797096 0.482226640 0.513345838
0.403036028 0.483744621 0.523592710
0.480961382 0.497406453 0.534597933
0.560784221 0.517014384 0.549905360
0.655028284 0.538519919 0.570272207
0.759266257 0.572675228 0.603668451
0.381909728 0.603415489 0.564073503
0.390638739 0.607969522 0.569006979
0.428209722 0.613788784 0.580265701
0.477925390 0.622138023 0.582163274
0.537760913 0.622390866 0.594939947
0.609234750 0.632637739 0.605312705
0.701960742 0.649462283 0.621884763
0.794813275 0.678051770 0.655281723
0.481846988 0.718532264 0.632131457
0.494623721 0.719797254 0.629601538
0.516002297 0.730297267 0.636053383
0.548893273 0.734471798 0.649335563
0.605566263 0.738393307 0.661227167
0.669829249 0.746236742 0.666287303
0.744592011 0.757116079 0.677672565
0.830107689 0.780645072 0.716381967
0.609487772 0.846679389 0.733080506
0.626312733 0.849083066 0.731182694
0.643010676 0.850094616 0.735483706
0.665781379 0.854522705 0.738393247
0.699936688 0.858443916 0.741555870
0.756989300 0.865022063 0.753067791
0.816825092 0.873624623 0.772801876
0.878557861 0.884123802 0.796078324
0.101961002 0.137887001 0.498545557
0.141808793 0.142188549 0.495762289
0.209108204 0.156736284 0.504364252
0.289310634 0.182668999 0.513599277
0.385325551 0.213156283 0.533965886
0.480835170 0.243010998 0.546742260
0.590385795 0.283618003 0.570145249
0.711827934 0.331309259 0.601771057
0.124857731 0.175205544 0.494497478
0.155218109 0.182416543 0.499303818
0.213156104 0.195572540 0.505502999
0.298671722 0.216065735 0.515622795
0.385578930 0.237571284 0.530550182
0.488298714 0.269196749 0.546995759
0.592410028 0.303985000 0.571031272
0.706894338 0.345857084 0.592536032
0.149778709 0.257052183 0.516002536
0.184946284 0.261859804 0.525996149
0.241240099 0.271094263 0.533333480
0.317267388 0.282732397 0.541935563
0.412144184 0.304870069 0.556230247
0.508918345 0.329917997 0.572928548
0.616192520 0.360278368 0.592156649
0.722960055 0.404933453 0.613156557
0.193295360 0.354838282 0.554964900
0.217963383 0.358760267 0.553826869
0.272612274 0.361923069 0.562555075
0.347501665 0.376091003 0.569006920
0.435040921 0.393674612 0.582669258
0.527767420 0.411637992 0.589753270
0.631246269 0.439468563 0.607210636
0.737760723 0.474130005 0.636938453
0.268058091 0.477799088 0.591271281
0.286780298 0.479443192 0.600885451
0.327514112 0.481720299 0.600759149
0.389120817 0.487033635 0.607084215
0.470841080 0.496015191 0.614168465
0.567615569 0.516255260 0.623529255
0.662618756 0.536622226 0.639342189
0.762808323 0.569260001 0.666287184
0.371410489 0.611891508 0.647817850
0.382416248 0.616571665 0.650348186
0.417710096 0.616318762 0.652118862
0.462871343 0.618595898 0.654143274
0.529158652 0.626312494 0.662491798
0.609361172 0.630739987 0.670335293
0.701960742 0.652371764 0.687918961
0.793928027 0.672865450 0.706135035
0.473118544 0.721441984 0.696268320
0.487792283 0.724857569 0.692346215
0.511322081 0.727134347 0.697153449
0.548766613 0.732574582 0.697912574
0.602277100 0.739658475 0.707273722
0.670208693 0.747880995 0.718658805
0.741049528 0.760657549 0.733206570
0.830992818 0.772928417 0.758254588
0.620746613 0.842631221 0.764958739
0.622137904 0.848323882 0.774952233
0.632510960 0.847691476 0.772422433
0.667172432 0.851359785 0.776976466
0.702466547 0.859202862 0.785705447
0.754332840 0.867299259 0.797849119
0.812650323 0.873245120 0.809108257
0.880708277 0.890701950 0.828715920
0.095256023 0.153067827 0.651486576
0.145097718 0.159898713 0.647944152
0.223023355 0.173560917 0.655534446
0.317646831 0.191650644 0.669829428
0.420113802 0.218975350 0.675268948
0.531688690 0.254142702 0.686906755
0.644149065 0.298039168 0.701707661
0.752181709 0.348007798 0.715496778
0.102720000 0.189247251 0.650095046
0.155850992 0.195445538 0.655028164
0.226691633 0.206578448 0.653130889
0.321441919 0.226565287 0.664136291
0.417077750 0.247564912 0.670335412
0.527893722 0.280834913 0.688931048
0.637318432 0.316129029 0.695382595
0.751043320 0.367995262 0.715496778
0.122074455 0.264769167 0.668184817
0.165591106 0.271094382 0.670208573
0.241366193 0.278051853 0.675648451
0.335231066 0.289816648 0.677545905
0.433649570 0.311954200 0.685641766
0.545477748 0.340923280 0.698292017
0.647564828 0.374446571 0.708285749
0.760151803 0.421505183 0.729917586
0.136242673 0.356230259 0.682732403
0.178368077 0.364073634 0.686653912
0.253636658 0.370145440 0.694497108
0.351296425 0.383807480 0.695129335
0.452118903 0.397722840 0.700948417
0.551423311 0.420746386 0.708159447
0.659202933 0.449588984 0.721694946
0.768374562 0.486274451 0.737001598
0.215812728 0.481846988 0.709171236
0.244022742 0.483111858 0.716635108
0.289816469 0.481467456 0.711195529
0.368880451 0.485009372 0.714358151
0.474130183 0.497153819 0.721947789
0.576217413 0.520177066 0.736369252
0.680835068 0.544085681 0.742820978
0.781530797 0.576596975 0.750790954
0.355471075 0.624794722 0.745477796
0.369512737 0.626185715 0.751170278
0.396963835 0.625553668 0.745983541
0.446426392 0.621125758 0.751929104
0.516508281 0.621378779 0.753573477
0.609867275 0.630739987 0.762302399
0.715117157 0.649462283 0.774193048
0.808475494 0.676027536 0.784946501
0.480328828 0.748766243 0.779379964
0.491208166 0.748640120 0.780897915
0.513346016 0.747375250 0.781403840
0.552561939 0.749778509 0.791144848
0.599241018 0.752055287 0.786211073
0.667679071 0.754459262 0.794560134
0.743579865 0.760025561 0.807336867
0.836685359 0.782669246 0.823782325
0.613662601 0.857937932 0.834534764
0.628589630 0.857052326 0.830233872
0.640100956 0.860594809 0.833649516
0.662871778 0.860594749 0.834282100
0.704616964 0.868437767 0.840733409
0.756862760 0.871600389 0.850727499
0.814295053 0.877166212 0.856672764
0.888045788 0.888045788 0.880202413
