Assets/Shaders/EldamarStudio/100 Sci-Fi LUTs Pack/LUTs/cube/Toby LUT.cube
LUT_3D_SIZE 5
DOMAIN_MIN 0.000000 0.000000 0.000000
DOMAIN_MAX 0.903226 0.903226 0.903226
0.074510001 0.074510001 0.074510001
0.161796287 0.082353003 0.091840707
0.306008965 0.132067993 0.144465417
0.489437133 0.219734251 0.214800864
0.716887772 0.313978642 0.302213967
0.124857992 0.201391399 0.132067993
0.205312982 0.217077985 0.147121996
0.337128073 0.252751291 0.192915991
0.513725579 0.303099126 0.251106828
0.736748755 0.382289499 0.341429561
0.251106977 0.417836398 0.254269421
0.301454395 0.428969204 0.281214803
0.425047785 0.449209362 0.303351969
0.579000533 0.473118097 0.337128550
0.767109215 0.531055927 0.421885222
0.402150244 0.646426141 0.412018001
0.440480709 0.663630843 0.432004958
0.537254930 0.665654838 0.457811236
0.656167150 0.682605982 0.485642135
0.813155949 0.717014253 0.559518933
0.639848471 0.851359785 0.656672776
0.662491918 0.861859620 0.667172611
0.708918571 0.865654767 0.676913202
0.789626777 0.872232616 0.708285809
0.881593704 0.887918949 0.745730460
0.058823999 0.072865292 0.131435990
0.157242283 0.091208287 0.147121996
0.307020664 0.162808418 0.203035697
0.490449429 0.240607411 0.272991717
0.710942626 0.325742960 0.347627938
0.135989979 0.203668684 0.193548396
0.210879117 0.218722701 0.206957683
0.338772804 0.258317381 0.242631391
0.504111409 0.310562998 0.292599708
0.719417751 0.384566814 0.365970522
0.246805698 0.408601969 0.301075280
0.298165381 0.416192085 0.311574697
0.417836815 0.440733373 0.337380975
0.569512844 0.468817264 0.369386554
0.757241786 0.532320976 0.446046799
0.398861259 0.638203859 0.434914708
0.439215988 0.647691131 0.456799537
0.526122987 0.655154824 0.466919661
0.649968266 0.670841277 0.510056973
0.806198776 0.710436106 0.572295785
0.637064755 0.852624953 0.656926095
0.655407786 0.859835804 0.667299032
0.706261754 0.861100376 0.681467652
0.784313679 0.869955719 0.704996645
0.871979535 0.886021614 0.744338572
0.075142421 0.085009828 0.257052392
0.162175983 0.110183284 0.262871385
0.304111362 0.176596984 0.296268404
0.479063690 0.243263990 0.348260701
0.704364181 0.327007800 0.422517627
0.152688116 0.214801118 0.290955395
0.211511686 0.226565704 0.301454395
0.336748809 0.261859268 0.332827002
0.503225684 0.309930414 0.373307973
0.716761649 0.385199249 0.440480500
0.241871998 0.406704813 0.379253834
0.295888692 0.414547831 0.394939840
0.409993410 0.437444389 0.406072408
0.562049150 0.470841408 0.444022804
0.757368565 0.531688511 0.514104784
0.388235122 0.629348516 0.504870236
0.433902711 0.643769979 0.515622735
0.523845792 0.647691548 0.531688809
0.645414293 0.662744999 0.550664246
0.803036213 0.709550977 0.615812540
0.621378779 0.842757344 0.674257159
0.647058904 0.852625191 0.691587627
0.691840768 0.856546760 0.706261814
0.779127121 0.865401506 0.721695065
0.880961180 0.888045788 0.762555659
0.093232125 0.121694997 0.401265115
0.185705408 0.143453285 0.415686518
0.320177257 0.187349707 0.436306238
0.489563376 0.256926000 0.472865254
0.708918631 0.329285115 0.542820811
0.158886999 0.230487123 0.433522850
0.218089700 0.244528979 0.438203841
0.347248793 0.272991836 0.465022236
0.511448264 0.318785280 0.501581252
0.722959995 0.391144663 0.560531080
0.249082983 0.413535535 0.503605425
0.296521097 0.424035519 0.517646670
0.411638081 0.440733820 0.528779566
0.571916580 0.471473813 0.552688181
0.752435088 0.525490105 0.608475626
0.401138127 0.630740106 0.595446110
0.439089537 0.641113579 0.606830835
0.522454381 0.651233256 0.619608164
0.642631412 0.666034102 0.635673285
0.805945635 0.703858316 0.679316819
0.611005723 0.848956645 0.739658415
0.638203621 0.852371931 0.747121930
0.682732642 0.858190894 0.751676023
0.771663785 0.864515781 0.767741740
0.879569590 0.887412906 0.803415656
0.095256023 0.153067827 0.651486576
0.202023983 0.170018986 0.656799555
0.364326209 0.209234834 0.673118174
0.557242036 0.265528142 0.691714108
0.752181709 0.348007798 0.715496778
0.119544424 0.246552974 0.668184698
0.217077985 0.251739562 0.671094179
0.375711650 0.283744395 0.675648630
0.567741990 0.330803424 0.696267903
0.758380711 0.404806972 0.727640629
0.164453045 0.419101566 0.697786212
0.248576745 0.422770530 0.706388175
0.408728540 0.438076943 0.710942268
0.594560266 0.480329096 0.727893353
0.778874218 0.534977734 0.748133719
0.386084586 0.656925976 0.748513639
0.415686280 0.655914128 0.755850434
0.503225684 0.654269516 0.759013355
0.642757833 0.663377583 0.768121302
0.817836761 0.703605235 0.795319617
0.613662601 0.857937932 0.834534764
0.636052907 0.858317494 0.835926533
0.682732642 0.864515841 0.840354204
0.773054779 0.872359455 0.850474417
0.888045788 0.888045788 0.880202413
