Assets/Shaders/EldamarStudio/100 Sci-Fi LUTs Pack/LUTs/cube/Toby LUT.cube
DOMAIN_MIN 0 0 0
DOMAIN_MAX 1 1 1
LUT_3D_SIZE 32
0.074510001 0.074510001 0.074510001
0.071473613 0.071473613 0.071473613
0.079190545 0.070588000 0.072738774
0.091334999 0.069323160 0.073244840
0.103858545 0.067425996 0.071726546
0.119038932 0.073497996 0.080834940
0.144339323 0.079570003 0.087412998
0.161796287 0.082353003 0.091840707
0.173181191 0.083112098 0.096394897
0.191397980 0.086148486 0.105502516
0.215433002 0.095003128 0.108791865
0.239721507 0.106134996 0.115876250
0.264010280 0.117140643 0.127261356
0.287793010 0.125995994 0.141429037
0.306008965 0.132067993 0.144465417
0.331435770 0.142947599 0.149904996
0.357242376 0.155092001 0.157495201
0.382163554 0.167868569 0.167235985
0.409488022 0.183048978 0.179380015
0.439595014 0.195446014 0.194307372
0.466160476 0.207589984 0.205692738
0.489437133 0.219734251 0.214800864
0.511448503 0.231878981 0.224161491
0.550916910 0.244023010 0.239341915
0.581277251 0.256166995 0.247690991
0.611384988 0.269702643 0.257937640
0.644782066 0.284377009 0.272612125
0.678178430 0.296520978 0.284756899
0.716887772 0.313978642 0.302213967
0.754585326 0.335736930 0.323971927
0.790132582 0.357368588 0.345603585
0.823529005 0.372548997 0.360783994
0.077545613 0.074510001 0.062366001
0.077545613 0.071473613 0.074510001
0.074509770 0.070588000 0.067172609
0.088551775 0.071853161 0.070461616
0.109550998 0.073118448 0.076660000
0.122074544 0.076533608 0.077798553
0.139785245 0.082606256 0.086906932
0.159013286 0.090322673 0.093484998
0.173940092 0.095256098 0.096394710
0.194433600 0.098292492 0.096394911
0.221379220 0.107147127 0.111321509
0.243770018 0.116255254 0.116888121
0.263630748 0.127387375 0.124984354
0.282226264 0.138140053 0.135609999
0.306008965 0.144212767 0.141429022
0.326628774 0.152687967 0.146869212
0.352688193 0.164199993 0.159013376
0.379127145 0.175711796 0.172675565
0.406451613 0.186084598 0.182416409
0.433775961 0.201264992 0.197343767
0.461985707 0.213661984 0.208728641
0.488424718 0.224794120 0.217836738
0.514357626 0.235041112 0.226944894
0.550916910 0.250095010 0.236306295
0.583554566 0.259962291 0.249209389
0.615812719 0.274130374 0.262365371
0.650854051 0.290448993 0.278684109
0.684250414 0.302592993 0.290828884
0.717646778 0.317393810 0.305629134
0.752814591 0.335231006 0.323466003
0.790638924 0.355218381 0.344338983
0.832637370 0.372548997 0.363820404
0.074129999 0.083112001 0.063124999
0.080581777 0.082226388 0.073118232
0.089183770 0.083491549 0.076660223
0.092472993 0.084756389 0.076407321
0.114231318 0.088171996 0.087412998
0.129917771 0.092978835 0.089183778
0.147121876 0.094243869 0.092473097
0.163693935 0.098671928 0.096647777
0.178873867 0.106767870 0.103225775
0.197343275 0.112587266 0.107147485
0.222264603 0.119291671 0.115116894
0.243516997 0.126375541 0.122201025
0.264642864 0.135357410 0.129285350
0.282605767 0.145983547 0.138646051
0.306894034 0.152055830 0.148513541
0.333080560 0.164832741 0.158886597
0.352814764 0.172422543 0.163441181
0.377609134 0.183934554 0.176597178
0.403415740 0.196078584 0.185705200
0.432890356 0.206451371 0.196078598
0.458317459 0.217836738 0.205566227
0.485388905 0.230739892 0.215432987
0.512966216 0.242125273 0.225806236
0.547374845 0.253257692 0.236938909
0.579253554 0.266034275 0.250474751
0.611005664 0.276533961 0.262618750
0.646173298 0.293231994 0.278810829
0.679569602 0.308664978 0.292599887
0.717267513 0.323465794 0.300948888
0.757747829 0.342188150 0.328526109
0.790006459 0.359013438 0.346363157
0.826691985 0.374699771 0.362555236
0.078178324 0.100316316 0.074256994
0.082226388 0.099051155 0.078304939
0.092220165 0.103731930 0.084756166
0.105629317 0.104237996 0.083491325
0.117773317 0.108032703 0.095256448
0.134218872 0.114990324 0.100063063
0.156230167 0.116002321 0.103099324
0.170271873 0.117646702 0.107020997
0.186970264 0.120683089 0.107020997
0.203162655 0.128779486 0.117141008
0.223276734 0.134977996 0.123466000
0.244782150 0.141049981 0.131309092
0.264136821 0.148260638 0.135484114
0.285389155 0.156863034 0.143959284
0.308664978 0.161923155 0.153067663
0.334092230 0.173940793 0.166476995
0.359393150 0.184566990 0.174067184
0.378874123 0.191903979 0.178368405
0.403162807 0.206451818 0.187476039
0.433017164 0.217330962 0.197849527
0.459582299 0.226438731 0.205060169
0.485895127 0.235547125 0.212144032
0.513598979 0.250094980 0.224288002
0.545857072 0.260341734 0.238709807
0.576976359 0.271727145 0.253131270
0.604933679 0.283871114 0.265654802
0.638836145 0.296521217 0.277292907
0.672991574 0.313978314 0.290955245
0.709171295 0.328272969 0.301961005
0.749651909 0.346995324 0.321948171
0.790764987 0.365591139 0.351296812
0.815812826 0.377735853 0.360783994
0.094876997 0.124225549 0.091334544
0.092220157 0.121568710 0.088678382
0.098165773 0.126755312 0.095003314
0.109045155 0.130803376 0.098671608
0.124604993 0.128905550 0.095635995
0.136748999 0.138013929 0.104743607
0.160404861 0.140290990 0.109550864
0.178621143 0.141935378 0.113851994
0.189627096 0.145350635 0.119544543
0.210879505 0.148387030 0.119544551
0.227830872 0.153573543 0.125743091
0.245920703 0.159266099 0.134345084
0.267173082 0.166476652 0.144212291
0.288678497 0.175332054 0.150791004
0.310056657 0.178494960 0.154206127
0.333333135 0.188361987 0.165338337
0.357621819 0.197469994 0.175585181
0.382289976 0.204048082 0.179506958
0.406578034 0.216192111 0.188614592
0.435294181 0.228336707 0.200126722
0.462998062 0.238203809 0.208855450
0.488171697 0.247311682 0.215559959
0.518405974 0.256546527 0.224794075
0.548513830 0.268690556 0.242504805
0.579253554 0.280835032 0.259203285
0.607210279 0.292979419 0.270841300
0.633523107 0.305629522 0.280708075
0.669955850 0.320809871 0.289816439
0.704111338 0.333712995 0.304617345
0.740670085 0.350411177 0.325363606
0.777102709 0.369386524 0.349398971
0.807463586 0.381530523 0.361543000
0.100949004 0.145477936 0.100442939
0.100949004 0.145477936 0.100442939
0.109044939 0.149272874 0.110689774
0.119418159 0.152055770 0.116002545
0.130677000 0.150157943 0.110815614
0.148892999 0.156229928 0.107779995
0.166097641 0.162807986 0.116888255
0.184187219 0.166223705 0.121695220
0.197596267 0.170018852 0.126755089
0.210879505 0.175711423 0.134724930
0.237950876 0.175837934 0.143453807
0.253131002 0.178874195 0.145983875
0.270208716 0.184693217 0.150284871
0.291714132 0.193548054 0.156863004
0.316002876 0.199620828 0.169006988
0.337381661 0.207590118 0.172422737
0.360657901 0.215685979 0.182036936
0.385578603 0.221758142 0.191397995
0.412650049 0.228336886 0.197722971
0.434155375 0.240480885 0.206831291
0.464516282 0.248829991 0.216445252
0.492346734 0.256420076 0.224035323
0.515369534 0.265654922 0.230866849
0.542694747 0.277798951 0.243010879
0.575079322 0.289942920 0.262998283
0.605186582 0.302087039 0.274889320
0.633523107 0.314737141 0.280961066
0.669955850 0.329917490 0.295888424
0.706388593 0.345097899 0.312966645
0.742314816 0.359772176 0.328905642
0.776596785 0.375964582 0.347880661
0.804427922 0.390638918 0.367615014
0.114611320 0.174319997 0.117140993
0.117140993 0.176850319 0.119671315
0.123592772 0.176850319 0.117520541
0.134092480 0.179633319 0.125363842
0.143959776 0.178621098 0.124225087
0.160024986 0.182542324 0.125489935
0.178241640 0.188614964 0.127514318
0.194813699 0.193042248 0.131688997
0.211511746 0.196837321 0.136116311
0.228969306 0.202909306 0.146995485
0.248070866 0.203162313 0.148513556
0.267299265 0.205186576 0.155597687
0.282226324 0.210499957 0.161163971
0.302087039 0.219607919 0.170272276
0.324098468 0.227956831 0.180138990
0.350790471 0.236432806 0.189879805
0.375332236 0.244022638 0.197722986
0.399367601 0.250094622 0.208601981
0.420999318 0.256166935 0.214674011
0.450348020 0.262744993 0.220999673
0.475395352 0.272991717 0.230107576
0.503479123 0.280708462 0.239215448
0.525237083 0.289816797 0.246932507
0.557368696 0.299557000 0.256673336
0.589247286 0.309424281 0.268817306
0.622644007 0.322706968 0.286527663
0.653763652 0.335989624 0.296141714
0.690195858 0.349145740 0.311322063
0.724098921 0.364326119 0.326628327
0.760531247 0.379506499 0.343073845
0.796078086 0.397343516 0.361795872
0.826692343 0.417457640 0.386337310
0.124857992 0.201391399 0.132067993
0.132827312 0.202783093 0.135104388
0.140164465 0.205312982 0.138772920
0.144212529 0.204048142 0.135736853
0.153700382 0.204807252 0.138014153
0.172675475 0.210373178 0.141049758
0.185451925 0.212650344 0.144086018
0.205312982 0.217077985 0.147121996
0.221252486 0.220113799 0.150917083
0.241619498 0.225300416 0.163946703
0.261606693 0.228842407 0.166097403
0.279443264 0.230866238 0.168500707
0.295762300 0.235041261 0.174572706
0.314484417 0.243643656 0.185199335
0.337128073 0.252751291 0.192915991
0.359898478 0.258570492 0.198734805
0.384186894 0.267678887 0.206324995
0.410626411 0.273877382 0.218216136
0.430866718 0.279949397 0.226312429
0.456926018 0.286021411 0.232384712
0.485389024 0.293990731 0.241998956
0.513725579 0.303099126 0.251106828
0.537254989 0.312333971 0.260341704
0.569133639 0.322959810 0.270967901
0.599241018 0.330423683 0.279064000
0.634029031 0.339531690 0.292599648
0.667173028 0.354206055 0.307273984
0.701327980 0.367488682 0.321315706
0.736748755 0.382289499 0.341429561
0.771916628 0.399114162 0.356609583
0.804806948 0.415180176 0.371789783
0.835927010 0.437950999 0.396077991
0.133965999 0.225679994 0.146489099
0.143833086 0.226439089 0.148766398
0.152308673 0.227830410 0.150916994
0.161670029 0.229854345 0.156230167
0.159772202 0.227577642 0.153953552
0.181783870 0.235926926 0.156989262
0.194939882 0.238204092 0.159266412
0.210625902 0.239848375 0.162302375
0.231119186 0.242884189 0.166856185
0.249335974 0.245920584 0.182036579
0.270461857 0.252625167 0.187096968
0.289689988 0.256672919 0.189373940
0.307147175 0.259329289 0.193548203
0.325363964 0.265401989 0.199367166
0.348640084 0.274003685 0.204933733
0.371283799 0.279063821 0.209361196
0.391777277 0.284377068 0.213156089
0.414927036 0.292853028 0.222390637
0.439468861 0.298925102 0.234914944
0.462998033 0.304237992 0.240734100
0.489942849 0.312207431 0.250601083
0.516761363 0.321315318 0.260974139
0.547122061 0.330297172 0.270082504
0.577482700 0.341176212 0.281594098
0.607084334 0.350284576 0.290702105
0.637065172 0.357748479 0.300189644
0.672486007 0.367362171 0.314863980
0.702846050 0.382289499 0.327007979
0.738519669 0.397469908 0.345983535
0.771916270 0.413662136 0.367236197
0.808602214 0.434155285 0.383175492
0.832890987 0.452372104 0.398355097
0.152182013 0.249968022 0.167741492
0.155218408 0.253004402 0.167741492
0.158633724 0.253763527 0.163567007
0.168247864 0.255155146 0.164326176
0.184060991 0.257938445 0.172169551
0.190132990 0.260974050 0.175205946
0.204554334 0.264263362 0.175711975
0.222770691 0.267172813 0.177482784
0.243263975 0.270208597 0.182036594
0.261479974 0.273244977 0.191144988
0.282605886 0.282100350 0.200506374
0.301833987 0.287033737 0.203289509
0.318911612 0.288931012 0.205692992
0.334471583 0.289690018 0.211511955
0.352688342 0.295762002 0.214547560
0.375964463 0.301960498 0.220113516
0.397090405 0.307906032 0.224541202
0.417963445 0.314104676 0.231499046
0.448323518 0.320177466 0.252751470
0.470081896 0.323466152 0.256926358
0.497153491 0.330423772 0.265781462
0.525363743 0.339532107 0.275901467
0.550158441 0.348513961 0.282226503
0.580518484 0.354585975 0.291334897
0.613156378 0.365464956 0.302846491
0.644908428 0.375964642 0.314737439
0.675521672 0.385578960 0.327007979
0.705882370 0.397722960 0.339151978
0.741556048 0.412650287 0.348639816
0.770904362 0.427830637 0.367235899
0.800126314 0.446679533 0.389373988
0.838962972 0.473624498 0.407463491
0.167488873 0.277166605 0.191903740
0.173434392 0.280202270 0.191903740
0.180771768 0.281087875 0.194054514
0.186590731 0.284883022 0.190259293
0.198608547 0.290449321 0.190006003
0.217330873 0.288424939 0.190512076
0.225933194 0.288930863 0.198608458
0.238709867 0.294876695 0.204680696
0.255407989 0.299683750 0.209487736
0.273624003 0.300569355 0.212144345
0.288930863 0.303604990 0.215433002
0.308159500 0.310689658 0.220493391
0.327514380 0.314611107 0.222517639
0.346236706 0.316634893 0.226312876
0.361795962 0.320050746 0.226692319
0.382415920 0.328525931 0.232131734
0.406198382 0.333586067 0.244275734
0.427830577 0.337634325 0.254269451
0.451359898 0.341429800 0.261859834
0.476154596 0.350284517 0.271979511
0.499430716 0.355470866 0.277166605
0.526755154 0.362555265 0.285262853
0.553067625 0.369639874 0.291208357
0.580645025 0.375711888 0.294750035
0.608728290 0.384060562 0.303858399
0.640860200 0.395572305 0.318152964
0.672232926 0.406198800 0.333839059
0.700189829 0.415938973 0.348386854
0.735863566 0.430739790 0.357874691
0.772295892 0.445920169 0.370525032
0.800252616 0.461100578 0.388741583
0.827577293 0.480329007 0.404933870
0.184692994 0.306514978 0.210120246
0.186716989 0.309551120 0.212143987
0.190891773 0.310436517 0.208222508
0.202530146 0.311701357 0.208728895
0.211258799 0.318152964 0.204933524
0.225933194 0.316761315 0.208222508
0.243137315 0.316255242 0.211764306
0.252245694 0.319544256 0.219228417
0.265528262 0.327514172 0.226439148
0.283744246 0.330044508 0.227703989
0.301074862 0.330929875 0.232637376
0.318279505 0.333965510 0.235673517
0.336495996 0.340037972 0.238709599
0.356862754 0.344212264 0.241745770
0.375584811 0.349019408 0.243516997
0.395572066 0.350790471 0.250348240
0.416824430 0.358380646 0.256420255
0.439342141 0.362555504 0.269449651
0.459203243 0.366983235 0.272485703
0.481214732 0.371536911 0.277039915
0.507400692 0.378747255 0.284250259
0.530803382 0.383807391 0.290322721
0.556103766 0.388994515 0.296521217
0.583428144 0.396964252 0.303352326
0.614800572 0.409361452 0.319038540
0.643516600 0.417077750 0.326755226
0.674762964 0.427451164 0.341935307
0.700569153 0.436558813 0.357115686
0.733839571 0.448956311 0.369006813
0.766729891 0.462365448 0.383428395
0.800885201 0.478178233 0.398861617
0.825553238 0.494497001 0.414041728
0.206324920 0.343706280 0.228715986
0.207463279 0.346742660 0.231751904
0.211891055 0.347628266 0.231751919
0.217710435 0.350031763 0.228083432
0.231372729 0.352308333 0.225427285
0.238962919 0.351549268 0.229981273
0.253383994 0.351549268 0.231245965
0.268943697 0.353699923 0.233649403
0.279570073 0.359013021 0.239721984
0.297406644 0.364706248 0.243137151
0.315622628 0.366097629 0.250221282
0.333839148 0.366982996 0.255407900
0.353194267 0.372295916 0.259582639
0.371663302 0.378114879 0.262871295
0.392915666 0.383301258 0.266793042
0.415306419 0.385704935 0.272359431
0.436558813 0.386464030 0.277672648
0.457811177 0.391904235 0.283112049
0.476533949 0.397470295 0.286147684
0.498672009 0.401897550 0.291460991
0.522580743 0.404553920 0.294117659
0.547881126 0.412649900 0.301201791
0.569386482 0.416065782 0.307653248
0.596711159 0.423150182 0.317773521
0.625173926 0.434535265 0.330297261
0.656040311 0.445540994 0.348007649
0.685895026 0.452119052 0.355597705
0.710815609 0.461226821 0.370778054
0.743074119 0.475268632 0.384440243
0.773561180 0.487413228 0.400126398
0.805692494 0.502213836 0.422770560
0.836559296 0.520682931 0.439468265
0.232890993 0.390512019 0.251233011
0.234914616 0.393801451 0.255281419
0.242504805 0.394180983 0.257558793
0.252119124 0.395952016 0.259582967
0.260721505 0.401644498 0.260595024
0.263757139 0.398608118 0.260595024
0.274130017 0.398355097 0.258317739
0.287665695 0.400252759 0.256926060
0.302846074 0.402783096 0.257685035
0.318026483 0.405819476 0.263757020
0.335863024 0.408855170 0.272485852
0.354332507 0.410120010 0.279570013
0.373434663 0.413282633 0.285389036
0.394687057 0.421885014 0.291207999
0.415939420 0.424920619 0.297279984
0.439089000 0.427703857 0.300695777
0.461606175 0.429728031 0.302719980
0.483111560 0.430613607 0.304111481
0.504364073 0.433649987 0.307147115
0.528399706 0.438962996 0.314990401
0.552688003 0.441745996 0.318912029
0.575964153 0.445035011 0.321948171
0.597469509 0.457052529 0.331056505
0.624794662 0.460341930 0.343073994
0.650348008 0.467931747 0.351423025
0.676027656 0.475901037 0.361669689
0.703352034 0.482479125 0.376344085
0.730676413 0.491587490 0.391524434
0.762808442 0.507905960 0.406704843
0.792916119 0.523086429 0.423655957
0.821885169 0.537634552 0.445287585
0.858317971 0.558887005 0.478684008
0.251106977 0.417836398 0.254269421
0.241998583 0.423909187 0.269449800
0.250474542 0.420746267 0.267046422
0.263251245 0.417204142 0.266666830
0.276027650 0.417204410 0.270208687
0.281973898 0.422896892 0.281847388
0.290069491 0.424921125 0.281847388
0.301454395 0.428969204 0.281214803
0.314990073 0.432131708 0.280455709
0.330170453 0.430107474 0.278937429
0.345350862 0.433143854 0.285009414
0.365211636 0.436179519 0.291713983
0.384693265 0.439721406 0.296647638
0.403795421 0.446173012 0.300316364
0.425047785 0.449209362 0.303351969
0.443896383 0.449841797 0.304616988
0.463377386 0.453510374 0.308285564
0.483491123 0.458317399 0.314357728
0.507400453 0.464009941 0.325363874
0.531435430 0.464262962 0.325616837
0.555724084 0.469322979 0.331309408
0.579000533 0.473118097 0.337128550
0.600505948 0.478304893 0.346236885
0.627830327 0.487413287 0.355344504
0.657432139 0.495256126 0.369639248
0.685136080 0.504364073 0.382922024
0.712460458 0.512839913 0.397090465
0.739784837 0.521948218 0.406704843
0.767109215 0.531055927 0.421885222
0.797469914 0.547374785 0.438836336
0.825426936 0.564326406 0.457937986
0.852245152 0.583175004 0.481720418
0.269322991 0.442757577 0.274130583
0.260215223 0.446426570 0.274889380
0.266160607 0.452498764 0.290069759
0.274510145 0.449968398 0.283238798
0.284377068 0.449589044 0.281341046
0.292473078 0.457684785 0.291461051
0.305882484 0.454016298 0.291081995
0.314990520 0.457052678 0.299304277
0.327134699 0.460847795 0.303099185
0.342315078 0.459456116 0.301707506
0.359898657 0.462238848 0.304996789
0.375079036 0.465275228 0.307020783
0.394433767 0.467172593 0.310056806
0.412903219 0.470461607 0.311828017
0.434155583 0.473497987 0.314864159
0.455407977 0.476533771 0.320303619
0.473624378 0.479569763 0.321821421
0.492473155 0.485009372 0.327640355
0.514990807 0.489310563 0.338013947
0.539278805 0.492219806 0.346236795
0.563567281 0.496014774 0.350031793
0.586843908 0.501074910 0.355091661
0.608222783 0.504237771 0.361543208
0.633269906 0.511068881 0.372928709
0.660594285 0.520177245 0.382036299
0.690828502 0.529285252 0.396963626
0.719165027 0.538393557 0.411638111
0.746489406 0.547501385 0.422644228
0.771410584 0.554205954 0.437065005
0.802276909 0.570397973 0.455787331
0.828842580 0.586590528 0.473750561
0.848576784 0.600252807 0.491966993
0.282985181 0.473118365 0.293864787
0.284503400 0.473118395 0.295382589
0.282859176 0.478304982 0.297659576
0.295003176 0.480582148 0.309045136
0.298418999 0.481088191 0.300316632
0.304111272 0.489057451 0.307147264
0.315243512 0.488551378 0.307653308
0.328652710 0.487412661 0.309930444
0.339279085 0.489689976 0.320556283
0.354459465 0.489689976 0.319797397
0.371031165 0.491081297 0.321189046
0.387223423 0.494117439 0.325237185
0.403542161 0.496015191 0.325237185
0.421758205 0.496015191 0.325490147
0.441745371 0.497786403 0.328526199
0.461479962 0.502340376 0.332447976
0.487286180 0.508412361 0.340038210
0.504870355 0.513219357 0.343706369
0.524351835 0.515370131 0.351929158
0.545351207 0.518405795 0.356483340
0.571157515 0.521821380 0.366729975
0.595445991 0.527893364 0.374825984
0.617204309 0.531435728 0.379632682
0.640101016 0.536116362 0.390385777
0.665148437 0.542947471 0.398734897
0.691081107 0.550664186 0.409234524
0.720176935 0.560151994 0.423782378
0.746489406 0.570271730 0.435926884
0.771157682 0.579759538 0.450727493
0.797723114 0.590132535 0.469449550
0.832005203 0.608728349 0.490701973
0.851613224 0.618469179 0.507147372
0.293358564 0.507653534 0.311574548
0.305502564 0.505249739 0.317014128
0.308159322 0.508032560 0.318785131
0.310183555 0.511574686 0.319417745
0.321568578 0.509677529 0.325490505
0.322074562 0.515749514 0.328779221
0.330297291 0.516129136 0.329917550
0.339785010 0.517140985 0.332574129
0.352688044 0.520050108 0.337001652
0.367868453 0.520050108 0.333966047
0.383048832 0.519417703 0.334471971
0.398229241 0.521441817 0.337254971
0.414547950 0.524604559 0.342314959
0.432764053 0.524604559 0.342821032
0.450980127 0.524604559 0.346236289
0.467931598 0.529411554 0.347374797
0.490322560 0.534471750 0.352814734
0.518152535 0.542947531 0.360657960
0.533332944 0.542947531 0.366729975
0.551929116 0.545730352 0.369133562
0.576470733 0.548766315 0.376723528
0.602150559 0.552182138 0.388235122
0.626185596 0.558254182 0.399999619
0.646932065 0.561796486 0.408095866
0.670461535 0.565844595 0.415559560
0.695382535 0.573814154 0.423782319
0.719164610 0.580392063 0.435926974
0.743326843 0.592409551 0.448070973
0.768248022 0.603289247 0.464136779
0.794940114 0.615433514 0.482859164
0.821758628 0.627577543 0.502846539
0.858191431 0.639721572 0.524098992
0.308539033 0.534978032 0.338899016
0.320683002 0.534978032 0.341935396
0.326375782 0.536875248 0.343073994
0.330171049 0.540164232 0.341808826
0.336749017 0.543074012 0.340670198
0.342821002 0.549145997 0.346742988
0.353447020 0.547628343 0.350031674
0.362049073 0.546490014 0.352814734
0.370904148 0.547501862 0.355344981
0.386084527 0.550410986 0.355218500
0.401264876 0.547501922 0.358001143
0.416445285 0.548766732 0.358760059
0.432764053 0.552941024 0.361543030
0.450980097 0.558001041 0.367109120
0.469196856 0.558001041 0.373181880
0.482605964 0.562808037 0.369386345
0.499810219 0.564326227 0.370145440
0.521189034 0.564200044 0.375838429
0.539405048 0.570272028 0.378874034
0.560151458 0.573055387 0.387729406
0.586843550 0.576091230 0.397975981
0.613915086 0.579127192 0.409108132
0.635294020 0.582543015 0.418216437
0.653510809 0.588615000 0.421252042
0.676533937 0.589880049 0.429348320
0.702213645 0.597343683 0.438203692
0.728273034 0.610752940 0.448071063
0.749525428 0.619860530 0.460215062
0.776343822 0.626565695 0.480328828
0.805186391 0.636685967 0.501075208
0.832637548 0.648830056 0.520556688
0.855155051 0.660974026 0.536243021
0.354332745 0.595699072 0.380138725
0.355344743 0.595699072 0.380391777
0.363187730 0.595699072 0.381277382
0.368121386 0.596837461 0.382542551
0.374572933 0.597596526 0.382922113
0.383048743 0.596457720 0.384187281
0.389120728 0.597469747 0.387729704
0.400758743 0.594687104 0.390765369
0.411384821 0.594307661 0.393042386
0.426565200 0.597343266 0.393042386
0.433396250 0.600126624 0.393168867
0.450600892 0.599114716 0.394180745
0.465401739 0.600253105 0.395319402
0.480075747 0.602783024 0.399241090
0.495762199 0.605312765 0.400253206
0.513978362 0.605312765 0.406325370
0.529917777 0.609107971 0.409361273
0.549272716 0.609234750 0.415433735
0.567488730 0.611005783 0.416319132
0.588488102 0.614295125 0.424920738
0.607843220 0.619228780 0.430234134
0.631625831 0.623149931 0.438709885
0.652878225 0.626059353 0.447691739
0.673751175 0.626818359 0.453384161
0.691967368 0.632890403 0.463251084
0.716634989 0.636685729 0.474256724
0.743453443 0.646173716 0.485262394
0.766983151 0.653004646 0.497406363
0.793548524 0.662112236 0.512207210
0.819101632 0.671853423 0.529664576
0.846552551 0.683112144 0.551549554
0.871600032 0.693358421 0.576217771
0.383933991 0.627197981 0.399873465
0.383933991 0.625300705 0.407463461
0.390132725 0.632890761 0.409360737
0.396204740 0.634155571 0.406830728
0.401517749 0.634408534 0.409487545
0.406071931 0.631372511 0.417077720
0.414547741 0.634661436 0.412017554
0.422264427 0.636306167 0.411764950
0.434155464 0.633776367 0.415812850
0.448197216 0.634534955 0.419228464
0.456546485 0.633775830 0.421125740
0.468817234 0.636685729 0.421125740
0.485895097 0.637824357 0.423402727
0.499810040 0.638330460 0.427450985
0.519924104 0.638077080 0.430739999
0.533712745 0.640607238 0.435547471
0.553446949 0.640607238 0.438583463
0.572043121 0.642631471 0.445920736
0.590259492 0.642631471 0.448450714
0.605566084 0.647312105 0.453004390
0.626818478 0.652245760 0.458317488
0.646047115 0.655281603 0.462365746
0.667046547 0.656672716 0.470588505
0.684756935 0.660214722 0.478431731
0.709424734 0.664769232 0.489057750
