Assets/Shaders/EldamarStudio/100 Sci-Fi LUTs Pack/LUTs/cube/Tora LUT.cube
LUT_3D_SIZE 5
DOMAIN_MIN 0.000000 0.000000 0.000000
DOMAIN_MAX 0.903226 0.903226 0.903226
0.043136999 0.070588000 0.043136999
0.220366985 0.070588000 0.064389706
0.436179370 0.069955580 0.099430986
0.742568135 0.029222006 0.150031865
0.996204793 0.022517797 0.227703959
0.125869706 0.250094712 0.154332399
0.216445401 0.253383696 0.129791290
0.411638111 0.295888662 0.114104703
0.721442282 0.320683271 0.158254415
0.989500046 0.316761523 0.233522967
0.347248405 0.568121374 0.376596957
0.488931090 0.591144741 0.461353511
0.571663618 0.545350790 0.292346388
0.726881564 0.523339570 0.217077404
0.978367746 0.556356549 0.270208389
0.756356359 0.770778000 0.720936120
0.814420998 0.782795727 0.761037290
0.861100256 0.781151414 0.771536887
0.898292243 0.745224237 0.573814154
0.993674815 0.672106206 0.421632111
0.967489004 0.845919967 0.912713766
0.984819710 0.850094736 0.933839500
1.000000000 0.843137026 0.955724001
0.997976005 0.845793843 0.914484441
0.997343183 0.828842700 0.823908806
0.003922000 0.197469980 0.289310694
0.200758979 0.070588000 0.262491703
0.404427707 0.108538568 0.262871385
0.705629289 0.149652168 0.353700429
0.982668996 0.216065705 0.439974397
0.000000000 0.335736692 0.276913702
0.127134696 0.283111989 0.273624688
0.411385208 0.266793430 0.286400974
0.706641555 0.294243842 0.356103688
0.991144776 0.261986285 0.384566545
0.074003823 0.509930372 0.359266102
0.303226054 0.532574534 0.391017973
0.499936700 0.522454381 0.378241688
0.694497228 0.523719370 0.337760836
0.965465128 0.538519681 0.397722632
0.660468400 0.768121302 0.674889266
0.739658654 0.767109096 0.716129243
0.852245510 0.771283984 0.794054270
0.868564129 0.735483766 0.616951585
0.985957801 0.681593955 0.492599815
0.966856420 0.845287859 0.913345814
0.977608919 0.850727260 0.924731076
0.997722924 0.846425951 0.944592237
0.998987854 0.844908118 0.932574332
1.000000000 0.831119657 0.845414221
0.000000000 0.443389952 0.663124800
0.000000000 0.292979419 0.640227795
0.421885222 0.061986435 0.541555822
0.654269338 0.055028878 0.525490224
0.929158390 0.008982025 0.557748377
0.000000000 0.563314080 0.663124382
0.001265006 0.472106427 0.648450494
0.392662674 0.244528994 0.567615390
0.649715543 0.226185992 0.524731100
0.940037966 0.239342242 0.570904613
0.000000000 0.679949820 0.665654778
0.004933705 0.675648093 0.661100745
0.319291800 0.557115853 0.598987758
0.663757265 0.454396427 0.540417552
0.944845200 0.542947590 0.639594913
0.073244750 0.701202154 0.631119490
0.225047678 0.716887832 0.653383791
0.627324700 0.720176935 0.681340873
0.793548584 0.715622723 0.696774125
0.942567945 0.713219404 0.660214901
0.901201606 0.845161438 0.892473221
0.932447791 0.845161438 0.911827862
0.989120364 0.842504561 0.940164626
1.000000000 0.844528556 0.964579284
0.998735011 0.840733826 0.881973386
0.005819002 0.581530809 0.902213991
0.001012128 0.523972273 0.899557292
0.002277288 0.232005060 0.887792408
0.637444973 0.013788997 0.809108078
0.912080944 0.000000000 0.806831062
0.003542291 0.646173298 0.909298003
0.002909872 0.606325269 0.904744029
0.001012128 0.398102641 0.889563560
0.616951108 0.227577567 0.823782265
0.913851738 0.151043668 0.808096230
0.000000000 0.792915583 0.915496171
0.000000000 0.774320126 0.909044981
0.051107235 0.672991872 0.884376943
0.579759717 0.476027936 0.834029078
0.924983919 0.410625994 0.805566013
0.074889220 0.832511127 0.902214050
0.349019200 0.835420430 0.911575139
0.565591395 0.818342566 0.897280335
0.724098563 0.741429269 0.854269385
0.934977651 0.670208991 0.798228979
0.422390878 0.843769968 0.881973267
0.513598680 0.841998756 0.878937721
0.732573986 0.839721680 0.882732630
0.967615485 0.843643248 0.935483754
0.998355329 0.834408700 0.937128127
0.000000000 0.636685967 0.993547976
0.001644708 0.609866977 1.000000000
0.000000000 0.503478825 0.996710598
0.043769903 0.273750812 0.994180799
0.795192599 0.098291963 0.985831797
0.000000000 0.676913679 0.997343183
0.001265167 0.656925797 0.998355269
0.001012124 0.567362428 0.998355269
0.037065063 0.369133472 0.998734832
0.792282939 0.248070702 0.984187067
0.000000000 0.787729204 1.000000000
0.000000000 0.772675812 0.999367416
0.001265006 0.715116978 0.999367416
0.215306729 0.578368068 0.994180799
0.793801606 0.461606801 0.989120543
0.596837044 0.884883046 0.996457815
0.639721751 0.871600151 1.000000000
0.728399754 0.847185254 0.998102367
0.752435088 0.792283297 0.994180977
0.864010215 0.679822981 0.983428299
0.740543544 0.879822969 0.996204793
0.762049556 0.879064023 0.998355269
0.835167170 0.872612357 0.998735011
0.938520074 0.864516139 0.996078014
0.988488019 0.839468658 0.987096965
