Assets/Shaders/EldamarStudio/100 Sci-Fi LUTs Pack/LUTs/cube/Tora LUT.cube
DOMAIN_MIN 0 0 0
DOMAIN_MAX 1 1 1
LUT_3D_SIZE 32
0.043136999 0.070588000 0.043136999
0.064389385 0.073624387 0.052245386
0.081340775 0.072359227 0.057052772
0.099051155 0.071853161 0.061353996
0.121442094 0.074510001 0.066287450
0.151802868 0.074510001 0.063251063
0.187223643 0.071979679 0.062744997
0.220366985 0.070588000 0.064389706
0.248450100 0.069829099 0.068184994
0.269702524 0.066793486 0.074257001
0.299683750 0.072485998 0.074510001
0.330044508 0.070462003 0.072485745
0.363820642 0.066666998 0.075142287
0.402783036 0.066919968 0.087286994
0.436179370 0.069955580 0.099430986
0.469576389 0.068184808 0.099557199
0.507526994 0.068184800 0.102593191
0.550663710 0.068690591 0.111701563
0.596204996 0.059582956 0.120809972
0.641746104 0.050474636 0.127135009
0.692979455 0.041366264 0.138899729
0.742568135 0.029222006 0.150031865
0.782162964 0.011512008 0.153320506
0.824667811 0.005439998 0.162428916
0.864895821 0.001644712 0.173813999
0.907147586 0.001391672 0.185957983
0.950664043 0.003922000 0.198102131
0.984060407 0.003922000 0.210246891
0.996204793 0.022517797 0.227703959
1.000000000 0.050854124 0.244149178
1.000000000 0.086021550 0.258443981
1.000000000 0.125489995 0.270588011
0.052245386 0.079696387 0.052245386
0.061353769 0.082732767 0.058317386
0.082606159 0.087919384 0.060973998
0.099557221 0.092599608 0.060594775
0.118405707 0.098797999 0.060594998
0.148766473 0.098797999 0.060215451
0.174067244 0.098797999 0.067299061
0.210120305 0.097912386 0.068816997
0.243896097 0.097153485 0.068943709
0.269702524 0.094117872 0.068185002
0.293864757 0.096900515 0.077166125
0.325996250 0.098797999 0.081594124
0.357368886 0.097026996 0.083871126
0.391398072 0.097026996 0.089563638
0.433143765 0.097279966 0.093358986
0.466540188 0.097912386 0.105502993
0.504490972 0.097026996 0.110183388
0.546362877 0.097912386 0.115875997
0.587096632 0.096014954 0.117773600
0.638203740 0.092473350 0.132447973
0.682353079 0.083871037 0.139278993
0.731436014 0.075774774 0.150031611
0.779253840 0.066160783 0.159519017
0.824667811 0.060088769 0.171537295
0.867172599 0.056293484 0.182922378
0.908791900 0.053257454 0.192283377
0.950158119 0.054016706 0.200632468
0.981024802 0.061606389 0.210246891
0.995825350 0.069576204 0.222390980
1.000000000 0.089310549 0.236305967
0.998229027 0.114990577 0.251992196
0.993928015 0.143706769 0.270588011
0.059202999 0.095256001 0.065654770
0.072612382 0.100442611 0.065274999
0.079569995 0.101328224 0.069196776
0.102087542 0.108665384 0.067931615
0.121062547 0.116634771 0.064516224
0.147880867 0.116634771 0.060974225
0.171030864 0.123086542 0.064263448
0.198608622 0.123086542 0.066793062
0.234282181 0.123086542 0.067046091
0.262998283 0.121442251 0.066793486
0.293864757 0.122074671 0.073244900
0.324225247 0.125110283 0.082353026
0.357621640 0.124098420 0.087413348
0.389247328 0.123339511 0.090701997
0.426059812 0.125236779 0.095635645
0.465654790 0.125236779 0.101581216
0.500569344 0.128273159 0.113725603
0.542441487 0.128905743 0.121062763
0.584946036 0.127387539 0.124098778
0.631246150 0.126755118 0.129411593
0.679063737 0.119924039 0.137001961
0.722833574 0.113851771 0.145857126
0.772043228 0.110183291 0.159266278
0.819607913 0.106135540 0.173434809
0.860720813 0.102340259 0.181277990
0.901834190 0.100695543 0.190638989
0.942568123 0.099430829 0.198229074
0.976217866 0.105249852 0.210626453
0.992789209 0.110056594 0.224541754
0.999620438 0.124478169 0.236685738
0.998229027 0.144465521 0.247944370
0.992156982 0.166224003 0.264136761
0.067805000 0.117267154 0.082099997
0.080455393 0.119544320 0.080328770
0.087919161 0.125110477 0.077798769
0.100316316 0.126375318 0.073244840
0.124225549 0.133586153 0.069829002
0.147628158 0.131815150 0.063757002
0.170651317 0.141935483 0.062745318
0.195572227 0.147374988 0.068817452
0.225933015 0.148893178 0.067299061
0.256293833 0.149905324 0.070335321
0.285768896 0.151170149 0.072485998
0.317900091 0.151929051 0.078051932
0.354712099 0.153826326 0.089437313
0.388741046 0.151423186 0.092979029
0.423150063 0.154459059 0.098039158
0.457558781 0.153826326 0.102845997
0.496774197 0.158127531 0.111954376
0.535104513 0.163567573 0.123466410
0.580645204 0.161796197 0.130170837
0.627451122 0.157748312 0.132194638
0.672991753 0.155850738 0.137760729
0.719544291 0.149778485 0.142821118
0.764958858 0.149778485 0.157368988
0.808981657 0.147881210 0.171410739
0.851992249 0.144845024 0.181024998
0.892725825 0.141935468 0.187096983
0.931182921 0.141429409 0.193675071
0.966856539 0.142947599 0.207337454
0.991018295 0.149778470 0.221252650
0.997849226 0.157874554 0.237191796
1.000000000 0.171663761 0.247564822
0.994686961 0.187982321 0.256293654
0.079569548 0.144971088 0.099177547
0.089057386 0.141935468 0.100316092
0.094623767 0.147122309 0.096774094
0.104111604 0.152941391 0.086906940
0.125743553 0.156356543 0.072106093
0.146995932 0.150284544 0.066034093
0.170019001 0.159266323 0.063251317
0.195572242 0.167488843 0.065401994
0.222517177 0.172801733 0.076027997
0.252878010 0.178874508 0.079063617
0.277799219 0.183175206 0.077039868
0.305755973 0.184946090 0.078051835
0.339911282 0.184566543 0.084123641
0.381910026 0.184313580 0.097786032
0.418342799 0.187096953 0.100569420
0.451107055 0.186843827 0.105123185
0.486021608 0.189120740 0.111574829
0.526375651 0.196205065 0.122707412
0.571916878 0.199240670 0.131815046
0.619861186 0.193421885 0.134471551
0.666540265 0.189627096 0.139025733
0.712713242 0.189627096 0.148134127
0.760910451 0.189500585 0.157242477
0.797596276 0.189247549 0.169133455
0.838962555 0.187729359 0.179000735
0.881087720 0.184313774 0.187096983
0.922074616 0.181657583 0.194054529
0.955470979 0.178621188 0.203162909
0.986211061 0.187729061 0.214927435
1.000000000 0.197343290 0.230233938
1.000000000 0.205060154 0.245667085
1.000000000 0.208096549 0.251739085
0.088677935 0.175331861 0.108285934
0.100821935 0.172296241 0.117394321
0.110309772 0.175711855 0.118532866
0.119670987 0.178494766 0.111195713
0.134851158 0.177608937 0.096394874
0.159139931 0.183680922 0.084250867
0.177861989 0.177608937 0.085768543
0.200379401 0.178368002 0.079570003
0.224415034 0.183428124 0.076787092
0.246805996 0.200126916 0.085136384
0.274256885 0.212017938 0.088171996
0.301075339 0.218595847 0.090196252
0.332321286 0.220240220 0.093232222
0.369766057 0.217709959 0.097786032
0.406198800 0.214674354 0.094750419
0.445034772 0.222264737 0.107147187
0.482985258 0.226312608 0.114231184
0.523086131 0.229095519 0.119418055
0.565844119 0.226565853 0.125743046
0.611385226 0.235167459 0.140417367
0.657432258 0.233649671 0.143579930
0.702973068 0.232131869 0.148134127
0.748766482 0.232005358 0.157242477
0.788234949 0.228968963 0.166350096
0.831751943 0.230993211 0.175964341
0.874003589 0.228842810 0.185072720
0.912966251 0.224288866 0.194180995
0.946363389 0.224162340 0.206198514
0.977102876 0.226438954 0.217963040
0.995066226 0.230993077 0.231878236
1.000000000 0.235926852 0.246679202
1.000000000 0.241492927 0.257811874
0.107906319 0.215812638 0.130043998
0.112460643 0.212777019 0.134092376
0.126754865 0.211891636 0.141049996
0.139152154 0.215939477 0.143074155
0.151802331 0.216192186 0.135484099
0.163187534 0.220113963 0.121189311
0.187476322 0.218595639 0.109045319
0.207337022 0.212523639 0.098924942
0.230740190 0.212270632 0.087160319
0.253763795 0.223402977 0.090955481
0.273244888 0.235799983 0.099304125
0.308665246 0.247944504 0.096268006
0.341429263 0.255028635 0.098924674
0.377609015 0.256672919 0.103604995
0.411764473 0.258190721 0.107400097
0.450601071 0.259962112 0.111575283
0.493105501 0.267299324 0.124857634
0.536495388 0.270714641 0.130929738
0.582795322 0.269576281 0.135104015
0.635673702 0.275142282 0.152055696
0.673624337 0.280455381 0.153953329
0.716635108 0.278684497 0.154712319
0.762428463 0.277039826 0.162555501
0.811511576 0.274004042 0.176470742
0.850980461 0.270967662 0.185578346
0.893232286 0.272106320 0.196078330
0.930676699 0.270335317 0.205819324
0.960025311 0.274383307 0.213915303
0.983175218 0.271980107 0.226059303
0.995825291 0.275015712 0.239974499
1.000000000 0.278937280 0.256925911
1.000000000 0.285009325 0.274004012
0.125869706 0.250094712 0.154332399
0.130550385 0.248703375 0.157368794
0.140543923 0.251106977 0.162555397
0.155723855 0.247312143 0.166097403
0.169765711 0.249588862 0.167615697
0.175837696 0.255154938 0.156230465
0.197090343 0.256420076 0.150158405
0.216445401 0.253383696 0.129791290
0.238456696 0.244275704 0.109297983
0.262745261 0.243263707 0.103984997
0.284503698 0.253510416 0.106135122
0.308665246 0.265654504 0.106767699
0.343579620 0.277798980 0.102972701
0.378241390 0.285895050 0.108032703
0.411638111 0.295888662 0.114104703
0.448197395 0.300569236 0.121821597
0.493738204 0.302087426 0.127893999
0.540164113 0.308538795 0.137887418
0.588741004 0.311574697 0.140923038
0.634661734 0.313851714 0.149652034
0.680961728 0.319671154 0.159266293
0.721442282 0.320683271 0.158254415
0.768880188 0.317899913 0.165211990
0.817457020 0.317900300 0.178874195
0.858317435 0.314864099 0.191144705
0.899177909 0.314611077 0.203035653
0.937887371 0.314358026 0.214927360
0.967488706 0.317014396 0.222137988
0.989500046 0.316761523 0.233522967
1.000000000 0.315623164 0.250727177
0.999114394 0.320430011 0.264136612
0.998355269 0.327261120 0.282353014
0.141809002 0.279696196 0.180139184
0.147122100 0.279696196 0.182416484
0.158254206 0.282479197 0.186085090
0.172422260 0.286021233 0.190385997
0.187982187 0.278052092 0.191145003
0.195572287 0.286021262 0.186590984
0.210752726 0.288551509 0.182542995
0.233143792 0.290575594 0.170019165
0.249842182 0.286021173 0.146489099
0.274130225 0.267805189 0.128273085
0.296141654 0.270461977 0.120050222
0.320430070 0.280834973 0.116255254
0.347374707 0.291461200 0.115875997
0.374446154 0.303858131 0.115369998
0.406325221 0.321568727 0.119417995
0.441366524 0.332447976 0.124857798
0.481594175 0.338520199 0.132447988
0.531309128 0.339785188 0.139152572
0.579633057 0.348766327 0.142441228
0.622897089 0.350284189 0.146236449
0.665022373 0.353320569 0.151170090
0.709298253 0.357116044 0.158254221
0.763314486 0.354206175 0.167236090
0.807589948 0.356610000 0.178115100
0.847817540 0.355850905 0.189499989
0.887033284 0.354838759 0.200758755
0.929538131 0.357875019 0.215939030
0.963693500 0.355344653 0.225553349
0.987981856 0.354206175 0.240354061
0.996331215 0.354206175 0.253257275
0.999873459 0.355344594 0.274003714
0.996837080 0.364452988 0.283112109
0.160025015 0.316128999 0.210499972
0.163061410 0.316128999 0.210499987
0.174826264 0.316128999 0.210626513
0.191144973 0.318912029 0.212144345
0.209234595 0.323592514 0.215433016
0.227451369 0.323592514 0.221505031
0.229981467 0.321442306 0.211891040
0.245794192 0.323593020 0.196964040
0.271094561 0.325490385 0.179886281
0.292346954 0.316382021 0.167741477
0.307906091 0.303985000 0.146615624
0.329538018 0.306894243 0.136242509
0.357242137 0.314990312 0.134851009
0.389626533 0.322074920 0.139658019
0.413915277 0.337254524 0.133586019
0.445793808 0.352561295 0.130423814
0.480834901 0.365844399 0.132448003
0.519165099 0.376217991 0.139152572
0.561670005 0.382290006 0.148260981
0.612777114 0.385705113 0.154332966
0.660088718 0.388614714 0.160278484
0.705502868 0.390765488 0.167362615
0.751170456 0.390638977 0.176344469
0.790638924 0.390638977 0.182416484
0.832637608 0.390765488 0.191018194
0.874889255 0.390638977 0.198861346
0.917394102 0.391271412 0.206831425
0.959898829 0.394307077 0.222011015
0.988741279 0.391777337 0.244908139
0.996331453 0.390638977 0.256293714
0.994180977 0.391524374 0.265402049
0.999873459 0.394813031 0.286148489
0.175331876 0.352561742 0.220493123
0.184187263 0.355470866 0.232131869
0.197975859 0.357621640 0.232131869
0.213915139 0.358380735 0.237191871
0.231245965 0.360784292 0.247058734
0.254522741 0.363314629 0.263250738
0.262618870 0.363314629 0.254142731
0.269955873 0.365591735 0.240354031
0.288677990 0.370904654 0.221884862
0.307779610 0.370398253 0.201138616
0.326122880 0.361290634 0.177355871
0.345351011 0.343074352 0.160151497
0.368753850 0.337634325 0.152561516
0.396584064 0.337128192 0.152308747
0.426185787 0.349652290 0.146236748
0.452877760 0.369639516 0.149778739
0.488298565 0.387349725 0.146742880
0.526122808 0.401012003 0.146616295
0.564073145 0.407083988 0.151170105
0.603795230 0.415939361 0.154712498
0.647311866 0.421125740 0.158760265
0.689816415 0.423150003 0.163820133
0.733333230 0.421126217 0.171030760
0.775585055 0.418342888 0.179886132
0.819607973 0.420620173 0.188235417
0.858570635 0.422644049 0.195951864
0.897027194 0.423655927 0.204554200
0.941935122 0.421885163 0.224541396
0.976470768 0.419607788 0.229095697
0.995445907 0.420114100 0.251612931
0.997090399 0.423023701 0.266160697
0.997090161 0.428083599 0.283365130
0.204680488 0.391018242 0.245793760
0.213788882 0.398102373 0.251865745
0.223276228 0.403162271 0.267552495
0.240227401 0.404933482 0.267552495
0.256546348 0.405313015 0.277039945
0.280835122 0.408349425 0.293611258
0.302087218 0.412903488 0.302719742
0.308159232 0.411258787 0.283997327
0.317267329 0.415433317 0.266160399
0.329158485 0.418469280 0.243137226
0.349399000 0.413915098 0.222897008
0.367615223 0.400758982 0.196584508
0.387729287 0.378368229 0.177988470
0.410752565 0.366729707 0.168500990
0.441113323 0.366476774 0.162428990
0.467046022 0.383808017 0.163947240
0.497406423 0.398988038 0.162429065
0.535230875 0.415053576 0.157748416
0.571663320 0.425300270 0.160784036
0.602782845 0.436179340 0.161796093
0.636559188 0.443390489 0.164832473
0.675648093 0.448450387 0.167868391
0.717646778 0.447817981 0.173054978
0.767742097 0.450474352 0.182162911
0.812523603 0.449968278 0.189247027
0.852498412 0.453004658 0.199747071
0.886400878 0.455534518 0.207084253
0.927387416 0.454016685 0.220746428
0.968374193 0.450980425 0.232131571
0.991144896 0.451486468 0.244023129
1.000000000 0.452751637 0.266034245
0.998102248 0.455407977 0.282353014
0.253636897 0.453257203 0.292852908
0.263883650 0.456672937 0.294750154
0.276407421 0.462491900 0.302846193
0.288045347 0.467172563 0.315749615
0.303605199 0.467172563 0.317267716
0.326375782 0.469449818 0.331688613
0.350664198 0.472738922 0.351169914
0.367362201 0.476154506 0.349272788
0.375711292 0.473877192 0.328019977
0.380265683 0.476534039 0.307906061
0.395066410 0.471473694 0.281593919
0.414294511 0.464895308 0.257305682
0.427956551 0.447437912 0.226565629
0.445414305 0.423149914 0.202276915
0.469576448 0.409614146 0.190891922
0.496268272 0.409614235 0.180645153
0.523972094 0.422138095 0.179886445
0.556103468 0.431878269 0.172675639
0.591018260 0.446552634 0.175205320
0.619101644 0.458949953 0.173181280
0.649462104 0.468437463 0.177355722
0.682859004 0.477546096 0.183428243
0.721694887 0.480961263 0.186591119
0.766223967 0.485009283 0.191650748
0.815180242 0.486527264 0.199620292
0.858570278 0.487918943 0.209613964
0.890448749 0.490449280 0.220240578
0.924351513 0.490449280 0.225679979
0.963820219 0.490069449 0.240480602
0.989247143 0.487159848 0.256167024
1.000000000 0.491081655 0.273497999
1.000000000 0.488804281 0.291460991
0.319924027 0.546869040 0.358381003
0.332321048 0.541556060 0.358634025
0.348513544 0.541682303 0.361290246
0.366983175 0.544971228 0.366856068
0.381784052 0.547881067 0.373687178
0.400000066 0.547881067 0.385831952
0.423276633 0.548387051 0.411638051
0.442758083 0.550284803 0.423149794
0.454143137 0.552056015 0.412776947
0.469323516 0.552056015 0.400632143
0.475775033 0.543833196 0.363061219
0.489184052 0.538772821 0.331435800
0.503858089 0.529917479 0.300948799
0.510942101 0.508918107 0.265022039
0.520050526 0.484630078 0.240734056
0.541302860 0.466034263 0.213282675
0.568374336 0.459203005 0.196078196
0.599114597 0.466034025 0.193674996
0.626439095 0.478178054 0.193674982
0.653510332 0.490828693 0.188614994
0.684376717 0.501075327 0.191777289
0.719291329 0.511195183 0.200379223
0.758633971 0.526248991 0.212397471
0.783428073 0.526755035 0.209867135
0.824161530 0.527767003 0.215433314
0.869196296 0.529411614 0.227071643
0.910436094 0.531688988 0.240986973
0.934724867 0.531688988 0.244022578
0.969892561 0.533839166 0.262238801
0.991397977 0.532827079 0.282226384
0.999746978 0.529285014 0.299304396
0.999746978 0.535357058 0.314484030
0.347248405 0.568121374 0.376596957
0.362428784 0.571157753 0.379633367
0.376976579 0.570145786 0.386337608
0.400379539 0.573308170 0.399240553
0.426944911 0.578368247 0.416191906
0.436432809 0.581277430 0.428336680
0.459708780 0.586337388 0.440480798
0.488931090 0.591144741 0.461353511
0.508792102 0.593548596 0.466413796
0.508791864 0.588487923 0.449209630
0.515243351 0.585578799 0.419607878
0.523339629 0.581277549 0.387349665
0.537760794 0.575964451 0.356483161
0.553446829 0.563567519 0.322707117
0.571663618 0.545350790 0.292346388
0.573561192 0.513852000 0.258443773
0.583807588 0.490322590 0.228462607
0.603668272 0.480455399 0.211890981
0.641619444 0.487286419 0.211890966
0.666160405 0.504996419 0.211890966
0.694876432 0.516255319 0.214420974
0.726881564 0.523339570 0.217077404
0.761669576 0.529285371 0.215433076
0.798102438 0.541429400 0.224541485
0.825173676 0.551043391 0.226565689
0.859708965 0.557874382 0.235041395
0.897027493 0.561796069 0.247817993
0.940796852 0.559013426 0.259202927
0.978367746 0.556356549 0.270208389
0.995951772 0.561669588 0.291334391
0.999114394 0.563187838 0.310815960
0.996710598 0.559645832 0.323592395
0.398608387 0.601391554 0.414041579
0.411384940 0.609234929 0.419481158
0.426565349 0.610120535 0.431119561
0.441745728 0.613915384 0.441998363
0.466413587 0.620366752 0.457937658
0.481593728 0.621378660 0.466034442
0.505755603 0.619734406 0.485388756
0.526754975 0.624161661 0.499177456
0.553320885 0.628716111 0.515875876
0.563440919 0.627577424 0.512460589
0.559519351 0.622011423 0.485009640
0.567615092 0.616951585 0.450600863
0.574446380 0.613535762 0.417204082
0.586337626 0.607210755 0.382289529
0.604553759 0.597596526 0.347627759
0.613156557 0.579379797 0.314863771
0.614674389 0.545983374 0.282985210
0.623276174 0.521189034 0.254395843
0.648576975 0.511321783 0.234914586
0.678937674 0.516508579 0.230107591
0.710815609 0.527134597 0.230107591
0.741176367 0.536748767 0.232131466
0.771537125 0.544339001 0.227956787
0.801138639 0.556482971 0.234787896
0.833016813 0.564073563 0.237064987
0.860468030 0.574572921 0.241366178
0.892346978 0.582162857 0.252498299
0.932194591 0.586717248 0.268437773
0.965211749 0.581277788 0.270967782
0.994054198 0.585325837 0.291966945
1.000000000 0.590892017 0.316002578
0.998481810 0.586337805 0.332700789
0.448703378 0.634788394 0.456546366
0.465401560 0.643896341 0.465654373
0.479696333 0.648071170 0.470587969
0.496141583 0.646806002 0.487033486
0.510815918 0.655660689 0.499683559
0.525616586 0.661353350 0.508033037
0.546868682 0.657305479 0.517647207
0.575331807 0.656040668 0.540164053
0.592789471 0.658317387 0.555344462
0.612523913 0.660594642 0.565970898
0.612144172 0.657938182 0.550790668
0.611638129 0.651866198 0.524984241
0.618469000 0.648071170 0.488551468
0.622264385 0.644908369 0.451612681
0.637950361 0.637571156 0.412649959
0.651106775 0.626438797 0.378620952
0.660215199 0.609740555 0.340670377
0.661985993 0.576344073 0.310815871
0.671853364 0.551549375 0.275648177
0.688804746 0.537381351 0.253636986
0.719924390 0.540797174 0.245288000
0.754332364 0.546869159 0.245288000
0.782163322 0.557874739 0.243137181
0.809487700 0.568627357 0.249209195
0.836053193 0.577735364 0.253763199
0.866413474 0.582416415 0.253763199
0.893865049 0.591777205 0.259582192
0.927261174 0.601897418 0.273750693
0.958380461 0.605313241 0.286653996
0.981910169 0.606578231 0.295003325
0.998734951 0.613915622 0.321442127
1.000000000 0.612144411 0.343326986
0.494370699 0.665148973 0.499683678
0.514358044 0.674256742 0.511827707
0.530044317 0.677798748 0.514104724
0.548387051 0.680202365 0.525489986
0.565085173 0.677166104 0.541050076
0.573940635 0.690828502 0.551929116
0.590638697 0.689563572 0.559013426
0.612270534 0.686780572 0.569766104
0.640733600 0.687412977 0.593674779
0.655914009 0.687412977 0.608855188
0.661353409 0.686147988 0.605566084
0.661732674 0.683364987 0.590006411
0.660973728 0.680202544 0.565591395
0.663757086 0.680202544 0.529664636
0.674383104 0.672232687 0.488677889
0.689563334 0.661859334 0.450853884
0.703225672 0.652877688 0.414800853
0.712839723 0.637065530 0.371031135
0.709804058 0.603668332 0.331561893
0.715749502 0.575837910 0.296394318
0.730676830 0.559898734 0.269323140
0.759772539 0.562049568 0.259962142
0.790006101 0.567868590 0.259835631
0.817330480 0.575458884 0.264389575
0.843010545 0.585199296 0.269196570
0.871347308 0.593421638 0.275015563
0.900695980 0.596964002 0.276027560
0.927893817 0.608854949 0.282099545
0.957874477 0.617077768 0.299556971
0.979885757 0.625679970 0.315496385
0.993295372 0.632131577 0.328652948
0.999367416 0.635167956 0.352941006
0.552056074 0.695509076 0.545225024
0.567236423 0.704617441 0.557369053
0.578621268 0.705123246 0.556610048
0.595825255 0.706388056 0.568754375
0.619734108 0.710562587 0.598735452
0.625806868 0.707526922 0.595699072
0.642252028 0.708539009 0.609108388
0.658823729 0.708033025 0.618342996
0.677546024 0.708791912 0.630487204
0.701454520 0.711701035 0.654396474
0.713725746 0.705882072 0.657938123
0.714990675 0.704364061 0.646047056
0.711068988 0.704996705 0.625300705
0.706262052 0.707527041 0.599493980
0.706262052 0.707527041 0.569133222
0.721694946 0.694750190 0.525743246
0.736622393 0.687665999 0.487286866
0.746236920 0.682606041 0.449968934
0.746236980 0.664389968 0.401392013
0.754332662 0.636559546 0.361922890
0.757495046 0.605439723 0.319165349
0.768121362 0.585199237 0.289564043
0.793042541 0.583048999 0.284124523
0.820366919 0.583048999 0.281088114
0.847691298 0.592916071 0.281088024
0.878937364 0.604807019 0.287160009
0.912840009 0.615180016 0.297280014
0.937128007 0.621252000 0.303352028
0.966982663 0.625173807 0.314737678
0.986716926 0.634028971 0.327640951
0.995825052 0.644781590 0.339785039
0.996331036 0.653383970 0.352941096
0.679317236 0.742567718 0.657558858
0.677798867 0.748892725 0.666919470
0.686527491 0.749399126 0.666160524
0.693737805 0.747628093 0.663883686
0.708159089 0.749525547 0.679064155
0.716634989 0.746489286 0.678431511
0.727767110 0.743453681 0.690575778
0.743832827 0.744844973 0.700822473
0.755977213 0.746742487 0.704617381
0.766097486 0.749778628 0.710689366
0.781530857 0.749652088 0.734092593
0.787602782 0.747628093 0.722959995
0.786084771 0.746489465 0.707020760
0.781910479 0.745477378 0.689816475
0.779380143 0.740417421 0.669576347
0.779380143 0.735610425 0.634408593
0.792283118 0.729158759 0.597596467
0.804427564 0.727261186 0.562934995
0.813030124 0.715496361 0.516508877
0.824162126 0.700062990 0.479064137
0.823782444 0.676534116 0.432005018
0.823023319 0.646679461 0.382669389
0.834661365 0.625679910 0.349020123
0.854016602 0.617710710 0.322074831
0.881340981 0.622264743 0.321315736
0.907273650 0.626439095 0.324098706
0.936622262 0.631119430 0.333965808
0.963188052 0.639468729 0.346869111
0.982163012 0.645540714 0.358254075
0.994307339 0.654016316 0.370398343
0.997975767 0.664389312 0.386970162
0.996078014 0.671599984 0.408602476
0.735104263 0.762681723 0.705756009
0.737761080 0.768753707 0.720556319
0.739278734 0.774066746 0.715116739
0.747880757 0.771031201 0.716634750
0.756356299 0.770398736 0.721947968
0.768500686 0.768880486 0.724983990
0.776343763 0.769639254 0.730044305
0.790132463 0.766603708 0.746869028
0.804553926 0.767615318 0.755471170
0.811005890 0.768374443 0.758127749
0.825679839 0.770398736 0.766097426
0.834661961 0.774193704 0.777229726
0.834281921 0.773055077 0.762428582
0.830739975 0.770018756 0.750284433
0.829348326 0.765591502 0.730423748
0.826818466 0.763314486 0.709171653
0.826818466 0.760278463 0.678810835
0.837444484 0.757748306 0.648576677
0.849588871 0.747374713 0.608096123
0.867425740 0.736495852 0.570904434
0.871979713 0.727007687 0.536369443
0.867931724 0.703731835 0.481720418
0.870334983 0.672485471 0.427577913
0.883238554 0.654522598 0.386590630
0.902593255 0.643517017 0.360025465
