Assets/Shaders/EldamarStudio/100 Sci-Fi LUTs Pack/LUTs/cube/Tora LUT.cube
LUT_3D_SIZE 8
DOMAIN_MIN 0.000000 0.000000 0.000000
DOMAIN_MAX 0.903226 0.903226 0.903226
0.043136999 0.070588000 0.043136999
0.121442094 0.074510001 0.066287450
0.248450100 0.069829099 0.068184994
0.363820642 0.066666998 0.075142287
0.507526994 0.068184800 0.102593191
0.692979455 0.041366264 0.138899729
0.864895821 0.001644712 0.173813999
0.996204793 0.022517797 0.227703959
0.079569548 0.144971088 0.099177547
0.125743553 0.156356543 0.072106093
0.222517177 0.172801733 0.076027997
0.339911282 0.184566543 0.084123641
0.486021608 0.189120740 0.111574829
0.666540265 0.189627096 0.139025733
0.838962555 0.187729359 0.179000735
0.986211061 0.187729061 0.214927435
0.141809002 0.279696196 0.180139184
0.187982187 0.278052092 0.191145003
0.249842182 0.286021173 0.146489099
0.347374707 0.291461200 0.115875997
0.481594175 0.338520199 0.132447988
0.665022373 0.353320569 0.151170090
0.847817540 0.355850905 0.189499989
0.987981856 0.354206175 0.240354061
0.253636897 0.453257203 0.292852908
0.303605199 0.467172563 0.317267716
0.375711292 0.473877192 0.328019977
0.427956551 0.447437912 0.226565629
0.523972094 0.422138095 0.179886445
0.649462104 0.468437463 0.177355722
0.815180242 0.486527264 0.199620292
0.963820219 0.490069449 0.240480602
0.448703378 0.634788394 0.456546366
0.510815918 0.655660689 0.499683559
0.592789471 0.658317387 0.555344462
0.618469000 0.648071170 0.488551468
0.660215199 0.609740555 0.340670377
0.719924390 0.540797174 0.245288000
0.836053193 0.577735364 0.253763199
0.958380461 0.605313241 0.286653996
0.735104263 0.762681723 0.705756009
0.756356299 0.770398736 0.721947968
0.804553926 0.767615318 0.755471170
0.834281921 0.773055077 0.762428582
0.826818466 0.760278463 0.678810835
0.871979713 0.727007687 0.536369443
0.902593255 0.643517017 0.360025465
0.992409945 0.659961998 0.394307435
0.863630295 0.814674258 0.813282847
0.883744717 0.815053701 0.834029019
0.904490769 0.815306723 0.851866066
0.937001884 0.815812647 0.874256968
0.943706572 0.810625970 0.859329462
0.940544188 0.806957722 0.793042541
0.973434269 0.783934295 0.675648570
0.997469962 0.713598788 0.518912017
0.967489004 0.845919967 0.912713766
0.981657267 0.843516588 0.932953775
0.989879787 0.848829746 0.939405680
0.998734832 0.842251956 0.948766649
0.996457875 0.847185135 0.947628021
0.998734832 0.845793843 0.922580719
0.998355269 0.842251718 0.883112073
0.997343183 0.828842700 0.823908806
0.003922000 0.124605000 0.168501094
0.121062547 0.070208549 0.169639543
0.235041186 0.084250547 0.159013093
0.342694730 0.117140740 0.192030102
0.482858747 0.135610193 0.233016729
0.673497438 0.129158542 0.271600544
0.847691536 0.027703911 0.283744365
0.987602353 0.009108185 0.289690375
0.000758999 0.204933539 0.165338099
0.087792993 0.169639543 0.164579093
0.216571644 0.164958552 0.165717632
0.330929637 0.187349990 0.187982097
0.479696542 0.183934256 0.220999092
0.655534625 0.148387104 0.230107352
0.830360413 0.104996815 0.248197079
0.981530786 0.126881808 0.277166098
0.034914549 0.275395542 0.200252742
0.138266638 0.278557628 0.196711093
0.228716180 0.282859117 0.192663088
0.328146368 0.300063074 0.192030177
0.485135823 0.314610749 0.210373342
0.655155122 0.322074175 0.224414721
0.827577233 0.323212713 0.251106620
0.984566748 0.329284906 0.285515815
0.161289915 0.430360556 0.275268555
0.234535366 0.441872001 0.295003265
0.342061996 0.448829889 0.347375244
0.392283201 0.433270007 0.272106618
0.498924911 0.416571558 0.228209823
0.627324164 0.462998182 0.230613619
0.807084203 0.476786733 0.257178932
0.958886623 0.475648373 0.292346835
0.370145380 0.612396955 0.424668014
0.441871911 0.620999575 0.464642823
0.540417373 0.632763922 0.522074819
0.593295157 0.634408772 0.519038737
0.627830744 0.594813168 0.366982728
0.690955281 0.532068431 0.280202538
0.816698313 0.574446261 0.290828526
0.946742177 0.603162646 0.324478209
0.681214571 0.752308726 0.667046070
0.713599265 0.758380711 0.689183831
0.757116020 0.763567388 0.723086536
0.819607675 0.760784566 0.764959097
0.818848610 0.748640180 0.687792480
0.844781637 0.717267454 0.538646460
0.892346561 0.636053026 0.390006244
0.984692931 0.659455776 0.419987440
0.839215577 0.808222294 0.800126553
0.855408132 0.813030005 0.817963302
0.885009766 0.807590187 0.835926592
0.918152928 0.808222294 0.857179046
0.931309223 0.805818975 0.853890002
0.936116099 0.800632417 0.792030573
0.967109561 0.784186840 0.684630096
0.992915809 0.713092983 0.528020203
0.965717971 0.844908416 0.918912053
0.973814249 0.848450005 0.931941330
0.984060884 0.846426249 0.934724748
0.993674815 0.845414281 0.939658463
0.996584356 0.842884004 0.948007464
0.996204793 0.844655037 0.932700753
0.996204972 0.840607107 0.890828788
0.994433701 0.831498802 0.818469167
0.004680902 0.223276183 0.324225277
0.009867454 0.141429543 0.329158992
0.229601189 0.072865099 0.288298279
0.335357279 0.096395001 0.283618182
0.477799088 0.109803997 0.302340180
0.645414472 0.130676538 0.354206085
0.820240259 0.154585913 0.407337368
0.973308027 0.213029787 0.460720986
0.000379548 0.299304187 0.311828107
0.000758999 0.245161191 0.318912059
0.190385997 0.161037445 0.299683660
0.329791188 0.160278454 0.283618093
0.463503927 0.176344097 0.300822169
0.631372452 0.199240893 0.350158095
0.814168155 0.213535637 0.407716811
0.969259918 0.264642358 0.458443969
0.000759096 0.372169286 0.315623164
0.000759096 0.379253298 0.323971748
0.134725094 0.316508204 0.305503070
0.339279085 0.277039737 0.299683630
0.476281077 0.296268195 0.325237215
0.645161271 0.315496325 0.371030748
0.824035347 0.321315378 0.411258370
0.985072553 0.315370053 0.427071273
0.006325098 0.403542012 0.321315825
0.004301354 0.405186743 0.327640742
0.204680637 0.412270933 0.333206713
0.348260373 0.418975294 0.333459347
0.471979529 0.422897100 0.317773372
0.638330221 0.438203841 0.344465464
0.816065848 0.440986454 0.369892418
0.965970576 0.455534697 0.408981711
0.138393462 0.575964391 0.415812552
0.233902454 0.584186912 0.435547292
0.382795483 0.596331239 0.463630468
0.549019456 0.613662302 0.542062104
0.579633415 0.579127312 0.432511270
0.665275097 0.538646698 0.364199996
0.798861504 0.580771565 0.384566486
0.954079747 0.590385795 0.425806463
0.564579546 0.740038097 0.630107343
0.602909565 0.740670264 0.647691369
0.682985306 0.746868968 0.679190397
0.774067342 0.747881055 0.734851360
0.805819154 0.747881055 0.735610425
0.824288428 0.710183382 0.594433665
0.861479998 0.641366005 0.459709257
0.967741728 0.672486067 0.492346436
0.796584547 0.805186570 0.781783581
0.822011471 0.806704402 0.804680407
0.854775548 0.810879052 0.821125627
0.895509243 0.809867203 0.849968731
0.941303015 0.807463527 0.877672553
0.934977710 0.803668320 0.826692164
0.957621753 0.781656981 0.724478185
0.990512371 0.717773736 0.583048522
0.960784137 0.847059011 0.912839830
0.965844333 0.846552730 0.919671059
0.976849973 0.845919967 0.926502049
0.991017997 0.842378318 0.940417469
1.000000000 0.844655216 0.950158000
0.997469962 0.843643010 0.942694604
0.998861372 0.840606987 0.904237568
0.998734832 0.828842640 0.848450541
0.002783356 0.373307914 0.553826571
0.000379548 0.319671184 0.543706298
0.002783370 0.130803183 0.505502939
0.350284278 0.078431003 0.460088283
0.492979199 0.079316907 0.441619366
0.625174046 0.076281004 0.455155194
0.785958230 0.046300076 0.483744621
0.957874954 0.126881674 0.531688631
0.000379548 0.420366734 0.518785894
0.003542452 0.377988636 0.537634134
0.003921906 0.226818532 0.498798370
0.321821272 0.160658002 0.456419826
0.474383533 0.157621995 0.435293823
0.607210517 0.154459193 0.438709378
0.768627167 0.149905011 0.474130005
0.948513508 0.195066363 0.527514040
0.004301353 0.552055836 0.546995699
0.001138548 0.515496254 0.546742439
0.002783356 0.424288750 0.529158771
0.285895079 0.281341016 0.493231803
0.491840661 0.266919643 0.458444297
0.616824985 0.269702911 0.453257501
0.796457887 0.281341195 0.494117677
0.957495272 0.337254822 0.548387170
0.000000000 0.588614941 0.538899183
0.003162904 0.584566891 0.552814484
0.000000000 0.579633355 0.545351028
0.230486929 0.467552274 0.488930911
0.460720927 0.395572454 0.453384101
0.623276472 0.398228914 0.461480081
0.803415835 0.431625277 0.523592949
0.953573406 0.494117439 0.589626431
0.000000000 0.565085292 0.498292178
0.001138547 0.565085292 0.501454949
0.012903288 0.559645951 0.494117618
0.295003176 0.545097709 0.493232042
0.503352582 0.547754347 0.492852390
0.636053383 0.551676214 0.491714031
0.807843089 0.564959049 0.527514219
0.950790524 0.587096691 0.568627417
0.218216270 0.705503106 0.609107971
0.303225756 0.707779884 0.614421308
0.449082673 0.711321831 0.625933290
0.606577933 0.718405724 0.652498543
0.774067283 0.725869358 0.739658415
0.777356088 0.703985095 0.652245700
0.844655395 0.661480308 0.571031272
0.945350885 0.691208184 0.600379527
0.690322518 0.797343314 0.758380532
0.728146851 0.801644623 0.769639194
0.773434162 0.799746990 0.790512383
0.848070920 0.804047942 0.823402584
0.919670999 0.808601916 0.869070411
0.937761068 0.806198478 0.864010036
0.944465220 0.786084652 0.770145237
0.986084759 0.734092355 0.660847485
0.938646078 0.843390346 0.912839949
0.941176653 0.848450005 0.913092911
0.969513237 0.846173286 0.922327578
0.987729132 0.847311676 0.941429675
0.998861313 0.845034659 0.951929212
0.998734832 0.848450005 0.961163938
0.995951772 0.843390346 0.928146303
0.998734832 0.835420847 0.876154661
0.002403808 0.497786194 0.756103575
0.005566002 0.459203184 0.755091786
0.006325002 0.341556191 0.738899410
0.002656546 0.148007378 0.700695693
0.508412361 0.043390203 0.647185206
0.643263698 0.007463742 0.620366633
0.773181438 0.001518192 0.612523556
0.927514136 0.000000000 0.623782337
0.006325195 0.530677021 0.741808951
0.004807003 0.501581192 0.734977365
0.003921807 0.406578153 0.730676711
0.001518095 0.210752904 0.702846348
0.474763185 0.147881359 0.633143604
0.623149753 0.122074552 0.604174733
0.764326513 0.096521169 0.608222723
0.918026388 0.036812469 0.614927351
0.001517999 0.619987130 0.751423240
0.000000000 0.607969642 0.758633375
0.000759096 0.532954097 0.745351076
0.000000000 0.365970969 0.721315742
0.451360166 0.273497880 0.658191264
0.631245971 0.244149461 0.611891150
0.774699450 0.238456905 0.617457271
0.926122487 0.226312459 0.624288261
0.001518192 0.743453622 0.776597202
0.001517999 0.731309116 0.768754184
0.000759096 0.675901651 0.752308428
0.005060354 0.571916521 0.718785703
0.389626741 0.414294571 0.666540384
0.621505022 0.376850069 0.617963374
0.778494775 0.371410549 0.617963493
0.934471846 0.386337698 0.629095376
0.002403808 0.737634361 0.737634361
0.005945647 0.739531696 0.757494807
0.003922000 0.737761080 0.750917196
0.081593826 0.728020430 0.740417659
0.423656166 0.617584169 0.693611383
0.625047266 0.517267346 0.622264385
0.785705566 0.514737189 0.621378839
0.943453610 0.577735603 0.680708408
0.007084001 0.733459830 0.710183680
0.001138644 0.731182575 0.716887891
0.068057925 0.720430076 0.702972949
0.341808736 0.700316668 0.688172102
0.510942757 0.682352960 0.667172730
0.685515344 0.670082271 0.673624694
0.814800560 0.679190636 0.680076182
0.943959475 0.694370329 0.716255426
0.329664618 0.781277299 0.731182456
0.404174447 0.783807278 0.748386979
0.521442056 0.788614810 0.752055466
0.663377166 0.781783640 0.772169709
0.802782834 0.788488269 0.810246468
0.921568573 0.800632715 0.881847024
0.922707558 0.783934295 0.809993446
0.969386458 0.750917017 0.743326724
0.848450005 0.847438157 0.877672613
0.868184626 0.847564697 0.888425052
0.902466476 0.847691119 0.896520913
0.946616232 0.844908357 0.923718870
0.990006149 0.844908118 0.943959653
0.994307280 0.848956466 0.968753934
0.998734832 0.845793843 0.958507121
1.000000000 0.836938620 0.903731823
0.005819256 0.566350698 0.881973505
0.002024260 0.545097709 0.874636292
0.000000000 0.485262275 0.881088078
0.004807100 0.304364532 0.866034448
0.215053529 0.169639364 0.828968823
0.607084453 0.013788747 0.781783760
0.762428880 0.000000000 0.757748187
0.917899668 0.001265167 0.772422552
0.003542452 0.588361740 0.871094227
0.002024260 0.572169483 0.864769220
0.000379548 0.515622973 0.862492025
0.000759096 0.372296005 0.852118731
0.172802091 0.220114097 0.823276699
0.603415489 0.128905550 0.784946024
0.762302339 0.051233623 0.750158012
0.915369987 0.001517999 0.770524919
0.002276998 0.655281425 0.873118401
0.002403808 0.643516898 0.879190743
0.001897741 0.597722828 0.876660645
0.002277094 0.494117409 0.866160452
0.040480539 0.331688732 0.838076949
0.572928727 0.267046362 0.792156518
0.760910869 0.219607905 0.762302339
0.922707021 0.194054261 0.776470542
0.002783356 0.741808951 0.877799094
0.002656643 0.732068241 0.887792528
0.000759096 0.695129454 0.871726811
0.002024259 0.629981279 0.852751493
0.025047556 0.492726088 0.840986848
0.552182436 0.401897281 0.797596455
0.757368684 0.354205966 0.763314128
0.925869584 0.343074173 0.771916389
0.000000000 0.829980969 0.885009229
0.000379548 0.826059520 0.888045311
0.015686646 0.807083845 0.891208053
0.196584105 0.764326394 0.875142574
0.370524973 0.682732284 0.847185493
0.531055987 0.555091798 0.804301083
0.771284044 0.492599428 0.770018697
0.935483754 0.490322351 0.759772122
0.002024260 0.821378767 0.886021495
0.113092728 0.824414730 0.878052175
0.288804740 0.816192091 0.880202472
0.452498615 0.809993982 0.868437529
0.590891838 0.796458006 0.866287291
0.671473682 0.719164729 0.824920774
0.790385842 0.634281993 0.766729891
0.929917574 0.650221527 0.772928715
0.131688848 0.808981299 0.841745436
0.222137898 0.807463408 0.834914625
0.334345222 0.807590008 0.839468479
0.455028743 0.796458066 0.828715861
0.574193418 0.778494477 0.808981776
0.698545039 0.757494807 0.789500296
0.859202802 0.760657549 0.818595827
0.950411260 0.761669815 0.815433443
0.534218848 0.841998994 0.868057847
0.584819555 0.847817719 0.865022063
0.660088360 0.842757881 0.874383509
0.765338063 0.845034897 0.883997619
0.885009408 0.841745853 0.903478622
0.974952519 0.842631042 0.937001884
0.999240994 0.851612806 0.981024802
0.998102248 0.837444842 0.930297017
0.002277288 0.608476043 0.958127975
0.000000000 0.596331477 0.960025251
0.001644712 0.556609809 0.959013224
0.005692640 0.463378012 0.956483006
0.000759096 0.261353552 0.948387086
0.376850158 0.189500287 0.925869226
0.704870224 0.030993285 0.887160301
0.867046177 0.000000000 0.881087840
0.002656739 0.624921024 0.964326262
0.000000000 0.614421308 0.955597699
0.001644712 0.576597035 0.955471456
0.003162904 0.496647537 0.952055693
0.005439708 0.308538973 0.945224583
0.367362440 0.240481079 0.927767158
0.691334248 0.131562278 0.893358529
0.865654528 0.016951386 0.882479370
0.001518192 0.675142229 0.954965234
0.001897740 0.667552292 0.958760202
0.001518192 0.638963044 0.957368970
0.001644712 0.574952483 0.956735790
0.003162711 0.438203931 0.951170027
0.326882005 0.337634295 0.931182683
0.684124053 0.259076476 0.902087212
0.868184447 0.207716733 0.884503484
0.000000000 0.750284612 0.957621574
0.000000000 0.742441356 0.953699887
0.002656546 0.718658864 0.955976784
0.001644712 0.671853304 0.952561259
0.002783356 0.586211085 0.946110010
0.293105841 0.464895725 0.932954013
0.680455565 0.392410278 0.895635247
0.873624146 0.342314988 0.888804555
0.003162710 0.820114136 0.965464950
0.054648820 0.822264612 0.956230283
0.160910755 0.806831121 0.951423287
0.311954468 0.778620899 0.949019551
0.354838908 0.718912244 0.948640108
0.407210827 0.616445363 0.931308985
0.682479620 0.535863400 0.902846098
0.888551533 0.478558183 0.887286365
0.371536553 0.867678523 0.962302446
0.419860810 0.863757432 0.966730177
0.497533083 0.862871647 0.965085387
0.586463869 0.854775369 0.969007075
0.663377464 0.827704012 0.950790584
0.681593955 0.763187766 0.947881281
0.736495972 0.677166462 0.917900264
0.912460148 0.618469298 0.888424993
0.487286091 0.859455943 0.951929271
0.512966335 0.862112701 0.950663984
0.569133401 0.859456003 0.946236491
0.645034790 0.855028689 0.955344617
0.734978020 0.851613045 0.957368731
0.824541688 0.839974940 0.956103802
0.858696997 0.790132999 0.927387655
0.939531684 0.728273273 0.878304839
0.556735873 0.867425859 0.941049874
0.569007337 0.864389539 0.948513389
0.600632429 0.855787575 0.943580270
0.651486278 0.856546760 0.937760711
0.714864075 0.846805811 0.932574570
0.786464393 0.831372499 0.920809567
0.913598657 0.825806737 0.926249027
0.996204793 0.828716218 0.944971561
0.000000000 0.636685967 0.993547976
0.002277285 0.629728258 1.000000000
0.001897736 0.602276981 0.999240935
0.001265167 0.542568147 0.995066166
0.000000000 0.433776081 0.998861313
0.000000000 0.283618093 0.998734832
0.499557197 0.235041052 0.992409945
0.795192599 0.098291963 0.985831797
0.000000000 0.651233256 0.998734832
0.003542452 0.643516541 1.000000000
0.001897736 0.617836714 0.998861432
0.001265167 0.568374276 0.997343183
0.002277285 0.467678815 0.997596204
0.000000000 0.324857831 0.994813144
0.494750261 0.270967782 0.992662728
0.800252736 0.163440555 0.984946072
0.005060025 0.689311028 0.995572209
0.002277284 0.684756398 1.000000000
0.002530013 0.662239313 0.996837080
0.000759096 0.621505320 1.000000000
0.000000000 0.539405346 0.997216821
0.003921810 0.401771069 0.996457756
0.485388935 0.359139800 0.996204793
0.789247036 0.275395334 0.982163012
0.000000000 0.749272466 0.993168831
0.000000000 0.742947459 0.994686604
0.001138644 0.727640927 0.998102486
0.000000000 0.698545218 0.998734832
0.001138640 0.642504752 1.000000000
0.002530012 0.531688750 0.997216880
0.496647656 0.467046171 0.993927777
0.784313619 0.391524255 0.983048439
0.267551899 0.815053642 0.993421793
0.292599380 0.815053642 0.999620438
0.275774688 0.802909315 1.000000000
0.286527246 0.781656921 1.000000000
0.335484117 0.739405334 0.996204793
0.385199130 0.676786840 0.998861313
0.553067505 0.597090662 0.993674874
0.799240768 0.523845732 0.983934164
0.549778223 0.873244762 0.998734832
0.566603541 0.866287172 0.998861313
0.610626221 0.858697116 0.999240935
0.665275097 0.844528973 0.994813323
0.699683487 0.825300634 0.996204793
0.694750190 0.782163322 0.993674934
0.689057708 0.717520535 0.991903722
0.847817659 0.652245581 0.977608979
0.669070184 0.876154304 1.000000000
0.683871090 0.880961359 1.000000000
0.717899919 0.878810585 0.999620438
0.769133270 0.876786709 0.998102486
0.836432874 0.869323254 0.999240875
0.887666166 0.855408013 0.996204793
0.885388911 0.814294815 0.996204793
0.906894386 0.759266198 0.983301759
0.740543544 0.879822969 0.996204793
0.750410855 0.881973445 0.996204793
0.771410465 0.875268877 0.993042231
0.807716489 0.874889135 0.993927777
0.858443618 0.869576156 1.000000000
0.918026567 0.869829118 0.994054258
0.981530488 0.861100733 0.994939983
0.988488019 0.839468658 0.987096965
