Assets/Shaders/EldamarStudio/100 Sci-Fi LUTs Pack/LUTs/cube/Traveler LUT.cube
LUT_3D_SIZE 5
DOMAIN_MIN 0.000000 0.000000 0.000000
DOMAIN_MAX 0.903226 0.903226 0.903226
0.113724999 0.027450999 0.039216001
0.158507288 0.060468286 0.072232708
0.213788569 0.100063413 0.107906409
0.307021141 0.153068006 0.156988993
0.468437761 0.239468634 0.248576805
0.156230003 0.124224991 0.102972701
0.175837994 0.125869706 0.112460412
0.229474992 0.155977115 0.142188698
0.312586844 0.204680413 0.191271544
0.481846750 0.284503549 0.260341644
0.198102415 0.251739413 0.186969995
0.217710406 0.260973960 0.202403694
0.270714819 0.277292818 0.223655984
0.363946706 0.314610809 0.258317828
0.541050017 0.399747044 0.338899642
0.285515130 0.449335992 0.328653127
0.311321974 0.460468233 0.330044121
0.369260132 0.473877132 0.354585648
0.467046261 0.502340257 0.386591017
0.624667645 0.573055208 0.471726775
0.533965766 0.730044425 0.584946454
0.559772432 0.738140464 0.589247406
0.605818748 0.748260438 0.606451154
0.674256861 0.767868400 0.634281754
0.774446547 0.799367547 0.679063797
0.142820716 0.051613003 0.110183701
0.160152003 0.073876999 0.122580700
0.211131990 0.116381995 0.143200412
0.297533423 0.174572989 0.200379282
0.467805147 0.249841973 0.273750812
0.161796272 0.120303407 0.142567992
0.187602997 0.135357410 0.156609699
0.226565704 0.171031117 0.177861989
0.317140847 0.211891264 0.225300282
0.481846750 0.290448815 0.304870397
0.203289002 0.255661398 0.224288404
0.222644120 0.268437684 0.230487123
0.277545691 0.287413090 0.256040692
0.365338266 0.319797814 0.288425386
0.532194853 0.403668344 0.366097480
0.291713983 0.451613128 0.349905252
0.314990520 0.455281675 0.360151708
0.370904416 0.475522012 0.379379809
0.466413677 0.500442982 0.409487426
0.623402834 0.574952662 0.491587698
0.537887573 0.730929673 0.590132594
0.557495415 0.733839571 0.601138473
0.601011872 0.742694497 0.612017870
0.672612548 0.763567328 0.643263400
0.772548735 0.796078384 0.689563394
0.175838411 0.066666998 0.211258397
0.190891579 0.085641995 0.207969829
0.225553408 0.124224991 0.226945400
0.299810290 0.181783572 0.264516264
0.465148330 0.257684976 0.336875379
0.195825696 0.140290692 0.223023400
0.202656418 0.148766294 0.231499389
0.241871998 0.181783825 0.251106977
0.314863682 0.220746532 0.280202687
0.491334766 0.296900809 0.362049520
0.213155985 0.250474393 0.295003384
0.230107412 0.260594666 0.300442696
0.293611377 0.304111362 0.330297351
0.382289529 0.342694372 0.361922711
0.548260689 0.416065753 0.438329756
0.292093724 0.450980544 0.414674401
0.322200954 0.465401649 0.421884835
0.391144663 0.488298386 0.443137527
0.480455101 0.521315634 0.477798969
0.634282351 0.588741183 0.548513532
0.531942010 0.729285181 0.633143663
0.549272299 0.736495733 0.630866349
0.601265013 0.744338751 0.643011093
0.678810894 0.767235994 0.675142109
0.773813963 0.803288758 0.713725150
0.237444997 0.091208130 0.356356382
0.253763407 0.108538575 0.367362529
0.287159979 0.145856991 0.375838131
0.348260134 0.204047993 0.399367392
0.485515594 0.267298967 0.451107115
0.255660981 0.158886984 0.375711709
0.265907705 0.171283990 0.379379839
0.299810112 0.198481694 0.391144842
0.357874811 0.248197541 0.416445374
0.504490733 0.308412284 0.475901097
0.281214267 0.260594696 0.421505123
0.297532976 0.287792563 0.433396518
0.341429412 0.312586963 0.448070645
0.409487844 0.355218232 0.469955534
0.552434921 0.413409203 0.523719370
0.317899972 0.448450357 0.511322141
0.339152545 0.454901934 0.527513981
0.402276993 0.475522012 0.539911509
0.515243411 0.539658308 0.579886138
0.657432079 0.599873304 0.628969073
0.530803561 0.730676770 0.696647584
0.542061865 0.740417182 0.689057648
0.589500487 0.749272466 0.697280169
0.688930869 0.781024575 0.729411721
0.791524589 0.810119867 0.770018578
0.391271621 0.095508985 0.650347590
0.396837324 0.112839691 0.655281484
0.440986603 0.164831981 0.660847425
0.509297907 0.244781792 0.679443240
0.604553759 0.350790799 0.694876611
0.398228884 0.184440240 0.655281484
0.410246581 0.194307551 0.657937884
0.452118576 0.231625646 0.667678535
0.519924164 0.299051225 0.677419305
0.617457092 0.392662764 0.705249608
0.419355035 0.329790950 0.677040040
0.435041040 0.332700670 0.674762905
0.481467605 0.367741764 0.690196037
0.556103766 0.421379030 0.703858435
0.647059023 0.494623601 0.732068181
0.490195602 0.504110932 0.737634420
0.496773988 0.507526934 0.730423450
0.541429341 0.540417194 0.737507880
0.618848741 0.580897987 0.748639703
0.715369701 0.643769801 0.777482688
0.596837580 0.743200421 0.812270582
0.598734558 0.741808712 0.815812647
0.645161390 0.753573537 0.821505487
0.721062541 0.784313560 0.834534764
0.846426606 0.849082768 0.869829416
