Assets/Shaders/EldamarStudio/100 Sci-Fi LUTs Pack/LUTs/cube/Traveler LUT.cube
LUT_3D_SIZE 8
DOMAIN_MIN 0.000000 0.000000 0.000000
DOMAIN_MAX 0.903226 0.903226 0.903226
0.113724999 0.027450999 0.039216001
0.137254998 0.040354453 0.055660997
0.162302002 0.064263001 0.076028004
0.192789286 0.087413348 0.092473000
0.233522996 0.115875989 0.120682992
0.287792742 0.144971475 0.148892999
0.354838580 0.185578987 0.189499989
0.468437761 0.239468634 0.248576805
0.141935095 0.083491549 0.071726546
0.143073559 0.084250547 0.072485544
0.173687547 0.096015446 0.091714092
0.195952103 0.113599092 0.109677188
0.235041186 0.130803198 0.126881808
0.284503281 0.165338099 0.157494992
0.359139532 0.200126737 0.203668296
0.461353779 0.253257811 0.240227640
0.161543101 0.137128100 0.112839997
0.169765636 0.137887105 0.116381645
0.183427989 0.143326998 0.126122996
0.210879087 0.157874733 0.143073633
0.251613200 0.180139199 0.160657898
0.301960826 0.205945373 0.190259084
0.378368169 0.244402379 0.222517088
0.487159759 0.296647549 0.272738814
0.185452357 0.207463279 0.172042638
0.189627096 0.207083821 0.161669731
0.203668281 0.211764634 0.174319640
0.234281987 0.225932628 0.187223285
0.276913434 0.244655624 0.205945373
0.324225277 0.267046362 0.222390980
0.403162539 0.303352654 0.256293625
0.514737427 0.360151440 0.313345790
0.216318801 0.296900809 0.218469188
0.224162191 0.303605527 0.226438999
0.237444982 0.303858399 0.229348361
0.268311620 0.315243632 0.244402379
0.311954379 0.331309199 0.258570164
0.362934917 0.351170123 0.278052181
0.445414156 0.388361782 0.314864099
0.555471182 0.443516999 0.364832371
0.266286999 0.423023462 0.307400733
0.277545780 0.424161911 0.311828166
0.295129478 0.430613458 0.314105093
0.328526109 0.437697589 0.320177078
0.378241450 0.447058648 0.336242914
0.432637721 0.465907454 0.362302750
0.504237533 0.498419017 0.389374018
0.611005723 0.549272716 0.450727433
0.362934828 0.565844536 0.403162539
0.380012542 0.564958990 0.417583793
0.395951748 0.571536720 0.428842545
0.430107623 0.581404209 0.436306208
0.472738624 0.587349594 0.443137467
0.522580743 0.600126088 0.467425734
0.583175242 0.620746553 0.492346257
0.670841515 0.654775023 0.543580115
0.533965766 0.730044425 0.584946454
0.548386574 0.733839571 0.584566474
0.560278594 0.739911437 0.586970448
0.588614762 0.745477378 0.600379407
0.622137785 0.752434731 0.607336760
0.666160464 0.765085578 0.629727840
0.716761470 0.778873801 0.653131068
0.774446547 0.799367547 0.679063797
0.133332998 0.042757548 0.076027997
0.141935095 0.051739097 0.083871000
0.167741999 0.075648449 0.101075090
0.198355287 0.100315996 0.116761282
0.228083193 0.126502350 0.138646200
0.282479525 0.159013182 0.174826190
0.352940828 0.193548098 0.203795284
0.459835768 0.241365999 0.256167263
0.141935095 0.079569548 0.092093542
0.154079556 0.091713995 0.096394993
0.174066991 0.101075090 0.109297544
0.199114293 0.121062540 0.128905550
0.234029353 0.140543833 0.153194442
0.290701985 0.175078735 0.179886267
0.364200205 0.206704587 0.216192290
0.473118454 0.261859834 0.260847360
0.156356648 0.141049996 0.130044088
0.174067095 0.144591644 0.137128085
0.187349990 0.149652004 0.141429543
0.209234893 0.165338203 0.156356633
0.247185543 0.185705274 0.175078914
0.297659785 0.210752994 0.204554185
0.374320269 0.245540828 0.237318277
0.483365059 0.293611646 0.280329078
0.189753100 0.203921735 0.176976189
0.191271201 0.207083926 0.181783885
0.205312997 0.214927644 0.181277633
0.234281987 0.226691723 0.195445731
0.275395542 0.248324096 0.215433195
0.326248825 0.268943816 0.236179635
0.406451255 0.308918655 0.269323289
0.520935833 0.363314390 0.326881707
0.215560004 0.296900988 0.221252650
0.222137839 0.298418909 0.234534919
0.240227729 0.304237843 0.240860537
0.271094263 0.317646831 0.258190721
0.312207639 0.329032183 0.269196540
0.361290008 0.351170003 0.286274642
0.447311819 0.388741016 0.325996041
0.559645534 0.448450446 0.380265653
0.272612274 0.415812463 0.316002756
0.278052181 0.419734478 0.320303261
0.298418880 0.426312715 0.324984282
0.329791188 0.433776379 0.328652740
0.374320090 0.449082911 0.349272281
0.428589702 0.466287017 0.367236167
0.505249977 0.490954965 0.398861557
0.611005843 0.546362817 0.457684785
0.362808317 0.557748079 0.413156569
0.374952346 0.555977285 0.420493543
0.388108850 0.563693821 0.423023283
0.423023194 0.571536839 0.437065214
0.468058378 0.584440231 0.457179159
0.523086905 0.598228812 0.476407379
0.592789114 0.625679851 0.511448264
0.676913381 0.664642513 0.555091500
0.533965766 0.732574403 0.593295574
0.544338942 0.736875296 0.582795501
0.560278594 0.735357583 0.594560146
0.586843610 0.740290880 0.601644576
0.620999396 0.749778211 0.614041746
0.663757145 0.761416733 0.632131338
0.716381907 0.776723266 0.655534446
0.773560822 0.795066118 0.688424587
0.145857096 0.049336094 0.124605000
0.150158450 0.059962448 0.124984451
0.166983098 0.079949193 0.133207098
0.194434002 0.103478901 0.144212186
0.232764095 0.129285097 0.166856185
0.283617973 0.165212080 0.196584374
0.354712307 0.204554006 0.235800281
0.464515746 0.251865923 0.281088084
0.160404563 0.095256448 0.134092003
0.159898996 0.092093542 0.126882002
0.175205544 0.108918093 0.148134097
0.202656552 0.124984443 0.160658002
0.240606979 0.149651989 0.178368449
0.293105781 0.179759726 0.201265186
0.366477311 0.218975544 0.247438088
0.474383295 0.272991836 0.298418671
0.169386089 0.133965999 0.162302002
0.176091358 0.144971102 0.164958641
0.195192993 0.155851096 0.177862078
0.217078000 0.172296107 0.186464176
0.252372086 0.195066079 0.204553992
0.305249751 0.220493451 0.230360463
0.372802079 0.256799370 0.264642388
0.486148030 0.302846193 0.314990699
0.196837097 0.212650537 0.201644734
0.192789197 0.214168549 0.207969636
0.217077985 0.229475170 0.218089625
0.240101531 0.239595190 0.224288732
0.282859057 0.254901737 0.245540619
0.332574636 0.279190421 0.268184751
0.408855379 0.313219309 0.298671722
0.521442115 0.365970671 0.351929009
0.219354987 0.300063074 0.259203196
0.222011641 0.303858370 0.258064747
0.244529083 0.313346088 0.271853179
0.273371160 0.322707176 0.281214267
0.309424281 0.334472060 0.291461200
0.364326000 0.358633459 0.315623105
0.454016447 0.396078289 0.355471373
0.564326227 0.452751279 0.407337010
0.274003983 0.426059365 0.341808736
0.284250379 0.426059246 0.343074113
0.301834345 0.431499094 0.345730752
0.333586186 0.438836098 0.352688015
0.377102792 0.448703378 0.369639367
0.430233896 0.464010179 0.387982100
0.505375981 0.498419017 0.419607759
0.605186462 0.551170230 0.477419347
0.371789992 0.558127582 0.439848274
0.377988279 0.562681854 0.439468831
0.396078467 0.569259644 0.449589193
0.430107623 0.575078726 0.460721105
0.471094370 0.587982416 0.476154536
0.527134776 0.602656722 0.495762318
0.594307482 0.629474699 0.528526247
0.682858825 0.668943822 0.576976359
0.530803323 0.728146613 0.593421698
0.543326735 0.729411781 0.595951915
0.557748258 0.734092414 0.600885570
0.586464167 0.739911437 0.607716262
0.620999396 0.749778211 0.621884704
0.659962296 0.756736338 0.639721453
0.711321831 0.775964379 0.666160583
0.774319589 0.797090530 0.697406590
0.164199650 0.061100997 0.177102998
0.167362541 0.070208646 0.177102998
0.183807641 0.087413348 0.177861989
0.204553992 0.112080999 0.187223285
0.233143553 0.137887195 0.206324831
0.285894990 0.171157628 0.231119379
0.357115567 0.207969636 0.260721266
0.464136600 0.256546617 0.314863980
0.176344097 0.099556997 0.177482545
0.180645451 0.104617447 0.184946001
0.187349901 0.113598987 0.188488543
0.204933554 0.133965909 0.198987991
0.242125079 0.150790647 0.213156193
0.293485224 0.184440449 0.234534815
0.364832491 0.223150089 0.277672350
0.476281077 0.272106528 0.331815541
0.186211452 0.142694190 0.205439806
0.192409635 0.146489277 0.205186382
0.203795001 0.162176087 0.217457458
0.220240280 0.176217288 0.223276183
0.251865834 0.199367642 0.236559182
0.304364324 0.225173831 0.261606574
0.382668912 0.262744993 0.295256019
0.490828335 0.310436308 0.349145979
0.197216645 0.205186278 0.242125288
0.203795090 0.208349183 0.248703539
0.223782539 0.223276183 0.259203166
0.251106650 0.249462634 0.271853268
0.286274612 0.266287178 0.283491194
0.341555983 0.293358743 0.310562640
0.416571558 0.326881915 0.339784980
0.525363445 0.380898088 0.395066619
0.221378729 0.305882543 0.298165530
0.226818636 0.309803724 0.299683630
0.248070747 0.318026394 0.311069071
0.286400825 0.338013738 0.327893823
0.329791397 0.357115567 0.341429353
0.383301854 0.377861798 0.362175822
0.458697170 0.407589942 0.391144812
0.567741930 0.462871701 0.447185189
0.276913643 0.424161822 0.378241360
0.285641760 0.428336293 0.377229542
0.312080801 0.435420573 0.387982041
0.344592094 0.450347990 0.397090375
0.390512556 0.466413707 0.413662344
0.438962728 0.483617753 0.426438808
0.517899990 0.505502880 0.457305640
0.615686238 0.558507383 0.508538902
0.369513005 0.567994893 0.476027846
0.391018212 0.568121135 0.479443192
0.400253087 0.573560894 0.475142360
0.436812252 0.579759896 0.488930911
0.477925092 0.592662752 0.504111171
0.532953680 0.607842982 0.525237262
0.597090185 0.635294199 0.550664186
0.685515344 0.674256623 0.597216666
0.534218729 0.732447982 0.622896552
0.547627687 0.734092176 0.612270534
0.560657740 0.739278793 0.620619714
0.584693372 0.744338751 0.630107343
0.619608045 0.751296103 0.641239464
0.666160643 0.761796415 0.659076333
0.716255426 0.779759645 0.677798748
0.775711358 0.796837270 0.710436463
0.195192993 0.072106190 0.241999179
0.191650540 0.080328740 0.245540723
0.205313101 0.095509090 0.249083087
0.226439193 0.123845994 0.259202987
0.250727177 0.149652198 0.269450188
0.297785997 0.179379985 0.287665993
0.361922920 0.209867090 0.310183376
0.475774586 0.259203166 0.364832371
0.201011747 0.106514990 0.241492718
0.195572346 0.113978542 0.241999000
0.211132437 0.127767086 0.248576820
0.229980722 0.146616101 0.260467827
0.257431805 0.167235836 0.273750693
0.298418790 0.194307283 0.289690167
0.369259924 0.230613634 0.326628268
0.484123975 0.276533693 0.375711650
0.210120097 0.160531193 0.266287297
0.214294642 0.165717736 0.268184721
0.228083372 0.173181191 0.275016099
0.244908527 0.187602744 0.281214178
0.267173082 0.208349288 0.296015173
0.314990282 0.231119365 0.310562819
0.382922202 0.263883650 0.343833089
0.497027040 0.308412254 0.391776979
0.217962995 0.207210541 0.300063193
0.229601383 0.216192290 0.306767613
0.247565076 0.232637271 0.305755705
0.267046303 0.252119094 0.315117031
0.293358535 0.270967960 0.328905463
0.344212651 0.296015292 0.349905282
0.422517627 0.325363636 0.379379898
0.536242843 0.375078976 0.430992991
0.230486989 0.292979211 0.340670377
0.239848197 0.299304187 0.349525183
0.260974199 0.307021081 0.359392375
0.289436817 0.325869471 0.366856515
0.341555983 0.361796170 0.395572335
0.391144723 0.385705113 0.409234613
0.469576359 0.415812552 0.437824160
0.571789980 0.463883728 0.483364820
0.280075729 0.423655987 0.417077899
0.288551509 0.426059455 0.421758622
0.312080830 0.436559111 0.426059365
0.344718248 0.453510374 0.439848095
0.399241149 0.476533890 0.463757366
0.461227357 0.503605366 0.487539500
0.534977555 0.522707164 0.507906377
0.621252358 0.567488611 0.551928997
0.374952465 0.565211773 0.506641209
0.387982219 0.568121254 0.513725281
0.404048175 0.575585067 0.516129076
0.439215481 0.586843967 0.527008235
0.489943445 0.608475685 0.549652457
0.546362996 0.618090034 0.565085471
0.604300797 0.642884493 0.587982297
0.693358719 0.681467295 0.631878734
0.533712804 0.728526235 0.635546982
0.538393438 0.733206928 0.636685550
0.557748318 0.737634361 0.645793855
0.584187090 0.747754335 0.652751207
0.623402953 0.752434731 0.666666746
0.665907860 0.765844524 0.681593955
0.722200930 0.782163084 0.704997003
0.781151235 0.804553747 0.724857569
0.225300729 0.090195999 0.327007741
0.229601279 0.094497450 0.331309289
0.245667338 0.110562898 0.339531839
0.260847449 0.128905639 0.342441738
0.287159741 0.155976996 0.354332715
0.324983984 0.189879730 0.367994994
0.387349755 0.222391173 0.389879763
0.480202466 0.266287088 0.429348677
0.222517282 0.120809808 0.332447737
0.226818725 0.121442184 0.325490475
0.244781628 0.134851277 0.338646531
0.264389634 0.151549637 0.348513335
0.290575475 0.174573183 0.357748270
0.329285026 0.213788792 0.378241301
0.395066559 0.242884293 0.403289258
0.497279942 0.285894990 0.448197275
0.251865834 0.169512749 0.352182478
0.255534172 0.176976472 0.352814645
0.258064747 0.181657091 0.361923009
0.279316843 0.197722644 0.364959121
0.305755705 0.220873088 0.373940706
0.337128609 0.245161071 0.393169016
0.406071931 0.277672410 0.414800674
0.502213836 0.319797635 0.458696932
0.256926000 0.236559078 0.375711352
0.269829422 0.241240084 0.379380018
0.279190660 0.248323992 0.387981921
0.302719742 0.264010280 0.395446092
0.329411805 0.285135984 0.408475816
0.365718096 0.309424371 0.427197754
0.436179459 0.339531928 0.456546485
0.546995759 0.385452151 0.495255798
0.268311232 0.294117719 0.426818281
0.281214178 0.300696194 0.426185995
0.304364443 0.310942143 0.429095447
0.329032183 0.338772714 0.442884117
0.370398194 0.362175733 0.452118903
0.409107924 0.388361484 0.470967919
0.476786733 0.419354707 0.496774018
0.583681166 0.464263260 0.533712685
0.295635730 0.415053457 0.475901723
0.300695777 0.413409263 0.481973499
0.320682734 0.426059365 0.489816725
0.355977118 0.435800135 0.497659713
0.406831115 0.455407709 0.514104664
0.477798969 0.499177724 0.540417552
0.544971228 0.531688750 0.559139729
0.639215767 0.572042763 0.601391554
0.381783754 0.564073265 0.553194046
0.385578811 0.560531378 0.555850565
0.401518106 0.570398211 0.562175632
0.433143795 0.586844087 0.574699581
0.489184201 0.606451929 0.595951557
0.559392989 0.634662092 0.617836595
0.627197564 0.662872016 0.645414472
0.712966144 0.697786272 0.681973338
0.528020501 0.727387547 0.680961370
0.532953799 0.731815338 0.669323206
0.549398601 0.738393486 0.679696441
0.573307812 0.745477378 0.680581689
0.611637950 0.756229877 0.692219913
0.673244596 0.771157503 0.714484334
0.727640986 0.790006518 0.736369014
0.791018307 0.805818617 0.760404289
0.290449262 0.096394710 0.472106278
0.296014994 0.101961002 0.473624557
0.309297770 0.116887912 0.470461726
0.322454005 0.136748642 0.474383563
0.353826463 0.167615473 0.486021459
0.394181013 0.203668475 0.498165995
0.443010569 0.248956561 0.518152952
0.523212790 0.288045347 0.540543795
0.296014994 0.130929992 0.472232997
0.301581264 0.128146544 0.481847018
0.311195731 0.147754550 0.478937536
0.329538345 0.165338188 0.486780256
0.365085095 0.192663193 0.496900856
0.402277082 0.226691827 0.507906258
0.455787122 0.265781105 0.528905809
0.534218967 0.307906508 0.551549733
0.302972972 0.184946194 0.483871102
0.302593261 0.190638840 0.478810638
0.317141175 0.199620292 0.484376550
0.337760836 0.213030010 0.492726117
0.371790171 0.235673562 0.503984571
0.408981830 0.266160548 0.516255617
0.461733162 0.304364085 0.539278567
0.543200493 0.340164512 0.554712117
0.319544256 0.258444279 0.506894171
0.323339373 0.258064419 0.501328230
0.337001830 0.268690914 0.509297788
0.357748270 0.281973302 0.513598979
0.393421739 0.305123627 0.529285491
0.437950760 0.334345281 0.543706238
0.490069270 0.369513273 0.561290264
0.572169423 0.409993649 0.591271222
0.337001652 0.328905761 0.542188466
0.349272341 0.335483909 0.541808844
0.364705652 0.351676106 0.538393378
0.391903758 0.366097540 0.551549792
0.420366734 0.384440362 0.558127463
0.467172533 0.413915128 0.572675347
0.524351656 0.448576450 0.592536271
0.598355174 0.487539440 0.623782516
0.349272251 0.417583704 0.588488281
0.361416817 0.421125740 0.590005994
0.383048564 0.430107713 0.589121044
0.419481397 0.445540547 0.593927920
0.466793001 0.479696244 0.601264775
0.511195421 0.510057032 0.610626459
0.571410537 0.544212282 0.634282470
0.651359797 0.576597273 0.664389670
0.417457551 0.566856265 0.654395819
0.421378821 0.565211594 0.647944331
0.434155822 0.571410239 0.649082780
0.472232908 0.583681166 0.655407846
0.509677351 0.598861277 0.667299449
0.574952602 0.625173807 0.683744311
0.655028820 0.673371255 0.707020521
0.731309235 0.709803760 0.730803549
0.536369324 0.729791284 0.726249039
0.540670276 0.727007926 0.725489855
0.549145818 0.731689036 0.725616574
0.580518365 0.743326902 0.735863328
0.617583871 0.759139776 0.749398828
0.670082211 0.779885948 0.762934804
0.743073881 0.803794801 0.785199285
0.805439174 0.825047135 0.808222532
0.391271621 0.095508985 0.650347590
0.391271621 0.100442715 0.648450434
0.403162599 0.120430164 0.657052457
0.424920589 0.148766667 0.655407906
0.457305253 0.185072631 0.662492096
0.499430627 0.232384458 0.673624277
0.550284386 0.286527812 0.683997273
0.604553759 0.350790799 0.694876611
0.398608327 0.138013512 0.660594285
0.397216797 0.141176522 0.647438347
0.408855051 0.155091703 0.659203053
0.434914678 0.180139273 0.660467923
0.466287285 0.214041740 0.670082331
0.509044826 0.256925821 0.677546024
0.560278237 0.312713563 0.687286377
0.620619833 0.372928321 0.706008554
0.401770771 0.203921735 0.657052457
0.409234494 0.209487632 0.659329355
0.416318625 0.216066092 0.660973907
0.437824249 0.236306161 0.664769232
0.473877072 0.263377726 0.675142288
0.516887963 0.304364055 0.684503436
0.569260001 0.351296335 0.693864286
0.621758461 0.406831056 0.709550738
0.415306956 0.281973779 0.671853185
0.417583972 0.286274433 0.673371196
0.432511091 0.295129567 0.672991872
0.455913782 0.315369785 0.680455387
0.493990928 0.339278907 0.688930631
0.534218669 0.373687506 0.695635676
0.585705400 0.419228315 0.707400441
0.643643200 0.468311250 0.720809758
0.437824190 0.388867646 0.694876552
0.446932316 0.387602866 0.692093492
0.452750981 0.389626652 0.689183950
0.477166176 0.399114460 0.695508957
0.511068642 0.421884656 0.699051321
0.560025275 0.454648942 0.716761112
0.612776816 0.490954995 0.728525996
0.660341620 0.540796816 0.737254739
0.477039605 0.477292567 0.728273273
0.472106129 0.476913124 0.719291508
0.491713941 0.487286597 0.723339558
0.512333572 0.501328230 0.721568465
0.549778283 0.521189213 0.729285121
0.592536449 0.544718385 0.736748457
0.646806121 0.579632998 0.751422822
0.702972472 0.620746434 0.768121481
0.503731608 0.594307303 0.769133389
0.503605247 0.594307303 0.775078893
0.519038439 0.595699131 0.768880367
0.553573251 0.613156378 0.772801816
0.597090483 0.633649528 0.776344061
0.651992321 0.665781260 0.783680975
0.709930480 0.696394980 0.790512383
0.765211761 0.729285061 0.811132073
0.596837580 0.743200421 0.812270582
0.606198788 0.739278674 0.814926982
0.602782786 0.743326724 0.814294696
0.630234241 0.749525249 0.817836940
0.657685161 0.756356716 0.816192567
0.710183442 0.779000461 0.833269596
0.767614961 0.804806828 0.849588633
0.846426606 0.849082768 0.869829416
