Assets/Shaders/EldamarStudio/100 Sci-Fi LUTs Pack/LUTs/cube/Traveler LUT.cube
DOMAIN_MIN 0 0 0
DOMAIN_MAX 1 1 1
LUT_3D_SIZE 32
0.113724999 0.027450999 0.039216001
0.116761386 0.030487388 0.042251613
0.124098770 0.031373002 0.045287773
0.131941989 0.033902999 0.049588997
0.137254998 0.040354453 0.055660997
0.137254998 0.049462065 0.061732996
0.149905324 0.056040645 0.067805000
0.158507288 0.060468286 0.072232708
0.162302002 0.064263001 0.076028004
0.168374002 0.070335008 0.082100011
0.177355871 0.079316869 0.091081873
0.184439987 0.084377259 0.092093743
0.192789286 0.087413348 0.092473000
0.204680964 0.090955034 0.098798029
0.213788569 0.100063413 0.107906409
0.222896799 0.106767997 0.114610992
0.233522996 0.115875989 0.120682992
0.245667145 0.126754984 0.127387568
0.257811964 0.132827014 0.136495978
0.269955993 0.138898998 0.142821014
0.287792742 0.144971475 0.148892999
0.307021141 0.153068006 0.156988993
0.322201461 0.165085509 0.169006497
0.337381095 0.174193904 0.178114906
0.354838580 0.185578987 0.189499989
0.377229631 0.197722986 0.204427332
0.405060142 0.209867001 0.221631989
0.435420871 0.222010985 0.233775988
0.468437761 0.239468634 0.248576805
0.500063360 0.257684946 0.263757169
0.533966184 0.276786596 0.278051972
0.576470971 0.298038989 0.290196002
0.116761386 0.039595000 0.048323616
0.122833386 0.042631388 0.051360000
0.128020003 0.047818001 0.056546386
0.133712783 0.048323840 0.057938162
0.138014004 0.049841709 0.059076838
0.143326998 0.061606836 0.067805000
0.148387000 0.063124776 0.071347319
0.157115608 0.069829285 0.073624387
0.160784006 0.074130103 0.076028004
0.162302017 0.073371395 0.082100011
0.177102864 0.079443388 0.091081873
0.184439987 0.088425256 0.094117999
0.192789286 0.094623998 0.096647739
0.204428002 0.099810384 0.104617000
0.210752964 0.106135413 0.110942021
0.222264379 0.110436186 0.117647216
0.233522996 0.117393799 0.122201189
0.244401991 0.126754984 0.126754984
0.251739174 0.132827014 0.133459583
0.269449919 0.147248372 0.142567962
0.283997715 0.154079393 0.150790736
0.301961005 0.159139752 0.159013256
0.319291592 0.165338501 0.169133008
0.337381095 0.180265903 0.181151301
0.357115269 0.189373702 0.192536384
0.380265594 0.202150270 0.204680368
0.408096373 0.215433061 0.219607726
0.438456476 0.225047380 0.236812383
0.466160357 0.239848197 0.248956367
0.502340198 0.257684946 0.263757169
0.538267195 0.275901198 0.279822975
0.576470971 0.295003384 0.296267986
0.126249000 0.051739547 0.059582546
0.128019989 0.054775383 0.058317386
0.134091988 0.055661000 0.061353773
0.138899162 0.060468160 0.067425773
0.141176447 0.059961997 0.067046449
0.141935229 0.066793099 0.069070064
0.154459000 0.070968002 0.077419326
0.158886716 0.072612293 0.080455713
0.163693681 0.079190098 0.081720673
0.165085018 0.078937486 0.086401008
0.177482650 0.082479775 0.093232103
0.186590761 0.090575516 0.096268229
0.194939777 0.098545223 0.099683873
0.206578225 0.104617223 0.108538769
0.212650225 0.110689223 0.114610769
0.223529771 0.116508737 0.116381831
0.235673770 0.121062540 0.123972416
0.247185349 0.129538178 0.128273189
0.254775554 0.137128010 0.132827014
0.267678708 0.147248372 0.141682357
0.285894990 0.158633739 0.152687997
0.300316215 0.165970907 0.161037222
0.316508234 0.171537250 0.169259489
0.338772774 0.182669133 0.183428034
0.361416817 0.195446253 0.197722986
0.382669181 0.204553857 0.207083985
0.407969981 0.218216062 0.217710122
0.435040981 0.230613440 0.232637882
0.467045784 0.242884025 0.245540977
0.503225327 0.263377607 0.262998164
0.540417373 0.282352775 0.278937578
0.574320197 0.300569236 0.295888752
0.135862991 0.066413999 0.067931838
0.133332998 0.066919610 0.067425773
0.138899162 0.069070160 0.071220934
0.141176000 0.069070160 0.067931838
0.145350933 0.072106548 0.074762933
0.146742374 0.075142384 0.076154388
0.155091494 0.079443485 0.079443485
0.164958715 0.081214614 0.085262552
0.167995095 0.084250227 0.088298932
0.171030849 0.087286480 0.091334686
0.180265740 0.090322867 0.096014999
0.188362002 0.096141897 0.100569002
0.195572644 0.105249807 0.103984646
0.207590163 0.111195289 0.112839997
0.215686157 0.116255157 0.118911996
0.224035427 0.119797446 0.118912160
0.237444997 0.127134994 0.123466030
0.249588981 0.134471968 0.133206978
0.259329826 0.144212201 0.138140365
0.271220833 0.152055353 0.144212350
0.283364981 0.159898579 0.152687997
0.301580966 0.169006974 0.164832264
0.314736992 0.178115338 0.171789780
0.339025795 0.187223271 0.186969891
0.360784233 0.197343573 0.199620277
0.383681297 0.210626304 0.214421153
0.405945837 0.220240116 0.218975097
0.430993140 0.234661609 0.227324560
0.463250905 0.248450294 0.241998971
0.499430478 0.265148371 0.260720998
0.538393080 0.288551599 0.281088024
0.568753839 0.307147175 0.296647996
0.141935095 0.083491549 0.071726546
0.135863006 0.081214160 0.074383385
0.140543774 0.082099773 0.081720769
0.145350933 0.083491549 0.083491765
0.143073559 0.084250547 0.072485544
0.155218333 0.087286927 0.084630318
0.162302449 0.092852995 0.087413445
0.168374553 0.095256448 0.088678285
0.173687547 0.096015446 0.091714092
0.176723942 0.099051066 0.094750479
0.182669446 0.102466866 0.098165676
0.189121008 0.107147537 0.103225537
0.195952103 0.113599092 0.109677188
0.204807460 0.122454450 0.118532546
0.216698438 0.125616580 0.124604538
0.224794537 0.126628548 0.123845808
0.235041186 0.130803198 0.126881808
0.249968529 0.140164524 0.135483593
0.262112588 0.152308568 0.147628397
0.274636120 0.159266025 0.152561650
0.284503281 0.165338099 0.157494992
0.297027081 0.172422126 0.165591270
0.315116554 0.181530505 0.177735984
0.338646263 0.190638915 0.192662641
0.359139532 0.200126737 0.203668296
0.379506171 0.211638391 0.214041650
0.401770622 0.226312131 0.228842482
0.429095775 0.238456890 0.225806087
0.461353779 0.253257811 0.240227640
0.497659802 0.270208955 0.261606485
0.532701015 0.289310604 0.284123629
0.563061059 0.310562998 0.302340448
0.148007870 0.092599936 0.080834940
0.141935095 0.095635548 0.080834940
0.146615773 0.095508933 0.087792769
0.153194174 0.094750158 0.093106002
0.155218333 0.093358934 0.090702318
0.158253938 0.099430934 0.087665930
0.165338054 0.104996994 0.094750062
0.171410471 0.106135286 0.096521065
0.176723838 0.105123155 0.097786099
0.179759547 0.108159460 0.100822486
0.185705051 0.114104934 0.106767997
0.193801314 0.117647253 0.112333931
0.201265007 0.121189289 0.117267579
0.207843065 0.125490054 0.121568933
0.213915050 0.131562054 0.127640933
0.225806653 0.134724811 0.128905937
0.236938938 0.138772920 0.132953793
0.250221580 0.145983577 0.140796587
0.265148968 0.155344963 0.144592017
0.280076295 0.164705589 0.156736076
0.289057881 0.171410471 0.163566992
0.300696045 0.178494737 0.171663254
0.321189344 0.187602505 0.183807984
0.336368978 0.196710914 0.195952013
0.359898627 0.208095998 0.208601937
0.384566545 0.219734386 0.216065675
0.410878986 0.232384861 0.223655984
0.438203394 0.244528890 0.240986481
0.468184680 0.259329796 0.248576760
0.507906079 0.276280940 0.266287148
0.548386872 0.295382589 0.287159920
0.581277847 0.316635013 0.305376083
0.151549682 0.109297998 0.092473000
0.150537550 0.104743928 0.089943320
0.150917098 0.107779548 0.092093550
0.156736165 0.109424159 0.097912841
0.159392685 0.109297998 0.099178001
0.160278067 0.111069001 0.098292388
0.168374315 0.112080999 0.100315996
0.172802031 0.116508707 0.104743704
0.178747892 0.117520638 0.107147314
0.185325518 0.122327797 0.111954480
0.188741311 0.125742987 0.115370318
0.198861316 0.129791245 0.121442318
0.208475649 0.132827342 0.127514318
0.215939313 0.136369035 0.131688997
0.222011313 0.144718319 0.133206993
0.230487123 0.148387134 0.139278993
0.242504999 0.151423126 0.142567992
0.255281538 0.157115579 0.151296303
0.270461977 0.166223973 0.160024956
0.280582368 0.177861974 0.163820326
0.295762241 0.185072318 0.174067050
0.305755943 0.192156807 0.180771634
0.322454482 0.201264828 0.189626992
0.342441738 0.210373223 0.196964011
0.364452630 0.221758306 0.206831291
0.387349635 0.232510984 0.217330635
0.413409054 0.244023070 0.224667743
0.444781423 0.258191317 0.240859985
0.477292925 0.267931491 0.253637135
0.509424388 0.286653847 0.268058270
0.553700089 0.305629194 0.291208178
0.596964300 0.325237334 0.316002637
0.156230003 0.124224991 0.102972701
0.156230003 0.121441990 0.101581380
0.160025060 0.118532635 0.106135637
0.161796287 0.121568248 0.105376087
0.164452553 0.124604538 0.107273832
0.165717706 0.125869706 0.108538993
0.171663314 0.125869706 0.114358082
0.175837994 0.125869706 0.112460412
0.179633275 0.129664987 0.116255701
0.187855512 0.135736987 0.122327700
0.194433868 0.137254819 0.125490159
0.200252995 0.141935259 0.130550280
0.210119992 0.144971639 0.133206919
0.219228312 0.148260415 0.138014033
0.229474992 0.155977115 0.142188698
0.237950802 0.161922798 0.146995693
0.247059181 0.167995185 0.151549503
0.259076685 0.171916395 0.158127576
0.273244977 0.180012673 0.169259712
0.284503639 0.186970010 0.174699351
0.297406942 0.198608413 0.183175012
0.312586844 0.204680413 0.191271544
0.325996488 0.213282689 0.197470173
0.350284904 0.223908901 0.205059990
0.368880689 0.233649686 0.211764574
0.394560307 0.247185349 0.222264618
0.417330772 0.256799638 0.232131407
0.448450118 0.269702703 0.246173128
0.481846750 0.284503549 0.260341644
0.520177126 0.297406584 0.272738934
0.553573549 0.318659008 0.292726189
0.600632608 0.337634712 0.321568996
0.161543101 0.137128100 0.112839997
0.161543101 0.137128100 0.112839997
0.165085003 0.134977877 0.117014676
0.169386089 0.134471938 0.122074872
0.169765636 0.137887105 0.116381645
0.172802031 0.141302943 0.118658938
0.177608997 0.140291005 0.122201130
0.181909993 0.141809002 0.129158989
0.183427989 0.143326998 0.126122996
0.189499989 0.149398997 0.132194996
0.197722971 0.149652004 0.133839116
0.204807103 0.152181983 0.138140082
0.210879087 0.157874733 0.143073633
0.217457086 0.161164090 0.140796989
0.232131407 0.167236090 0.149399310
0.242504805 0.172548994 0.154585898
0.251613200 0.180139199 0.160657898
0.262618959 0.188614994 0.166223660
0.275016010 0.194687009 0.175585061
0.286401123 0.197975844 0.180392101
0.301960826 0.205945373 0.190259084
0.317141026 0.216066092 0.200379163
0.332574397 0.222391069 0.206578404
0.358633846 0.234535098 0.215686187
0.378368169 0.244402379 0.222517088
0.398355633 0.255534649 0.230613321
0.426186144 0.271220982 0.243769988
0.453763515 0.281087637 0.256419986
0.487159759 0.296647549 0.272738814
0.522074461 0.313093066 0.284629941
0.564958632 0.330044478 0.301075101
0.598355055 0.351296902 0.325363904
0.164579496 0.152308494 0.124984011
0.164579496 0.152308494 0.124984011
0.166729718 0.150158286 0.124984004
0.169892162 0.149652332 0.126628667
0.172802046 0.153067499 0.128526419
0.175838426 0.159139514 0.125490040
0.178874165 0.154965013 0.117646694
0.183680996 0.155724019 0.124098442
0.189499989 0.161543012 0.138266996
0.195571989 0.167614996 0.144339010
0.201644734 0.167868003 0.141682148
0.207843497 0.167868003 0.142947257
0.213915482 0.170398295 0.147248492
0.220493481 0.176344499 0.152941003
0.232637480 0.182416499 0.159013003
0.242504805 0.186084703 0.160404518
0.251613200 0.192283213 0.165211722
0.262618959 0.200759009 0.175332054
0.280835003 0.206831023 0.190512463
0.290449351 0.210120380 0.191524506
0.307274222 0.216951236 0.199367478
0.326249361 0.225173786 0.209487483
0.341682017 0.231499478 0.215686008
0.362934440 0.243643507 0.224794418
0.384439796 0.253510773 0.231625482
0.406830847 0.264010459 0.239089146
0.432258159 0.277292997 0.249841988
0.462618887 0.295508981 0.268057972
0.498165399 0.308032453 0.288677782
0.529158592 0.322200686 0.300821960
0.562429011 0.339152098 0.313345551
0.607463479 0.360404521 0.340543509
0.167615131 0.167488873 0.142947733
0.173434868 0.167488873 0.145856872
0.173434868 0.163187876 0.137254864
0.178241566 0.163187996 0.134218872
0.184186995 0.167868420 0.136369556
0.184693068 0.171410739 0.143453807
0.187729448 0.174952418 0.140417427
0.192409873 0.174952582 0.138646454
0.197722971 0.179000646 0.146742776
0.201644734 0.182921857 0.150664002
0.210625857 0.183174863 0.153826877
0.214674383 0.185199127 0.150790483
0.220999643 0.187223107 0.153194010
0.229095832 0.191524193 0.159265995
0.238582999 0.197596863 0.165337995
0.245919973 0.203668863 0.169006810
0.257558316 0.208728731 0.178620860
0.270082295 0.215812862 0.190638587
0.283744872 0.221884876 0.196710974
0.299177527 0.230740219 0.203541994
0.312333852 0.235926867 0.209487736
0.329538256 0.243010730 0.217583731
0.344844848 0.249082997 0.221631497
0.363313913 0.255661011 0.225173905
0.384566277 0.267805010 0.234282285
0.407210320 0.278937459 0.245161518
0.434029073 0.291081846 0.258823872
0.471599996 0.304490834 0.277039856
0.499303907 0.320050687 0.289942831
0.536748588 0.334218919 0.308665395
0.570398569 0.352055699 0.321062714
0.607842982 0.375331849 0.338266879
0.176723510 0.184692994 0.159139723
0.178747773 0.184692994 0.152055621
0.180518985 0.184439987 0.152434990
0.180518985 0.180897981 0.145350993
0.186590716 0.185072541 0.146489546
0.188235000 0.188108936 0.155597925
0.192789063 0.189120933 0.158633664
0.194180742 0.190512255 0.157241985
0.200252831 0.193927988 0.159139723
0.205819234 0.198228776 0.160910517
0.212650120 0.202403247 0.165971115
0.221758246 0.202403247 0.169006988
0.227071643 0.206577986 0.169386253
0.236432999 0.210499287 0.175458252
0.247311831 0.214800820 0.181530237
0.256040514 0.218849242 0.183174804
0.263630301 0.224921241 0.187729374
0.277166158 0.230360672 0.200758934
0.289310962 0.235041007 0.203794971
0.302213937 0.243896350 0.207590282
0.315496266 0.249209732 0.213662267
0.331562251 0.256167144 0.221631989
0.348134220 0.263504028 0.225932762
0.370145261 0.273371518 0.232764155
0.390638530 0.283997506 0.244402528
0.413282543 0.297533154 0.256293535
0.438077331 0.310816169 0.271979868
0.471473664 0.324477971 0.290196240
0.508412063 0.339278817 0.301074982
0.539278388 0.354459167 0.314990163
0.577355921 0.372296154 0.333839297
0.611890972 0.396584511 0.349398971
0.185452357 0.207463279 0.172042638
0.185452357 0.206324920 0.163314283
0.186590999 0.207463279 0.160910636
0.190006644 0.207463279 0.162049279
0.189627096 0.207083821 0.161669731
0.191144705 0.208602220 0.167741925
0.196710646 0.209108278 0.171789959
0.200632289 0.210246637 0.174319640
0.203668281 0.211764634 0.174319640
0.213156119 0.217836633 0.174319640
0.218216285 0.222770289 0.179000735
0.225173891 0.224794284 0.183048740
0.234281987 0.225932628 0.187223285
0.243643418 0.232004687 0.193042248
0.255787641 0.235926688 0.198228642
0.266666800 0.240101442 0.202909291
0.276913434 0.244655624 0.205945373
0.286021203 0.248830065 0.211385578
0.297659963 0.250853688 0.214421332
0.312080979 0.260594636 0.218595996
0.324225277 0.267046362 0.222390980
0.338393271 0.271094620 0.229475111
0.356736481 0.280075759 0.235673636
0.380012631 0.291208148 0.243769899
0.403162539 0.303352654 0.256293625
0.424667954 0.315749645 0.269196928
0.450474679 0.330423981 0.283870637
0.479064047 0.344971150 0.300822258
0.514737427 0.360151440 0.313345790
0.552940726 0.377608806 0.328272820
0.586337388 0.394560218 0.347880781
0.622517288 0.418595999 0.369892269
0.188994035 0.236559033 0.180897996
0.189247057 0.234029412 0.178368375
0.191144809 0.234535217 0.179633215
0.196458161 0.237318069 0.183175161
0.203795493 0.236685574 0.184693485
0.200759098 0.233649969 0.181657091
0.205819041 0.233396992 0.184440315
0.209993720 0.235294312 0.186970338
0.214800999 0.238583028 0.189500034
0.226944998 0.244655028 0.189500034
0.230866864 0.247564867 0.192409903
0.235927001 0.248830035 0.195192799
0.243390381 0.249968380 0.199367285
0.252498031 0.253004074 0.205440000
0.264642835 0.259076834 0.208475620
0.276534021 0.265148997 0.216065794
0.288931012 0.270968020 0.223149985
0.300189525 0.275901496 0.228842542
0.309297949 0.272865117 0.231878936
0.327008009 0.282732725 0.237951010
0.341682434 0.291334957 0.242125317
0.355597973 0.297913015 0.246932164
0.374067008 0.303985029 0.256167024
0.395445943 0.312966168 0.262492031
0.418469518 0.324098587 0.272865057
0.441872627 0.336495996 0.283870667
0.465149045 0.348893017 0.293738067
0.498545378 0.361037016 0.305882066
0.531941772 0.376090854 0.320682883
0.568627119 0.394560188 0.339152187
0.606577694 0.415812612 0.362808168
0.639974952 0.437065035 0.393168986
0.198102415 0.251739413 0.186969995
0.201138809 0.254775792 0.190006390
0.201391831 0.250094831 0.191777214
0.204554409 0.253510296 0.197343156
0.209740996 0.260847807 0.202529997
0.203795478 0.254902333 0.190765470
0.213409409 0.256926060 0.200379416
0.217710406 0.260973960 0.202403694
0.219860986 0.264895409 0.202150732
0.226944998 0.265907407 0.204680413
0.236179873 0.266160399 0.207590282
0.241999000 0.268817246 0.208602414
0.250347972 0.271220744 0.211511821
0.261606425 0.274256408 0.217583984
0.270714819 0.277292818 0.223655984
0.280455768 0.283364981 0.229095399
0.293232203 0.287919164 0.232763991
0.305881977 0.292220384 0.235293984
0.312333554 0.297153831 0.240986556
0.332573950 0.296900809 0.249588937
0.349398702 0.305123240 0.254269719
0.363946706 0.314610809 0.258317828
0.380138993 0.325237393 0.265275389
0.404427826 0.331309408 0.277419418
0.423529387 0.340291113 0.286021680
0.447185189 0.352814704 0.297153771
0.474256635 0.367362052 0.309171468
0.507652938 0.382289380 0.324098825
0.541050017 0.399747044 0.338899642
0.576217771 0.417330742 0.355850756
0.613282800 0.437064976 0.377355963
0.649082541 0.458317399 0.405312985
0.207210809 0.274130583 0.200252801
0.207843393 0.274763167 0.200885385
0.210879222 0.273497999 0.203921765
0.212397352 0.274003744 0.208222598
0.217330992 0.282353252 0.216192350
0.219354987 0.274256974 0.218216583
0.218848988 0.280582249 0.216698602
0.226059705 0.280328870 0.215686187
0.228336796 0.284123778 0.212650180
0.234408796 0.287412792 0.217330515
0.243390054 0.289816588 0.222770661
0.250474691 0.289816588 0.225806534
0.257685155 0.292473137 0.227324635
0.268311024 0.295508802 0.231625795
0.277419388 0.298545212 0.233396798
0.293737978 0.303984791 0.241871983
0.301328182 0.307020783 0.246426195
0.313851565 0.309803963 0.249209374
0.325236797 0.315875977 0.257052600
0.335610181 0.321188986 0.258697152
0.356862545 0.326881737 0.265907794
0.375078917 0.335989714 0.271474123
0.393042296 0.346616268 0.279190779
0.410499811 0.354964972 0.291334808
0.434787989 0.365591556 0.301201493
0.457431972 0.374826074 0.310309827
0.485262573 0.388487935 0.321948051
0.516761184 0.405566007 0.337128401
0.545350671 0.420999438 0.349905014
0.582289815 0.440986961 0.370398581
0.616698563 0.462492138 0.392536372
0.648576796 0.486780584 0.419860810
0.216318801 0.296900809 0.218469188
0.217836991 0.298418999 0.219987378
0.215433419 0.297786415 0.219101772
0.220999345 0.296015203 0.220872998
0.224162191 0.303605527 0.226438999
0.227957189 0.299051464 0.234408736
0.232005194 0.300569504 0.237444997
0.232131705 0.304617673 0.236938953
0.237444982 0.303858399 0.229348361
0.245034993 0.309930384 0.235420376
0.252498299 0.311575055 0.238456726
0.261100501 0.314104974 0.242505118
0.268311620 0.315243632 0.244402379
0.277166396 0.318279356 0.247059152
0.285009593 0.321315408 0.248323992
0.298292190 0.325237155 0.250980377
0.311954379 0.331309199 0.258570164
0.319291353 0.331941783 0.262238979
0.333586186 0.337128401 0.270461768
0.346236527 0.343200386 0.272738993
0.362934917 0.351170123 0.278052181
0.383175164 0.360278249 0.286148161
0.403921485 0.369133502 0.295509458
0.421884894 0.375458479 0.303478807
0.445414156 0.388361782 0.314864099
0.468310833 0.400506169 0.323971689
0.495382845 0.410752445 0.333586097
0.524730980 0.427957088 0.347754598
0.555471182 0.443516999 0.364832371
0.583807588 0.460721135 0.381024361
0.625047565 0.483744532 0.407969534
0.656167030 0.511069000 0.436558992
0.224794149 0.318152547 0.237823978
0.229095384 0.322453946 0.242125377
0.225047573 0.323972136 0.241492778
0.225300565 0.324604541 0.240354136
0.234029397 0.324604541 0.240733594
0.234535396 0.327387869 0.246552557
0.239595562 0.327261537 0.249462306
0.243010983 0.327261537 0.249588981
0.244149566 0.328146964 0.250474572
0.256293565 0.334218979 0.256546587
0.262618572 0.334471971 0.257431984
0.271347225 0.337128282 0.258823693
0.280455619 0.340164185 0.261986405
0.289816976 0.343200564 0.262492478
0.296647966 0.346236289 0.265907705
0.306894541 0.348639935 0.267172545
0.318153143 0.352561533 0.270208538
0.327261537 0.358633578 0.275015563
0.339405596 0.361669958 0.281087577
0.354965329 0.366856545 0.285641909
0.372043133 0.374826312 0.291840702
0.392915964 0.383934438 0.300695956
0.411384970 0.393168569 0.312713474
0.433143467 0.397723019 0.316761225
0.457684845 0.407969832 0.326628536
0.484123796 0.422391117 0.336748868
0.506894171 0.435547143 0.347880632
0.534344971 0.450853974 0.360404849
0.565717816 0.465401769 0.379886329
0.596837699 0.483618051 0.400632471
0.625680149 0.502593100 0.420746118
0.671220601 0.529917538 0.454142570
0.230866954 0.339405030 0.249968022
0.239974573 0.348513424 0.259076416
0.235673800 0.352814794 0.261227012
0.234408826 0.355597824 0.262239158
0.243137047 0.358001024 0.265022427
0.249209046 0.358000994 0.268058032
0.254775703 0.355724365 0.268817008
0.259203285 0.354586005 0.265781045
0.261986107 0.355344921 0.262492120
0.265401989 0.358507067 0.265655011
0.271726996 0.358760059 0.268817127
0.281847000 0.362808079 0.269576043
0.292599678 0.367488652 0.272106051
0.301961035 0.370525032 0.277672142
0.314105034 0.373561412 0.283744901
0.323339820 0.374193966 0.287160158
0.334218979 0.375964820 0.291460991
0.345477581 0.379886001 0.296267986
0.354586035 0.385958046 0.296268016
0.372296005 0.388994426 0.305123359
0.386464000 0.396078736 0.311827987
0.402403176 0.405186862 0.318153024
0.423529029 0.414421052 0.324857533
0.447817832 0.426565826 0.333965927
0.469576269 0.433396965 0.344844967
0.495509297 0.444402665 0.354205996
0.525110960 0.459835976 0.363061070
0.555470884 0.478051960 0.384313434
0.582921743 0.490701973 0.402150691
0.614294589 0.510183394 0.424161911
0.645414531 0.532194972 0.447058558
0.674256980 0.551170051 0.469323039
0.248071015 0.388488084 0.281594068
0.257179350 0.389247119 0.285135746
0.259835720 0.391903728 0.287792355
0.258950382 0.393042386 0.289057523
0.265022188 0.393801302 0.291334808
0.263883382 0.391398072 0.289563447
0.269955367 0.393927753 0.292599708
0.272738665 0.393042386 0.292852730
0.276154101 0.393042386 0.289816648
0.283238500 0.394054264 0.288804501
0.291967392 0.399746746 0.294623494
0.300063103 0.399746746 0.293611646
0.311448306 0.403162390 0.295129716
0.322201371 0.405945748 0.300948679
0.331815004 0.406451792 0.304490477
0.346362799 0.409487575 0.308159471
0.356230199 0.411385238 0.312713385
0.368374348 0.415053725 0.319417953
0.383933991 0.421125740 0.325869739
0.395825744 0.427197754 0.334219098
0.412144452 0.430234134 0.333839267
0.426185936 0.438583374 0.338393271
0.443895876 0.449462265 0.348007709
0.465527803 0.458950222 0.354459286
0.489816576 0.468817651 0.368121654
0.512966335 0.478178710 0.382163376
0.540037870 0.491967440 0.393422067
0.568121672 0.507906735 0.407843143
0.593168676 0.520809710 0.426438689
0.623908460 0.538266897 0.448197395
0.657305419 0.561543345 0.475142300
0.688425362 0.583554387 0.503984749
0.266286999 0.423023462 0.307400733
0.269702643 0.423023462 0.300948590
0.279949725 0.426818460 0.315116704
0.274889410 0.424288452 0.311321855
0.277545780 0.424161911 0.311828166
0.280581802 0.427197903 0.311827809
0.287033468 0.425427139 0.308159322
0.293105453 0.430107445 0.312839985
0.295129478 0.430613458 0.314105093
0.303099245 0.430613458 0.313345969
0.308412582 0.434535205 0.317140728
0.319418192 0.436559200 0.320935994
0.328526109 0.437697589 0.320177078
0.339911729 0.440480739 0.325237006
0.350664049 0.440480739 0.328273028
0.364579260 0.440986663 0.333206534
0.378241450 0.447058648 0.336242914
0.388361722 0.450853884 0.341935456
0.404047757 0.455660701 0.349778712
0.422390699 0.461733222 0.355091602
0.432637721 0.465907454 0.362302750
0.447818130 0.469955713 0.361290097
0.463250965 0.479949236 0.372169495
0.484503359 0.485515624 0.376470715
0.504237533 0.498419017 0.389374018
