Assets/Shaders/EldamarStudio/100 Sci-Fi LUTs Pack/LUTs/cube/Valoh LUT.cube
LUT_3D_SIZE 8
DOMAIN_MIN 0.000000 0.000000 0.000000
DOMAIN_MAX 0.903226 0.903226 0.903226
0.090195999 0.054901998 0.058823999
0.152814999 0.043895997 0.064262994
0.244529098 0.026691902 0.077672102
0.347501636 0.003922000 0.097533353
0.466160387 0.001518192 0.135483995
0.583554447 0.000000000 0.174319729
0.709044993 0.001644712 0.220872998
0.859455764 0.000000000 0.272106111
0.131688997 0.116002090 0.072485544
0.186590999 0.111701541 0.082732551
0.264516532 0.108538643 0.080708191
0.356483281 0.094117902 0.101074994
0.470588535 0.063503906 0.130423650
0.586211324 0.019987646 0.161796555
0.711322308 0.006957803 0.208476007
0.857684851 0.002656546 0.262238979
0.206072196 0.212271094 0.137887195
0.244781643 0.210753098 0.135484099
0.287539184 0.194307193 0.122960091
0.378114820 0.198608458 0.120303452
0.474763095 0.204427287 0.137887195
0.584440351 0.211891353 0.167235836
0.715243280 0.211511821 0.213788703
0.851106822 0.213029996 0.254649103
0.285894990 0.352182269 0.197343275
0.336243093 0.356103539 0.208349183
0.385072649 0.353320926 0.216824993
0.423150003 0.325743288 0.187223285
0.491334170 0.319923848 0.171663180
0.584819794 0.351928890 0.166476741
0.704617202 0.370018929 0.202909291
0.854395807 0.382542640 0.263503999
0.344845176 0.560025156 0.287919372
0.376596928 0.567362130 0.309298187
0.439722091 0.579506457 0.345351309
0.490954727 0.558380425 0.308412254
0.535231173 0.506641388 0.260088354
0.597469747 0.465907454 0.227830380
0.708286047 0.501960456 0.221631899
0.844402432 0.526881754 0.243389949
0.399493992 0.762049198 0.461733460
0.435167730 0.762428641 0.474635988
0.496267915 0.773687720 0.513978720
0.577609241 0.772169828 0.531562448
0.618848622 0.745477498 0.466793209
0.671726704 0.687412739 0.385452211
0.728526413 0.625806272 0.320683002
0.861985743 0.652498543 0.327008367
0.552434802 0.895003259 0.643643558
0.593421578 0.895003259 0.661986291
0.644275784 0.898924649 0.685262561
0.718658924 0.905629635 0.717014611
0.746362805 0.892599285 0.690828443
0.782542586 0.871600270 0.640860081
0.830233812 0.831246018 0.558633566
0.876913488 0.768880129 0.484250546
0.765211582 0.974066794 0.801897585
0.777609110 0.977862000 0.814800620
0.807969809 0.973940790 0.826691985
0.851992428 0.976723671 0.849841952
0.878178418 0.972675800 0.854143143
0.892346501 0.969512939 0.822138071
0.917773545 0.958001256 0.781656981
0.957241714 0.932320774 0.720809698
0.077292554 0.058444452 0.148134097
0.163061097 0.043516546 0.140670538
0.259076536 0.050980002 0.145350739
0.343579620 0.065528356 0.170019001
0.447438389 0.087033801 0.221632004
0.565718174 0.118658736 0.288677722
0.697279990 0.119797185 0.332953781
0.836053014 0.120429792 0.373687357
0.129791439 0.124605000 0.165844545
0.168501094 0.119165003 0.138646096
0.257431656 0.106135443 0.149652094
0.349904746 0.120303638 0.181783900
0.451359987 0.136369094 0.226818740
0.572295904 0.134725094 0.265148729
0.706641257 0.128020540 0.314105093
0.857305408 0.138393179 0.361290067
0.169006541 0.198988095 0.177988902
0.220746443 0.200126648 0.172042638
0.281720549 0.187602639 0.170398548
0.368627548 0.191903993 0.177482635
0.471220821 0.192283541 0.204427287
0.591271520 0.193422183 0.235926896
0.710057020 0.194560632 0.270967990
0.858570576 0.202656463 0.320430279
0.236685902 0.338646621 0.218596086
0.289563566 0.338646740 0.224414840
0.367109507 0.345603824 0.249335721
0.403794914 0.317520738 0.220873088
0.481847078 0.319418252 0.210373342
0.582922220 0.344971657 0.227957278
0.717647135 0.364579529 0.269576192
0.865781367 0.384946316 0.319164813
0.309424341 0.533712804 0.302340388
0.350917339 0.541555941 0.319164753
0.418596089 0.556356668 0.346362919
0.477545738 0.549778402 0.357494831
0.527387321 0.494244188 0.295635521
0.596205115 0.465527922 0.263630718
0.708791792 0.504743814 0.265781015
0.851866007 0.532574356 0.309550703
0.363946915 0.744718552 0.456420243
0.403288990 0.751676023 0.478937447
0.475774705 0.755597770 0.511574924
0.566603243 0.766223490 0.556863010
0.607084155 0.733586013 0.497153372
0.658190966 0.677166045 0.409993649
0.721821606 0.623908937 0.347501546
0.856166899 0.649841845 0.362049282
0.544845223 0.887792289 0.647311807
0.564453125 0.890955269 0.658570409
0.624162078 0.893737972 0.682858825
0.705629468 0.898165345 0.719797492
0.748639703 0.892093599 0.717140913
0.778367877 0.872232735 0.662618577
0.828209996 0.840227723 0.589373529
0.879190147 0.781910241 0.512333632
0.756736338 0.976723671 0.803921402
0.769006848 0.977988839 0.812017500
0.801265180 0.975964665 0.828969121
0.847185254 0.973055243 0.847311735
0.883112192 0.973814189 0.859961808
0.897153616 0.966350317 0.832131505
0.913472652 0.956989348 0.793295145
0.954332292 0.931941390 0.726502180
0.012650003 0.059582900 0.250601083
0.147375092 0.050600551 0.256926090
0.265655100 0.033016905 0.251486301
0.351043373 0.027198359 0.255408198
0.439595193 0.018089807 0.266413987
0.557621658 0.067046545 0.318785489
0.671347380 0.130803078 0.390765399
0.811511517 0.229854420 0.474256903
0.103604995 0.133206993 0.269955635
0.144971102 0.115622647 0.258064657
0.256167203 0.099936545 0.252624750
0.355344713 0.091714084 0.255028635
0.445920289 0.095635906 0.276660293
0.550031364 0.131309435 0.326249003
0.678684056 0.190132976 0.401391625
0.827450812 0.290575802 0.498798043
0.145098001 0.224035278 0.280455291
0.190891638 0.226818636 0.280075729
0.267173082 0.190385997 0.271094084
0.363567263 0.181404546 0.268311471
0.458444089 0.196710989 0.295382977
0.562555492 0.238583341 0.355724186
0.680835128 0.296647578 0.426818460
0.826438606 0.350411117 0.491081744
0.173307985 0.311701268 0.290575385
0.212144554 0.305376291 0.296901017
0.287286669 0.304996818 0.283870727
0.384440541 0.296394736 0.291461170
0.473624557 0.308918506 0.309044719
0.583301783 0.326122612 0.342947364
0.715749621 0.352435112 0.387729377
0.852498174 0.395698994 0.443642884
0.179633081 0.491840363 0.348513365
0.224921063 0.493737936 0.350158274
0.330044001 0.495762169 0.349905312
0.450601190 0.517647266 0.412776470
0.498418987 0.459709287 0.351676285
0.580518425 0.464642823 0.339531839
0.701075494 0.501960456 0.367236197
0.850600779 0.528905511 0.427830517
0.242631182 0.707779706 0.461859375
0.300442755 0.710056961 0.472485811
0.403415471 0.718279302 0.509171247
0.522074759 0.738266945 0.570271969
0.590638578 0.722960353 0.561416745
0.627451301 0.662998080 0.468564212
0.712840021 0.627071440 0.421125650
0.844781935 0.658823371 0.439089090
0.491587460 0.877672553 0.651992440
0.512839973 0.873624504 0.656420112
0.575079024 0.885515392 0.686148167
0.670841396 0.888931036 0.725110531
0.753067613 0.890955150 0.758760273
0.776597083 0.876407325 0.706388474
0.818722486 0.835926592 0.638203561
0.877798975 0.789753318 0.569259882
0.738393486 0.972801924 0.807969749
0.755977392 0.975332081 0.821505368
0.791777551 0.970271766 0.843516767
0.835800111 0.976723313 0.853257477
0.883365035 0.976976573 0.878557980
0.895509124 0.969512939 0.854269624
0.916255593 0.957621574 0.818722308
0.948639929 0.938140571 0.760910809
0.002783356 0.061100997 0.419861257
0.080076009 0.047817998 0.419481695
0.256167203 0.027198359 0.406071842
0.368753642 0.002783356 0.387856007
0.460467726 0.002403808 0.387096912
0.541808724 0.001138644 0.389626741
0.644528925 0.001138644 0.420999646
0.792789400 0.098165691 0.499430597
0.001138547 0.131688893 0.427324742
0.070967823 0.115243189 0.414673895
0.248829663 0.096015550 0.412776440
0.368627548 0.073750906 0.390385926
0.455281407 0.055661000 0.382668823
0.544212520 0.062745094 0.399494171
0.655281544 0.076027997 0.434914947
0.799494088 0.174066693 0.509550631
0.056799285 0.261226833 0.450853825
0.148134261 0.244402185 0.447312176
0.238330096 0.198608547 0.437444717
0.371030748 0.174319744 0.407210469
0.462744832 0.168880552 0.398355722
0.552435040 0.176344007 0.410119921
0.662745357 0.202782899 0.449841917
0.811005950 0.290828526 0.536115885
0.069576092 0.373940647 0.464768916
0.154205918 0.370398283 0.472359180
0.260468125 0.364959180 0.462871373
0.363693982 0.305503011 0.429474920
0.460467815 0.285136074 0.412396818
0.559139848 0.296774268 0.427704185
0.673750877 0.369513273 0.495002985
0.807716608 0.478557765 0.594813466
0.099177741 0.459709167 0.455534607
0.158254519 0.463250935 0.458570629
0.246805668 0.457432270 0.462998271
0.348893106 0.443263352 0.447564930
0.459202975 0.429222167 0.437570810
0.558127880 0.473750442 0.481847286
0.690448999 0.507653356 0.527008235
0.833649457 0.556862772 0.582163095
0.000000000 0.645034909 0.513852000
0.003162904 0.645414352 0.519670844
0.193801209 0.652751327 0.524351656
0.361416727 0.661859572 0.530170560
0.533333421 0.690322638 0.598608315
0.588741243 0.634788096 0.537254453
0.692220092 0.630487263 0.517267644
0.833775878 0.665781438 0.553700268
0.281088084 0.853636920 0.635800242
0.336749166 0.854522645 0.651359499
0.431752086 0.851992190 0.661986053
0.573814154 0.861479938 0.711448193
0.715369880 0.879822731 0.770651519
0.768500924 0.870841086 0.759645641
0.793295562 0.825047255 0.684123814
0.866287410 0.792030275 0.630233943
0.692599773 0.964832127 0.814167917
0.707273543 0.969133675 0.827956617
0.746236324 0.976850212 0.841619074
0.805692375 0.974320173 0.854522765
0.869576335 0.972802222 0.885515392
0.908412337 0.973813951 0.895003021
0.919923961 0.962049186 0.856799543
0.945603669 0.936116278 0.794307411
0.000000000 0.068184800 0.604680359
0.000000000 0.050980192 0.604300976
0.210879013 0.013409100 0.594433725
0.367994726 0.000000000 0.583175004
0.474889398 0.000000000 0.551549375
0.556356668 0.003542452 0.541682601
0.642378569 0.000000000 0.553826630
0.773054600 0.000000000 0.576217771
0.002783356 0.131941527 0.607084155
0.003035997 0.122707359 0.608095944
0.206831366 0.097533450 0.597216964
0.361416876 0.061986096 0.587602377
0.464642555 0.018090002 0.560910583
0.551928997 0.004933641 0.540037751
0.658950210 0.004680806 0.563567102
0.779506505 0.003415642 0.591271341
0.002403808 0.273497909 0.626818478
0.000759096 0.241619647 0.617583930
0.134345129 0.206831098 0.624415040
0.346489191 0.183681443 0.599241316
0.463251084 0.161416993 0.569513023
0.557495058 0.146489277 0.554585457
0.655155241 0.154332891 0.569513083
0.777862012 0.157621816 0.581277430
0.002656546 0.420999616 0.655028582
0.001517999 0.409993708 0.647817433
0.187096551 0.381024718 0.638962805
0.306008846 0.319164842 0.621252477
0.449209183 0.290954918 0.585451901
0.558001101 0.276786804 0.576343954
0.666034341 0.290575355 0.583428025
0.799999952 0.313472569 0.598734975
0.000000000 0.540417552 0.658064604
0.000000000 0.538646638 0.662871361
0.141303092 0.536622286 0.658064365
0.318785459 0.522454381 0.640860319
0.430234194 0.453510374 0.607084155
0.546869159 0.421758443 0.587855637
0.664389551 0.441492349 0.591524243
0.807210565 0.539025605 0.656925976
0.000758999 0.645540714 0.662365615
0.005566196 0.637697518 0.658443809
0.072991639 0.640353918 0.652245820
0.270335466 0.631752133 0.645667315
0.415433198 0.619228184 0.627324641
0.528399706 0.589753270 0.596964002
0.668564260 0.650980294 0.655281603
0.824541330 0.687665939 0.691587508
0.003922000 0.787729442 0.668311179
0.003415642 0.791903853 0.673877180
0.035673652 0.803036213 0.680202425
0.303858340 0.813788712 0.686021507
0.522327602 0.826185763 0.715749383
0.733333588 0.850980222 0.788108766
0.748133838 0.804301023 0.724857509
0.851992488 0.798734784 0.703352213
0.494370371 0.963314235 0.796584606
0.527514100 0.959898651 0.794813395
0.605818748 0.962049067 0.812397122
0.709297597 0.962175906 0.834282219
0.816192210 0.963820338 0.877419770
0.906641126 0.974446416 0.917014658
0.917899728 0.966856718 0.896900594
0.935230970 0.935230970 0.830739975
0.000000000 0.070588000 0.765970707
0.004807003 0.059582710 0.763187647
0.048197459 0.025932999 0.758760095
0.304617554 0.002024260 0.754585445
0.448956639 0.000000000 0.737001956
0.552561522 0.001897740 0.704996407
0.649715602 0.000000000 0.700063288
0.769892454 0.000000000 0.718406022
0.000379548 0.135104537 0.763693750
0.000000000 0.129791349 0.764958739
0.013789005 0.106894538 0.755850911
0.295635909 0.082226284 0.749525666
0.440480888 0.038204089 0.735104203
0.552940905 0.007337545 0.717267573
0.656293750 0.000000000 0.708791733
0.781530619 0.000000000 0.733333290
0.000000000 0.262744844 0.783175111
0.001138547 0.244022727 0.775331974
0.006072271 0.214548096 0.776217759
0.268437743 0.198481917 0.764326036
0.434408814 0.180012465 0.743959606
0.541556060 0.153573811 0.719544828
0.652751505 0.133206800 0.715496242
0.781783521 0.120556191 0.732447445
0.000759096 0.436053038 0.792662740
0.001517999 0.422643721 0.786464036
0.000759104 0.387856066 0.790385664
0.216951534 0.341176540 0.780138791
0.410879165 0.318026483 0.758507252
0.533206820 0.292599648 0.741429389
0.653510392 0.276154459 0.727893591
0.807590127 0.282605827 0.746489525
0.000758999 0.592156649 0.805060208
0.000000000 0.588235259 0.803542018
0.047944546 0.574952543 0.794560313
0.280328840 0.544718802 0.783554435
0.376976401 0.483491808 0.778115273
0.518659174 0.452118903 0.760404646
0.657178879 0.417709887 0.731309235
0.808222473 0.435420543 0.743833005
0.000000000 0.697406411 0.809234738
0.000000000 0.698165476 0.809361398
0.066160746 0.698418796 0.805186689
0.276027769 0.700316310 0.808222830
0.417204201 0.689816535 0.793295205
0.508918405 0.626565456 0.763946414
0.661733031 0.585452199 0.737508178
0.801644444 0.608981788 0.727640629
0.001644712 0.805439293 0.809993744
0.003668553 0.797596335 0.809487641
0.012270808 0.798608184 0.801897645
0.226312727 0.795825303 0.803541958
0.383807629 0.797216833 0.789753199
0.538013458 0.783428431 0.773054719
0.671853065 0.762808561 0.750284731
0.848450124 0.808222473 0.805186450
0.026565321 0.924477994 0.820493340
0.041365996 0.926501870 0.814674437
0.101327941 0.929285109 0.812144041
0.387096703 0.940543950 0.828589678
0.610119939 0.949778438 0.844022870
0.794939518 0.950284660 0.879190505
0.922074616 0.971157253 0.935610592
0.916508496 0.931815028 0.863377750
0.002277288 0.088551708 0.889436960
0.000000000 0.084630288 0.892093599
0.000759096 0.064136706 0.888045251
0.181404009 0.029854635 0.882732689
0.378747702 0.002403808 0.875522196
0.505629182 0.005439708 0.864768863
0.630613565 0.003922000 0.852498293
0.740797043 0.000000000 0.835926592
0.003668553 0.148260534 0.899303854
0.001644712 0.142441288 0.899936795
0.003415545 0.134345248 0.894244075
0.170398369 0.117773734 0.895888507
0.369386077 0.103225894 0.881214678
0.508159459 0.073624536 0.871347547
0.634028971 0.017204341 0.861606538
0.747501314 0.005819453 0.851233602
0.002277288 0.259961873 0.896774054
0.002024260 0.240354180 0.902466714
0.005566292 0.231752187 0.902719736
0.110056989 0.224667996 0.894623697
0.355218291 0.213662192 0.879190564
0.497027159 0.196204990 0.874256968
0.626945198 0.169007197 0.859329581
0.746869028 0.135231003 0.850980401
0.000000000 0.439974636 0.908918381
0.000000000 0.418595910 0.906514823
0.002403808 0.384440362 0.907779992
0.056799561 0.361543357 0.903984904
0.335610181 0.357874483 0.893611491
0.490702093 0.339025885 0.888424993
0.622643948 0.315116912 0.869196594
0.765970707 0.286274433 0.864263058
0.000000000 0.611764491 0.913219392
0.002656546 0.606577992 0.911575198
0.078810833 0.600126505 0.913852155
0.195572272 0.564579368 0.908285975
0.328273356 0.515876234 0.906008959
0.481214613 0.498418629 0.895129740
0.623656154 0.464136571 0.879949510
0.769765735 0.429348826 0.866160631
0.019355014 0.750917196 0.916382015
0.059961814 0.751802921 0.923339427
0.187982112 0.750158191 0.921315610
0.320935994 0.739152253 0.918026268
0.430233717 0.722201467 0.905629635
0.504237473 0.664516211 0.895888388
0.633776009 0.630487502 0.880834997
0.786591053 0.592409730 0.865274966
0.173687339 0.832258224 0.924098611
0.206957668 0.837065339 0.917141259
0.295509219 0.838456750 0.925110281
0.400885463 0.840227902 0.919670880
0.523213029 0.844781756 0.923465967
0.638203561 0.848956287 0.913725734
0.707653522 0.802150249 0.901201546
0.826185584 0.762302279 0.870841265
0.211258844 0.920050621 0.928146660
0.237824291 0.922454238 0.922074556
0.307147264 0.922706902 0.917520463
0.408096313 0.922327340 0.920809448
0.510816097 0.926628530 0.919165313
0.615559578 0.921947896 0.907274008
0.746616006 0.914357901 0.891713977
0.871853113 0.905249715 0.880455554
0.000000000 0.119038664 0.987222791
0.001265167 0.116129100 0.985578537
0.001265168 0.105249725 0.987222791
0.000000000 0.098039329 0.979759693
0.271853566 0.087539785 0.975964665
0.444022745 0.078937784 0.982415915
0.577988863 0.061479680 0.974446356
0.716634810 0.003922001 0.965085447
0.000000000 0.171410367 0.987222791
0.002909561 0.167109236 0.985325634
0.002024167 0.162428826 0.990765274
0.001138644 0.160025433 0.986084342
0.265654624 0.152814701 0.987476170
0.440733820 0.153320506 0.987855732
0.577355921 0.140796885 0.973687649
0.706261992 0.098291874 0.970398664
0.001897736 0.259582430 0.988614798
0.002656735 0.258570284 0.991650939
0.002530012 0.253384054 0.989247024
0.003035990 0.250094712 0.987982094
0.254016519 0.248070970 0.987981915
0.430360496 0.249335825 0.983427942
0.568248153 0.237697437 0.978241503
0.711321831 0.204301000 0.966350675
0.000000000 0.432131648 0.986463964
0.000000000 0.420619994 0.993295252
0.002530012 0.394560456 0.991017997
0.001138644 0.386717260 0.989879608
0.240733728 0.390259117 0.989753127
0.427198082 0.383175075 0.984186888
0.570904434 0.374699533 0.981783569
0.717394114 0.344085634 0.970651805
0.042251710 0.637571156 0.986337781
0.037950546 0.625933051 0.985704958
0.043010809 0.601391494 0.990765274
0.065148562 0.566223741 0.990006208
0.271473765 0.537634194 0.987349629
0.431372344 0.534345090 0.985831797
0.580139220 0.519418120 0.980138838
0.731688797 0.481847167 0.974193633
0.213915274 0.767362356 0.989626825
0.239342034 0.766350269 0.983933985
0.308412343 0.763440907 0.986590624
0.389120698 0.760404766 0.982795775
0.425300539 0.728779256 0.982289374
0.485642225 0.690828443 0.985704839
0.617331088 0.673877299 0.982415915
0.757748306 0.635167539 0.975205660
0.414420962 0.870461941 0.987982213
0.425174147 0.868184626 0.993295372
0.466919869 0.870714724 0.991144717
0.539658308 0.877672493 0.984060585
0.615559697 0.874889195 0.989120662
0.690449297 0.870209038 0.986463964
0.713219285 0.831625402 0.987729013
0.820240021 0.794307292 0.973687351
0.496521175 0.923086762 0.980518818
0.502466381 0.924477756 0.984946072
0.530044258 0.926502109 0.979886115
0.592536032 0.929538131 0.977988839
0.669449449 0.934851110 0.982922375
0.761543155 0.941429615 0.979379952
0.854269207 0.948007762 0.980518878
0.888171554 0.929790795 0.970145762
