Assets/Shaders/EldamarStudio/100 Sci-Fi LUTs Pack/LUTs/cube/Valoh LUT.cube
DOMAIN_MIN 0 0 0
DOMAIN_MAX 1 1 1
LUT_3D_SIZE 32
0.090195999 0.054901998 0.058823999
0.096267998 0.051865615 0.058823999
0.113092773 0.050980002 0.063124999
0.133080319 0.048450001 0.065401837
0.152814999 0.043895997 0.064262994
0.183174998 0.049968001 0.076407000
0.203415647 0.045919999 0.078431003
0.223276705 0.036559004 0.078431003
0.244529098 0.026691902 0.077672102
0.265781522 0.023655510 0.074636489
0.301580995 0.011891001 0.089057870
0.325869501 0.005819260 0.094117999
0.347501636 0.003922000 0.097533353
0.375079066 0.003668968 0.106641032
0.405439824 0.000632584 0.115749411
0.435799986 0.000000000 0.124857798
0.466160387 0.001518192 0.135483995
0.496521115 0.003289424 0.146995574
0.526881993 0.000253032 0.156103984
0.551676035 0.000000000 0.165211648
0.583554447 0.000000000 0.174319729
0.615939260 0.000000000 0.183428124
0.640734017 0.000126512 0.192789495
0.677166820 0.003162904 0.207969904
0.709044993 0.001644712 0.220872998
0.743579984 0.000000000 0.233016983
0.782037079 0.000000000 0.245161131
0.815433383 0.000000000 0.257305890
0.859455764 0.000000000 0.272106111
0.897912562 0.001771217 0.283744186
0.933966160 0.003036392 0.297280192
0.976471007 0.000000000 0.321568996
0.093232386 0.070082389 0.061859611
0.105376378 0.067046002 0.061859611
0.124351382 0.064010158 0.055407841
0.141429156 0.065654777 0.060847390
0.156230167 0.066287227 0.068437546
0.189246997 0.059076384 0.067299381
0.206957310 0.055028386 0.081973702
0.231246024 0.052245386 0.079570070
0.256673098 0.046426289 0.075395390
0.277925491 0.038835894 0.074636489
0.299177855 0.029981259 0.083238870
0.328905642 0.019987524 0.094117738
0.351296633 0.011512004 0.099430606
0.375585049 0.003668968 0.106641032
0.411511809 0.000632584 0.115749411
0.437064976 0.000000000 0.124857798
0.464642555 0.000000000 0.133965805
0.492852926 0.001518189 0.144591749
0.520810008 0.003289416 0.156103969
0.559519351 0.000253031 0.159645647
0.586970091 0.000000000 0.168247744
0.618975103 0.000000000 0.178367987
0.649462104 0.000126512 0.189626619
0.677166820 0.003162904 0.201897904
0.713598967 0.001644712 0.212523699
0.748260260 0.000000000 0.226691931
0.785072684 0.000000000 0.242631450
0.818469048 0.000000000 0.257305890
0.851866066 0.000000000 0.269449979
0.894117713 0.000000000 0.287792563
0.933080554 0.000885613 0.301075369
0.973434627 0.000000000 0.312460601
0.107020997 0.083112001 0.064895771
0.119164996 0.082226388 0.069196776
0.122706987 0.081340767 0.064895771
0.145730168 0.080835156 0.059582546
0.160278097 0.084124230 0.068817221
0.188361719 0.075015835 0.069323167
0.210879087 0.072738774 0.064263545
0.232637465 0.066666774 0.077799216
0.260974199 0.064895675 0.076027997
0.283618271 0.058570288 0.078811005
0.302719861 0.053763643 0.083238870
0.325995982 0.044655517 0.092346735
0.356609493 0.035547130 0.100315996
0.383428007 0.024161968 0.106135026
0.414168030 0.013535583 0.111448407
0.440986753 0.002150774 0.118406028
0.468311161 0.002150774 0.130550414
0.496900976 0.001518198 0.139658198
0.525743306 0.001518193 0.147248402
0.553447425 0.001138643 0.153194413
0.589120746 0.000000000 0.165717751
0.616951108 0.001012128 0.176596999
0.648323476 0.002024262 0.188741013
0.683744729 0.001012130 0.200885817
0.713598967 0.001644712 0.206451699
0.750031292 0.000000000 0.219734326
0.785958052 0.000000000 0.236938998
0.819354415 0.000000000 0.250474662
0.850600660 0.002150774 0.267299205
0.892852545 0.000379557 0.281214386
0.933459759 0.000000000 0.299051195
0.970398247 0.000000000 0.307653219
0.121442162 0.097785994 0.067931838
0.134851307 0.096521154 0.072738998
0.142188162 0.096521154 0.076534152
0.149778485 0.096521154 0.071727000
0.168753788 0.099177994 0.071727000
0.186843693 0.092726223 0.073877223
0.211132154 0.092473000 0.066793166
0.235673845 0.089184001 0.066666834
0.262239158 0.083871096 0.077293031
0.286527812 0.080834836 0.083365165
0.304996818 0.076534025 0.086527705
0.327261150 0.073245063 0.092346735
0.353826463 0.064136676 0.100315996
0.389500171 0.055028290 0.106641032
0.417836398 0.041871917 0.111701414
0.444022745 0.030486975 0.117140993
0.468817204 0.019101998 0.125237182
0.499810398 0.016572012 0.139152572
0.530803084 0.011638186 0.143453375
0.558127761 0.006325160 0.149272710
0.583048761 0.001265161 0.157874987
0.615433276 0.000253033 0.175079122
0.643390179 0.002783351 0.187602654
0.681720734 0.002024257 0.200885817
0.715623200 0.000000000 0.207463875
0.747501314 0.000000000 0.214927167
0.784440100 0.000000000 0.232637897
0.819354415 0.000000000 0.245540991
0.853889763 0.001391671 0.262997985
0.888551354 0.002150783 0.278178334
0.934471607 0.000000000 0.293358535
0.968626976 0.000000000 0.305882007
0.131688997 0.116002090 0.072485544
0.146869391 0.112966381 0.075521931
0.156609789 0.112839997 0.081341222
0.169133335 0.112080991 0.087286830
0.186590999 0.111701541 0.082732551
0.189626604 0.111701541 0.082732551
0.212143868 0.113851771 0.076280773
0.238330111 0.113092549 0.075015545
0.264516532 0.108538643 0.080708191
0.288804561 0.105503023 0.086780965
0.308412075 0.099557549 0.090322673
0.331056029 0.097153999 0.095382541
0.356483281 0.094117902 0.101074994
0.386337996 0.085768551 0.107400022
0.416444957 0.077039681 0.116508409
0.444402307 0.070335098 0.123212993
0.470588535 0.063503906 0.130423650
0.496015072 0.054522108 0.139152572
0.529411554 0.042378079 0.148260981
0.560784161 0.031372629 0.154965475
0.586211324 0.019987646 0.161796555
0.610499740 0.010499962 0.169766128
0.640986979 0.007210617 0.184693471
0.677166820 0.009234995 0.199367821
0.711322308 0.006957803 0.208476007
0.745857179 0.003795093 0.217330977
0.778747618 0.003036094 0.229601517
0.818215966 0.003036094 0.244781896
0.857684851 0.002656546 0.262238979
0.893991113 0.003795093 0.277672410
0.929158568 0.005313091 0.291081905
0.968626976 0.005313091 0.306261539
0.149904996 0.134218872 0.087665930
0.165085375 0.131182477 0.090702318
0.169512987 0.134598002 0.089437157
0.177356079 0.134597987 0.094750054
0.192662999 0.129917547 0.100948550
0.204806998 0.126881927 0.085768931
0.223023251 0.126881927 0.085768931
0.243643329 0.129032150 0.085895158
0.264137089 0.130550027 0.089437030
0.285768956 0.132827416 0.092852972
0.312966794 0.126881927 0.098924994
0.338773131 0.122833669 0.104490928
0.363314569 0.119164996 0.109424286
0.386337996 0.113092929 0.113472030
0.410625994 0.113092929 0.122580409
0.438329786 0.106767870 0.129284993
0.465654671 0.102213666 0.135356992
0.492473453 0.097532868 0.141935214
0.520303965 0.090954855 0.148260981
0.556482971 0.087160215 0.157368660
0.586211264 0.080708802 0.167868540
0.613535941 0.073624536 0.176976919
0.644022584 0.067931391 0.184693471
0.677419782 0.058823761 0.193801105
0.711322308 0.051739577 0.206198707
0.748893261 0.042251885 0.217330977
0.787349939 0.033143871 0.229474992
0.815180302 0.027324868 0.241745502
0.854648650 0.024668034 0.256925851
0.892346382 0.029222131 0.274383396
0.929158568 0.037697848 0.291587979
0.968626976 0.047817864 0.309297919
0.173181638 0.160025313 0.105375998
0.180771708 0.156988919 0.100822061
0.193801329 0.158254087 0.106008679
0.200379327 0.161416635 0.104111157
0.213535547 0.157874629 0.108412318
0.223529324 0.152688265 0.103984930
0.235673308 0.149652004 0.098924674
0.253636718 0.146363005 0.100569382
0.272485882 0.147501320 0.103605218
0.295509487 0.152308494 0.106641151
0.314990550 0.151675999 0.097406678
0.342314929 0.147628263 0.101454936
0.369639307 0.148007646 0.107020997
0.393674701 0.147501647 0.111448288
0.415685982 0.142947644 0.116002090
0.447185397 0.142947644 0.127514273
0.474762827 0.138646454 0.133839309
0.502087533 0.136242643 0.141808882
0.529412031 0.133965641 0.153573960
0.557495356 0.135736987 0.164958969
0.588235080 0.130803645 0.172169313
0.615559816 0.125743508 0.181024671
0.644781470 0.121441960 0.187096670
0.682985723 0.119544536 0.193801105
0.714105010 0.114990354 0.207463279
0.748640001 0.109171316 0.219861001
0.787855744 0.101960883 0.232005313
0.821252406 0.097912632 0.244149312
0.856673062 0.094497442 0.256419808
0.894370675 0.096774258 0.275142163
0.931688905 0.106008932 0.292346656
0.971157312 0.118152946 0.307273686
0.190891996 0.185705408 0.121947698
0.200252980 0.184313715 0.120809406
0.210626408 0.183934182 0.118405700
0.218975246 0.185705408 0.120682858
0.229980692 0.185325861 0.118785694
0.240353912 0.180518702 0.121315695
0.251992404 0.178621083 0.117141083
0.262491673 0.172295704 0.110815704
0.279190093 0.166223705 0.113852091
0.302593291 0.168753698 0.116887927
0.324351698 0.170651406 0.113598704
0.346995264 0.173560962 0.106641248
0.372042626 0.172802061 0.107400350
0.398102045 0.178115025 0.111954354
0.420746088 0.176217705 0.116381995
0.446679413 0.173307985 0.124983892
0.480076194 0.173307985 0.135610476
0.508285940 0.171030700 0.139911428
0.536622286 0.171030700 0.149019569
0.559013367 0.175458759 0.163061306
0.587982476 0.174446702 0.173054993
0.617330849 0.171410829 0.181150988
0.646173179 0.169766113 0.188741013
0.682605982 0.169766113 0.197849423
0.716888011 0.165844113 0.210752279
0.748640001 0.165591076 0.221758336
0.784313798 0.164073452 0.233396992
0.819607854 0.163314357 0.245540991
0.854395866 0.161922932 0.254395992
0.895762324 0.160911083 0.275142163
0.933080554 0.166983098 0.293737978
0.972549021 0.177609116 0.305882007
0.206072196 0.212271094 0.137887195
0.216698185 0.209235102 0.138646483
0.228083432 0.211511999 0.138899326
0.239468932 0.210753098 0.137381256
0.244781643 0.210753098 0.135484099
0.258064181 0.208096251 0.141556099
0.267172635 0.207590193 0.137508094
0.276913375 0.204174489 0.130550489
0.287539184 0.194307193 0.122960091
0.308791608 0.188235193 0.125996485
0.329917669 0.188614964 0.126755223
0.353446990 0.193675101 0.125237107
0.378114820 0.198608458 0.120303452
0.399367213 0.201644138 0.117520094
0.423149914 0.204680517 0.122580729
0.447438508 0.205945477 0.128779188
0.474763095 0.204427287 0.137887195
0.507527053 0.205692276 0.145730585
0.537887156 0.205945298 0.142947242
0.558633626 0.209993809 0.155091375
0.584440351 0.211891353 0.167235836
0.614295006 0.210879222 0.175079003
0.647817910 0.213662580 0.187222987
0.681846917 0.213029996 0.199367628
0.715243280 0.211511821 0.213788703
0.749398887 0.208854958 0.226312339
0.782795966 0.211891219 0.233396992
0.816192269 0.214927539 0.245540991
0.851106822 0.213029996 0.254649103
0.889310539 0.217584193 0.272359133
0.933839619 0.216319174 0.292979062
0.973308086 0.222391188 0.305123091
0.230360985 0.245667502 0.156103984
0.236432984 0.233523503 0.150031984
0.244908184 0.236938730 0.150790721
0.256672680 0.240607172 0.153573662
0.272106051 0.238077521 0.156736508
0.293358386 0.238077521 0.162808508
0.296520948 0.237950981 0.158760503
0.300316006 0.236306280 0.152688503
0.308791608 0.230740011 0.147248894
0.323971957 0.218595996 0.144212499
0.336495459 0.212523997 0.138520017
0.355217785 0.214927495 0.136875495
0.378873944 0.219860852 0.135483861
0.405440003 0.222896531 0.132700503
0.426692367 0.225932911 0.132700488
0.450474471 0.233776301 0.132953510
0.476280719 0.237824470 0.137887195
0.504490674 0.239089474 0.145730585
0.534851551 0.245161489 0.148766980
0.559645474 0.245414481 0.157115623
0.587475955 0.247564763 0.168374479
0.616824627 0.250347644 0.177356347
0.644781530 0.253131002 0.181150988
0.681214333 0.250094593 0.193295017
0.715243280 0.254016578 0.207716316
0.750031292 0.256799966 0.221505329
0.785831571 0.257432401 0.233396992
0.819227934 0.260468006 0.245540991
0.857937932 0.252877682 0.260341823
0.895382822 0.260088414 0.280455410
0.933966160 0.270462006 0.298671603
0.976344466 0.264896005 0.302087486
0.245920122 0.267425865 0.168500990
0.260720998 0.272738874 0.171157867
0.260341793 0.269196868 0.169386864
0.270208746 0.273497909 0.170398742
0.287792414 0.274510205 0.171790332
0.309044808 0.277039856 0.175332010
0.317646861 0.269449532 0.178874314
0.326628566 0.269955695 0.177229866
0.338013738 0.269449651 0.172928780
0.351043344 0.263756871 0.165591359
0.354585737 0.251612842 0.153826863
0.368753999 0.243516609 0.149778605
0.387096733 0.242883980 0.147754639
0.408602148 0.244401917 0.144718707
0.429854512 0.250095159 0.142061874
0.451106906 0.257937938 0.142061874
0.476407200 0.268564373 0.145097867
0.503731549 0.274130732 0.151549578
0.531815171 0.275648743 0.154585972
0.559392512 0.281720728 0.157621652
0.587602437 0.283870995 0.168374479
0.617963254 0.284882873 0.179506868
0.647438347 0.284124225 0.186717004
0.681087792 0.286653817 0.198861748
0.715243280 0.288172007 0.206451744
0.747248292 0.292220175 0.215559855
0.779633105 0.294750005 0.225174189
0.810626268 0.300189406 0.239721984
0.851992428 0.303225696 0.259835809
0.889942884 0.298671395 0.277292937
0.927261055 0.306261599 0.295761973
0.967742145 0.310309857 0.304870129
0.263124496 0.302846491 0.180644989
0.278304905 0.306894243 0.181657121
0.288677752 0.310689509 0.184566990
0.294497311 0.309424341 0.187096983
0.311195523 0.310562968 0.189753547
0.324225187 0.311954319 0.196078569
0.342947513 0.314990163 0.199114293
0.349019498 0.305882215 0.195572704
0.361543357 0.306641519 0.192157164
0.372422487 0.304870278 0.183048755
0.383934349 0.299177498 0.177102983
0.388994515 0.287033498 0.169006988
0.400759250 0.275648117 0.161416620
0.415433258 0.271220505 0.155597731
0.434914380 0.273750812 0.157874569
0.460214764 0.284250438 0.157241985
0.481467187 0.290322453 0.155724183
0.506514549 0.300948977 0.158380687
0.531056046 0.306514978 0.158633709
0.556356668 0.312080979 0.159645647
0.585578740 0.318152964 0.166476741
0.612903416 0.321315348 0.177482858
0.640480936 0.320683211 0.186590731
0.675774634 0.325616568 0.196837306
0.711195290 0.328652769 0.210499734
0.744591653 0.330297500 0.219355062
0.776596844 0.333206743 0.228210181
0.809993565 0.339278758 0.243390158
0.853004575 0.344718337 0.261859775
0.890196085 0.342441529 0.276028186
0.927260816 0.343579739 0.294370621
0.966729701 0.353826493 0.309929997
0.285894990 0.352182269 0.197343275
0.296521366 0.352941185 0.197343275
0.308538854 0.355977029 0.200632408
0.319164962 0.358760387 0.202656627
0.336243093 0.356103539 0.208349183
0.343073994 0.356103539 0.215939566
0.359519303 0.360024929 0.221125960
0.375964642 0.360151649 0.222137704
0.385072649 0.353320926 0.216824993
0.395319492 0.353320926 0.209614128
0.405692846 0.348134071 0.198355407
0.415939629 0.337887287 0.193295285
0.423150003 0.325743288 0.187223285
0.428716004 0.310309857 0.172295868
0.441618979 0.304996639 0.173054636
0.467046052 0.312333912 0.177735284
0.491334170 0.319923848 0.171663180
0.513219118 0.324225217 0.167362422
0.534977674 0.335863292 0.163314044
0.559013426 0.343579918 0.163060993
0.584819794 0.351928890 0.166476741
0.613156617 0.355976909 0.174572989
0.635041475 0.359139770 0.183554858
0.670461595 0.366223902 0.192662746
0.704617202 0.370018929 0.202909291
0.741935253 0.372802258 0.217836678
0.775331676 0.372802258 0.229981348
0.811131835 0.377609283 0.244528532
0.854395807 0.382542640 0.263503999
0.896268129 0.386084646 0.279823184
0.929664552 0.382669240 0.292473346
0.968626976 0.394054264 0.313724995
0.314737052 0.411638081 0.220873028
0.317520440 0.409108430 0.220367029
0.326755017 0.410120279 0.226186022
0.339658260 0.413156211 0.229475066
0.351676524 0.415560037 0.230866536
0.360784143 0.415560037 0.233902931
0.374699324 0.418342739 0.238456994
0.390638739 0.418848813 0.243643373
0.404807031 0.416066051 0.245920032
0.423023015 0.416066051 0.251992017
0.427703887 0.407084197 0.230740055
0.434788287 0.394433796 0.218089998
0.444655389 0.381151080 0.211259037
0.453510076 0.368501037 0.204934016
0.453510076 0.350284278 0.192789242
0.473371357 0.348766655 0.195951805
0.496900797 0.352814823 0.193927884
0.518785119 0.357115597 0.180265456
0.543074012 0.366223991 0.171157062
0.567868710 0.375079364 0.170145065
0.592409968 0.385832012 0.172042727
0.616445243 0.394940019 0.175332025
0.640607476 0.395446002 0.181024522
0.673497975 0.404680878 0.189626873
0.705123544 0.409234762 0.196711004
0.739405572 0.412523717 0.206451654
0.778115034 0.414801061 0.221631989
0.811511397 0.414801061 0.233775988
0.853130639 0.417710274 0.253636837
0.895129383 0.421758056 0.273624361
0.935230553 0.426944673 0.292473346
0.968626976 0.429981083 0.313724995
0.326881826 0.457179219 0.236053407
0.326881826 0.460214823 0.229981408
0.333965629 0.459835351 0.246679410
0.348766148 0.461732954 0.255787551
0.366982669 0.464010239 0.255661249
0.379000902 0.461100370 0.270334899
0.390638828 0.466160357 0.265780985
0.409993827 0.471600205 0.272106409
0.425553709 0.472739011 0.276281029
0.426059425 0.467678368 0.267172426
0.441366285 0.456040382 0.264516294
0.449968666 0.446552545 0.250980288
0.462492406 0.438456416 0.238962620
0.477798790 0.432258129 0.226186365
0.483870804 0.414041370 0.217077985
0.488677800 0.391018212 0.207337022
0.502213538 0.383681178 0.205060199
0.518785119 0.384439975 0.198861673
0.543074012 0.393548369 0.192409426
0.572928727 0.399873406 0.188867748
0.600126743 0.408475727 0.190259084
0.624794543 0.419228375 0.191271126
0.646679521 0.428842366 0.190132901
0.667931914 0.440986395 0.187096506
0.703099549 0.445667267 0.195698872
0.738266945 0.450094789 0.204174668
0.775331676 0.454016477 0.216066003
0.811511397 0.451233804 0.233775988
0.855534434 0.456546783 0.251233637
0.895129740 0.456672996 0.273624361
0.932827353 0.457305431 0.294876546
0.968626976 0.460341811 0.313724995
0.334219009 0.509930551 0.256040782
0.336622208 0.512966156 0.261985958
0.347374976 0.511701345 0.258064747
0.355723798 0.512713194 0.276280940
0.369765550 0.515749335 0.280455768
0.379886061 0.516761422 0.285515636
0.396837801 0.521315396 0.299809784
0.413915515 0.524098396 0.303605199
0.435927004 0.527134776 0.312713802
0.444402307 0.524351418 0.307147443
0.451612860 0.517267346 0.296520859
0.464768976 0.507147133 0.283365011
0.477672458 0.496900409 0.271599948
0.495382786 0.489310592 0.259202957
0.505755842 0.475395352 0.247944355
0.509424567 0.459582388 0.238835976
0.512460589 0.433776170 0.225173786
0.523592591 0.422390819 0.217710406
0.547881007 0.420872748 0.213408843
0.570524931 0.427197784 0.207716346
0.598987937 0.437065244 0.206577986
0.625300467 0.446679473 0.206071794
0.648324013 0.457178771 0.201897502
0.676407695 0.464768797 0.203415692
0.702214062 0.474636078 0.204933301
0.738266945 0.482099771 0.213788658
0.774193168 0.489689887 0.221378997
0.808728635 0.490449220 0.228209987
0.850727439 0.488171995 0.246426031
0.887412906 0.497786403 0.261100799
0.925237179 0.497912794 0.284629971
0.966223776 0.497912794 0.308917999
0.344845176 0.560025156 0.287919372
0.346362978 0.566097200 0.287918985
0.354964763 0.564832330 0.291460752
0.368880302 0.564326346 0.294750303
0.376596928 0.567362130 0.309298187
0.387982309 0.570398510 0.313852161
0.398608625 0.575964570 0.318912059
0.418469697 0.578747571 0.333965600
0.439722091 0.579506457 0.345351309
0.458697170 0.580265403 0.347628385
0.468311191 0.575964570 0.339025617
0.479949385 0.566350460 0.324351579
0.490954727 0.558380425 0.308412254
0.507779837 0.546742380 0.298671365
0.521188974 0.533333600 0.286527365
0.530677021 0.518785775 0.275268763
0.535231173 0.506641388 0.260088354
0.535231173 0.478052020 0.242504805
0.552435219 0.461859584 0.235926405
0.572422385 0.457558572 0.228589162
0.597469747 0.465907454 0.227830380
0.625806272 0.477040142 0.224794239
0.651107013 0.486147881 0.218342707
0.678684831 0.493611544 0.218596101
0.708286047 0.501960456 0.221631899
0.737002075 0.508285880 0.227450848
0.773687243 0.519038439 0.234029189
0.809108078 0.523086607 0.232005194
0.844402432 0.526881754 0.243389949
0.888931096 0.529664636 0.258064419
0.918405771 0.539152563 0.271979988
0.960151792 0.537381172 0.299810022
0.357495427 0.608095646 0.327893972
0.358127981 0.614041448 0.321948141
0.365844399 0.615812838 0.320809335
0.374319732 0.615939498 0.324477851
0.386084974 0.618975103 0.336622536
0.400759339 0.622011483 0.348766536
0.411511987 0.625680089 0.353320509
0.424541682 0.629095495 0.360910803
0.447059065 0.630487144 0.376470625
0.468311459 0.633522809 0.385579020
0.480834961 0.630107403 0.380138963
0.494370669 0.622897089 0.369259804
0.509171486 0.613029957 0.354585797
0.518279135 0.606704235 0.342188120
0.532700539 0.592283487 0.329664707
0.545477569 0.576470852 0.316255569
0.555850983 0.564326465 0.300822347
0.562555552 0.552688122 0.278937548
0.562555552 0.519291699 0.263757139
0.576723576 0.502846479 0.252245188
0.599367321 0.498292387 0.248829722
0.625806272 0.506767690 0.247818023
0.656040490 0.516002536 0.239089146
0.680835247 0.525616884 0.236559451
0.709044993 0.534724832 0.238077253
0.741935253 0.541682184 0.243263647
0.772296131 0.545224547 0.251360029
0.811384976 0.551296532 0.245667547
0.844149232 0.560025334 0.250980288
0.883238316 0.567995131 0.261859387
0.926881552 0.571916521 0.273877561
0.954205990 0.574952126 0.292093575
0.360531062 0.665780962 0.358254045
0.363567472 0.659708977 0.364326060
0.374952793 0.661353767 0.364832044
0.384566814 0.665148973 0.363820165
0.389120609 0.670588434 0.363947034
0.398229003 0.673624039 0.376091003
0.417963386 0.671600342 0.388235003
0.434661746 0.672612250 0.399367422
0.453384131 0.676154196 0.413282990
0.480455548 0.682100475 0.431119531
0.492979050 0.676407218 0.425680071
0.505123019 0.672612309 0.417583764
0.519797385 0.667678952 0.405692399
0.536495984 0.661353886 0.390765041
0.545604348 0.652245462 0.375585467
0.557621956 0.635420978 0.358254403
0.569766045 0.622011721 0.342061847
0.580771625 0.610373378 0.324478090
0.589880049 0.589121044 0.300190032
0.595446050 0.564073265 0.282226294
0.612017751 0.544592023 0.272359043
0.633776128 0.536749005 0.266034186
0.656040490 0.543327034 0.257305980
0.683364868 0.555471063 0.257305980
0.710436285 0.565085351 0.259329706
0.744971275 0.572802007 0.263756990
0.784440160 0.578621030 0.269576102
0.814800858 0.584693015 0.272612482
0.851233542 0.593421817 0.272233009
0.888931096 0.602530181 0.280075908
0.927387595 0.607843339 0.291334629
0.960278034 0.605313003 0.301201999
0.377482712 0.720682740 0.410879463
0.386084408 0.720176816 0.414168090
0.389120787 0.718405724 0.415939093
0.401771188 0.719544411 0.418469101
0.411258727 0.721821427 0.421505302
0.417963326 0.722453833 0.431246102
0.437191695 0.730550051 0.443390101
0.456799358 0.728526473 0.455534518
0.475395203 0.729285300 0.466919988
0.500695884 0.733333349 0.479063749
0.524604380 0.738899350 0.496268481
0.534724653 0.730803311 0.484124213
0.546109736 0.726249456 0.471220851
0.559772015 0.721315742 0.455534428
0.563820422 0.709677696 0.435294211
0.580138981 0.702973127 0.420113981
0.594560206 0.690828919 0.402277142
0.608601928 0.680455565 0.383934319
0.622011423 0.663504124 0.359645724
0.631119728 0.642251730 0.343706399
0.633396745 0.612270772 0.325490117
0.645414352 0.589626789 0.311827838
0.661732972 0.581403911 0.297533035
0.691714227 0.585578799 0.292220026
0.721315324 0.595446050 0.289943308
0.751928926 0.603162766 0.289184064
0.788741410 0.609234750 0.290575445
0.821378827 0.615306735 0.293611825
0.859708726 0.624035537 0.301960528
0.892726004 0.627830744 0.307653189
0.926502168 0.634788334 0.317014366
0.958001375 0.641239703 0.324225008
0.399493992 0.762049198 0.461733460
0.408602059 0.763946474 0.466666788
0.415306479 0.763946474 0.465654463
0.420872867 0.762681603 0.468184471
0.435167730 0.762428641 0.474635988
0.447311729 0.763946474 0.483744383
0.460341781 0.771536767 0.485894710
0.478304774 0.775711477 0.501328111
0.496267915 0.773687720 0.513978720
0.518279672 0.775584996 0.524224997
0.548260450 0.781530440 0.540164411
0.571916521 0.781277716 0.545604169
0.577609241 0.772169828 0.531562448
0.586211205 0.767362475 0.517141163
0.590891898 0.758507490 0.499177784
0.602150440 0.753067732 0.486527383
0.618848622 0.745477498 0.466793209
0.633396447 0.736369312 0.445920646
0.647311687 0.723719239 0.420366943
0.660721123 0.704870045 0.396837085
0.671726704 0.687412739 0.385452211
0.671726704 0.655028462 0.364200056
0.679949284 0.633269906 0.343073934
0.694370806 0.623908579 0.326375455
0.728526413 0.625806272 0.320683002
