Assets/Shaders/EldamarStudio/100 Sci-Fi LUTs Pack/LUTs/cube/Valoh LUT.cube
LUT_3D_SIZE 5
DOMAIN_MIN 0.000000 0.000000 0.000000
DOMAIN_MAX 0.903226 0.903226 0.903226
0.090195999 0.054901998 0.058823999
0.223276705 0.036559004 0.078431003
0.405439824 0.000632584 0.115749411
0.615939260 0.000000000 0.183428124
0.859455764 0.000000000 0.272106111
0.190891996 0.185705408 0.121947698
0.262491673 0.172295704 0.110815704
0.420746088 0.176217705 0.116381995
0.617330849 0.171410829 0.181150988
0.854395866 0.161922932 0.254395992
0.326881826 0.457179219 0.236053407
0.409993827 0.471600205 0.272106409
0.483870804 0.414041370 0.217077985
0.624794543 0.419228375 0.191271126
0.855534434 0.456546783 0.251233637
0.425806254 0.796458244 0.509298146
0.505629659 0.811132133 0.536748528
0.620620012 0.799747229 0.559646010
0.708159268 0.726881385 0.424921125
0.866287053 0.680075943 0.356356949
0.765211582 0.974066794 0.801897585
0.798355460 0.976976693 0.820366919
0.869702578 0.975964367 0.855787396
0.899683595 0.963946819 0.810499609
0.957241714 0.932320774 0.720809698
0.031625301 0.058823999 0.220999405
0.238330111 0.037571292 0.220366985
0.395572394 0.032005005 0.234408692
0.594054580 0.106261715 0.326375395
0.816571832 0.244781777 0.469955653
0.145098001 0.192915976 0.245540693
0.249715388 0.170651421 0.237697676
0.409360975 0.172675401 0.252118677
0.597722828 0.233522832 0.356736094
0.835040927 0.299304277 0.453131229
0.196711004 0.403794676 0.299556971
0.312207282 0.407463402 0.303099096
0.452751249 0.382922113 0.308285713
0.611385286 0.409108102 0.309677273
0.846299767 0.448703647 0.393168628
0.337001860 0.766477108 0.500569224
0.437318116 0.768121362 0.552182138
0.614547789 0.795192838 0.626945078
0.678810835 0.713852108 0.489310414
0.855408013 0.686653852 0.448450357
0.749272764 0.974066794 0.813029885
0.786464334 0.973307788 0.836938798
0.865148365 0.975331962 0.868943751
0.902593076 0.961922884 0.840860248
0.951676011 0.935863554 0.750284612
0.003289416 0.063377582 0.511448801
0.205312982 0.027703881 0.504237771
0.424415231 0.003289416 0.461732805
0.566350400 0.000632584 0.459455967
0.771663606 0.001265006 0.518658996
0.001897590 0.231498986 0.528146505
0.149652004 0.176217705 0.522580385
0.423403084 0.134345278 0.485262394
0.577355981 0.128146991 0.474383116
0.788108706 0.177609116 0.540796816
0.000000000 0.461732775 0.566983223
0.173055023 0.452245533 0.571916521
0.393548012 0.369513243 0.525110364
0.583934367 0.355471104 0.508159399
0.804427564 0.503226042 0.617457390
0.000000000 0.664769173 0.576090813
0.003542133 0.668058336 0.577735543
0.378367960 0.680581987 0.586337507
0.602656722 0.661606729 0.584060669
0.831878603 0.703099370 0.616698205
0.612903178 0.962934554 0.803794980
0.682099879 0.963314295 0.823529601
0.811005771 0.971536934 0.864389658
0.916382015 0.970524907 0.903858066
0.946236193 0.936242819 0.816825032
0.000000000 0.072612002 0.800379276
0.003921577 0.040607002 0.803288996
0.367109239 0.000000000 0.783680916
0.570778012 0.002909872 0.746489346
0.767109573 0.000000000 0.750790238
0.001012128 0.222264573 0.808475673
0.001012128 0.199114278 0.808854878
0.341808975 0.161543399 0.785578668
0.570145249 0.114864111 0.747374833
0.768121243 0.065654717 0.766097486
0.002023998 0.514990687 0.828083336
0.005060157 0.499683797 0.831752241
0.282226682 0.416318536 0.809234381
0.545350850 0.362428665 0.773307979
0.791271210 0.340797216 0.771663427
0.000000000 0.730803132 0.838583112
0.052245639 0.733333528 0.841113150
0.360784531 0.739278972 0.835546851
0.552435100 0.671094239 0.801391363
0.806451559 0.644655406 0.761037469
0.004301294 0.922959924 0.852878153
0.002656833 0.924983919 0.841492653
0.357241809 0.929917693 0.838962674
0.781277418 0.941935301 0.881214321
0.908159435 0.926248908 0.871473908
0.000000000 0.119038664 0.987222791
0.000000000 0.108285852 0.988234878
0.138520002 0.095003225 0.986084640
0.477925271 0.074889459 0.983427942
0.716634810 0.003922001 0.965085447
0.001644708 0.231245846 0.991144776
0.000000000 0.227324530 0.988234878
0.096521273 0.221125811 0.979000509
0.469070315 0.217963204 0.976091087
0.709550917 0.171916336 0.962808490
0.003289416 0.525869787 0.991144776
0.001265167 0.499683380 0.993042409
0.091840625 0.459835380 0.983174980
0.459456116 0.448450327 0.983301342
0.723339558 0.405565768 0.969639361
0.287286520 0.801265121 0.995445967
0.334471673 0.793801248 0.987096786
0.474003553 0.791903973 0.988108516
0.543074071 0.728526115 0.987476051
0.769133508 0.674383223 0.970904768
0.496521175 0.923086762 0.980518818
0.524225235 0.925742924 0.988741100
0.635546982 0.930297256 0.981151402
0.784060717 0.942441463 0.981151104
0.888171554 0.929790795 0.970145762
