Assets/Shaders/EldamarStudio/100 Sci-Fi LUTs Pack/LUTs/cube/Vanih LUT.cube
LUT_3D_SIZE 8
DOMAIN_MIN 0.000000 0.000000 0.000000
DOMAIN_MAX 0.903226 0.903226 0.903226
0.003922000 0.000000000 0.000000000
0.114358090 0.008601999 0.005060451
0.245288000 0.021885095 0.014927098
0.366603285 0.041492999 0.012903354
0.507780194 0.064895995 0.023529001
0.640354216 0.097785987 0.048956256
0.792030573 0.133965999 0.085262284
0.923339784 0.172801957 0.117773816
0.072865091 0.094750091 0.064642541
0.121821545 0.108538546 0.041113548
0.231119186 0.133206993 0.035294097
0.364705622 0.145730183 0.033649899
0.491208196 0.162555441 0.051359743
0.630993009 0.179380089 0.065022185
0.769765854 0.200126544 0.091967441
0.905755639 0.232511058 0.130170807
0.192030102 0.230993092 0.166856200
0.213789091 0.238456741 0.182416171
0.278178185 0.236559197 0.116635092
0.374825925 0.245161086 0.089690447
0.506894350 0.290575355 0.095635809
0.652877808 0.313346207 0.112333730
0.792915761 0.330676824 0.130044192
0.920682907 0.347501338 0.159139901
0.336495548 0.415053904 0.311827928
0.372042894 0.422137976 0.340290636
0.403036267 0.425679535 0.324857473
0.458064258 0.401518285 0.222643927
0.548134327 0.371284246 0.176217183
0.657558739 0.423276544 0.167488992
0.779253542 0.457432270 0.171663642
0.916128755 0.471220821 0.198734984
0.517140985 0.614294350 0.479443192
0.543833196 0.630360842 0.508791745
0.585199237 0.636938393 0.553447127
0.597343802 0.624035776 0.453384191
0.651107192 0.567868590 0.335863382
0.706388772 0.493864924 0.245288000
0.814168453 0.541429281 0.250854105
0.918152988 0.595951974 0.275521964
0.701834023 0.785958290 0.676154733
0.716382205 0.792915761 0.691587746
0.743453622 0.795951843 0.718279719
0.758254230 0.790385842 0.698544919
0.767995119 0.773307920 0.610373080
0.809108198 0.724857509 0.479443192
0.856420279 0.620114028 0.344718456
0.951802790 0.665148616 0.364326298
0.799241006 0.870841265 0.783175290
0.817837000 0.876407564 0.782795370
0.834029078 0.881720424 0.813535452
0.851739585 0.886527240 0.826565623
0.855913997 0.875522196 0.792283177
0.867045999 0.870967805 0.720177293
0.914611280 0.826059580 0.613915265
0.971916139 0.733965576 0.475142181
0.883997619 0.945224822 0.881340802
0.893611848 0.946615815 0.876660049
0.903478801 0.946615815 0.887665749
0.920303822 0.949145794 0.901961029
0.923465967 0.949525654 0.900442839
0.930929840 0.945224822 0.863377810
0.950790346 0.942694843 0.817710400
0.989753127 0.916508675 0.741555810
0.000000000 0.040734001 0.129664540
0.117520094 0.011385452 0.127007991
0.239342541 0.013662451 0.123339541
0.356862724 0.026565192 0.120556280
0.487665743 0.052498288 0.133965895
0.631372452 0.092852548 0.152308539
0.764705539 0.129284993 0.164579093
0.905376196 0.164326072 0.187096685
0.001138547 0.129285082 0.111195087
0.121062547 0.113978542 0.125363991
0.224414736 0.125743449 0.124984547
0.343453646 0.137507632 0.134345442
0.480708629 0.153953344 0.141050100
0.618848443 0.175079018 0.154332817
0.773813844 0.205186382 0.177735373
0.918152928 0.233143821 0.200253353
0.158254102 0.233396202 0.181024998
0.218975559 0.239722088 0.211132556
0.267552555 0.235800207 0.181784004
0.359519273 0.253004164 0.159772083
0.496774197 0.283111751 0.173181280
0.629854321 0.302467078 0.174573079
0.771916151 0.318026215 0.195825368
0.906388521 0.336495936 0.209740460
0.307400376 0.403415918 0.305502921
0.345477700 0.403795362 0.330297261
0.389753342 0.408475459 0.338393092
0.430866897 0.383933991 0.262112468
0.521821797 0.372802198 0.213662282
0.647311926 0.427704096 0.224035084
0.785072625 0.458317459 0.233016834
0.920683146 0.472865433 0.255661011
0.480581731 0.590638459 0.460847706
0.517393708 0.601644576 0.484630257
0.563946486 0.613029957 0.540544093
0.584313452 0.607210457 0.473877341
0.627198040 0.555091739 0.355217904
0.690196216 0.489563257 0.280075729
0.804933727 0.544844747 0.291587442
0.915116906 0.598228812 0.314104915
0.675268948 0.772295892 0.657558322
0.691081464 0.780138969 0.677798986
0.724857569 0.782795429 0.695635378
0.750790477 0.784060717 0.705502748
0.760657907 0.765591443 0.618848741
0.797723114 0.715370178 0.496394664
0.846553087 0.618848741 0.368501037
0.942188442 0.665528178 0.395319432
0.790259302 0.866034091 0.774826288
0.798355281 0.875522256 0.787096977
0.821758687 0.875015855 0.804048061
0.850095034 0.880708575 0.825300574
0.848323882 0.879190624 0.792662859
0.864263415 0.863757253 0.726249278
0.909677684 0.836558819 0.635926545
0.969892323 0.749651968 0.506008804
0.885515571 0.942694843 0.869449854
0.891207933 0.951802671 0.881846845
0.897786081 0.946615815 0.884503543
0.917393744 0.947754681 0.893485427
0.926628470 0.947754502 0.900948822
0.931815445 0.945098042 0.866160691
0.943959594 0.941682339 0.817836583
0.988108516 0.920177221 0.745477796
0.000759096 0.097912900 0.264010191
0.025680088 0.031372909 0.258064657
0.238077193 0.020366903 0.246047094
0.354079276 0.028209999 0.242884189
0.492852271 0.044654999 0.256293297
0.621631742 0.061480351 0.258570194
0.760784268 0.076660380 0.259962291
0.899050891 0.125616714 0.281973183
0.000000000 0.195066199 0.247438282
0.041492999 0.153953552 0.251106650
0.231878296 0.121821545 0.244149551
0.355724186 0.130044088 0.240481094
0.477040082 0.137887180 0.248829648
0.612270832 0.149652183 0.255408108
0.761290491 0.170777991 0.268817276
0.911827683 0.205565915 0.290449053
0.003922000 0.255408108 0.234282091
0.116381638 0.248324081 0.242504641
0.246805996 0.240480989 0.243643075
0.358001292 0.251486182 0.253131002
0.491208196 0.267299175 0.262492180
0.624035597 0.283618093 0.271600366
0.759898663 0.301581055 0.282858908
0.902972698 0.323212922 0.303731948
0.214547977 0.378874272 0.298292279
0.266160369 0.385578811 0.304491192
0.370651752 0.397723287 0.365970910
0.409487545 0.385199368 0.325743169
0.507527173 0.384440273 0.293358624
0.629601479 0.425679803 0.300569177
0.776597142 0.446932495 0.321694821
0.906135261 0.465401560 0.338520020
0.416571468 0.571916521 0.436306357
0.460468173 0.580138922 0.463124812
0.529538214 0.594687164 0.518659174
0.575838268 0.596205056 0.520430028
0.597090364 0.546110153 0.406704366
0.675268531 0.504111469 0.351676077
0.788741350 0.561543345 0.368880451
0.907020926 0.604301035 0.389500201
0.640354395 0.759392560 0.643896639
0.670841336 0.764832318 0.662871420
0.703605354 0.770777881 0.691334724
0.757115364 0.786590815 0.728146434
0.751802742 0.764073312 0.659329593
0.775711477 0.712080836 0.537634134
0.834535122 0.629854500 0.430740088
0.930550039 0.675268769 0.454143167
0.776976764 0.867552102 0.767741799
0.786717474 0.865528047 0.778367877
0.816698313 0.875522137 0.797976136
0.845034957 0.880581915 0.825806737
0.854016423 0.877672434 0.815686405
0.868817031 0.868311286 0.762681842
0.904237688 0.841745555 0.670588255
0.965338528 0.755344272 0.555724263
0.879822969 0.943959653 0.870208859
0.888424754 0.945730329 0.877672374
0.901075125 0.950537801 0.881467819
0.914231479 0.949399173 0.902593315
0.934471846 0.948766530 0.917520344
0.929158688 0.948260725 0.880708516
0.950411081 0.942315280 0.834408522
0.977988780 0.921821654 0.769386649
0.000000000 0.171536997 0.434408635
0.006325001 0.093105890 0.435673386
0.195066184 0.053636741 0.394433796
0.365464628 0.031373002 0.368753642
0.490828633 0.053763356 0.373307914
0.630107343 0.065401644 0.380139261
0.759898901 0.074509710 0.389500290
0.901580989 0.089310981 0.394939810
0.007084001 0.248703629 0.423529655
0.001138644 0.213915199 0.404553831
0.183302000 0.150411099 0.390512615
0.349399298 0.134724990 0.362681985
0.478557974 0.142694190 0.367994636
0.614168465 0.144971088 0.374952644
0.756230295 0.155091792 0.383301765
0.898165703 0.167362541 0.401012063
0.001517998 0.379632741 0.428209931
0.003162904 0.360278249 0.425806731
0.200126648 0.295003444 0.402276933
0.370904714 0.250727206 0.375332177
0.494749904 0.256167203 0.378368288
0.619734466 0.260467947 0.378873914
0.753953218 0.267552346 0.389753640
0.891461015 0.281214178 0.396457881
0.006704646 0.407084256 0.392410278
0.092726439 0.412396818 0.399873734
0.241240099 0.400253177 0.387729168
0.375584930 0.372295916 0.371663630
0.493991017 0.378620893 0.382289290
0.617963374 0.394813359 0.390385628
0.764579296 0.416445345 0.404680610
0.904237807 0.440607101 0.433016837
0.238963082 0.523718953 0.418722630
0.293738216 0.532447815 0.433270067
0.400632828 0.547374964 0.454901814
0.545603991 0.568880320 0.537507951
0.567615747 0.538646698 0.473624617
0.656925976 0.526881635 0.443010628
0.769765973 0.573434353 0.453889817
0.900442660 0.588614821 0.474003822
0.542821109 0.727134883 0.599367499
0.577609241 0.733206689 0.624668002
0.638456523 0.749272406 0.659709215
0.714231610 0.761669457 0.706009030
0.750790358 0.762049079 0.709171355
0.756609797 0.713092983 0.601391613
0.822390854 0.652245700 0.517014623
0.915243447 0.701707840 0.546363115
0.747754633 0.855281651 0.754964888
0.764073193 0.859835565 0.773561180
0.788361788 0.868564010 0.790765524
0.829981029 0.878178656 0.822137952
0.865907490 0.886147797 0.850980639
0.866287231 0.873750567 0.798608184
0.892219961 0.840227902 0.713092923
0.950537443 0.772549212 0.618975401
0.871347308 0.945097983 0.874383390
0.870714545 0.945604146 0.870840967
0.893738091 0.953194201 0.892346859
0.914864004 0.956103802 0.907653153
0.933333576 0.951423109 0.924351692
0.940923691 0.954585612 0.911701143
0.948387146 0.948134005 0.867299020
0.979886174 0.926881552 0.803668618
0.003035997 0.253131002 0.614041567
0.000000000 0.202909186 0.604427755
0.003922021 0.111068994 0.581151187
0.354838461 0.075142093 0.541049719
0.498165548 0.057937998 0.502087176
0.627956748 0.062618993 0.498924643
0.765464723 0.072991811 0.512334168
0.895129561 0.090701990 0.519797504
0.008222645 0.311321944 0.598102808
0.006704647 0.286400825 0.594560385
0.004807022 0.198608533 0.567868471
0.345097840 0.166476727 0.527261257
0.500316381 0.145730287 0.493611395
0.618975461 0.148133993 0.497026920
0.761037111 0.155977100 0.510942400
0.898545146 0.169133276 0.521695137
0.000759096 0.454396158 0.603289306
0.000379548 0.430360705 0.599241138
0.049715288 0.357242197 0.583681285
0.354712337 0.287918836 0.539785087
0.494370252 0.258570164 0.495888442
0.622897148 0.260974199 0.499430716
0.755977273 0.267299175 0.506894350
0.893990934 0.280075729 0.516382098
0.003542452 0.558886826 0.607084155
0.003921903 0.561290026 0.603668451
0.135483652 0.542062163 0.599241257
0.356735945 0.435799807 0.553447008
0.492978841 0.375838280 0.492852807
0.625933290 0.380771369 0.499304086
0.760404825 0.394940078 0.511575162
0.902593136 0.405439615 0.525869548
0.000000000 0.571157396 0.544591963
0.047311839 0.575079143 0.545856714
0.247564897 0.560405076 0.540670156
0.377609074 0.542188168 0.526122749
0.510816157 0.507780194 0.509298027
0.632258177 0.516634941 0.518785179
0.763187647 0.534977734 0.527261078
0.899051011 0.560404778 0.553193927
0.282226384 0.678052187 0.563187718
0.336622536 0.681467533 0.569133162
0.435167730 0.683997273 0.582922280
0.571536779 0.701707840 0.619354904
0.714863718 0.732194722 0.706388474
0.714864016 0.693231761 0.632637739
0.795825541 0.674257040 0.597343445
0.895382822 0.717647135 0.617837012
0.619607449 0.837065279 0.710436463
0.644781768 0.839721620 0.723719001
0.696647346 0.848830283 0.741935313
0.779000461 0.853384256 0.789500237
0.851866245 0.877672374 0.839215636
0.871347368 0.877293050 0.839848220
0.882226586 0.839089572 0.758886516
0.938393176 0.793674886 0.689057410
0.829981029 0.944465637 0.859708965
0.843643069 0.947754443 0.863377631
0.863883615 0.951549590 0.879696608
0.897532940 0.953573525 0.896900952
0.924984217 0.959645987 0.924477756
0.948893070 0.963187516 0.936242700
0.948513567 0.954585731 0.900063097
0.975837946 0.931815326 0.833649397
0.000000000 0.323339760 0.762049198
0.000379548 0.285388738 0.753953159
0.007590262 0.188235626 0.743832886
0.231752142 0.158887088 0.716888011
0.496015102 0.106135346 0.671220422
0.636685729 0.070461996 0.636685729
0.759392798 0.074510001 0.638583481
0.898418784 0.091081716 0.644402206
0.000379548 0.379253477 0.757368684
0.000000000 0.351043463 0.752688050
0.001138547 0.272232741 0.731941879
0.222011536 0.221252635 0.715875804
0.496267974 0.181277633 0.662745297
0.636812270 0.154838741 0.634914935
0.771031260 0.156736091 0.642251968
0.912840128 0.176217467 0.651992083
0.000000000 0.507147431 0.754838705
0.002656546 0.487792820 0.755091846
0.000000014 0.424161732 0.744465470
0.224541634 0.338267207 0.722074628
0.492726296 0.294117838 0.664263368
0.634914815 0.264516443 0.634155750
0.764452696 0.269576371 0.638456583
0.901454747 0.280329019 0.645920396
0.000759096 0.655028284 0.766729772
0.004048004 0.635294259 0.771536946
0.189373747 0.598102629 0.749525547
0.318026811 0.511827886 0.721568584
0.495888531 0.432384580 0.684250534
0.633396864 0.387729287 0.630613446
0.770145535 0.395825177 0.644529045
0.909804046 0.414674282 0.658823609
0.000000000 0.713725269 0.742441535
0.016698372 0.710815907 0.737128377
0.234028742 0.703858078 0.736369371
0.412143975 0.690322399 0.739278674
0.518153131 0.583681166 0.694370925
0.635420740 0.514231622 0.639595211
0.766982853 0.518659055 0.644402325
0.902719617 0.535357296 0.647944450
0.067552194 0.730550230 0.693358481
0.175079003 0.730297327 0.696900904
0.296900809 0.727640808 0.697659850
0.416824967 0.707147717 0.684250474
0.531688750 0.682353020 0.665148675
0.642378390 0.642378449 0.642378449
0.769513249 0.660468221 0.656925738
0.891207874 0.681720495 0.683491707
0.290449083 0.791271269 0.677039802
0.336242795 0.786211073 0.673750818
0.438077122 0.793674648 0.688298702
0.565085232 0.806198478 0.708032846
0.711574972 0.827830672 0.758001328
0.848956287 0.868564308 0.845034778
0.855661094 0.839721560 0.791903555
0.916761577 0.822770536 0.756357014
0.693864882 0.928525746 0.813788772
0.717393935 0.935230732 0.814673960
0.758507192 0.934345007 0.836938560
0.817583919 0.942441702 0.861226976
0.882479429 0.951549351 0.894749820
0.945224643 0.961669743 0.938772798
0.959012866 0.965464711 0.942947388
0.967236102 0.940164804 0.876660526
0.000000000 0.391777277 0.880961537
0.000000000 0.366982728 0.880581975
0.003162904 0.295129538 0.876281083
0.000000000 0.233270273 0.853510261
0.423023373 0.200505897 0.835041285
0.632511199 0.138519794 0.796710491
0.777988255 0.093738280 0.769133568
0.902719378 0.105755515 0.774067283
0.003668553 0.448071063 0.881973565
0.002024260 0.426945001 0.883744240
0.000000000 0.364959002 0.870082140
0.003162904 0.294876546 0.864895761
0.426565558 0.263377517 0.838583112
0.645540595 0.212144285 0.802529931
0.787223339 0.178873822 0.788488150
0.913093090 0.190512508 0.785452366
0.001644712 0.553826451 0.879190385
0.000379548 0.539531887 0.882353306
0.002277102 0.490322560 0.873750746
0.031372469 0.401644468 0.865148723
0.435673386 0.367236197 0.836812317
0.636053205 0.314737290 0.801391363
0.781657398 0.283364981 0.781024635
0.903858006 0.287539810 0.777103066
0.061986171 0.697786212 0.881467640
0.109803818 0.683617949 0.877672553
0.219734341 0.652624905 0.873877287
0.314737618 0.584693193 0.860214949
0.460847735 0.509424329 0.845920086
0.642631233 0.453130841 0.811385036
0.778494596 0.413662285 0.787476301
0.911575019 0.423529446 0.785831571
0.243137270 0.816698432 0.889310479
0.302593470 0.809614062 0.886527538
0.398481727 0.794433713 0.885009468
0.509550810 0.755724072 0.874004126
0.548893154 0.674509645 0.850221515
0.652371764 0.591271222 0.818595707
0.777862191 0.534851193 0.776217461
0.904364347 0.543074191 0.788741589
0.319038540 0.841619492 0.872485995
0.347627938 0.847185314 0.864895642
0.426312566 0.841239989 0.868690848
0.526249051 0.839974523 0.866034210
0.642125130 0.828842402 0.870209038
0.691334367 0.746616006 0.831878543
0.779253542 0.660468161 0.774446726
0.897912621 0.662492156 0.782542884
0.331182539 0.868184805 0.829981029
0.355850577 0.860468268 0.829981029
0.415812850 0.855661154 0.822011471
0.503731847 0.851359904 0.826818228
0.602909565 0.843896568 0.816318631
0.703099012 0.825806260 0.812650025
0.792662501 0.792662501 0.795951545
0.907780051 0.808475494 0.806072295
0.302213848 0.899683475 0.794307351
0.348386884 0.904237390 0.789500237
0.443769455 0.908159375 0.798482060
0.580012441 0.910942495 0.812017858
0.720682919 0.920303524 0.843896329
0.849082589 0.939785182 0.887792528
0.958506942 0.965591490 0.958760083
0.959771812 0.941809058 0.913345814
0.001265167 0.452498823 0.971410692
0.001265167 0.436052799 0.978368282
0.000000000 0.392789692 0.970018744
0.002276998 0.310689151 0.968627632
0.265781373 0.295635432 0.961163819
0.576344192 0.264642775 0.942314863
0.773434579 0.196078598 0.921062469
0.912966430 0.175584927 0.916887760
0.000000000 0.508159339 0.971410513
0.000000000 0.487792522 0.973687828
0.002530012 0.449589252 0.971284270
0.002277095 0.368247867 0.962808192
0.296141863 0.349778354 0.963946819
0.587349653 0.320429862 0.944339156
0.782036602 0.254396141 0.925996065
0.915876210 0.241239786 0.916508317
0.001517998 0.600000143 0.975711644
0.002277284 0.585958421 0.965085149
0.000000014 0.555850863 0.970777869
0.014927554 0.490701914 0.965844274
0.332953930 0.444275796 0.956735969
0.585072577 0.416571558 0.941682637
0.777229369 0.352182209 0.928399563
0.909677505 0.331815153 0.905755699
0.222390682 0.733459592 0.964958966
0.232763693 0.720809460 0.965718031
0.276407540 0.700695753 0.965718031
0.347374856 0.656799793 0.969133615
0.427450985 0.582669377 0.962808192
0.616571665 0.548260391 0.945856929
0.778874040 0.488298774 0.930676699
0.914104819 0.455661118 0.915623009
0.451233327 0.839468837 0.971916378
0.470335186 0.839342296 0.963187695
0.519797266 0.828715920 0.963187695
0.561163545 0.797343493 0.964958966
0.582289755 0.744085968 0.959771752
0.651486337 0.676660359 0.952055514
0.786084950 0.614800811 0.930044293
0.910309613 0.571157396 0.909297824
0.517900229 0.918911815 0.967615783
0.542061925 0.915496409 0.969007254
0.589373529 0.913219452 0.968121588
0.649209321 0.905629575 0.973940670
0.712713361 0.876280904 0.962049067
0.730803370 0.814800560 0.951549649
0.796331167 0.746236384 0.935610592
0.911448479 0.678684413 0.912207365
0.552941144 0.949904978 0.951296747
0.566603601 0.945730567 0.956862509
0.601265073 0.941682398 0.957495034
0.667931437 0.944591999 0.963314235
0.743706048 0.946489751 0.964199841
0.827956557 0.946742356 0.968880534
0.850727260 0.886780500 0.950663984
0.914484382 0.809487998 0.917773485
0.510436416 0.971663594 0.938899636
0.520935595 0.974446476 0.942188442
0.558380842 0.972295940 0.932953656
0.621884942 0.962428629 0.935104489
0.687539577 0.961163759 0.933333337
0.770904422 0.955217957 0.935104430
0.841239929 0.945857227 0.928905487
0.920682907 0.915496767 0.911448598
