Assets/Shaders/EldamarStudio/100 Sci-Fi LUTs Pack/LUTs/cube/Vanih LUT.cube
DOMAIN_MIN 0 0 0
DOMAIN_MAX 1 1 1
LUT_3D_SIZE 32
0.003922000 0.000000000 0.000000000
0.028209999 0.003036387 0.000000000
0.058949776 0.006072226 0.004300999
0.088551320 0.007843000 0.006578161
0.114358090 0.008601999 0.005060451
0.150790870 0.014673999 0.014168063
0.187223643 0.020746000 0.020746000
0.218722701 0.021884711 0.020240003
0.245288000 0.021885095 0.014927098
0.269576043 0.030993482 0.011891486
0.305502743 0.028463129 0.014674129
0.335863262 0.033523254 0.013662260
0.366603285 0.041492999 0.012903354
0.403036058 0.047059000 0.016445031
0.439468801 0.047059000 0.025553409
0.475901604 0.054269798 0.025047196
0.507780194 0.064895995 0.023529001
0.535736918 0.075774990 0.025426570
0.566097081 0.081847012 0.034534980
0.602023721 0.087919004 0.043643363
0.640354216 0.097785987 0.048956256
0.678810954 0.106894128 0.054016128
0.715369463 0.110436492 0.063250981
0.754838705 0.125616908 0.075395003
0.792030573 0.133965999 0.085262284
0.828463316 0.140037984 0.091587670
0.863378048 0.146616071 0.096141994
0.890702426 0.155724451 0.108285986
0.923339784 0.172801957 0.117773816
0.958507359 0.185705200 0.128652960
0.987856030 0.195698977 0.140796974
1.000000000 0.207843006 0.152941003
0.006957613 0.021252386 0.009108387
0.031246386 0.021252386 0.006072000
0.055534385 0.026439000 0.010372999
0.083744161 0.034155387 0.013915000
0.110942252 0.041239388 0.013788612
0.144718871 0.041998386 0.020240065
0.176091000 0.048071034 0.021758001
0.209867343 0.050854161 0.020240003
0.243011102 0.050727673 0.014927099
0.278684437 0.055281486 0.011891491
0.302972406 0.061480001 0.023402996
0.336875349 0.062871642 0.024794385
0.367362380 0.066540390 0.021632001
0.399493665 0.069070421 0.018469356
0.430360407 0.077419773 0.016445022
0.466793209 0.079822965 0.025553413
0.503225982 0.084630191 0.026565386
0.536369503 0.090955384 0.028462956
0.569133461 0.097027406 0.037571367
0.602276802 0.108665399 0.046679039
0.640354216 0.117141120 0.053890094
0.679823101 0.124098770 0.060088642
0.718279421 0.125616878 0.069196500
0.754838705 0.140797302 0.078431390
0.789753318 0.151423097 0.083744675
0.822643936 0.158253998 0.092726365
0.855787754 0.164326131 0.101707935
0.890702426 0.170904830 0.111321598
0.928652763 0.180012524 0.118153274
0.955724180 0.193548411 0.130423725
0.981404245 0.204807371 0.142061830
1.000000000 0.216951385 0.149905384
0.031498775 0.044655547 0.031119771
0.042884547 0.042504773 0.025933161
0.058570772 0.048956543 0.014294773
0.085388772 0.052498545 0.017836774
0.112839550 0.061859544 0.018216224
0.139152259 0.072485544 0.022516999
0.174319997 0.071094416 0.021378774
0.206325114 0.077166766 0.019734066
0.238204092 0.079696774 0.015686000
0.272106528 0.084124066 0.014041714
0.301328033 0.085768543 0.019101998
0.333712518 0.089816280 0.031245993
0.366097480 0.092852637 0.028336357
0.396710783 0.094117738 0.022264291
0.428968817 0.099430636 0.024921132
0.464136600 0.105882734 0.029348573
0.497533381 0.110436536 0.033902772
0.532700956 0.114737757 0.035167769
0.567615211 0.120809779 0.042757977
0.603162408 0.123845786 0.049715426
0.640354216 0.134092510 0.055028517
0.676786959 0.142188773 0.060847998
0.712713242 0.144845247 0.068943754
0.749146044 0.155977115 0.080075905
0.785452306 0.164453253 0.088931292
0.820240319 0.172169536 0.093358994
0.852119148 0.178241536 0.103478938
0.885262847 0.184313893 0.112586536
0.924351811 0.195192918 0.116887890
0.958507359 0.204300970 0.133586600
0.980012774 0.216951594 0.143706337
1.000000000 0.230360776 0.144718453
0.057305161 0.068944000 0.052118998
0.060847610 0.067172773 0.049842156
0.071221158 0.071473770 0.042378385
0.088425159 0.079316996 0.025933161
0.117646709 0.078178547 0.024035614
0.138899103 0.088425152 0.021758227
0.170271799 0.096521154 0.023529323
0.203794792 0.100949153 0.024288453
0.236432865 0.107780062 0.021252260
0.264263362 0.114358000 0.020746324
0.294497162 0.113346159 0.024921030
0.330170512 0.115369894 0.026439155
0.365464628 0.118405797 0.035167515
0.395951897 0.121189155 0.027071193
0.428336382 0.123212904 0.030107833
0.461606592 0.129917771 0.039974835
0.496268213 0.134724990 0.041745998
0.527893960 0.140796989 0.043643568
0.564326227 0.146868989 0.050348166
0.599493742 0.148640156 0.055155002
0.636559069 0.153067723 0.059329737
0.675016105 0.161163986 0.064389870
0.706008613 0.167109504 0.070714861
0.741302848 0.173940420 0.080582164
0.776470423 0.180771559 0.089184284
0.812903166 0.188109145 0.095635831
0.848829925 0.194181159 0.103225902
0.879949510 0.200253159 0.113851696
0.914484560 0.211638138 0.122706994
0.952435017 0.220746189 0.126755059
0.981024861 0.228968978 0.150158256
1.000000000 0.243010834 0.147501156
0.072865091 0.094750091 0.064642541
0.074003547 0.094370544 0.069576383
0.082226545 0.097533099 0.066793315
0.097912990 0.103984550 0.059709094
0.121821545 0.108538546 0.041113548
0.143073931 0.099430934 0.025933160
0.171537086 0.108285770 0.026944997
0.201897532 0.121441856 0.031878542
0.231119186 0.133206993 0.035294097
0.261480004 0.142314613 0.032258488
0.291840732 0.141682416 0.036812454
0.327134699 0.143453375 0.036306456
0.364705622 0.145730183 0.033649899
0.398608088 0.149019539 0.036432546
0.429348350 0.149272546 0.033523425
0.459329605 0.155724347 0.042631187
0.491208196 0.162555441 0.051359743
0.524478137 0.165464640 0.049715567
0.560911000 0.171536639 0.058823969
0.594939947 0.175205439 0.062365644
0.630993009 0.179380089 0.065022185
0.667805254 0.185831532 0.070841409
0.703858495 0.191650540 0.079696059
0.736748934 0.194433898 0.085515805
0.769765854 0.200126544 0.091967441
0.804553866 0.207210660 0.097027317
0.841239631 0.216192544 0.101707608
0.874635994 0.222264528 0.116887979
0.905755639 0.232511058 0.130170807
0.941049635 0.241492525 0.136622339
0.975711167 0.247944087 0.139531583
1.000000000 0.254016072 0.160784006
0.091081865 0.131182864 0.079822935
0.100189477 0.128146470 0.098038927
0.107779704 0.125616699 0.090069771
0.118658990 0.129158705 0.083238862
0.133965552 0.135862932 0.077546313
0.155217946 0.129790932 0.056293931
0.181530327 0.125743315 0.048703223
0.211005464 0.132321149 0.046299711
0.239089027 0.142694265 0.044022933
0.261480004 0.154459402 0.038330480
0.291840732 0.166476861 0.035294130
0.322200984 0.174067184 0.039848059
0.356356353 0.177609161 0.042757705
0.392536104 0.176343933 0.045540933
0.432005197 0.182415932 0.045540933
0.460341722 0.185072750 0.042631194
0.491208196 0.192157134 0.053257380
0.523972154 0.198355809 0.064136930
0.554839015 0.198861822 0.064895973
0.591271758 0.204933822 0.068437651
0.630993426 0.206704870 0.069575995
0.671474099 0.210752726 0.075142182
0.709930480 0.218974933 0.088804446
0.737254858 0.218974933 0.091840841
0.767868519 0.226312280 0.099936694
0.801518202 0.233522922 0.107147053
0.838456988 0.240607068 0.113725126
0.877672374 0.249588937 0.125996366
0.911068738 0.253004760 0.127893925
0.945730329 0.261100620 0.137507960
0.978241563 0.269702524 0.147121906
1.000000000 0.278304875 0.160784006
0.124477997 0.170145318 0.115243316
0.128526255 0.167109564 0.123339318
0.139784634 0.166223958 0.126502082
0.150537640 0.167362630 0.117900148
0.161922961 0.174066961 0.113978446
0.172422573 0.172295958 0.092726059
0.196204633 0.168753639 0.076534316
0.225173727 0.160784319 0.065528259
0.255534500 0.162175730 0.059709318
0.282100141 0.169007301 0.057179317
0.309551060 0.186211318 0.059076443
0.337887585 0.198355317 0.054016322
0.367741913 0.207969636 0.056925960
0.400885642 0.211258635 0.059962284
0.433522880 0.217330635 0.062238999
0.472992063 0.220999449 0.064642802
0.505376339 0.225553632 0.066413641
0.540417135 0.233017311 0.078684568
0.574573040 0.236812323 0.084377319
0.610499740 0.239848629 0.084630288
0.646932483 0.245920628 0.089563638
0.685136139 0.249209642 0.090828642
0.721188962 0.256293446 0.098039314
0.750917196 0.253889650 0.103478901
0.780518830 0.260720938 0.106514707
0.815053880 0.269829303 0.116508335
0.852119088 0.277039945 0.126375705
0.887539387 0.284124076 0.140544206
0.919165075 0.285389155 0.144592002
0.954332650 0.290196300 0.151675954
0.983681321 0.300316215 0.164705589
1.000000000 0.312713653 0.178494319
0.160910398 0.201391399 0.144844696
0.159013093 0.204933777 0.149272412
0.171790123 0.202403694 0.160404474
0.178874120 0.202403694 0.153573692
0.189880148 0.207716703 0.148639843
0.199746981 0.210246697 0.132447466
0.216065690 0.209361076 0.114611007
0.238709405 0.204680398 0.096141987
0.265275091 0.191777304 0.080202691
0.291208297 0.189500481 0.074889697
0.317014873 0.202150702 0.077798828
0.345983565 0.216318697 0.076407410
0.375585228 0.228462681 0.073750757
0.406705022 0.238836050 0.077039987
0.438456655 0.250474393 0.081467278
0.472738683 0.254142791 0.081214502
0.510689616 0.260215193 0.081214510
0.546489239 0.267046273 0.085641995
0.581910014 0.274130404 0.091714263
0.618342757 0.275775075 0.099051282
0.656419754 0.280708671 0.101201989
0.691840649 0.284756690 0.108286120
0.725363672 0.289690197 0.110310182
0.758760095 0.292726219 0.114863992
0.790765524 0.295508981 0.117014408
0.821125925 0.303225666 0.124224678
0.858823478 0.311069041 0.136369407
0.892220140 0.316002697 0.150411442
0.922959924 0.318405986 0.153320879
0.958507359 0.321948379 0.160024956
0.986970425 0.328905761 0.171283588
0.998355269 0.342567980 0.184946001
0.192030102 0.230993092 0.166856200
0.191271186 0.238583490 0.173687488
0.200126648 0.237571314 0.183681190
0.213789091 0.238836288 0.195319176
0.213789091 0.238456741 0.182416171
0.227071255 0.243390203 0.172169358
0.241492420 0.245161280 0.156989098
0.259202898 0.241872087 0.136369497
0.278178185 0.236559197 0.116635092
0.293358594 0.221378803 0.098419085
0.318026751 0.222643867 0.094497226
0.345604062 0.229981095 0.091208257
0.374825925 0.245161086 0.089690447
0.408223033 0.257558107 0.092726067
0.441619396 0.275268823 0.098292001
0.475015789 0.283744276 0.098671809
0.506894350 0.290575355 0.095635809
0.544592083 0.299683571 0.095129564
0.578368068 0.308791965 0.095509104
0.613788724 0.309551001 0.105123103
0.652877808 0.313346207 0.112333730
0.688804269 0.318153083 0.114358127
0.722201407 0.318153083 0.123339996
0.758000970 0.325363904 0.127008185
0.792915761 0.330676824 0.130044192
0.826439083 0.334345192 0.133333072
0.857305169 0.340923250 0.143959165
0.890702188 0.344465643 0.155344889
0.920682907 0.347501338 0.159139901
0.954838574 0.352308422 0.166729942
0.987729490 0.357748568 0.175837785
0.996837080 0.366856188 0.184946194
0.207210511 0.276533514 0.191145003
0.222390890 0.279569924 0.209360987
0.232384756 0.274256766 0.216192275
0.243137509 0.274256825 0.223655984
0.253257513 0.283997923 0.230992973
0.253257513 0.280961543 0.212776989
0.264010012 0.283365309 0.199999839
0.279569924 0.281341076 0.181024536
0.296394974 0.276027620 0.159139901
0.308539003 0.272991985 0.143959492
0.335357368 0.254901737 0.122833647
0.362555236 0.247944295 0.108665511
0.388867736 0.255787492 0.101455018
0.414295048 0.278810501 0.101834469
0.447691381 0.293990880 0.104870073
0.481087804 0.306893975 0.108032815
0.509930372 0.318658888 0.107779823
0.538520098 0.330044389 0.107273579
0.581025004 0.339152038 0.116381980
0.614800870 0.339911044 0.122327499
0.654016495 0.343706518 0.128652483
0.691334605 0.348766863 0.131562129
0.719165027 0.351549506 0.129411995
0.752561450 0.351549506 0.135484010
0.788361609 0.356483042 0.143706769
0.824667871 0.361037195 0.149652287
0.860341549 0.365212083 0.153067559
0.893737853 0.374320447 0.156103954
0.921821296 0.377862155 0.164832145
0.952814579 0.382668972 0.178873911
0.982037008 0.387855649 0.194054559
0.999873459 0.391144991 0.203162968
0.251486599 0.313345730 0.235799849
0.255028248 0.313472271 0.224920869
0.263756871 0.316508651 0.243137404
0.277166158 0.311701596 0.249968573
0.293105394 0.313599318 0.257178873
0.295635730 0.320682943 0.264262855
0.300695747 0.322707206 0.243516535
0.313725442 0.324098855 0.230233744
0.329917967 0.322074592 0.212523729
0.344212711 0.321189225 0.195193112
0.359266609 0.309424728 0.168374732
0.376470715 0.289184213 0.141050115
0.399367481 0.280835092 0.124731220
0.426186025 0.288424879 0.119671024
0.459582388 0.303605258 0.122707315
0.490575612 0.318785667 0.128146738
0.520430028 0.334471732 0.128652677
0.548007548 0.350031555 0.128779009
0.583681107 0.363693774 0.140164718
0.612270474 0.375584751 0.138140380
0.645414352 0.376090735 0.140037864
0.683871090 0.378114998 0.142061874
0.718912005 0.379253387 0.141302988
0.749525785 0.382036746 0.147375003
0.780644834 0.388868034 0.153447002
0.811638117 0.391397923 0.157748133
0.844023108 0.392409950 0.160278052
0.882226408 0.401518315 0.168121457
0.912966609 0.402656883 0.165844172
0.945856690 0.408981472 0.179253399
0.977735460 0.417077482 0.193927988
1.000000000 0.424161851 0.201012135
0.290954977 0.355850756 0.271220505
0.293991119 0.357874483 0.269196719
0.303225487 0.360025257 0.274509788
0.310562640 0.361796498 0.286401063
0.327640504 0.358001471 0.290954769
0.335610151 0.362175822 0.304743499
0.341176242 0.366223544 0.299177408
0.347248673 0.367615223 0.281214029
0.359772414 0.369133413 0.265654474
0.372422457 0.371663749 0.244908467
0.391650856 0.364073247 0.217963621
0.406831235 0.349905491 0.192662984
0.417836875 0.326375812 0.163440853
0.439595252 0.316002220 0.148766488
0.467678368 0.318785369 0.142947659
0.500695884 0.335990041 0.150410980
0.531056285 0.346616238 0.151929170
0.559519112 0.361543238 0.148260519
0.591524303 0.375331998 0.152055949
0.617330909 0.391777515 0.152308896
0.644655287 0.402023792 0.154965252
0.675775111 0.407463402 0.153194264
0.710942447 0.412650019 0.151170254
0.743200541 0.415686399 0.153447270
0.779632986 0.417204529 0.159519270
0.814167976 0.423529565 0.165591255
0.844023049 0.423782319 0.168374330
0.877419412 0.432890683 0.177482694
0.910942376 0.436053514 0.182036668
0.943073869 0.437824279 0.187855467
0.974825561 0.443769515 0.202909589
0.997975767 0.449462265 0.210120246
0.336495548 0.415053904 0.311827928
0.340670317 0.416951150 0.317141294
0.351296574 0.418848693 0.325490236
0.363314033 0.421758533 0.337255031
0.372042894 0.422137976 0.340290636
0.382668912 0.422896892 0.352434844
0.389752924 0.424288213 0.351043552
0.396963716 0.425679535 0.340037853
0.403036267 0.425679535 0.324857473
0.411764443 0.430993229 0.301707864
0.431372434 0.424288452 0.273371398
0.447438180 0.417836815 0.249209404
0.458064258 0.401518285 0.222643927
0.467425674 0.373687178 0.195319459
0.488171875 0.359645575 0.178747639
0.516255379 0.360278249 0.172042817
0.548134327 0.371284246 0.176217183
0.578494430 0.379253685 0.174446568
0.608855307 0.391903669 0.169892639
0.633649766 0.408475697 0.167109638
0.657558739 0.423276544 0.167488992
0.686907113 0.433396280 0.174573123
0.714484513 0.448323637 0.169260129
0.745857239 0.454396188 0.168247998
0.779253542 0.457432270 0.171663642
0.818721950 0.457685232 0.177735627
0.857179046 0.460720837 0.183807626
0.885768414 0.468564063 0.192283437
0.916128755 0.471220821 0.198734984
0.949525416 0.477672696 0.210626245
0.975837648 0.479822934 0.220113665
0.996078014 0.479822934 0.228715986
0.395193040 0.492979020 0.367489040
0.400759071 0.493232042 0.376091421
0.413029790 0.493991077 0.385199249
0.426945001 0.495256186 0.395066351
0.438583076 0.498039514 0.407084465
0.444655061 0.501075149 0.410120100
0.451486111 0.501834095 0.409361362
0.458949775 0.502593040 0.400253356
0.467046052 0.501328111 0.384566963
0.473118037 0.501328111 0.369386554
0.490322769 0.493611902 0.340670407
0.504744053 0.490070015 0.315116823
0.514737427 0.484250784 0.290702045
0.517520130 0.465528041 0.260595024
0.529664874 0.432131678 0.233269885
0.549905002 0.411891311 0.209993303
0.576217413 0.403542191 0.197596058
0.606325150 0.408349425 0.197469607
0.636686027 0.423529088 0.200505987
0.661733091 0.438456416 0.195445985
0.684882760 0.453383774 0.191777334
0.709424138 0.467805058 0.192283124
0.742694020 0.479949027 0.201391503
0.770145714 0.492093801 0.198861167
0.797723234 0.500190020 0.200126320
0.830107629 0.504490972 0.204554021
0.868311048 0.504996955 0.211132035
0.901707411 0.508032620 0.217204019
0.930043817 0.508918107 0.223023057
0.959898591 0.515243471 0.234914437
0.987223446 0.524098992 0.250727475
0.996331036 0.524098992 0.253763080
0.431625783 0.526375413 0.400885373
0.431625783 0.529411793 0.403921783
0.441492796 0.536116600 0.412523627
0.454269379 0.540797055 0.420366734
0.466033936 0.543453395 0.428842843
0.475015819 0.543579876 0.443516463
0.488678128 0.546616137 0.454143018
0.497027218 0.552308500 0.451613069
0.502972722 0.553446889 0.438203692
0.506514370 0.540797234 0.417963326
0.518406093 0.543706357 0.399873793
0.533839583 0.538140357 0.366983116
0.549525797 0.533333361 0.337128580
0.563061178 0.523213148 0.309171766
0.563061237 0.498924404 0.281847388
0.570398390 0.467931777 0.252119035
0.586337745 0.443769813 0.228210032
0.608981967 0.431498975 0.214547828
0.636686027 0.438709468 0.209614381
0.664263368 0.451107144 0.207084060
0.692852378 0.463883817 0.207210734
0.719291210 0.477672547 0.208981693
0.745730400 0.492093801 0.213535488
0.776091218 0.504237831 0.222643897
0.805818975 0.516381979 0.222390816
0.836938500 0.527260959 0.225806385
0.871094406 0.535356998 0.232890397
0.901707411 0.538393378 0.244528383
0.932447612 0.544085801 0.247944236
0.956862569 0.547122061 0.251613021
0.980645180 0.552055776 0.264895976
0.999367416 0.554458976 0.287160218
0.477672577 0.571789563 0.441492587
0.470461756 0.572422147 0.444528967
0.476913542 0.573307753 0.447564811
0.492599756 0.582922280 0.458696753
0.506641388 0.588614821 0.468564302
0.509677470 0.586590588 0.479696453
0.531056106 0.591524124 0.497153401
0.539658487 0.592915773 0.510942459
0.544971585 0.596710682 0.504111171
0.549651861 0.588109076 0.481214076
0.556609452 0.585578680 0.453257591
0.558633983 0.584566891 0.424921334
0.571537137 0.576597095 0.390006453
0.588488042 0.567741811 0.360404760
0.601391554 0.554206371 0.335231155
0.608602345 0.529917598 0.305502981
0.616192162 0.501075387 0.272106200
0.629221976 0.475901246 0.245793805
0.644149244 0.464262784 0.229095787
0.671474159 0.463883728 0.228210241
0.698798537 0.474130720 0.227071598
0.727640748 0.487792820 0.230613783
0.753447294 0.504238009 0.234914601
0.781530797 0.516381979 0.237191707
0.809614241 0.526249290 0.237191513
0.838456452 0.541049719 0.238456666
0.868817210 0.555723846 0.244022861
0.897279978 0.566350222 0.254269600
0.920429826 0.574446559 0.265654624
0.957874477 0.580518603 0.270461768
0.980898023 0.584187388 0.276786953
0.997596204 0.587223411 0.296521187
0.517140985 0.614294350 0.479443192
0.518659174 0.617330372 0.485515565
0.517900169 0.617330372 0.490069598
0.525743365 0.619860709 0.494370371
0.543833196 0.630360842 0.508791745
0.546110153 0.629601419 0.520177126
0.561796367 0.631119370 0.533839166
0.582162857 0.636938393 0.544338882
0.585199237 0.636938393 0.553447127
0.590512335 0.634661674 0.532953382
0.592030168 0.628589690 0.504364192
0.598102450 0.627071679 0.481087953
0.597343802 0.624035776 0.453384191
0.610499501 0.612776518 0.421631694
0.624920785 0.601138592 0.392283380
0.640480936 0.590639114 0.364705980
0.651107192 0.567868590 0.335863382
0.658949971 0.538014054 0.297533065
0.664136648 0.509297609 0.267046154
0.682100058 0.490828335 0.248323992
0.706388772 0.493864924 0.245288000
0.733713150 0.502973080 0.246300131
0.760910988 0.519291520 0.251739681
0.786843717 0.530044198 0.253131002
0.814168453 0.541429281 0.250854105
0.842884123 0.550537646 0.254775375
0.869829118 0.567868233 0.259709179
0.896141589 0.583048642 0.269829422
0.918152988 0.595951974 0.275521964
0.944212317 0.606325209 0.282606155
0.982289553 0.614168167 0.295762151
0.997596204 0.619102001 0.311701179
0.548133731 0.650727093 0.514737129
0.559645712 0.656166673 0.523212910
0.564453125 0.658570111 0.529538095
0.567615509 0.661100268 0.537507653
0.574446619 0.667172968 0.542820692
0.581024706 0.670461595 0.556736052
0.593421817 0.669702530 0.568121135
0.608349144 0.672991514 0.578494251
0.623402596 0.678178132 0.581024587
0.626438975 0.678178132 0.571916163
0.624920845 0.669449806 0.547880769
0.628715813 0.666413963 0.529285014
0.636179566 0.665275514 0.511701107
0.639215946 0.661986113 0.492220044
0.647564650 0.647944272 0.456166893
0.663251102 0.641113341 0.424414903
0.678431511 0.632131875 0.397090495
0.688678145 0.610879540 0.367235988
0.691714525 0.571410298 0.321694732
0.701834559 0.538392901 0.288551271
0.717773736 0.523213029 0.267172545
0.739785135 0.527135015 0.259076536
0.767109513 0.536369145 0.261986405
0.791903615 0.545983493 0.264516056
0.817836821 0.556736171 0.266793221
0.849083066 0.568753600 0.268817514
0.876913071 0.577862024 0.280455470
0.900822282 0.592789412 0.292472959
0.922454178 0.608602405 0.295256138
0.945983529 0.622643948 0.298292160
0.972042978 0.634155571 0.305503100
0.999367416 0.646299541 0.335863143
0.581530988 0.687159956 0.557242036
0.590638578 0.690196395 0.563314021
0.597849667 0.693485200 0.567488849
0.604680836 0.697532952 0.575838149
0.613915086 0.703605056 0.588361979
0.626059890 0.709677041 0.588361979
0.635167658 0.705376029 0.594687045
0.644781709 0.706387997 0.607843041
0.653890014 0.711701155 0.620999098
0.659835458 0.714610994 0.623529494
0.662871838 0.705882132 0.608602166
0.665401697 0.702846050 0.594433963
0.670081973 0.701707661 0.577482641
0.675648034 0.698418975 0.552940965
0.678684473 0.692346990 0.519544661
0.691840768 0.683112204 0.481088251
0.705756009 0.676028013 0.448703825
0.716002643 0.665528417 0.418849319
0.719039023 0.644276023 0.379380047
0.724858046 0.604806900 0.350537598
0.735231042 0.571790040 0.320809543
0.751170158 0.552562118 0.295508921
0.773181558 0.548513949 0.277166128
0.800505936 0.560657978 0.277166098
0.825300574 0.570272267 0.288804322
0.858191311 0.582416236 0.296900690
0.895129859 0.596078098 0.301707923
0.910309494 0.605186462 0.310815543
0.931561828 0.622770607 0.317520678
0.952814221 0.638962686 0.324857712
0.974572599 0.652118623 0.334345222
0.996331036 0.661480010 0.348008007
0.665022135 0.751423478 0.635926843
0.665781081 0.751676500 0.639215469
0.670588255 0.754712343 0.643137276
0.673498094 0.756483078 0.644908488
0.677292883 0.758380651 0.650601089
0.682226300 0.757242501 0.650601089
0.694371045 0.760784149 0.660721064
0.702087462 0.758760095 0.668943822
0.709298134 0.761796176 0.679949343
0.715370059 0.764832556 0.682985187
0.718532264 0.767362237 0.685262620
0.719544411 0.756230056 0.664009988
0.719544351 0.753194094 0.645414114
0.720177054 0.751802683 0.623023033
0.720683157 0.748260379 0.599746764
0.728526533 0.742188394 0.573561192
0.742947519 0.736495972 0.539026320
0.755723953 0.729158938 0.506641805
0.763061345 0.710056782 0.467172533
0.768880367 0.688804388 0.430486739
0.782542884 0.653130770 0.399367392
0.792410135 0.621884882 0.367109358
0.801012278 0.601138413 0.338646472
0.817710578 0.586717367 0.317393720
0.849588990 0.596584678 0.317393720
0.876787007 0.607084334 0.324478030
0.907780051 0.620366752 0.327514291
0.922960281 0.631751776 0.332067937
0.943453491 0.643517017 0.341176212
0.964705884 0.657938302 0.349146217
0.981530726 0.672106326 0.363567293
0.993295372 0.685009778 0.385199398
0.701834023 0.785958290 0.676154733
0.701834023 0.789753735 0.677293122
0.713472545 0.788109004 0.687918782
0.715243757 0.792409718 0.690955162
0.716382205 0.792915761 0.691587746
0.722453833 0.788361907 0.691587746
0.729285359 0.792283475 0.701707721
0.738140702 0.793674767 0.708918452
0.743453622 0.795951843 0.718279719
0.748386919 0.801265180 0.724730968
0.755344570 0.802403569 0.723971844
0.758254230 0.799114466 0.718279719
0.758254230 0.790385842 0.698544919
0.756483436 0.789373755 0.680075467
0.758127689 0.786337793 0.662112594
0.755850732 0.780897737 0.634661496
0.767995119 0.773307920 0.610373080
0.781277478 0.770145714 0.580645144
0.789120734 0.759519279 0.548766196
0.799240708 0.746109784 0.513978183
0.809108198 0.724857509 0.479443192
0.823276699 0.691461086 0.441998541
0.825427175 0.660088480 0.404680490
0.837065160 0.633017182 0.369765639
0.856420279 0.620114028 0.344718456
