Assets/Shaders/EldamarStudio/100 Sci-Fi LUTs Pack/LUTs/cube/Vanih LUT.cube
LUT_3D_SIZE 5
DOMAIN_MIN 0.000000 0.000000 0.000000
DOMAIN_MAX 0.903226 0.903226 0.903226
0.003922000 0.000000000 0.000000000
0.218722701 0.021884711 0.020240003
0.439468801 0.047059000 0.025553409
0.678810954 0.106894128 0.054016128
0.923339784 0.172801957 0.117773816
0.160910398 0.201391399 0.144844696
0.238709405 0.204680398 0.096141987
0.438456655 0.250474393 0.081467278
0.691840649 0.284756690 0.108286120
0.922959924 0.318405986 0.153320879
0.431625783 0.526375413 0.400885373
0.497027218 0.552308500 0.451613069
0.563061237 0.498924404 0.281847388
0.719291210 0.477672547 0.208981693
0.932447612 0.544085801 0.247944236
0.712966144 0.805186391 0.693358839
0.760404944 0.815939248 0.735230684
0.788867712 0.812650383 0.710436583
0.838457108 0.754206121 0.515875995
0.958127499 0.683617949 0.387855977
0.883997619 0.945224822 0.881340802
0.902972817 0.947880983 0.886147976
0.922454238 0.949778378 0.909297585
0.932447672 0.945224822 0.851233542
0.989753127 0.916508675 0.741555810
0.000000000 0.082732700 0.229854703
0.213788986 0.015053997 0.214168116
0.421758384 0.036938708 0.217077985
0.664389610 0.068311132 0.233776107
0.904364049 0.145603940 0.257684976
0.001644708 0.226565704 0.206957698
0.218722701 0.215433702 0.217077985
0.426059514 0.232511103 0.229222119
0.665022433 0.261859715 0.248829708
0.908285797 0.298165828 0.276913553
0.357368678 0.492346823 0.386717528
0.455787808 0.512713432 0.444654971
0.530297041 0.477039665 0.358633697
0.688804686 0.486148089 0.311195403
0.910942376 0.532953382 0.338140219
0.678810835 0.790765524 0.675268710
0.738266945 0.805186570 0.719923854
0.777482271 0.807463467 0.738899410
0.821505547 0.746742249 0.559139848
0.942947626 0.691207945 0.455913812
0.881847024 0.942694843 0.870714784
0.898797989 0.950790524 0.882479787
0.928905785 0.948766708 0.903984547
0.934471667 0.946236551 0.868564129
0.982795894 0.921821654 0.765591502
0.000000000 0.211258397 0.510056853
0.018089691 0.092220411 0.497027218
0.425680250 0.044528987 0.427703828
0.657179296 0.066666998 0.437824100
0.891966939 0.082479820 0.450474381
0.000000000 0.386844099 0.511068642
0.062239397 0.296267956 0.491461098
0.426312387 0.225300699 0.430233985
0.653889835 0.230486855 0.436052978
0.891966760 0.243263811 0.454775512
0.003922000 0.495635808 0.467552394
0.205312967 0.479949802 0.464262962
0.444655001 0.452498794 0.447311819
0.655913830 0.457052410 0.459961921
0.897912323 0.501707315 0.486021221
0.505882204 0.738266826 0.606198847
0.589500129 0.751296818 0.644781649
0.748387098 0.781656981 0.734598041
0.780391932 0.738899171 0.650980532
0.914737642 0.725869596 0.588867724
0.854522347 0.940670371 0.865527987
0.874130189 0.948893070 0.877419353
0.921062350 0.959013402 0.914611220
0.943959832 0.956736147 0.911954403
0.972801983 0.927640378 0.818722546
0.000000000 0.337507993 0.795446098
0.002023998 0.249209583 0.784060597
0.371157050 0.156356841 0.746489584
0.667046249 0.074510001 0.667046249
0.894876599 0.092346817 0.676533937
0.001012128 0.486400962 0.791777194
0.003289420 0.428968847 0.785705566
0.370777756 0.307021141 0.741429448
0.671600282 0.237697542 0.672612131
0.895888746 0.251739562 0.677799106
0.000000000 0.719544530 0.801644266
0.198608220 0.705249608 0.797975898
0.436938792 0.572548687 0.758507371
0.664768934 0.451233417 0.666034102
0.899430513 0.462745100 0.679823101
0.125237375 0.766982973 0.729791224
0.286780715 0.760784149 0.729032397
0.486653775 0.736242831 0.723213255
0.679823101 0.679823041 0.677799106
0.894496799 0.710815787 0.716382086
0.642251730 0.923971772 0.805945456
0.706894279 0.931308925 0.823529243
0.813409209 0.940543950 0.864768863
0.950537801 0.961416960 0.942820787
0.966982961 0.940923631 0.887286782
0.001265167 0.452498823 0.971410692
0.000000000 0.406451523 0.975078940
0.000632584 0.307526946 0.967741787
0.628716171 0.254016429 0.940037906
0.912966430 0.175584927 0.916887760
0.000000000 0.571157515 0.974446654
0.000000000 0.534598529 0.972801924
0.041872498 0.427450925 0.962681949
0.635673642 0.371789634 0.931815326
0.906388581 0.301707774 0.906008720
0.386717170 0.790512383 0.964832008
0.413155973 0.770904362 0.965338469
0.471094429 0.699809909 0.955850780
0.666666687 0.591018319 0.942567945
0.908286035 0.507653594 0.908918619
0.532321453 0.929031789 0.963314474
0.576470613 0.926375687 0.969133377
0.697533071 0.918911934 0.971410811
0.766729951 0.837318122 0.953320801
0.915496767 0.710563123 0.911954284
0.510436416 0.971663594 0.938899636
0.543453276 0.972548902 0.934724927
0.652877748 0.963693798 0.932953537
0.788614631 0.953952909 0.933080196
0.920682907 0.915496767 0.911448598
