Assets/Shaders/EldamarStudio/100 Sci-Fi LUTs Pack/LUTs/cube/Vara LUT.cube
LUT_3D_SIZE 5
DOMAIN_MIN 0.000000 0.000000 0.000000
DOMAIN_MAX 0.903226 0.903226 0.903226
0.070588000 0.050980002 0.066666998
0.278557986 0.032005005 0.092473291
0.513346255 0.000000000 0.122959986
0.801391363 0.001012128 0.186337993
1.000000000 0.002656833 0.256419808
0.223276705 0.224288404 0.210246697
0.304364711 0.218722686 0.150410980
0.502846420 0.271346986 0.156230420
0.799114287 0.278557807 0.195825547
0.998987913 0.265528232 0.260341823
0.508159399 0.540164769 0.447944373
0.552688181 0.546363115 0.437191486
0.624541223 0.471473396 0.281847388
0.809487820 0.490702122 0.241619125
0.994939744 0.529032230 0.289690375
0.828842342 0.770778000 0.717141092
0.860088706 0.779886425 0.745098114
0.863757312 0.772422552 0.657179296
0.916002274 0.693358839 0.465022236
0.997976005 0.656040132 0.410246789
0.967362165 0.878557801 0.881467640
0.992283165 0.872359097 0.901201665
0.994180560 0.877292991 0.892978966
0.998355269 0.873876989 0.832637668
0.994687021 0.828968823 0.685262799
0.002277292 0.135357410 0.260214984
0.272612423 0.039848004 0.250094682
0.495002955 0.079443291 0.286400974
0.801771283 0.048197512 0.355091840
0.997343183 0.000000000 0.361037403
0.147754401 0.236685410 0.255028397
0.281467706 0.232131407 0.251359701
0.511701524 0.249462292 0.285768390
0.803668618 0.246552825 0.320050716
0.997469962 0.252118826 0.356103688
0.450600803 0.518532395 0.432511121
0.558506787 0.532574117 0.493738234
0.596711099 0.460341424 0.334092379
0.788994551 0.501834154 0.326375782
0.997469842 0.518153310 0.374066800
0.809487641 0.771157563 0.705502868
0.844528973 0.778620958 0.741176605
0.865401566 0.770398080 0.691461265
0.905882120 0.686527252 0.506894469
0.994813442 0.669196844 0.465654403
0.984566629 0.872612000 0.894623697
0.993295312 0.878810883 0.891840637
0.999367416 0.873624265 0.906135380
0.997090101 0.876533568 0.848956466
1.000000000 0.829980910 0.720050633
0.000632584 0.299556971 0.517267346
0.023655981 0.120683119 0.486527801
0.491081387 0.020240422 0.446679354
0.742947698 0.002909872 0.461986274
0.996837378 0.142820805 0.535483360
0.001897590 0.434914798 0.516002774
0.086780608 0.307653248 0.488804519
0.495256126 0.213155985 0.439721674
0.762175560 0.215686411 0.475395411
0.997469962 0.326122522 0.557495058
0.197469994 0.476027817 0.470208377
0.317394137 0.465907693 0.461986125
0.532320976 0.456419796 0.453763843
0.789626896 0.484629780 0.498292387
0.996204972 0.510056853 0.561796129
0.684250593 0.736875236 0.658064723
0.757621944 0.744971275 0.688172162
0.864262879 0.766603529 0.763188243
0.873877585 0.680328727 0.590133131
0.995825112 0.703225732 0.592915952
0.965591431 0.875774860 0.881214678
0.970398545 0.879443288 0.894623518
0.999367416 0.879822969 0.928146780
0.995066285 0.881214678 0.893105328
1.000000000 0.840733826 0.766476750
0.000000000 0.468817264 0.770904243
0.001644708 0.365844727 0.757242262
0.408095747 0.092852607 0.711448252
0.747501254 0.000000000 0.661986113
0.987602651 0.001265167 0.659076273
0.002277292 0.556103587 0.761163652
0.001264999 0.480961531 0.750917077
0.399747014 0.251739413 0.720176935
0.763188243 0.157874539 0.662112415
0.985072494 0.137507796 0.655155301
0.001012128 0.764326215 0.777102947
0.088425010 0.725363672 0.765085280
0.442251772 0.531056404 0.724224925
0.778873801 0.416192114 0.662112355
0.990512371 0.453763366 0.669576406
0.365085244 0.719924271 0.699304044
0.446679413 0.716255546 0.700569570
0.597975910 0.688171685 0.684883118
0.808096290 0.673877120 0.686527252
0.993674815 0.711701274 0.733080268
0.848450303 0.877419770 0.847691476
0.878810644 0.873750687 0.859202802
0.960404754 0.876280725 0.896520793
1.000000000 0.891334653 0.957494974
1.000000000 0.847311974 0.842884183
0.000000000 0.571410656 0.953193963
0.000000000 0.516888082 0.949272633
0.000000000 0.280582219 0.939532101
0.686780572 0.044149123 0.900316298
0.991144836 0.000000000 0.888171613
0.001012124 0.639089525 0.955217957
0.004301121 0.590006113 0.954585612
0.001265006 0.412397325 0.944718659
0.678684473 0.241745636 0.905123234
0.989879608 0.072865210 0.884123802
0.143959135 0.798229218 0.955850601
0.226185575 0.770777822 0.954965115
0.358886540 0.672232807 0.938899636
0.679696620 0.492473185 0.918026805
0.993042409 0.400252968 0.884883046
0.551928878 0.901075304 0.953446925
0.613788605 0.892979205 0.954964876
0.742314756 0.888045669 0.965085387
0.794434071 0.760784090 0.939658582
0.991650999 0.651992440 0.890575767
0.654269576 0.897026777 0.922074616
0.682605743 0.895382583 0.935736775
0.769133508 0.881973386 0.920050323
0.881467760 0.866286993 0.915875912
0.992283165 0.856546581 0.918152928
