Assets/Shaders/EldamarStudio/100 Sci-Fi LUTs Pack/LUTs/cube/Vara LUT.cube
LUT_3D_SIZE 8
DOMAIN_MIN 0.000000 0.000000 0.000000
DOMAIN_MAX 0.903226 0.903226 0.903226
0.070588000 0.050980002 0.066666998
0.172801644 0.046300001 0.079569548
0.312713116 0.026691902 0.090195999
0.437191278 0.002783356 0.107020639
0.589247167 0.001518192 0.144212380
0.765970707 0.002024260 0.176217467
0.920809567 0.001644712 0.210752696
1.000000000 0.002656833 0.256419808
0.147375003 0.132827535 0.135610089
0.193168640 0.132447988 0.103479005
0.304870099 0.160278454 0.110183448
0.432890743 0.157495096 0.121062540
0.579253733 0.158001453 0.150158450
0.755597889 0.148892909 0.176217467
0.912460506 0.133206800 0.214041710
0.998734832 0.130297244 0.251233637
0.249842182 0.256926090 0.242884189
0.278937221 0.264769107 0.227957189
0.340038210 0.247565106 0.173181191
0.449335724 0.268311441 0.150790647
0.576470494 0.312587202 0.164579093
0.754079700 0.320809424 0.190006256
0.906514823 0.314990193 0.221758187
0.998734832 0.306009024 0.266413897
0.405945927 0.435673922 0.361669570
0.440480828 0.436432928 0.378620833
0.463504344 0.443642914 0.328652740
0.515749633 0.393548638 0.242125273
0.624288380 0.400379270 0.213915184
0.744465113 0.446932644 0.213029891
0.886147976 0.461859643 0.234914273
0.994686604 0.455408275 0.281847000
0.608602345 0.623023391 0.519291401
0.644275904 0.628715932 0.553067565
0.651739597 0.629222333 0.520050466
0.685515344 0.613788843 0.425933093
0.721695125 0.543706357 0.315623164
0.809107900 0.509298146 0.267425835
0.910562992 0.550158262 0.274130255
0.993674815 0.584693372 0.300189972
0.801517725 0.754585743 0.683744729
0.809234560 0.756862521 0.700189769
0.834535480 0.758380711 0.703605473
0.825553656 0.753194094 0.647564709
0.860973954 0.735990167 0.560531020
0.883617699 0.668058217 0.430613458
0.956230283 0.608854949 0.353320569
1.000000000 0.641113043 0.384693384
0.920176983 0.830360293 0.807463288
0.916508555 0.829348564 0.804807246
0.933586061 0.833270013 0.818216324
0.937507987 0.828209877 0.803162575
0.942188382 0.824794531 0.753067374
0.973055005 0.816065788 0.683871031
0.986211002 0.764959276 0.570777833
0.999620438 0.691587806 0.486527443
0.967362165 0.878557801 0.881467640
0.981657267 0.877545714 0.894623697
0.989247024 0.873877287 0.910056949
0.995951772 0.875900984 0.901201844
0.996331334 0.875774801 0.880834818
0.996078014 0.876660049 0.844528913
1.000000000 0.868691027 0.785199285
0.994687021 0.828968823 0.685262799
0.000000000 0.088172443 0.172422081
0.180265993 0.046300001 0.171663091
0.298165649 0.052498098 0.184566632
0.429727912 0.081214547 0.217077896
0.586337805 0.013282903 0.224414632
0.765338302 0.000379548 0.245288000
0.916381836 0.003922000 0.266666561
1.000000000 0.000000000 0.297406524
0.110183448 0.148893103 0.182289541
0.188868091 0.148513556 0.180265993
0.301707983 0.152814999 0.184566528
0.435293853 0.152435541 0.197470099
0.572169721 0.152940899 0.215433195
0.753194153 0.138393536 0.246552736
0.911574841 0.119417638 0.268817097
0.998734832 0.125363603 0.300063372
0.252751529 0.256546646 0.244908556
0.292346984 0.260467768 0.274003655
0.323971719 0.246805996 0.216319010
0.433270216 0.282859087 0.205692634
0.575331926 0.307526737 0.225679979
0.746110082 0.307526708 0.238836274
0.903352261 0.300063193 0.269576102
0.995572209 0.305502802 0.300948799
0.392662913 0.429474920 0.360151470
0.423529357 0.433396906 0.387602538
0.449462265 0.430613339 0.348133713
0.494876444 0.384945840 0.270714730
0.607337117 0.398355603 0.246426538
0.741935372 0.449335814 0.251612991
0.893232167 0.455281466 0.275648296
0.995572388 0.456040353 0.318026483
0.586970091 0.614421189 0.516508818
0.616824687 0.620620191 0.544971764
0.647058487 0.622517526 0.539658368
0.671726823 0.611637950 0.450727701
0.706261814 0.534345210 0.333713174
0.796078265 0.509298086 0.291840732
0.900822222 0.548766613 0.305123627
0.992915809 0.585072517 0.342188448
0.785325468 0.750917196 0.682099819
0.796837449 0.753320515 0.696268439
0.827451229 0.753573596 0.713978291
0.828463078 0.748766661 0.664895833
0.851486742 0.734345436 0.575331926
0.881214559 0.662112474 0.445920199
0.950537443 0.611258328 0.372675300
0.997975767 0.644908249 0.402656615
0.909171581 0.827198267 0.797090292
0.914737284 0.826818705 0.799620569
0.928399801 0.828209758 0.819355011
0.935736656 0.827450871 0.811384976
0.942441583 0.824668229 0.755218387
0.967868626 0.817330658 0.686021805
0.993422031 0.761037230 0.592156589
0.999620438 0.702340245 0.500189662
0.976090968 0.871600389 0.894370675
0.983933985 0.871347010 0.893864810
0.989500463 0.875900984 0.902846217
0.994686604 0.875015736 0.906388223
0.993801355 0.875774801 0.885641992
0.997216642 0.873118341 0.850727618
0.999620438 0.865654945 0.786211073
1.000000000 0.831246078 0.698038995
0.000759096 0.155092001 0.289057195
0.040227637 0.065781094 0.285641670
0.293864995 0.037571095 0.278937101
0.425553262 0.047438446 0.288804531
0.571157396 0.080076098 0.328400075
0.749399066 0.100063354 0.373055011
0.909804046 0.065148607 0.390386194
0.998102248 0.024288371 0.394940197
0.007084000 0.240607083 0.297406644
0.112081081 0.170778006 0.280455202
0.302466989 0.134345442 0.278557628
0.421884805 0.148893103 0.289184123
0.573434353 0.170524642 0.327514172
0.749272943 0.162049457 0.359013110
0.912460744 0.093105994 0.364452899
0.999620497 0.093105726 0.380518645
0.158381000 0.262492180 0.291461200
0.217583537 0.259329170 0.282985210
0.309551001 0.262492180 0.271853179
0.433649659 0.274636477 0.291587889
0.589879572 0.280581981 0.311827898
0.755344450 0.282226205 0.329917997
0.905755579 0.279696196 0.348766178
0.999240935 0.289057195 0.379380077
0.319291621 0.407969475 0.352940828
0.367362261 0.411511719 0.368248075
0.438962817 0.429095387 0.400126278
0.484124184 0.377861917 0.325996071
0.597216845 0.412017375 0.316508383
0.744592011 0.442251831 0.327007920
0.893358529 0.449462324 0.356230348
0.998734832 0.448576927 0.390385926
0.543580115 0.597849309 0.510689497
0.587855935 0.600505948 0.534218550
0.645414531 0.620620191 0.577356219
0.660847843 0.601391613 0.498924464
0.686401188 0.524984181 0.380012274
0.785452127 0.524477899 0.353699893
0.889437199 0.566603363 0.372928351
0.992156804 0.581277549 0.403542101
0.767488837 0.746615708 0.682226658
0.788361430 0.744592071 0.697153747
0.822517753 0.756356478 0.713345766
0.831245840 0.748387218 0.695129335
0.840101242 0.732068241 0.607210398
0.863883734 0.657432079 0.484376937
0.939911246 0.624920905 0.430866480
0.997596145 0.656799316 0.461859554
0.898924291 0.823782265 0.788108587
0.907526970 0.827830374 0.798102736
0.925743282 0.828715980 0.818089783
0.943326771 0.828589499 0.826692283
0.941303194 0.827704072 0.786717355
0.967742085 0.816192210 0.715370178
0.990133047 0.760405064 0.620240211
1.000000000 0.714105248 0.542441308
0.984313786 0.872106016 0.889816642
0.977735341 0.873877466 0.892093658
0.991777062 0.877292991 0.897912741
0.995698869 0.880202532 0.913851678
0.999240875 0.879064023 0.903605223
0.995319128 0.875015914 0.862618685
0.998734832 0.869829416 0.808981478
0.999240935 0.830993056 0.724098623
0.003922000 0.249968290 0.435547292
0.000000000 0.178621173 0.429095626
0.257558465 0.065401636 0.396837622
0.418722630 0.031878360 0.381657273
0.559012949 0.012397362 0.395319462
0.725995958 0.003415739 0.423023373
0.889437258 0.064516351 0.464642584
0.995951772 0.197849333 0.510815740
0.000000000 0.307526827 0.420620173
0.002783356 0.245161280 0.415939391
0.249209180 0.149652094 0.408728540
0.420746177 0.128526092 0.382795632
0.559266150 0.119164996 0.392283648
0.724984050 0.129664540 0.421379060
0.891334653 0.180012375 0.470209092
0.999240935 0.273118436 0.524098396
0.002783356 0.423023373 0.440354198
0.002656551 0.392030746 0.420999706
0.261353642 0.282100022 0.402024090
0.438456744 0.252624750 0.388235629
0.571157277 0.264516443 0.399999827
0.745098293 0.281593859 0.444655508
0.899809957 0.322707176 0.496015191
0.997722745 0.344085932 0.510689378
0.187096640 0.401391625 0.388488293
0.233523086 0.399494261 0.403542280
0.339025646 0.389374077 0.397217184
0.450094908 0.392915636 0.394054264
0.594560444 0.406957597 0.413282633
0.756483138 0.411764532 0.434029162
0.898418665 0.430486947 0.461859643
0.998734832 0.442631453 0.495888472
0.398228914 0.565844297 0.475015730
0.438962728 0.565718174 0.486401170
0.552814722 0.577862024 0.529284954
0.630360723 0.588361502 0.560278356
0.649841905 0.516761720 0.434788197
0.770272255 0.543833196 0.443516880
0.885768652 0.572043002 0.466793090
0.992156625 0.579759538 0.507779837
0.699177861 0.724225163 0.654269457
0.724857390 0.729411781 0.667298913
0.779633164 0.737381279 0.694370270
0.837950826 0.749399126 0.728779435
0.833776236 0.726502061 0.660214782
0.845540583 0.656293750 0.546869338
0.923213303 0.644528866 0.513093114
0.994686842 0.678051949 0.539026022
0.876027822 0.824288666 0.783934295
0.891587555 0.826818705 0.794687271
0.912334085 0.825427294 0.812270701
0.944212615 0.830486953 0.841745555
0.950537622 0.831752181 0.818216145
0.958507359 0.820620120 0.754206061
0.981277287 0.762175918 0.655914187
0.997090399 0.731688857 0.599241078
0.972296178 0.879949808 0.892093658
0.976091266 0.877292812 0.894497037
0.991904020 0.878937364 0.905375957
0.995951772 0.875900984 0.921315610
1.000000000 0.880202532 0.928652585
0.998102248 0.875774801 0.888931155
0.997596204 0.873750567 0.839847982
1.000000000 0.836811841 0.753067732
0.000000000 0.350284398 0.596205175
0.000758999 0.300442636 0.594307542
0.001518216 0.137002185 0.569513321
0.407083720 0.037697710 0.519544303
0.562428355 0.000000000 0.506009161
0.708665490 0.000000000 0.513219357
0.854775369 0.000759096 0.521821499
0.989500165 0.054269388 0.561796367
0.005186551 0.394054264 0.586084604
0.000379548 0.351676196 0.584313333
0.000759119 0.212650448 0.575079083
0.411891341 0.132827550 0.524477839
0.572548807 0.106261551 0.507021189
0.703731716 0.068817355 0.512207329
0.864895642 0.057811458 0.524351418
0.993927538 0.178368151 0.568247676
0.000759096 0.505376399 0.595446110
0.004680903 0.466160476 0.580771804
0.052119099 0.366603404 0.567868412
0.415686607 0.256672829 0.521948040
0.569513321 0.229601189 0.509171426
0.720683277 0.225680083 0.510309815
0.877545655 0.251360178 0.541429460
0.991271317 0.326628447 0.582668781
0.003162807 0.596205175 0.593421817
0.000759096 0.589120507 0.589879453
0.183048368 0.557874501 0.584440351
0.407842934 0.397216976 0.526755035
0.580392361 0.371284068 0.499683380
0.738772511 0.384693176 0.525616586
0.882226229 0.433649629 0.570272148
0.994180977 0.492599726 0.625933170
0.216318816 0.551549375 0.534345210
0.264516532 0.543326795 0.540164590
0.355850905 0.537508130 0.529032111
0.476660728 0.519164920 0.522580564
0.609487355 0.527387559 0.514737189
0.761543274 0.540164411 0.548513353
0.897153497 0.556230247 0.576597393
0.990511954 0.581277311 0.606325150
0.506135345 0.688931167 0.618469000
0.545983434 0.690322459 0.617077947
0.633396864 0.698671520 0.641113281
0.745603859 0.709930241 0.675774693
0.811132312 0.716634810 0.703984678
0.811005652 0.643769920 0.581530690
0.909930289 0.667678773 0.593168914
0.989626586 0.695255935 0.615686357
0.796837568 0.811258554 0.757115662
0.820620060 0.810752809 0.758760035
0.856673241 0.819102049 0.774699450
0.906008959 0.826945066 0.812523723
0.956230223 0.834914327 0.853384078
0.954711974 0.820620239 0.796331108
0.964073479 0.767109454 0.690828443
0.995698810 0.750790536 0.654395878
0.949398935 0.878431618 0.874762952
0.958127797 0.881341159 0.879317164
0.967868567 0.880455554 0.894370496
0.989879787 0.885009646 0.918785393
0.996204853 0.882858992 0.944718361
0.996963978 0.881467402 0.924984157
1.000000000 0.877166450 0.875015974
0.998481810 0.839847803 0.792282939
0.000000000 0.446552992 0.736495435
0.002024260 0.408855349 0.734345317
0.001138644 0.290955037 0.720556617
0.220872611 0.127261356 0.693231761
0.565717876 0.002277191 0.639847815
0.707020700 0.002024260 0.630613446
0.853257239 0.000379548 0.627198040
0.986590564 0.000000000 0.635040760
0.004048004 0.476660520 0.726755202
0.004048004 0.448197305 0.723718941
0.001897546 0.348513484 0.711448431
0.209740907 0.190765634 0.699936926
0.563440859 0.092599705 0.643516898
0.722707212 0.023403171 0.635167539
0.855913997 0.004554286 0.629474819
0.989500046 0.002277091 0.632004738
0.000000000 0.562175930 0.729284823
0.000000000 0.537381291 0.725995958
0.004301257 0.458696812 0.718785644
0.195951819 0.303984970 0.693484962
0.578241587 0.232005090 0.650727689
0.723466039 0.204174548 0.635547042
0.865401745 0.195066184 0.630739987
0.982289553 0.206072077 0.633396685
0.000000000 0.699304104 0.732068121
0.000000000 0.675774813 0.730550110
0.062618464 0.613788664 0.720303416
0.305376112 0.490828723 0.696647465
0.581150949 0.375964344 0.650221467
0.731309116 0.352181941 0.632763684
0.868943751 0.353447080 0.626691818
0.990512252 0.402276874 0.655914009
0.001897740 0.723718822 0.718406200
0.066034198 0.721695185 0.714863777
0.286780506 0.715875864 0.713599265
0.466793209 0.686780691 0.703605235
0.584187031 0.532827258 0.656925857
0.740417480 0.500695825 0.629601717
0.879317224 0.521948040 0.647817731
0.993422031 0.572548866 0.694244087
0.328652471 0.689563513 0.663883686
0.366729736 0.685135901 0.665022492
0.434028834 0.680835128 0.669702649
0.533965647 0.663630486 0.651486695
0.639468431 0.648830175 0.639974713
0.771663427 0.644528747 0.648070693
0.897027016 0.670334995 0.671347499
0.995445728 0.687159956 0.708791673
0.598608494 0.783807576 0.722833693
0.628083527 0.780771554 0.725869596
0.692346454 0.785325468 0.732321441
0.775838196 0.791397691 0.752561867
0.891081274 0.805312932 0.807463706
0.946995735 0.825806499 0.840860128
0.945097983 0.760784566 0.729158521
1.000000000 0.773561180 0.725995839
0.875015855 0.875901580 0.850980520
0.893991292 0.874003649 0.861479998
0.916002512 0.872485936 0.867298961
0.952561498 0.880075812 0.894496739
0.996331453 0.879696488 0.925869524
1.000000000 0.887033761 0.955976784
0.998355269 0.877672553 0.913852155
1.000000000 0.847311974 0.829474747
0.004553996 0.514990568 0.848576844
0.000000000 0.492599726 0.841998994
0.001644712 0.414421260 0.843263805
0.000000000 0.229981273 0.830613315
0.448197275 0.120556474 0.800885439
0.724351645 0.002277288 0.755471289
0.866540551 0.000000000 0.756736577
0.988614798 0.000000000 0.745603800
0.000000000 0.546236277 0.856040716
0.003794996 0.516129017 0.852245688
0.000000000 0.453763187 0.846173525
0.002783356 0.288551539 0.833017290
0.445161402 0.184060887 0.797343433
0.724351883 0.012271088 0.750917077
0.866413832 0.000000000 0.751675844
0.991144776 0.000000000 0.746616304
0.000000000 0.616571486 0.858317554
0.000379548 0.597849548 0.850348175
0.000000000 0.539911270 0.847817600
0.002024260 0.417077720 0.830233812
0.441366196 0.296774119 0.803162515
0.726249158 0.195066288 0.757115722
0.874509871 0.170651287 0.754459262
0.990765214 0.169892386 0.742947519
0.003921709 0.726375580 0.856925905
0.003035997 0.711321890 0.848956227
0.028842557 0.669196546 0.844528556
0.159266636 0.573434591 0.832258046
0.441872269 0.440227658 0.813662171
0.726375580 0.356483191 0.759013057
0.882732689 0.333459616 0.751675904
0.993674815 0.340796977 0.741302907
0.110942341 0.833396316 0.862112284
0.197975755 0.827577531 0.861479938
0.371410280 0.803415358 0.850094616
0.509171367 0.748513401 0.836305976
0.549652278 0.628969193 0.821631789
0.733333349 0.509930372 0.766350448
0.886148036 0.484250367 0.753826261
0.992536187 0.492599666 0.738393128
0.396837711 0.828083754 0.843517005
0.433523297 0.828969002 0.838836133
0.505502701 0.822896957 0.841113210
0.601391673 0.818975449 0.842251837
0.706767917 0.806071818 0.845414460
0.747375369 0.667046249 0.779506385
0.894750297 0.625174224 0.749778271
0.990512192 0.648323715 0.762681842
0.493990958 0.806451559 0.803162515
0.512081265 0.804807246 0.794813097
0.561163664 0.801518083 0.798355520
0.628589511 0.786337912 0.790259242
0.710436463 0.780518532 0.785578787
0.786211073 0.754712224 0.764199793
0.905123532 0.761669874 0.784187555
0.994939983 0.781656861 0.812523663
0.678304315 0.862112403 0.842757821
0.691714227 0.863377512 0.836685658
0.743705988 0.864263058 0.845161200
0.817077637 0.864642382 0.859709144
0.903605521 0.873371005 0.886653841
0.978620827 0.880455554 0.919797659
1.000000000 0.883871019 0.970525086
0.997722745 0.852498829 0.875016093
0.000000000 0.571410656 0.953193963
0.001265167 0.552308798 0.949652076
0.000000000 0.500442803 0.948513567
0.000000000 0.387096673 0.946616173
0.063124910 0.227324799 0.938266754
0.604554057 0.111448288 0.907653451
0.858317554 0.000000000 0.881467104
0.991144836 0.000000000 0.888171613
0.004553989 0.593168855 0.950284541
0.002530012 0.571663797 0.959012747
0.002277284 0.528526068 0.951043487
0.002024263 0.425427079 0.951676071
0.064010113 0.273624480 0.933585942
0.606198728 0.188994482 0.912966430
0.858950138 0.000379544 0.885894775
0.993674755 0.000000000 0.889563501
0.000759096 0.653004766 0.952435076
0.003794989 0.640354335 0.950411081
0.003794990 0.594560206 0.953826487
0.004301157 0.514357865 0.945350945
0.061859749 0.367488801 0.938393533
0.602277279 0.301960737 0.916002631
0.856925964 0.171536893 0.882605910
0.992410004 0.148260549 0.881340563
0.002403811 0.744971633 0.955977023
0.002277285 0.737887442 0.953067660
0.002656833 0.704743922 0.951043785
0.056925815 0.646299660 0.949525595
0.246173412 0.529917896 0.944086075
0.603036165 0.441239476 0.924477935
0.863377452 0.335863173 0.889563620
0.993674755 0.327640623 0.892346621
0.326502144 0.844655335 0.959645629
0.366097093 0.838456750 0.958001137
0.450980395 0.819860935 0.952561736
0.500442982 0.775458515 0.951802671
0.535863221 0.700949013 0.944085777
0.635673463 0.588614583 0.931056201
0.857432187 0.490955234 0.891840577
0.991271317 0.481214345 0.886907101
0.523086488 0.900063038 0.955217898
0.547627985 0.895382881 0.964199781
0.605439246 0.894750059 0.959519088
0.677545965 0.879696488 0.959139526
0.742821157 0.840733647 0.944338977
0.748134434 0.749145925 0.941935480
0.862492085 0.647311866 0.899177790
0.986590743 0.619354725 0.888045788
0.624162078 0.899177730 0.949019313
0.638456762 0.895762444 0.951928794
0.680076063 0.889437079 0.951549470
0.739026010 0.893864989 0.951169968
0.810626209 0.888678074 0.959898472
0.895888865 0.885262370 0.959645808
0.895003200 0.791397929 0.923086286
0.994939983 0.746616304 0.894876480
0.654269576 0.897026777 0.922074616
0.669196784 0.895888329 0.924351335
0.697027028 0.891081512 0.935736775
0.748766601 0.884883106 0.927767098
0.802782834 0.874636412 0.920809388
0.866793275 0.869575799 0.921442032
0.922453940 0.854522407 0.911448181
0.992283165 0.856546581 0.918152928
