Assets/Shaders/EldamarStudio/100 Sci-Fi LUTs Pack/LUTs/cube/Vara LUT.cube
DOMAIN_MIN 0 0 0
DOMAIN_MAX 1 1 1
LUT_3D_SIZE 32
0.070588000 0.050980002 0.066666998
0.088804774 0.050980002 0.072738998
0.113472767 0.048829775 0.074510001
0.142061993 0.047059000 0.075774841
0.172801644 0.046300001 0.079569548
0.206198812 0.040228002 0.088677935
0.242125630 0.036685679 0.092726320
0.278557986 0.032005005 0.092473291
0.312713116 0.026691902 0.090195999
0.340037525 0.023655511 0.090196006
0.370271742 0.014800873 0.101833999
0.402656227 0.007717004 0.105881996
0.437191278 0.002783356 0.107020639
0.473877102 0.000000000 0.110815994
0.513346255 0.000000000 0.122959986
0.552814782 0.000000000 0.135103986
0.589247167 0.001518192 0.144212380
0.625806093 0.003922000 0.150917411
0.674382985 0.003922000 0.160025060
0.725743115 0.003922000 0.166350007
0.765970707 0.002024260 0.176217467
0.801391363 0.001012128 0.186337993
0.841113448 0.003922000 0.192536503
0.886653900 0.003922000 0.201644912
0.920809567 0.001644712 0.210752696
0.953953326 0.000000000 0.219860658
0.986338019 0.000000000 0.229474992
0.998481989 0.000000000 0.241618991
1.000000000 0.002656833 0.256419808
0.998228788 0.002150783 0.271600187
0.996963620 0.000885608 0.284124017
1.000000000 0.003922000 0.290196002
0.088804774 0.066160388 0.081847385
0.100948773 0.063124776 0.078810997
0.123466000 0.069576003 0.078431226
0.144844770 0.075142160 0.078810774
0.167868093 0.079316840 0.082605936
0.209234416 0.070588000 0.091714323
0.235041261 0.072106324 0.088172384
0.274383307 0.068437777 0.092979290
0.311954200 0.061606675 0.097027093
0.337001920 0.054016288 0.099304393
0.373055130 0.053889774 0.105123378
0.405692637 0.049209647 0.110942125
0.440227687 0.045288127 0.113092639
0.476407439 0.042251740 0.116635025
0.510309875 0.039468389 0.125996381
0.547375202 0.032258201 0.133333385
0.590765357 0.025806583 0.142694578
0.633016884 0.020873006 0.150917411
0.674382985 0.016065989 0.160025060
0.720177054 0.004933995 0.169133365
0.765591502 0.002024260 0.179253384
0.806451499 0.000000000 0.190385744
0.849715114 0.000885613 0.198481992
0.883618295 0.000885613 0.204680532
0.920050681 0.000885613 0.211511612
0.955344617 0.000000000 0.221252322
0.988867700 0.000000000 0.232511386
0.998481989 0.000000000 0.244655386
1.000000000 0.000000000 0.254143178
0.998228788 0.000885613 0.266793340
0.996963620 0.008855180 0.280708581
1.000000000 0.031246386 0.293232381
0.098419003 0.083491549 0.092726223
0.112713777 0.084756389 0.096141614
0.127007991 0.083871000 0.086654000
0.153826326 0.091713779 0.084882773
0.174952313 0.099177547 0.085895002
0.208601862 0.097153611 0.086148165
0.242378414 0.098165318 0.086907223
0.271600455 0.099556997 0.090702221
0.310562879 0.095256098 0.098798096
0.336243004 0.088931061 0.101834491
0.370018959 0.090701774 0.107779995
0.404427469 0.088678032 0.111827739
0.437824160 0.085642129 0.117140643
0.473244995 0.082605802 0.122201025
0.508538663 0.079569906 0.127514407
0.550790548 0.078178361 0.136369213
0.585705161 0.072106354 0.142441601
0.630486906 0.064895548 0.151549980
0.672991753 0.058823537 0.162175819
0.718026280 0.051486541 0.166982591
0.761669695 0.039342552 0.174193695
0.803162575 0.033523191 0.186843634
0.846173227 0.029854553 0.198228732
0.883617938 0.025806546 0.206325009
0.917014539 0.023655772 0.216697991
0.947627902 0.020872783 0.222770333
0.981530309 0.019354772 0.233902931
0.998861432 0.019354772 0.247691214
1.000000000 0.027956773 0.257179052
1.000000000 0.036811952 0.266287416
0.998228788 0.045793734 0.277166605
1.000000000 0.073624551 0.289817005
0.115876161 0.105503157 0.109424159
0.124731384 0.106008768 0.115496159
0.139911547 0.110689320 0.104869992
0.156356320 0.108159326 0.093991160
0.187096626 0.113092773 0.092852615
0.216192245 0.114357926 0.085895002
0.243516952 0.121188834 0.087412998
0.275648534 0.127640486 0.092726156
0.307526946 0.128399387 0.101834163
0.334851354 0.126375645 0.104364485
0.366729856 0.124098614 0.106514834
0.401391387 0.125616416 0.113092899
0.435926437 0.123719156 0.117267154
0.469450027 0.121062316 0.125995994
0.504870117 0.119038582 0.130044252
0.544718325 0.119671322 0.139152512
0.589247167 0.115623131 0.144212380
0.625806093 0.113851897 0.151549980
0.671979785 0.109677471 0.163694009
0.714990556 0.104870319 0.167488649
0.758633614 0.098798163 0.174952462
0.800126255 0.089690283 0.183048978
0.839595318 0.081214488 0.197722673
0.879064083 0.075142473 0.206831083
0.915243268 0.071347192 0.214421004
0.947121799 0.068184644 0.225047171
0.972928166 0.063124642 0.231119826
0.995698690 0.063124642 0.244022518
1.000000000 0.069955453 0.257684976
1.000000000 0.081340656 0.268058181
1.000000000 0.093864471 0.278937578
1.000000000 0.115876161 0.288805008
0.147375003 0.132827535 0.135610089
0.149272546 0.130170688 0.142441094
0.158507332 0.135357305 0.130296856
0.174193546 0.138899550 0.113345712
0.193168640 0.132447988 0.103479005
0.226565808 0.129411593 0.094370611
0.250221759 0.137507543 0.097153544
0.275268972 0.148892865 0.102972701
0.304870099 0.160278454 0.110183448
0.332194507 0.163314074 0.110183448
0.363187730 0.156609863 0.108791672
0.396457970 0.155218288 0.113092795
0.432890743 0.157495096 0.121062540
0.469323516 0.157495096 0.126881510
0.502846420 0.157495096 0.132826999
0.538646579 0.160278365 0.143327057
0.579253733 0.158001453 0.150158450
0.624667645 0.151043668 0.151549980
0.673244536 0.154080063 0.163694009
0.714231551 0.151929289 0.168247744
0.755597889 0.148892909 0.176217467
0.797090650 0.145477235 0.187982455
0.836432517 0.142568097 0.200126469
0.875648677 0.137002081 0.209487915
0.912460506 0.133206800 0.214041710
0.947248280 0.130550221 0.220999211
0.975585043 0.127641097 0.229601547
0.993800998 0.127641097 0.235673547
0.998734832 0.130297244 0.251233637
1.000000000 0.136116296 0.265907943
1.000000000 0.143580079 0.278937578
1.000000000 0.149652094 0.294117987
0.165590987 0.160151929 0.153826877
0.180771381 0.160151929 0.165970877
0.184819698 0.163946867 0.159898877
0.193674937 0.167994931 0.144971639
0.208349034 0.165844381 0.130803391
0.232637808 0.156735986 0.115622997
0.258443981 0.156229943 0.114104934
0.280581743 0.161542937 0.111827932
0.304870099 0.170904145 0.110562898
0.332194507 0.184566453 0.113219067
0.368247718 0.190511927 0.121947929
0.397596240 0.190005988 0.124984182
0.429854363 0.191650569 0.130170926
0.466287136 0.193927869 0.135989890
0.502719879 0.193927869 0.139025509
0.538646579 0.198734865 0.147374809
0.578115404 0.199747130 0.155471057
0.621126056 0.196331799 0.159898654
0.664136946 0.196584836 0.163694024
0.709930301 0.196837872 0.173055366
0.752561510 0.194434062 0.179253861
0.794054389 0.190385804 0.187349871
0.833396852 0.185072869 0.197090074
0.869828939 0.185072869 0.209234878
0.904491007 0.181783587 0.214041710
0.941176534 0.180138856 0.224035323
0.975585043 0.179126993 0.238709927
0.993800998 0.176217854 0.244781926
0.998734832 0.178874016 0.253510743
1.000000000 0.181910068 0.265907943
1.000000000 0.185072869 0.278937578
1.000000000 0.186084867 0.294117987
0.196457967 0.192536324 0.179633319
0.206577703 0.190006644 0.181657329
0.217457086 0.190006644 0.185199320
0.222517312 0.196584478 0.177103326
0.232131422 0.199999869 0.164959088
0.247818172 0.195193037 0.145477712
0.269576639 0.188614964 0.130297318
0.295509338 0.186970249 0.127008319
0.318532735 0.191144735 0.123972312
0.342315167 0.202783138 0.128779158
0.368247718 0.211764321 0.122453868
0.402656227 0.223908573 0.133585989
0.433269918 0.229854286 0.140417323
0.468058348 0.235167608 0.147628039
0.502213836 0.232890308 0.150664225
0.545856774 0.235294119 0.151296645
0.587223291 0.238203645 0.160025120
0.629475117 0.237444893 0.166476563
0.668184996 0.239342630 0.169512972
0.710942686 0.241872311 0.173055366
0.756483018 0.238077313 0.184060991
0.801644266 0.235420644 0.192410126
0.845287621 0.232384652 0.201265126
0.876913309 0.227577642 0.206198499
0.911068559 0.227577642 0.220619962
0.947248697 0.226185963 0.228842303
0.982163310 0.225679904 0.242251739
0.996331334 0.222643778 0.246299997
0.996204495 0.224921122 0.260088831
0.999240875 0.226185963 0.269196749
1.000000000 0.228463024 0.284123868
1.000000000 0.230107307 0.304237992
0.223276705 0.224288404 0.210246697
0.237318009 0.222897083 0.213535696
0.243137181 0.222011700 0.208602399
0.249715254 0.224541694 0.204807237
0.256166816 0.232131407 0.198355705
0.268311590 0.230360642 0.183428466
0.291335016 0.229728401 0.168880373
0.304364711 0.218722686 0.150410980
0.329412013 0.214927405 0.142820984
0.349778801 0.219608188 0.143579990
0.378873974 0.225426823 0.138393536
0.407589942 0.240227669 0.135230705
0.438709348 0.255407751 0.143959358
0.470841348 0.266034007 0.151802719
0.502846420 0.271346986 0.156230420
0.539278805 0.273118228 0.158507288
0.586337388 0.277672410 0.161543280
0.632637382 0.277292818 0.170524567
0.673118234 0.278304964 0.175584957
0.713472784 0.281341046 0.178621352
0.754585743 0.283617675 0.185705274
0.799114287 0.278557807 0.195825547
0.845793486 0.277798891 0.204301476
0.877672136 0.273244679 0.210373104
0.913599014 0.271726698 0.217583567
0.948387027 0.270335376 0.234155610
0.983554959 0.269576341 0.246299773
0.996837258 0.266539931 0.251613140
0.998987913 0.265528232 0.260341823
0.997849226 0.268437684 0.273624450
1.000000000 0.269323289 0.284503281
1.000000000 0.272359103 0.306515008
0.249842182 0.256926090 0.242884189
0.264263093 0.256167203 0.247438192
0.274003774 0.256926090 0.247311950
0.274762958 0.259456098 0.236686021
0.278937221 0.264769107 0.227957189
0.291081965 0.264769107 0.221885189
0.310563326 0.267299414 0.209234551
0.331689119 0.262745470 0.191397592
0.340038210 0.247565106 0.173181191
0.358254224 0.241493106 0.161037192
0.387982070 0.241113216 0.155344978
0.419354498 0.251233399 0.152308837
0.449335724 0.268311441 0.150790647
0.476407140 0.283491105 0.153068006
0.505755901 0.298671484 0.157115996
0.538519859 0.308032811 0.161543295
0.576470494 0.312587202 0.164579093
0.623782218 0.319291592 0.169386089
0.672106087 0.316761225 0.178114966
0.713851988 0.318532467 0.183934256
0.754079700 0.320809424 0.190006256
0.792283177 0.321062207 0.198861167
0.834787905 0.318026602 0.205186889
0.870081902 0.314990401 0.214927092
0.906514823 0.314990193 0.221758187
0.943833232 0.315116882 0.231878325
0.978747964 0.311575204 0.248071000
0.994939625 0.308285832 0.256926328
0.998734832 0.306009024 0.266413897
1.000000000 0.307274044 0.279064059
1.000000000 0.307273686 0.288298607
1.000000000 0.310310096 0.303479016
0.292346984 0.296394497 0.273245007
0.295382619 0.293358892 0.273244977
0.305502504 0.294750214 0.279949754
0.309677005 0.298924506 0.278178841
0.306261629 0.304237515 0.264389992
0.318406373 0.304237515 0.258317977
0.325490534 0.306767821 0.242125347
0.343959749 0.304870516 0.220872998
0.367362618 0.296141922 0.200506374
0.382542968 0.280961543 0.191397965
0.403668851 0.271979660 0.179253981
0.431498945 0.273497522 0.173561230
0.461859256 0.283491164 0.171663493
0.491587520 0.298671484 0.171284005
0.515876293 0.313851893 0.165212020
0.547628284 0.331435472 0.169260010
0.582542896 0.342947423 0.172169492
0.620746613 0.349652410 0.172422498
0.663251460 0.358759999 0.172422513
0.708791852 0.359012991 0.183934018
0.752182007 0.359139502 0.191903517
0.791524112 0.357241988 0.199114129
0.825679481 0.351423025 0.208222508
0.868184328 0.348387420 0.220366523
0.903478861 0.349905193 0.227830559
0.937128663 0.352814674 0.236685947
0.969639540 0.354079992 0.248071000
0.996963918 0.348008007 0.254143000
0.999873459 0.347375482 0.270967484
1.000000000 0.350790977 0.292219907
1.000000000 0.352308869 0.308918476
1.000000000 0.343706489 0.309551001
0.326122880 0.335863620 0.303604990
0.329158485 0.341556132 0.294876873
0.336495638 0.338519961 0.305629641
0.341555893 0.340037912 0.309930533
0.339026064 0.344465613 0.299683541
0.348639876 0.349525630 0.286021858
0.363314301 0.344465613 0.269829214
0.375458568 0.346363008 0.258190870
0.393927872 0.343326956 0.243010849
0.406957477 0.332448125 0.227451235
0.422137856 0.317267776 0.206704870
0.443390250 0.304111362 0.190512359
0.471094131 0.305123389 0.185325637
0.501454890 0.316508740 0.186590865
0.531055927 0.329032272 0.180518880
0.560151696 0.344212651 0.181657076
0.593042195 0.361922711 0.184186995
0.627450883 0.374193549 0.184819579
0.663124979 0.383301765 0.187096879
0.705629766 0.389626741 0.195446223
0.749146342 0.389879733 0.199873745
0.789626837 0.389879733 0.204933599
0.824793994 0.387729228 0.214041501
0.856166780 0.384692907 0.223402873
0.896394253 0.386211276 0.230992869
0.932447553 0.386464059 0.239848092
0.966350198 0.385957986 0.252498180
0.993674576 0.384692997 0.265780985
0.999746978 0.381277829 0.269196808
1.000000000 0.382795632 0.284377038
1.000000000 0.385957986 0.303478956
1.000000000 0.382921845 0.315623015
0.361543506 0.381404489 0.327893257
0.366603345 0.381404221 0.328905910
0.371916294 0.387096703 0.330930024
0.383554667 0.384060651 0.341050088
0.384693474 0.385578930 0.337254494
0.385578841 0.390006244 0.327008188
0.399747074 0.396078497 0.319418371
0.409993738 0.391650796 0.297912598
0.423276484 0.390891582 0.285009503
0.435420483 0.381783962 0.264263481
0.452498108 0.374952614 0.247185633
0.465654761 0.353700489 0.223908991
0.485768497 0.337381452 0.203415498
0.512334049 0.338266999 0.198229253
0.540923238 0.346868992 0.195699260
0.575331867 0.365464777 0.196837455
0.605692625 0.376090974 0.199873447
0.637318075 0.391018152 0.199114516
0.667931914 0.401518226 0.197976232
0.701581240 0.413915485 0.200506359
0.740290940 0.423782498 0.209614247
0.781530917 0.424288511 0.209993735
0.818975270 0.424288511 0.215938985
0.853131115 0.423149854 0.223149642
0.888298273 0.422643781 0.232005000
0.926375329 0.422896832 0.239468664
0.961290061 0.420872569 0.251486331
0.988614440 0.422390759 0.266666710
0.996710598 0.417710334 0.277292848
0.997975767 0.414674282 0.287413180
0.998861372 0.417204112 0.300822377
1.000000000 0.418342739 0.315622747
0.405945927 0.435673922 0.361669570
0.409740895 0.433776170 0.365465075
0.419228256 0.436052918 0.371537268
0.426818430 0.438330084 0.376344115
0.440480828 0.436432928 0.378620833
0.436685920 0.440227628 0.373307914
0.441492945 0.444908231 0.364073306
0.455155253 0.447438240 0.350664228
0.463504344 0.443642914 0.328652740
0.476027876 0.434914738 0.305503279
0.491713881 0.433902711 0.287666410
0.504743755 0.418975294 0.265275419
0.515749633 0.393548638 0.242125273
0.533965707 0.375078887 0.218343213
0.558633685 0.373181283 0.213029996
0.590891838 0.384440064 0.209740847
0.624288380 0.400379270 0.213915184
0.654016554 0.407716244 0.216318995
0.681341052 0.419860959 0.211258993
0.712586939 0.432511359 0.210752994
0.744465113 0.446932644 0.213029891
0.776849866 0.458064765 0.220113769
0.815433443 0.458823740 0.220366761
0.850854158 0.461859643 0.225426644
0.886147976 0.461859643 0.234914273
0.921441972 0.460468262 0.244022653
0.956862688 0.457431853 0.253131062
0.984819412 0.459203064 0.267046422
0.994686604 0.455408275 0.281847000
0.997216642 0.449968398 0.293485165
0.997216642 0.449588835 0.307779968
1.000000000 0.452878267 0.317140639
0.462619036 0.497660071 0.414548039
0.462872058 0.497913033 0.414801061
0.473371297 0.499810308 0.420367092
0.486021221 0.500822246 0.424161941
0.495129615 0.498925060 0.426438600
0.498165995 0.504997015 0.423402965
0.495888770 0.504997075 0.407969415
0.502466738 0.504364312 0.389120430
0.517141163 0.500569046 0.368121147
0.532321513 0.494497031 0.352941543
0.544592083 0.496647924 0.332195193
0.554712355 0.486527562 0.307147771
0.563820422 0.465401411 0.282100379
0.572928131 0.438077033 0.260595024
0.591144860 0.416824669 0.242378265
0.617710590 0.412776828 0.227957040
0.647565067 0.419355005 0.223403022
0.678051591 0.431246012 0.228210032
0.705376089 0.443390012 0.228210032
0.738014102 0.452751368 0.228716031
0.769007087 0.465401739 0.228462994
0.797343254 0.478558123 0.229475126
0.821632028 0.487792969 0.232511476
0.854648888 0.497027129 0.235547096
0.888298273 0.500316024 0.245161027
0.921189010 0.499430716 0.256166637
0.953574061 0.496394962 0.265022099
0.983933985 0.493358582 0.274130464
0.996204793 0.490828872 0.290196002
0.999746978 0.485768616 0.303858191
1.000000000 0.482985228 0.314610988
1.000000000 0.489058018 0.326755017
0.508159399 0.540164769 0.447944373
0.511195779 0.543200433 0.450980783
0.520050764 0.543453395 0.466287553
0.531562328 0.545350969 0.471727043
0.541050196 0.547501802 0.465907663
0.552814722 0.553573787 0.462871313
0.548260808 0.544465780 0.449715078
0.552688181 0.546363115 0.437191486
0.564705849 0.549145818 0.420240432
0.574826241 0.543073773 0.392409891
0.587096810 0.539911628 0.374320418
0.597217083 0.536116302 0.351423264
0.606325150 0.521821141 0.327640742
0.615432799 0.498797745 0.306135386
0.624541223 0.471473396 0.281847388
0.640354216 0.450221002 0.258823633
0.663251340 0.444654971 0.243137389
0.691334784 0.449082553 0.237318411
0.726628423 0.458570421 0.237318426
0.756736100 0.467931777 0.242884427
0.783934414 0.478937417 0.241998672
0.809487820 0.490702122 0.241619125
0.833775997 0.499936968 0.244655475
0.858064771 0.512081027 0.247691080
0.893358409 0.523592353 0.255281270
0.924984038 0.529032052 0.266413361
0.953068018 0.529791296 0.276913106
0.977861941 0.526754975 0.283238828
0.994939744 0.529032230 0.289690375
0.998228788 0.523719192 0.305376381
0.997596204 0.518785417 0.322580576
1.000000000 0.522454381 0.341935396
0.558507383 0.585072756 0.481340796
0.563946962 0.585705221 0.493991196
0.564832568 0.586590588 0.490575790
0.579759717 0.586590588 0.508285999
0.592662990 0.588488340 0.511701345
0.598734796 0.592536569 0.516761422
0.607716560 0.593042612 0.503605068
0.601644576 0.587476611 0.485135674
0.608475626 0.590512395 0.470714778
0.617584050 0.584440410 0.446932375
0.627197802 0.581277668 0.418595791
0.637318075 0.576217771 0.396331787
0.648703456 0.570145369 0.372043103
0.660088360 0.555724144 0.349272519
0.667046010 0.537001789 0.324983984
0.676154375 0.507273555 0.295889020
0.691334724 0.481467366 0.273118407
0.713599324 0.472612381 0.258950204
0.744718611 0.476407558 0.253636986
0.770777702 0.483112156 0.256799787
0.795445681 0.494117796 0.255281806
0.820240319 0.506261766 0.254775614
0.846046507 0.516761482 0.258950293
0.872612596 0.526628792 0.257431895
0.896900773 0.536496103 0.260468066
0.927261114 0.548513591 0.269323111
0.953068018 0.555091798 0.280455112
0.977355957 0.557748139 0.290322900
0.993674815 0.557621598 0.291587979
0.998228788 0.555344820 0.304743946
0.995192647 0.553067625 0.325616568
0.995193005 0.560657740 0.349904984
0.608602345 0.623023391 0.519291401
0.616192520 0.624541163 0.532953560
0.619481385 0.627577543 0.540670395
0.625806570 0.628842354 0.538393557
0.644275904 0.628715932 0.553067565
0.647311866 0.629475355 0.558760285
0.650853872 0.633017361 0.558254242
0.654775620 0.628463209 0.539784849
0.651739597 0.629222333 0.520050466
0.660088897 0.625427425 0.502593338
0.663124502 0.620746315 0.475774616
0.675268650 0.618722200 0.452498376
0.685515344 0.613788843 0.425933093
0.700316250 0.607590318 0.400379360
0.710183382 0.593675137 0.373560965
0.718659163 0.569512963 0.339911193
0.721695125 0.543706357 0.315623164
0.735610545 0.512713790 0.291840822
0.757622004 0.502973139 0.275648385
0.780645192 0.500948966 0.268564343
0.809107900 0.509298146 0.267425835
0.831372380 0.520430088 0.266413927
0.858190894 0.531941473 0.272865504
0.885515690 0.541049898 0.272612482
0.910562992 0.550158262 0.274130255
0.933459640 0.559266627 0.278557986
0.957115889 0.570778131 0.286021173
0.980391979 0.577861965 0.294117689
0.993674815 0.584693372 0.300189972
0.996710956 0.585705221 0.306262136
0.994560182 0.581404209 0.326249152
0.992156982 0.591018200 0.352941006
0.655281544 0.654016554 0.561796129
0.665654898 0.657684743 0.573307693
0.669829369 0.661606491 0.581403911
0.676660299 0.665781379 0.586717129
0.690702140 0.668817103 0.591271520
0.693991482 0.666287482 0.592536509
0.697027504 0.667678952 0.595066547
0.695762515 0.668058395 0.589500427
0.695382953 0.662618637 0.570398629
0.701454937 0.665655017 0.555218220
0.700695813 0.658697009 0.533206522
0.707273781 0.657305121 0.512333691
0.720050514 0.657431781 0.490828395
0.732700586 0.653637052 0.460973680
0.748260498 0.641492963 0.431372702
0.759266317 0.624162078 0.393801272
0.764199913 0.600758910 0.363061100
0.762428701 0.576976538 0.340417564
0.771537125 0.543580055 0.307021081
0.789247334 0.529285192 0.287160188
0.814927280 0.527134717 0.277039826
0.845920205 0.534978032 0.276154131
0.870208919 0.544212162 0.285262495
0.897027314 0.553826511 0.289310873
0.920809567 0.561669886 0.292346686
0.945603788 0.572043061 0.297406554
0.966350198 0.581151426 0.303478539
0.987475991 0.590259135 0.303731531
0.996204793 0.601391673 0.311068773
0.997090399 0.609487891 0.320809722
0.992789388 0.612903118 0.330550522
0.992789388 0.612903118 0.354838580
0.694750011 0.687412977 0.604300976
0.709930420 0.693485022 0.613409340
0.713852048 0.695002973 0.616318941
0.717900157 0.695509076 0.615812838
0.727135003 0.696141601 0.615559638
0.733206987 0.699177980 0.630739987
0.744086027 0.691587687 0.626945019
0.745351076 0.690322757 0.621885061
0.740543962 0.693106055 0.613030016
0.737887025 0.699051499 0.600759506
0.743959785 0.687540054 0.585579097
0.747248709 0.686021686 0.565591693
0.752434969 0.688804626 0.543453693
0.760025084 0.690069914 0.518658936
0.778241813 0.677925110 0.494371027
0.791397989 0.672991812 0.457558602
0.800253034 0.657558560 0.424161792
0.804933608 0.631625414 0.395066500
0.807969987 0.598228931 0.355598003
0.817077637 0.573181272 0.324984282
0.832890570 0.557748020 0.305376321
0.855408192 0.552435219 0.296268016
0.882352948 0.556356966 0.297406524
0.906641006 0.568500936 0.306514919
0.926628649 0.573561251 0.310562730
0.950917304 0.582669318 0.316381663
0.978494942 0.596331060 0.324730992
0.996710896 0.605439425 0.330802977
0.999240994 0.614547729 0.336368978
0.998228788 0.623909235 0.346236438
0.995825052 0.631625950 0.356356978
0.995825052 0.637192011 0.363947004
0.762049079 0.729158759 0.649589062
0.763314128 0.729664683 0.655914128
0.769892514 0.731435716 0.662871778
0.770525098 0.731435716 0.664136767
0.774699748 0.731815279 0.663377702
0.780771792 0.734851658 0.668944001
0.789374053 0.730297089 0.671474099
0.794687092 0.728020132 0.667552352
0.792410135 0.730297387 0.664136767
0.791397989 0.732321382 0.660088778
0.788741171 0.726502359 0.636685491
0.788741648 0.722454369 0.619481444
0.792536438 0.724731088 0.602403760
0.799999774 0.727008045 0.584693432
0.805566132 0.719923913 0.560404778
0.823782384 0.710183561 0.531309187
0.839721799 0.703352511 0.499050945
0.848956525 0.686021566 0.468564034
0.847691357 0.661227107 0.426944792
0.847944379 0.636179328 0.393042386
0.860847473 0.608096123 0.356989413
0.878178358 0.588614821 0.333712846
0.900063038 0.579253554 0.323339343
0.924351752 0.583428383 0.329790920
0.941808999 0.595572293 0.336622596
0.962302327 0.601518035 0.341556042
0.986337721 0.611511409 0.348260641
0.997722983 0.620619774 0.352055371
1.000000000 0.629728138 0.363441050
1.000000000 0.637065351 0.373308033
0.998861372 0.647817969 0.382795751
0.998861372 0.661480069 0.386970013
0.801517725 0.754585743 0.683744729
0.801517725 0.756482959 0.687918961
0.803668499 0.756482959 0.688298702
0.806704581 0.756482959 0.696900725
0.809234560 0.756862521 0.700189769
0.819860697 0.759898901 0.704743922
0.824668050 0.761037588 0.710942686
0.833776474 0.756609499 0.707653701
0.834535480 0.758380711 0.703605473
0.834535480 0.758380711 0.701328456
0.831625640 0.756356716 0.685641766
0.828589261 0.754332721 0.663503706
0.825553656 0.753194094 0.647564709
0.831372440 0.754205763 0.634914696
0.836053133 0.749778450 0.613915384
0.847311735 0.745097756 0.592409611
0.860973954 0.735990167 0.560531020
0.876786947 0.727514267 0.534345210
0.880075753 0.712586761 0.501960695
0.879822731 0.690448701 0.462112546
0.883617699 0.668058217 0.430613458
0.896774113 0.637697935 0.388108909
0.912586749 0.615939200 0.360910714
0.936875582 0.606577933 0.351043463
0.956230283 0.608854949 0.353320569
