Assets/Shaders/EldamarStudio/100 Sci-Fi LUTs Pack/LUTs/cube/Vruti LUT.cube
LUT_3D_SIZE 8
DOMAIN_MIN 0.000000 0.000000 0.000000
DOMAIN_MAX 0.903226 0.903226 0.903226
0.054901998 0.000000000 0.000000000
0.087792993 0.008601999 0.012903451
0.132448003 0.028210098 0.032891002
0.179379985 0.052118644 0.046552639
0.241365984 0.082985193 0.079949193
0.309424460 0.119291730 0.107653253
0.392410278 0.158127993 0.148007289
0.520809770 0.205439806 0.191017970
0.063883543 0.064642541 0.025047095
0.091334544 0.065022096 0.039595451
0.132447988 0.079949096 0.048956543
0.180645451 0.090069994 0.066919640
0.237318173 0.114357993 0.085262381
0.304743975 0.141682476 0.121821538
0.388361752 0.178241551 0.149272546
0.505376220 0.220240504 0.185452253
0.087793000 0.133207098 0.069702998
0.104237996 0.131562188 0.073244646
0.144212186 0.138646096 0.088551901
0.186084643 0.148386732 0.097533450
0.244402379 0.171537101 0.115117095
0.317520738 0.192662999 0.151549637
0.404048175 0.227957085 0.174066991
0.525742769 0.268564194 0.208222657
0.108158998 0.210878924 0.124477990
0.122580543 0.217583984 0.121694639
0.159013093 0.220366627 0.125996187
0.202909291 0.228209913 0.136243001
0.260467738 0.243137434 0.153826624
0.325363636 0.259076357 0.173434541
0.409361273 0.292726278 0.198481932
0.532953382 0.332194805 0.230613634
0.123086803 0.312587202 0.168374196
0.141429543 0.317394197 0.183427989
0.173181176 0.318026394 0.180265903
0.218975455 0.323086619 0.188867807
0.271853387 0.329791397 0.194307387
0.342188269 0.345351011 0.212270796
0.435420364 0.372802079 0.232764274
0.559392512 0.416192204 0.267552137
0.150790736 0.436938733 0.235167995
0.166603550 0.441619337 0.237444803
0.204047829 0.447312087 0.240860239
0.256546646 0.447185367 0.243643090
0.319164932 0.451866180 0.250600994
0.391524464 0.458190948 0.268437713
0.479063839 0.480835170 0.287160009
0.600252569 0.522580564 0.334598273
0.186590701 0.566856265 0.293105692
0.214800537 0.568627536 0.314990580
0.250348270 0.574067295 0.309930354
0.305123270 0.577988267 0.319544256
0.374826193 0.579506457 0.326501966
0.444276005 0.582163334 0.337001741
0.524351835 0.594939828 0.358380854
0.629727781 0.620366812 0.391903937
0.341808736 0.733965755 0.448956579
0.362934887 0.746236563 0.437824070
0.392409682 0.743832707 0.454648674
0.440101236 0.746995568 0.456293643
0.496774316 0.752561569 0.467172593
0.570018709 0.752814293 0.487286508
0.640227616 0.764579415 0.502213895
0.727514386 0.778367579 0.531435728
0.058823999 0.007463549 0.047817998
0.079949096 0.012903451 0.052877549
0.132447988 0.040354453 0.072865091
0.178241640 0.069702901 0.089690447
0.233143538 0.095888637 0.108918183
0.299936801 0.128020257 0.137001798
0.378241390 0.164073244 0.170019001
0.500948310 0.204427376 0.200252831
0.078810550 0.064642541 0.061859999
0.102720000 0.068564542 0.072865091
0.125743449 0.077925444 0.077925548
0.175964639 0.098292544 0.100316092
0.231245995 0.122200988 0.116002090
0.301960558 0.148386732 0.142947555
0.388741285 0.184060708 0.172549129
0.508032918 0.224414825 0.204300970
0.099557094 0.130803198 0.097153999
0.110183448 0.137507647 0.097912997
0.140290990 0.142188549 0.109297641
0.186084643 0.152308658 0.115496546
0.243263632 0.174319744 0.140670538
0.306261986 0.196963817 0.159772098
0.387982130 0.227577552 0.182922453
0.514863610 0.265781194 0.223782554
0.106135450 0.212144285 0.133839279
0.121821642 0.212144285 0.139784649
0.154332995 0.218848646 0.141302735
0.196963727 0.227830261 0.154206187
0.249715284 0.242758095 0.164326280
0.316255450 0.258444071 0.187982097
0.408222914 0.293991029 0.208981559
0.537760675 0.332827359 0.248323798
0.123466350 0.301201731 0.181277737
0.142694101 0.307020992 0.186084747
0.173181087 0.309424192 0.189247444
0.214294732 0.316887736 0.198229089
0.268690974 0.321947962 0.205692649
0.334345251 0.334345371 0.218089849
0.431372464 0.367995083 0.244402379
0.556103766 0.416065991 0.283111721
0.147248283 0.425427169 0.247058928
0.158254087 0.429474831 0.243769810
0.200379461 0.433017284 0.245161071
0.252498627 0.436685622 0.250980645
0.313219279 0.445667475 0.261985809
0.380012900 0.452245712 0.271220922
0.471600175 0.469829291 0.293358743
0.592156947 0.515749276 0.335357100
0.178620994 0.555850804 0.304870516
0.207337081 0.558886826 0.307147264
0.239342272 0.561037123 0.310057104
0.298165649 0.563314199 0.322580457
0.365844190 0.568880260 0.332068175
0.439089268 0.580898523 0.344339073
0.530297160 0.598102272 0.371410549
0.634028912 0.632637501 0.403415710
0.322327763 0.725869298 0.443769753
0.360278606 0.739531994 0.446299642
0.384946138 0.738140166 0.455281287
0.428842485 0.738899231 0.462998152
0.490828335 0.746236384 0.468184948
0.560657918 0.751422822 0.485389024
0.634787917 0.756862760 0.504617512
0.721947968 0.770018756 0.537634134
0.063504092 0.017963095 0.106514998
0.083491549 0.025047097 0.103352092
0.132447988 0.047817905 0.118279189
0.177482545 0.071220994 0.131182730
0.233523190 0.105755895 0.155976996
0.302087247 0.141809091 0.183807731
0.379886180 0.170777991 0.206831098
0.502846360 0.204806924 0.239594966
0.079190098 0.076407544 0.110056639
0.095256448 0.073624097 0.113978542
0.128905535 0.088172443 0.121821545
0.174699187 0.106135450 0.137887180
0.228842288 0.129664540 0.155091807
0.298545003 0.159013093 0.184060797
0.380518556 0.192662805 0.210373342
0.504870355 0.226185635 0.238456815
0.093231991 0.133965999 0.137128085
0.114104643 0.142188549 0.142188549
0.144971088 0.151170194 0.158254087
0.192409739 0.160531089 0.162176087
0.240480989 0.182542980 0.177862078
0.309551001 0.198987991 0.195445821
0.384566665 0.229475290 0.216951177
0.512081027 0.268057913 0.259962052
0.121569000 0.211764738 0.171916634
0.125363901 0.218469188 0.170651183
0.164199740 0.223150089 0.185199529
0.196204633 0.231752172 0.186717525
0.250221640 0.244655550 0.196837530
0.316382080 0.266287208 0.215433180
0.407589912 0.296141803 0.245540723
0.532574415 0.333586454 0.274003744
0.129285097 0.301581293 0.217077896
0.145477444 0.305123657 0.213789076
0.175584987 0.311828107 0.224921077
0.212270990 0.314864069 0.225173831
0.269576073 0.320430189 0.231119379
0.331562102 0.338646531 0.248703450
0.432890445 0.370271981 0.271727055
0.555597782 0.413409293 0.310056984
0.148640260 0.422264367 0.266034245
0.162934795 0.427197903 0.274889290
0.196331352 0.430739999 0.271726996
0.251486272 0.433522820 0.281720519
0.312080830 0.440227568 0.283870816
0.375711471 0.449715376 0.293358743
0.465402007 0.469070256 0.312334001
0.589120626 0.515875995 0.354838729
0.180898085 0.549525559 0.329791188
0.202530026 0.554838836 0.327767134
0.242758080 0.558380842 0.335990071
0.296647578 0.560151875 0.342947304
0.363187671 0.568374455 0.354712069
0.443769664 0.581657410 0.371790171
0.529032350 0.597343445 0.388867646
0.634661913 0.631498814 0.432763964
0.325616866 0.725489795 0.455660939
0.341429472 0.732574403 0.459582418
0.375331700 0.734724879 0.470081955
0.425806224 0.738140166 0.474762797
0.486527383 0.740417421 0.482985616
0.554711998 0.742188454 0.496015102
0.629348516 0.757368565 0.515496314
0.721821487 0.773054779 0.551929057
0.066666998 0.029727997 0.177102998
0.091334544 0.037950546 0.172296092
0.137634352 0.059203357 0.176976278
0.179886356 0.077925645 0.186084643
0.227577627 0.111574829 0.199746981
0.295255989 0.144844994 0.218848631
0.380138904 0.177102998 0.247817636
0.504237831 0.207843006 0.291208148
0.090196095 0.085389093 0.172296003
0.099936545 0.092093542 0.177103087
0.133206993 0.096774444 0.176217183
0.171536997 0.111574732 0.185325548
0.230360284 0.132321104 0.206451446
0.296521455 0.161669537 0.224035189
0.384060651 0.191777185 0.254142940
0.501201630 0.230360568 0.289183885
0.101960897 0.145730197 0.192409739
0.112080991 0.147248194 0.191524431
0.153320551 0.155851007 0.208475903
0.183301985 0.170398548 0.208728626
0.236558989 0.189247549 0.223655730
0.306641430 0.208096266 0.243643269
0.391524464 0.234661534 0.269070357
0.515749574 0.267552465 0.300695896
0.116002284 0.219228283 0.218089640
0.121821634 0.222391084 0.220114112
0.164579183 0.232257724 0.229095533
0.205186278 0.246679291 0.241619647
0.257685006 0.253763169 0.246299624
0.319544464 0.273371279 0.264769346
0.410373271 0.297153652 0.285388917
0.536242843 0.332447827 0.324983984
0.127893806 0.306261986 0.254649192
0.144086093 0.311828077 0.254649073
0.173560739 0.318153203 0.269955724
0.218975455 0.322833389 0.272991836
0.272612393 0.332068384 0.278431624
0.340290695 0.346995294 0.293358535
0.439721823 0.375079185 0.318026185
0.560657978 0.417204380 0.353446990
0.143959358 0.427071482 0.311195374
0.162049457 0.430107385 0.317773640
0.201391280 0.431625277 0.320050538
0.247565001 0.437444806 0.321947992
0.310942382 0.443390369 0.326248914
0.379379898 0.452371716 0.339531720
0.468437791 0.473750651 0.353953272
0.593674779 0.517899930 0.395698726
0.178368270 0.555724561 0.377988577
0.202403635 0.559392571 0.371157289
0.236811906 0.562175751 0.376976728
0.295508921 0.561796188 0.380645275
0.365085185 0.571916163 0.392662704
0.441366345 0.583175361 0.407084197
0.532194555 0.598861575 0.427324295
0.640733838 0.633269727 0.462997884
0.324351788 0.722327530 0.485135615
0.336622119 0.731435776 0.483364880
0.374699473 0.733712554 0.492978930
0.420113593 0.735736966 0.502087057
0.479316980 0.741429389 0.510815680
0.554332435 0.747501314 0.525490224
0.633017182 0.758633852 0.543580055
0.728905380 0.773181438 0.569006801
0.074510001 0.052498192 0.249842182
0.092093639 0.058317542 0.247944534
0.132448003 0.074383095 0.246806189
0.184820086 0.095129542 0.254142731
0.236558989 0.126122802 0.267931998
0.295508713 0.148386925 0.277672619
0.383681089 0.179380283 0.306894183
0.503731787 0.209108174 0.351549447
0.086527541 0.096647732 0.251486182
0.096268184 0.106894538 0.243896529
0.139152452 0.113978438 0.250980526
0.182163343 0.128905550 0.254522383
0.237824440 0.144971386 0.263251215
0.295256168 0.170019105 0.272865444
0.385199279 0.199367642 0.310183167
0.509930253 0.224035174 0.351675898
0.106008910 0.162935004 0.255281389
0.126375914 0.165338203 0.255660832
0.148893088 0.168374196 0.267173082
0.192030191 0.180518731 0.271473855
0.243643090 0.195066079 0.278811187
0.309803933 0.209487826 0.296521425
0.393928111 0.236559182 0.322707057
0.517014682 0.267046064 0.360151738
0.115622841 0.232637286 0.281214386
0.123339541 0.234155461 0.279570192
0.162175894 0.238836274 0.286274612
0.205186278 0.247438267 0.288804471
0.256546646 0.258064657 0.305882603
0.322580546 0.276154637 0.318279624
0.412650287 0.299177885 0.340164542
0.543959320 0.328526109 0.379000455
0.128525987 0.310183376 0.306261986
0.143832743 0.314610720 0.306767732
0.174826086 0.318026364 0.314105004
0.221758187 0.329411834 0.324351162
0.289057165 0.351802170 0.347881198
0.356736094 0.358254105 0.355597377
0.439974546 0.378241479 0.370272160
0.566350162 0.417710006 0.403795213
0.139531806 0.428589284 0.363946706
0.157115534 0.431245923 0.363440990
0.190891847 0.435041010 0.370145619
0.249968171 0.444149286 0.377608985
0.314484417 0.450853914 0.385831922
0.383174986 0.458696902 0.388615191
0.483112276 0.483617723 0.415939182
0.603795052 0.517520547 0.449209511
0.168374375 0.557621539 0.422264457
0.194434002 0.560278118 0.427197993
0.228589475 0.566350341 0.429980993
0.286021709 0.568121135 0.430992901
0.362428576 0.578747571 0.445667356
0.440986931 0.586844087 0.452498257
0.532068312 0.602023780 0.473497719
0.653636694 0.637318552 0.508159280
0.295256197 0.725869358 0.527260780
0.324225396 0.732068360 0.533080399
0.353447288 0.734851420 0.534092367
0.407590121 0.738519788 0.539784968
0.470208585 0.740417421 0.547375202
0.549146056 0.748007417 0.557748020
0.635673642 0.760151565 0.579885840
0.726375401 0.778747797 0.606704354
0.066793002 0.074382998 0.334598184
0.090954997 0.080582187 0.332321018
0.138393462 0.096774355 0.342314988
0.188741282 0.115622737 0.342567712
0.247438177 0.134724796 0.346489727
0.309297979 0.160530984 0.352308452
0.382795542 0.182922259 0.367615730
0.507526755 0.217710078 0.419354826
0.077166356 0.123086996 0.329411536
0.097027451 0.119417928 0.328905463
0.138772905 0.127640992 0.336748987
0.189879835 0.140543729 0.337887615
0.247438267 0.155724078 0.343706340
0.313978493 0.182922259 0.358254224
0.393421829 0.202530026 0.380265832
0.520556390 0.228589535 0.428083450
0.095003098 0.179253474 0.347501367
0.115369998 0.176091090 0.340923548
0.148513734 0.187096998 0.346236706
0.196204633 0.190638736 0.345224380
0.254901826 0.208475798 0.357874453
0.311954618 0.218596011 0.361669481
0.396078378 0.243643090 0.385199249
0.522707045 0.272865236 0.434028983
0.099304356 0.250980616 0.364199877
0.119291909 0.250980645 0.360910505
0.157242358 0.253257543 0.363693833
0.206704468 0.265148640 0.365591347
0.268184721 0.272612274 0.378621101
0.331182480 0.283997625 0.384187013
0.417204261 0.303984880 0.402403444
0.554206073 0.338013828 0.458570600
0.113093004 0.328020185 0.385325670
0.134598449 0.332068205 0.391018122
0.168627292 0.333965927 0.385452092
0.219481379 0.339531749 0.394560456
0.281593710 0.349272370 0.409234911
0.356989175 0.362175733 0.418848634
0.454522729 0.385325462 0.443516701
0.574446499 0.416192204 0.478684366
0.129411995 0.426944971 0.423023462
0.149272546 0.431119531 0.425300300
0.187350005 0.438583463 0.431499064
0.239215627 0.444402218 0.438583463
0.313978374 0.457431972 0.453004539
0.397343725 0.475774735 0.467931718
0.494623780 0.494117469 0.484250724
0.609361231 0.518532395 0.511195540
0.163314253 0.561290503 0.480581552
0.183554724 0.551043510 0.477672547
0.219607741 0.562934816 0.487792552
0.280455649 0.568374455 0.494370729
0.358633935 0.583301544 0.506514549
0.448703021 0.594054341 0.517773688
0.547375262 0.612017989 0.539405525
0.665274918 0.647058785 0.570651233
0.290701926 0.717646837 0.581783414
0.301075041 0.727893770 0.580898285
0.337887585 0.728146672 0.585958123
0.384693295 0.734218776 0.588614702
0.452624738 0.741049767 0.591397822
0.543200314 0.749651730 0.606578052
0.628336370 0.763693988 0.625933051
0.729032397 0.781657279 0.651486397
0.036306299 0.102592997 0.463630259
0.077419259 0.108538732 0.465907544
0.136369392 0.115243196 0.463377655
0.204680637 0.132321283 0.467678905
0.277166456 0.146489277 0.469576538
0.352308273 0.170398742 0.474383563
0.431245983 0.195066288 0.484503269
0.520430207 0.215812817 0.501075268
0.042757720 0.137128279 0.453763247
0.075648524 0.144971281 0.456925809
0.139152363 0.151549548 0.464642793
0.207210541 0.160910845 0.468943566
0.281088114 0.173813984 0.473118186
0.357874572 0.195445836 0.480961293
0.436559558 0.213915095 0.487159997
0.532700777 0.240101248 0.509045064
0.039721821 0.197343200 0.470335454
0.084630266 0.199240834 0.469197005
0.137128100 0.205186576 0.468058556
0.205945373 0.212271094 0.471220642
0.280961365 0.225679994 0.478431463
0.360025346 0.236559182 0.485262245
0.443010777 0.258444279 0.497786254
0.536875427 0.277545899 0.513978720
0.032131441 0.273624629 0.485641927
0.069829166 0.271853268 0.479949534
0.139278755 0.273244917 0.484503269
0.211258635 0.281973302 0.486653954
0.286147773 0.291334361 0.495255888
0.373055011 0.301960915 0.502972901
0.456419975 0.319544554 0.514104903
0.563187778 0.342947274 0.539152324
0.037697732 0.357874542 0.496774375
0.070588462 0.359772027 0.496647805
0.136369199 0.363187671 0.500063360
0.210878983 0.361290038 0.508032680
0.291967094 0.370271981 0.508791566
0.383934021 0.380897909 0.523339927
0.475015730 0.397722989 0.537128329
0.583807528 0.419734240 0.566729844
0.079063877 0.459582478 0.530170739
0.104237460 0.464642704 0.534092307
0.160657898 0.462365806 0.531435668
0.232257724 0.466666460 0.537128329
0.312713653 0.470461547 0.545350790
0.403795481 0.481973469 0.551675975
0.506894290 0.500316262 0.569006801
0.621378839 0.527640462 0.594686806
0.155470967 0.575331867 0.563567281
0.180645272 0.573054552 0.569133520
0.218975276 0.576217413 0.574067295
0.281594247 0.583175242 0.576976538
0.357495278 0.595825493 0.587982476
0.455913991 0.611511588 0.607210934
0.568121254 0.635800600 0.632511139
0.683618069 0.656166613 0.646552980
0.286906749 0.725110292 0.651613057
0.297533005 0.727640927 0.650854051
0.330803126 0.729538441 0.654775381
0.386843592 0.736243010 0.658950031
0.453636795 0.749652028 0.661606491
0.536875069 0.755471170 0.677166283
0.636685848 0.772042871 0.688171864
0.748133838 0.788867712 0.714610636
0.000000000 0.130802989 0.637318432
0.016318571 0.133459821 0.632384300
0.132068262 0.144591928 0.632637501
0.222390786 0.154206187 0.638836265
0.318026304 0.170272008 0.643643200
0.413535714 0.194054559 0.645667493
0.507779896 0.218722433 0.653004408
0.609867394 0.246046796 0.658190548
0.002656833 0.170904815 0.637697875
0.007210726 0.167994529 0.633649111
0.125363797 0.171410367 0.636305988
0.226818159 0.183175281 0.643643200
0.322201341 0.199241012 0.646679163
0.415559560 0.217204243 0.652751386
0.515622795 0.241745442 0.656293452
0.612523556 0.266160369 0.671220779
0.006957762 0.222391084 0.645920217
0.004807298 0.225932628 0.635926843
0.117773443 0.229601189 0.639974773
0.224541366 0.237697721 0.640101135
0.319291383 0.250600964 0.646805763
0.418595523 0.264642656 0.655407906
0.515622616 0.285389125 0.658949673
0.620366514 0.309930056 0.670714736
0.000000000 0.300442457 0.644022763
0.002024264 0.301075429 0.651739359
0.095889024 0.302719712 0.652751446
0.214421272 0.312839806 0.653130949
0.319291174 0.319797546 0.658570111
0.419101804 0.335863352 0.664263010
0.528273225 0.354585767 0.671220720
0.628336430 0.377355963 0.682732403
0.002276991 0.399747014 0.663377464
0.000758999 0.400000185 0.657052279
0.053637158 0.394181013 0.660088658
0.196458086 0.397469819 0.667678595
0.317394346 0.404680550 0.670208633
0.424794346 0.420999259 0.676660419
0.535863459 0.436432719 0.685262382
0.639721632 0.455914199 0.692599595
0.006452012 0.512586534 0.684629679
0.022137986 0.513092697 0.681214154
0.130297258 0.510436416 0.679316700
0.226439014 0.509930372 0.686021328
0.322833836 0.507273555 0.683364689
0.435294211 0.512713492 0.692346334
0.550410986 0.533839226 0.700189948
0.661733270 0.549398959 0.712839782
0.170651525 0.637444317 0.710942626
0.188867971 0.637571096 0.715876043
0.235293895 0.635926485 0.718532562
0.308665454 0.637444317 0.722074389
0.389120877 0.639848053 0.724098682
0.483364761 0.644782007 0.726502538
0.586591005 0.654522181 0.736748874
0.706388354 0.670462072 0.750157654
0.305376410 0.749778509 0.735104442
0.321315557 0.752688110 0.756230235
0.344212651 0.757621527 0.747754514
0.399747223 0.759013236 0.754838586
0.468943596 0.763187587 0.756103754
0.552435338 0.776976466 0.768753648
0.649083018 0.787223160 0.782416403
0.774699569 0.813788354 0.808602214
