Assets/Shaders/EldamarStudio/100 Sci-Fi LUTs Pack/LUTs/cube/Vruti LUT.cube
DOMAIN_MIN 0 0 0
DOMAIN_MAX 1 1 1
LUT_3D_SIZE 32
0.054901998 0.000000000 0.000000000
0.060973998 0.000000000 0.000000000
0.069196776 0.002150774 0.002150774
0.078305162 0.005186839 0.006452000
0.087792993 0.008601999 0.012903451
0.099936999 0.014673999 0.022011064
0.112080999 0.018216323 0.028589645
0.122580700 0.022896998 0.031373002
0.132448003 0.028210098 0.032891002
0.144592017 0.031246493 0.038963005
0.156736001 0.040101126 0.042125128
0.166856259 0.047184996 0.043136999
0.179379985 0.052118644 0.046552639
0.197343037 0.055661030 0.055407997
0.212523401 0.064769410 0.061479993
0.227703795 0.073877186 0.072358996
0.241365984 0.082985193 0.079949193
0.255407542 0.092093565 0.083617993
0.276659995 0.101201974 0.089690015
0.292346358 0.107527003 0.098545365
0.309424460 0.119291730 0.107653253
0.328653127 0.132447869 0.116761126
0.349905491 0.141429022 0.125995979
0.371157914 0.147501811 0.138140008
0.392410278 0.158127993 0.148007289
0.419228613 0.167488992 0.157115668
0.452119142 0.175079063 0.166730002
0.482479870 0.190259427 0.178873986
0.520809770 0.205439806 0.191017970
0.556736112 0.217077747 0.203162417
0.594560146 0.227071211 0.213535994
0.643136978 0.239216000 0.219607994
0.060973998 0.006072000 0.003036387
0.057938386 0.012143999 0.006072000
0.064010382 0.016445000 0.010372999
0.077293158 0.019101612 0.015559612
0.092346996 0.020746097 0.021631710
0.093865000 0.026818775 0.028083839
0.108538680 0.030360449 0.029601775
0.122833319 0.033396706 0.031373002
0.133206710 0.037318289 0.032131903
0.138520017 0.040354103 0.035926618
0.153573871 0.052119352 0.041998610
0.167868629 0.055281773 0.047184996
0.180139393 0.060468126 0.052624643
0.194054380 0.067299031 0.061227031
0.206451416 0.070841409 0.064516380
0.219227999 0.079949796 0.072991572
0.236811787 0.087539770 0.081467383
0.253510147 0.095129795 0.086021803
0.267552376 0.104237586 0.089690007
0.286021411 0.116129331 0.095762007
0.307147473 0.122707374 0.106514603
0.328653127 0.132447869 0.116761126
0.349905491 0.141808495 0.125995979
0.371157914 0.156609431 0.138140008
0.394686997 0.162681609 0.150284573
0.420872897 0.173307940 0.157368720
0.452119142 0.183681384 0.163693741
0.482479870 0.196331427 0.175838366
0.515496731 0.206198826 0.190638512
0.554206133 0.220620185 0.201391205
0.593674779 0.231372759 0.211385205
0.640101373 0.239216000 0.219607994
0.062744997 0.020746548 0.012523999
0.066160612 0.024667773 0.011258612
0.065275230 0.024288548 0.016445000
0.073877551 0.031625386 0.023782160
0.091334991 0.034281772 0.028842226
0.098419003 0.036812097 0.026059324
0.111069225 0.038203679 0.035674002
0.121315539 0.044528704 0.035674002
0.133459672 0.048577096 0.037192002
0.139278725 0.051613066 0.041619293
0.153953090 0.059076738 0.045413997
0.169133469 0.065148741 0.051486511
0.182036862 0.067552224 0.056419902
0.193168998 0.075395070 0.063504033
0.205312997 0.080329187 0.070335418
0.221758544 0.086021803 0.073877186
0.235420346 0.093612000 0.082985193
0.253510147 0.100316413 0.089057803
0.265654981 0.109424047 0.092093810
0.285515785 0.119164944 0.097912781
0.305629522 0.127514213 0.107779764
0.326628864 0.135610476 0.118911900
0.345856965 0.145857021 0.128273264
0.371157914 0.156988919 0.142441556
0.390386015 0.165337995 0.148133799
0.416065633 0.172801659 0.156103909
0.446173280 0.184693292 0.161163852
0.478178322 0.198481992 0.174952880
0.515496731 0.207969829 0.189753130
0.552435100 0.220620185 0.197849214
0.591018200 0.237571582 0.209740594
0.632764220 0.249968767 0.223908991
0.062744997 0.041492999 0.020872839
0.068816997 0.041998934 0.021631936
0.073118001 0.041998930 0.023782160
0.076913163 0.041492999 0.028589321
0.089437380 0.049082708 0.036179613
0.102467000 0.048197322 0.028842228
0.112080999 0.053257320 0.033649646
0.124857992 0.055660702 0.041745998
0.133207083 0.063251093 0.043263994
0.143326849 0.066287488 0.049336001
0.153193876 0.068437837 0.049968131
0.169639409 0.073751062 0.056293350
0.183681160 0.077925324 0.063504480
0.193422034 0.083744295 0.066540159
0.206578165 0.088804670 0.072612412
0.220999435 0.096141987 0.076913193
0.240227968 0.102213994 0.084250353
0.255407721 0.108918563 0.093358569
0.268184990 0.118026361 0.097659819
0.286148369 0.124604359 0.104744002
0.306135565 0.134345323 0.112080991
0.326375812 0.140417308 0.122201003
0.342061490 0.152055979 0.131056339
0.367109388 0.162302271 0.143959731
0.391398162 0.169133157 0.151296705
0.411258787 0.177861661 0.156862676
0.440101147 0.186464131 0.160404995
0.474256396 0.199367613 0.173308268
0.509171247 0.213029832 0.188488290
0.551170230 0.221885026 0.200379208
0.588867724 0.237065434 0.206071973
0.624921024 0.257558823 0.226185828
0.063883543 0.064642541 0.025047095
0.069575995 0.062365931 0.030740226
0.075268552 0.061100997 0.035041228
0.082605712 0.061986383 0.038077161
0.091334544 0.065022096 0.039595451
0.106514931 0.061986480 0.036559064
0.112713225 0.070461996 0.038962774
0.120303407 0.077292837 0.043263994
0.132447988 0.079949096 0.048956543
0.147628397 0.082985483 0.055028543
0.152308673 0.081720226 0.053510226
0.165085509 0.083997510 0.058190800
0.180645451 0.090069994 0.066919640
0.192789510 0.095888965 0.075268999
0.207843408 0.098924577 0.075268999
0.221758544 0.106767796 0.078051738
0.237318173 0.114357993 0.085262381
0.257685035 0.120683014 0.096015409
0.272865474 0.129791409 0.105123043
0.288804799 0.134092182 0.114610910
0.304743975 0.141682476 0.121821538
0.323339552 0.152182445 0.128272995
0.341808528 0.158380955 0.134092003
0.363313913 0.170272008 0.142441362
0.388361752 0.178241551 0.149272546
0.413662642 0.186717078 0.156736121
0.437444985 0.198228583 0.166477010
0.473876953 0.204301342 0.172548994
0.505376220 0.220240504 0.185452253
0.543832958 0.232510969 0.199240968
0.585832000 0.241239592 0.212144077
0.619228423 0.256420016 0.224288091
0.072991937 0.079822935 0.037191868
0.076027550 0.082859315 0.040227480
0.079569772 0.080582157 0.045920063
0.085642099 0.079317003 0.050221160
0.094370931 0.080202483 0.051739451
0.100442931 0.083238862 0.042631064
0.113092996 0.085262604 0.047185000
0.122074634 0.088171996 0.051106773
0.131688893 0.088677935 0.054649096
0.141555637 0.089057490 0.058064938
0.153826877 0.097912878 0.064136930
0.166477188 0.098924868 0.068690866
0.179886341 0.102213994 0.075268939
0.189753115 0.108032964 0.081340998
0.201897889 0.111068577 0.081340998
0.221758783 0.118911795 0.086147994
0.236938938 0.126501992 0.093232125
0.251865983 0.132573992 0.101581424
0.269829094 0.138899043 0.105123043
0.290575445 0.148007423 0.117014721
0.303225815 0.152308673 0.124857925
0.317900121 0.158886865 0.131941810
0.338772893 0.167488560 0.140164003
0.363060951 0.176596969 0.140164003
0.384566277 0.186211288 0.146236628
0.409614086 0.194813594 0.153700247
0.437444985 0.204427809 0.163820133
0.473876953 0.213408947 0.178620994
0.507653475 0.224794716 0.184692994
0.544086039 0.239721671 0.197596237
0.582795620 0.253383577 0.213156208
0.616192043 0.268564016 0.230360866
0.077039681 0.100063317 0.051866319
0.082606256 0.100569382 0.049841933
0.087792650 0.101454996 0.050727319
0.092473321 0.100063317 0.054775484
0.099557452 0.100442767 0.057811771
0.103478678 0.103478611 0.057305384
0.114611320 0.103984676 0.058317643
0.123466313 0.105375998 0.061100643
0.133207098 0.107653089 0.064769223
0.145857170 0.112966314 0.071347162
0.160404414 0.109044872 0.074763000
0.170524925 0.116128989 0.080835000
0.185831964 0.119417995 0.085768640
0.199367642 0.125489995 0.090196289
0.211511821 0.130802900 0.092473000
0.226059794 0.138646111 0.099683799
0.244023189 0.143200323 0.102846317
0.257811725 0.147248313 0.108918570
0.274130017 0.153320342 0.115749687
0.295129389 0.162175670 0.124604397
0.316381723 0.171284050 0.136749148
0.331056237 0.175585181 0.143074185
0.350664288 0.181530312 0.148892835
0.370145321 0.188234910 0.151296645
0.396710604 0.199620575 0.158127338
0.421251953 0.208981633 0.164453015
0.449082822 0.218595803 0.172928631
0.481467277 0.229728177 0.186084762
0.517773449 0.241492659 0.193295315
0.556483328 0.253636956 0.206451267
0.596710861 0.268057913 0.225047186
0.633396327 0.283238322 0.246553004
0.081720419 0.118026696 0.062112994
0.087792769 0.118026696 0.059076607
0.090576001 0.121315695 0.066413701
0.096648000 0.117520534 0.062618539
0.103478998 0.116381988 0.063757285
0.110309772 0.118152760 0.065528058
0.120935924 0.123592407 0.071853317
0.129791275 0.121947698 0.074889697
0.136622369 0.123465694 0.074130602
0.150031775 0.131688476 0.079696231
0.163567126 0.131182700 0.084629864
0.174699247 0.128272995 0.088045709
0.186084643 0.135483637 0.092979059
0.203795284 0.142061695 0.096521318
0.218722269 0.148133695 0.102340281
0.229981080 0.153320506 0.105249800
0.246679664 0.160910696 0.112839997
0.261353970 0.163061276 0.114990562
0.275521785 0.170145422 0.124098971
0.296268106 0.174067065 0.134851351
0.320809424 0.181530729 0.144212469
0.341049671 0.190639123 0.154332995
0.359266281 0.195319399 0.158127695
0.377482682 0.204427406 0.162681893
0.402529985 0.211764559 0.165338412
0.431246012 0.222517654 0.175837696
0.459329426 0.232131407 0.182416275
0.489689887 0.244275883 0.192283273
0.523718894 0.256419957 0.202403694
0.563693583 0.268564373 0.212270662
0.606198430 0.281593800 0.230486676
0.646425962 0.296774000 0.253257304
0.087793000 0.133207098 0.069702998
0.093105897 0.134725094 0.067425705
0.095636003 0.137508094 0.075015768
0.097406901 0.139532030 0.081594035
0.104237996 0.131562188 0.073244646
0.116382092 0.131562188 0.072865099
0.127008095 0.136875421 0.080455422
0.136621997 0.140164480 0.084756613
0.144212186 0.138646096 0.088551901
0.153320596 0.144718096 0.085515529
0.165338099 0.147880971 0.091208003
0.175458342 0.149145931 0.094497159
0.186084643 0.148386732 0.097533450
0.201012000 0.157242090 0.100569069
0.218215987 0.163314089 0.108665310
0.231498897 0.167741820 0.112081096
0.244402379 0.171537101 0.115117095
0.261353970 0.177609086 0.121821508
0.273498029 0.186590970 0.130929872
0.295509398 0.188868001 0.142821103
0.317520738 0.192662999 0.151549637
0.341050088 0.198988020 0.158886999
0.359645575 0.208222926 0.165085509
0.379759818 0.220367089 0.171790093
0.404048175 0.227957085 0.174066991
0.432005107 0.236179650 0.177356079
0.463377953 0.245288059 0.189500093
0.494243979 0.257179081 0.196078092
0.525742769 0.268564194 0.208222657
0.565211415 0.281467319 0.219608054
0.609234214 0.292979479 0.232763961
0.651739061 0.308159113 0.250979990
0.093865007 0.148387492 0.081847012
0.096900612 0.154459476 0.081847012
0.100063302 0.155977502 0.086021483
0.102972850 0.156230509 0.088678159
0.107273616 0.155850992 0.085389420
0.119418390 0.155850992 0.082353041
0.126502484 0.155850992 0.089563809
0.134471759 0.156230509 0.092093781
0.144212201 0.156862885 0.091587529
0.156356990 0.159898490 0.097659536
0.168374494 0.163061380 0.103352010
0.178494737 0.168121487 0.105376005
0.188741490 0.171536982 0.106641166
0.201012000 0.172422498 0.109677456
0.213155985 0.178494498 0.112713069
0.230360597 0.184566498 0.118406132
0.246679679 0.188994199 0.124225490
0.261353970 0.192789495 0.130929902
0.273498029 0.198861510 0.140037537
0.299557358 0.205060020 0.151929229
0.319038749 0.210878998 0.158380747
0.334725142 0.216950998 0.161669657
0.350537956 0.223402545 0.165085509
0.377862394 0.235547334 0.174193904
0.402529985 0.243137494 0.178621188
0.428336143 0.251992464 0.181530669
0.457305163 0.263504058 0.186464474
0.493737906 0.272612453 0.198608473
0.521947801 0.281847298 0.213156298
0.560151577 0.294623673 0.224668205
0.606451631 0.307906121 0.235673860
0.654775441 0.317267507 0.250979990
0.099936999 0.169386864 0.096900873
0.100063488 0.163820118 0.093990996
0.105249867 0.172042891 0.091840774
0.109044835 0.175585166 0.094370708
0.112080544 0.177609324 0.095382676
0.116635002 0.180139005 0.097406939
0.128779128 0.175078988 0.096900873
0.138899535 0.175964713 0.103225991
0.149272650 0.177988768 0.106261864
0.159266114 0.181024387 0.112333871
0.171410859 0.181150869 0.109677002
0.181530595 0.184187263 0.115749508
0.192915767 0.188235223 0.117520742
0.207084030 0.190259039 0.119038865
0.221884862 0.193674862 0.124731317
0.234028861 0.202150673 0.130170733
0.251233518 0.207210541 0.137761191
0.267172992 0.210878983 0.143959865
0.279317051 0.216950998 0.146236792
0.299810380 0.220240355 0.155344397
0.321188986 0.224288613 0.161669865
0.337381244 0.229348734 0.164705738
0.352814615 0.235547215 0.167868152
0.374573052 0.244907930 0.174193904
0.404174685 0.252498686 0.178747699
0.429727852 0.261353850 0.184566662
0.456546187 0.274003923 0.192663074
0.490575731 0.287919283 0.207210869
0.519038618 0.294370860 0.216698021
0.555218220 0.306768179 0.233143523
0.599620521 0.321062714 0.243896380
0.646173120 0.332194865 0.250979990
0.103984736 0.186590731 0.110056996
0.108032733 0.186590731 0.104996867
0.108285740 0.189247012 0.106008500
0.113092899 0.193295404 0.104237735
0.116887800 0.194434255 0.106514543
0.123213187 0.195825577 0.109550923
0.135863513 0.197343245 0.114104986
0.143073797 0.194560245 0.110815994
0.153320834 0.197217092 0.115369990
0.162428796 0.200253025 0.121441990
0.174446478 0.204427496 0.120809384
0.186590731 0.202403247 0.121821508
0.196837276 0.205439627 0.126755342
0.210879266 0.208475471 0.128146738
0.224288404 0.211511403 0.134218723
0.241112977 0.217331052 0.138266981
0.253257394 0.223403051 0.144338995
0.270461977 0.227071241 0.151676327
0.285389036 0.233143255 0.153068006
0.301834375 0.234408349 0.159392923
0.317393988 0.241239727 0.164705515
0.335357249 0.245540991 0.167741865
0.352055758 0.251739502 0.171157241
0.377103150 0.260847598 0.181024536
0.401138276 0.271726549 0.188867956
0.431499034 0.277798980 0.190512255
0.458570331 0.288172066 0.198735058
0.491967052 0.300316393 0.213915437
0.524098516 0.313599259 0.221758410
0.560277998 0.323213220 0.234408438
0.601011932 0.337254941 0.251486599
0.643136978 0.349398971 0.259076506
0.108158998 0.210878924 0.124477990
0.114231281 0.213915020 0.121821634
0.118279286 0.215686277 0.118785508
0.119544156 0.220240146 0.121694639
0.122580543 0.217583984 0.121694639
0.130170926 0.217583984 0.123971924
0.143200681 0.217836961 0.128399640
0.152941287 0.220366627 0.129032001
0.159013093 0.220366627 0.125996187
0.168880492 0.223023474 0.132068276
0.178621009 0.228969276 0.134598285
0.190765277 0.230107650 0.135483891
0.202909291 0.228209913 0.136243001
0.215307027 0.231246233 0.139531642
0.228336632 0.234281853 0.145603642
0.244149268 0.239721596 0.149272457
0.260467738 0.243137434 0.153826624
0.273877501 0.246173203 0.158633634
0.292093664 0.251739293 0.161163971
0.307527006 0.254522294 0.165844649
0.325363636 0.259076357 0.173434541
0.339531898 0.267172635 0.177482277
0.357748628 0.273244619 0.180392116
0.382036924 0.281340897 0.187476009
0.409361273 0.292726278 0.198481932
0.436432302 0.303225636 0.207969636
0.466793120 0.309803694 0.208475694
0.499557078 0.318912059 0.221126080
0.532953382 0.332194805 0.230613634
0.572801590 0.346742600 0.241998821
0.611764431 0.360657811 0.258950204
0.647691250 0.373307914 0.274636626
0.113724999 0.248830035 0.142188057
0.120303772 0.251106650 0.144465432
0.126122966 0.250347763 0.141809002
0.130423874 0.249841914 0.138772875
0.134218544 0.253004044 0.142694071
0.137254938 0.253004044 0.142694071
0.147122040 0.250474334 0.144465357
0.156483039 0.250474304 0.144465342
0.164326131 0.253004044 0.143453151
0.179506525 0.253004044 0.149525926
0.186210990 0.258064687 0.155345008
0.196584478 0.260342002 0.157875001
0.208981991 0.260595024 0.156989396
0.221379027 0.260847986 0.154206038
0.236559406 0.263883591 0.160278037
0.251739800 0.268817008 0.164199814
0.266666830 0.272106081 0.168247998
0.282479107 0.272991627 0.173308030
0.300695926 0.276028007 0.173308030
0.316129327 0.281594008 0.176091313
0.336496025 0.287666023 0.184566990
0.359266222 0.293738067 0.194180995
0.377735972 0.300063044 0.200379506
0.396205038 0.306388050 0.197849154
0.423023522 0.316508591 0.205945536
0.453637004 0.327261358 0.217330977
0.483997107 0.336622089 0.228716016
0.514357865 0.345730454 0.231752411
0.547374725 0.357495010 0.242758006
0.587349534 0.371410191 0.256420195
0.629475117 0.387223184 0.273624569
0.659836054 0.405440003 0.294876963
0.113724999 0.270082384 0.154332832
0.125869766 0.264010400 0.148260832
0.130297214 0.266287059 0.150537640
0.131435737 0.268058151 0.147881001
0.131562412 0.271473825 0.146362960
0.143326938 0.277292818 0.160910830
0.146363318 0.274762481 0.155850828
0.156230420 0.273370981 0.154965416
0.166350514 0.274762481 0.155091733
0.176470906 0.277292818 0.158633545
0.185831547 0.274382949 0.161796451
0.198355258 0.277292818 0.167488992
0.212903216 0.279696614 0.170018986
0.227451026 0.282100350 0.169386402
0.242631406 0.285135955 0.169386402
0.257811785 0.285768390 0.175458401
0.271473974 0.288551599 0.177861989
0.285515398 0.291587800 0.179759562
0.303731531 0.297280371 0.182416409
0.319164932 0.300316036 0.185199052
0.336243033 0.305881977 0.192030311
0.357748419 0.311954230 0.198734999
0.380771577 0.318279803 0.200379506
0.405060410 0.330423832 0.209487915
0.428083390 0.336748809 0.216065526
0.457811534 0.345477611 0.223023251
0.490069807 0.355091810 0.229474992
0.520429850 0.366982818 0.240860030
0.553446770 0.378747374 0.251866221
0.590385556 0.392662555 0.264010370
0.632005155 0.407842964 0.280328929
0.671980023 0.423655987 0.303984582
0.118532605 0.291334778 0.159266204
0.123465963 0.287665993 0.162808180
0.133459955 0.285894990 0.167488948
0.135736808 0.291207939 0.169765785
0.135736987 0.295003235 0.165591225
0.147881001 0.290955007 0.164579123
0.147628322 0.301454455 0.169259995
0.157242283 0.296773791 0.168121710
0.168627381 0.296014875 0.168121696
0.176091492 0.299051285 0.167868316
0.187602937 0.298671722 0.170904666
0.200759068 0.297659576 0.175964803
0.214800805 0.299177796 0.178621158
0.228716031 0.300948948 0.177861989
0.243896410 0.303984553 0.182162985
0.256672978 0.307020783 0.182162985
0.271853387 0.308538973 0.185198992
0.285515577 0.312207758 0.187096566
0.301960826 0.318279773 0.193674952
0.319797367 0.319165260 0.196711242
0.340670466 0.324098617 0.201644599
0.360911131 0.331182748 0.209234804
0.383807778 0.338646770 0.212270781
0.408096015 0.346236795 0.219101906
0.432384759 0.356103510 0.223656282
0.460847437 0.362302333 0.232510909
0.493738323 0.371410728 0.239089116
0.524098754 0.385451972 0.251233578
0.561922550 0.395192772 0.256166846
0.590006173 0.410879195 0.273624361
0.629854500 0.425806582 0.291208178
0.676913202 0.439468801 0.315496594
0.123086803 0.312587202 0.168374196
0.130676612 0.309550792 0.172928378
0.134977758 0.311701179 0.176596954
0.140290990 0.310436338 0.183175027
0.141429543 0.317394197 0.183427989
0.152435184 0.311701447 0.177735254
0.153447315 0.315749168 0.174193308
0.158760473 0.322580397 0.178747520
0.173181176 0.318026394 0.180265903
0.180771768 0.320303679 0.177229702
0.191144988 0.318911970 0.180012673
0.203795061 0.321947992 0.185072795
0.218975455 0.323086619 0.188867807
0.231752023 0.323213160 0.186717033
0.246932402 0.323718756 0.191524193
0.262744963 0.326754987 0.194307387
0.271853387 0.329791397 0.194307387
0.287033617 0.332827598 0.194307387
0.302213818 0.338013977 0.200759158
0.321695000 0.340038180 0.204301164
0.342188269 0.345351011 0.212270796
0.365464926 0.350411117 0.217330933
0.386843801 0.358380973 0.223023489
0.411132216 0.364452988 0.230487198
0.435420364 0.372802079 0.232764274
0.462492108 0.381910026 0.241366640
0.494750053 0.388615102 0.250727326
0.524098635 0.401770741 0.261859715
0.559392512 0.416192204 0.267552137
0.597596347 0.427577376 0.275142163
0.626312554 0.445793957 0.296394587
0.675395012 0.459202975 0.320050806
0.128019974 0.333839566 0.184187144
0.137001574 0.331435740 0.186590955
0.142061785 0.334218532 0.186843991
0.145730585 0.338393122 0.186211422
0.146110043 0.335736990 0.190765128
0.154712364 0.335736990 0.192030132
0.157495424 0.337634206 0.186970145
0.164073572 0.339405239 0.186843559
0.176217571 0.342314988 0.191271082
0.188361585 0.342314988 0.188235462
0.198228866 0.340037674 0.191018268
0.209360987 0.341808558 0.194180578
0.223276213 0.346742183 0.198608145
0.238456607 0.349778563 0.199114144
0.253636986 0.347501308 0.202529982
0.269322991 0.348639935 0.204933792
0.283364773 0.351676136 0.206451982
0.291334987 0.354712546 0.206451997
0.306514651 0.357748181 0.206451997
0.326628357 0.360151917 0.209867209
0.347880721 0.366982818 0.217330560
0.368500710 0.374066681 0.227071106
0.389879555 0.377356052 0.230233967
0.414168239 0.383934140 0.238836318
0.439089149 0.392283261 0.243010983
0.466160297 0.402656585 0.247438654
0.497027040 0.411258936 0.262619048
0.524604380 0.420240104 0.271979690
0.556609333 0.436053187 0.278431147
0.593548119 0.451360077 0.287539154
0.632384539 0.464010119 0.299557149
0.671853006 0.482226133 0.320809573
0.140164003 0.355092019 0.202403963
0.137128398 0.355092019 0.202403963
0.137507990 0.356989235 0.200506225
0.141556188 0.361543030 0.196458042
0.149146438 0.366097063 0.193801552
0.152182043 0.366097063 0.208981916
0.158254072 0.366097063 0.205186963
0.167109460 0.364705741 0.204048246
0.179253981 0.363693953 0.206578001
0.191397995 0.366603076 0.206451520
0.203541994 0.366603076 0.209234908
0.215433031 0.366350025 0.208222702
0.229854316 0.367994666 0.208222643
0.247565016 0.371031046 0.211258963
0.262745410 0.374067456 0.217330948
0.273118198 0.374193966 0.218342975
0.286021203 0.375964820 0.218596011
0.300442606 0.379000634 0.218596026
0.315623075 0.382037044 0.218596041
0.333586007 0.382290006 0.224162042
0.353952765 0.388235271 0.229980990
0.374193281 0.395319164 0.236558974
0.392915964 0.398608536 0.242378011
0.417204022 0.407716930 0.248450026
0.443769932 0.416571707 0.257052332
0.472232908 0.428462714 0.262618691
0.503099084 0.441619009 0.268691093
0.536495447 0.447691023 0.283871442
0.566729605 0.459329665 0.290575951
0.602656603 0.473751187 0.301960707
0.641240001 0.487792939 0.317520201
0.677925050 0.500442982 0.335990012
0.143959358 0.406957746 0.223403364
0.152055755 0.409741104 0.226186022
0.153320596 0.407590330 0.226186022
0.155218184 0.409361273 0.223782539
0.160531461 0.413156450 0.219987735
0.163567066 0.413156450 0.223150298
0.174193650 0.410626143 0.228210047
0.182416007 0.412017822 0.224541739
0.192662746 0.411258996 0.225300625
0.202783033 0.410246640 0.227324367
0.223276362 0.413156450 0.230234236
0.233396620 0.411132187 0.229222104
0.245920375 0.411511749 0.229601368
0.262239397 0.414548069 0.234029025
0.277419776 0.417583823 0.235041007
0.292599559 0.415813208 0.233902812
0.305502564 0.416951537 0.236559361
0.321315527 0.419354737 0.239721790
0.338646740 0.420240372 0.241872013
0.356609732 0.423276722 0.250221372
0.374825716 0.425173968 0.248703375
0.394180626 0.431498736 0.250221491
0.412650347 0.436432421 0.254522711
0.436938405 0.442884654 0.260594726
0.463504225 0.451992452 0.271220744
0.493611991 0.459708720 0.283618033
0.524351716 0.470208496 0.293232292
0.550916791 0.480835080 0.303858072
0.586969972 0.494876206 0.319038451
0.624667704 0.507147431 0.330803186
0.666034222 0.521315932 0.345983326
0.706261754 0.535357714 0.362302363
0.150790736 0.436938733 0.235167995
0.150411397 0.443770140 0.238203615
0.160910964 0.442504942 0.244781733
0.162681744 0.439468563 0.240986571
0.166603550 0.441619337 0.237444803
0.175711527 0.444655746 0.238962993
0.182542637 0.445920408 0.239595413
0.194686994 0.444528729 0.242631018
0.204047829 0.447312087 0.240860239
0.213156238 0.446552992 0.242757499
0.228209868 0.447438598 0.241998866
0.245161250 0.450221449 0.246679470
0.256546646 0.447185367 0.243643090
0.271474004 0.448197693 0.247185022
0.285009652 0.447944313 0.248829737
0.303984940 0.451865792 0.252118796
0.319164932 0.451866180 0.250600994
0.334345311 0.454269469 0.255913973
0.351296961 0.454269469 0.260214776
0.371410757 0.455155104 0.259329349
0.391524464 0.458190948 0.268437713
0.408728600 0.461226851 0.264389724
0.426186234 0.466539979 0.266793489
0.448703498 0.474383533 0.274636716
0.479063839 0.480835170 0.287160009
