Assets/Shaders/EldamarStudio/100 Sci-Fi LUTs Pack/LUTs/cube/Vruti LUT.cube
LUT_3D_SIZE 5
DOMAIN_MIN 0.000000 0.000000 0.000000
DOMAIN_MAX 0.903226 0.903226 0.903226
0.054901998 0.000000000 0.000000000
0.122580700 0.022896998 0.031373002
0.212523401 0.064769410 0.061479993
0.328653127 0.132447869 0.116761126
0.520809770 0.205439806 0.191017970
0.081720419 0.118026696 0.062112994
0.129791275 0.121947698 0.074889697
0.218722269 0.148133695 0.102340281
0.341049671 0.190639123 0.154332995
0.523718894 0.256419957 0.202403694
0.113724999 0.270082384 0.154332832
0.156230420 0.273370981 0.154965416
0.242631406 0.285135955 0.169386402
0.357748419 0.311954230 0.198734999
0.553446770 0.378747374 0.251866221
0.159898862 0.457179248 0.243263990
0.201771125 0.471853137 0.251739413
0.292726129 0.475521833 0.262365669
0.420873135 0.489563376 0.281594127
0.611385047 0.548134208 0.344971538
0.341808736 0.733965755 0.448956579
0.386843741 0.746362746 0.457431585
0.464642584 0.746363044 0.459329605
0.587476194 0.754838586 0.489816308
0.727514386 0.778367579 0.531435728
0.065022290 0.015686000 0.097406998
0.118026696 0.042504996 0.102340281
0.204047978 0.088298410 0.126881823
0.320809126 0.148134127 0.180518568
0.508665323 0.205312997 0.231245935
0.087919287 0.118026696 0.119670987
0.134345278 0.131435990 0.137001693
0.209234416 0.154332399 0.154332399
0.317140967 0.196204826 0.185072988
0.514104784 0.256419957 0.245540842
0.124857582 0.260847390 0.187982291
0.159519404 0.267425388 0.191271290
0.235041112 0.281847388 0.208601981
0.353194267 0.309044719 0.234408692
0.544339061 0.373813927 0.284629941
0.150158122 0.450600833 0.267805547
0.199873537 0.464642942 0.282859147
0.290069550 0.467299551 0.287792414
0.410120249 0.483364969 0.307779700
0.598228753 0.544212222 0.363693833
0.327387750 0.725742817 0.446552753
0.365970582 0.737507820 0.457684726
0.456799328 0.741050005 0.474636316
0.575458586 0.750537455 0.497280031
0.723339677 0.773560882 0.543580115
0.066666998 0.038583416 0.207969829
0.122580290 0.058190994 0.207590133
0.204680413 0.099430993 0.219733983
0.315243393 0.154964998 0.257052809
0.496521175 0.207969829 0.309297562
0.101328418 0.137001693 0.213155985
0.135989994 0.143200397 0.226944968
0.209234834 0.166097403 0.234408692
0.321062416 0.201391414 0.265148699
0.513851941 0.252751261 0.325996101
0.114990167 0.266792983 0.262871832
0.156230003 0.274635971 0.269070089
0.243896410 0.297533393 0.296268374
0.352182269 0.315875977 0.308032990
0.542947650 0.371536791 0.361036986
0.145477548 0.449335992 0.344592392
0.190891832 0.461479962 0.347880989
0.284250557 0.469576240 0.361669660
0.409487665 0.486274123 0.381277382
0.609108150 0.547248542 0.434408635
0.301834196 0.720177174 0.506514728
0.352182001 0.729285181 0.511575043
0.442378461 0.735863209 0.520050347
0.569892585 0.750663877 0.542061925
0.724984288 0.775205195 0.592915535
0.062744997 0.081467129 0.366982996
0.127514422 0.097786285 0.367362529
0.224668115 0.126248986 0.371157557
0.333586276 0.171663120 0.380645245
0.511321723 0.219734147 0.433776230
0.081340708 0.167362571 0.368501127
0.133333147 0.176217705 0.375079125
0.228589684 0.191271544 0.376091242
0.340544134 0.215812832 0.385958225
0.522706985 0.262238979 0.446679413
0.089184299 0.294243962 0.399620414
0.145983294 0.301834106 0.404554129
0.245160982 0.310942143 0.410120368
0.367615223 0.323466271 0.422896683
0.558380783 0.369513065 0.477545798
0.128399864 0.456293374 0.453384221
0.175205410 0.469196707 0.458823562
0.278937131 0.475775123 0.474510133
0.433776259 0.511195362 0.503352165
0.623782456 0.548893213 0.545857072
0.287159711 0.718658686 0.596457899
0.322454035 0.728652775 0.602150500
0.414547890 0.736495733 0.606451631
0.565970600 0.751676023 0.628083408
0.733586371 0.781657040 0.662365735
0.000000000 0.130802989 0.637318432
0.103984825 0.141302824 0.629095316
0.272865385 0.163567141 0.640606999
0.438076943 0.200126827 0.649968445
0.609867394 0.246046796 0.658190548
0.002656833 0.206704810 0.644149125
0.091967180 0.210373074 0.637950420
0.272232801 0.226944983 0.642884076
0.441366166 0.254775673 0.655913830
0.616824687 0.296773911 0.669955611
0.000000000 0.340797216 0.647564769
0.019481599 0.343073934 0.654016495
0.259709388 0.355850816 0.663504243
0.444655091 0.379126906 0.668943703
0.634788275 0.411511362 0.690322101
0.022138242 0.547248363 0.697785854
0.129285127 0.539531887 0.685135782
0.286021620 0.539405346 0.692093372
0.470461816 0.545604050 0.700948715
0.672612548 0.580265760 0.722960055
0.305376410 0.749778509 0.735104442
0.335357606 0.756862342 0.743959546
0.428842008 0.760151565 0.756356537
0.576217711 0.779506564 0.770271897
0.774699569 0.813788354 0.808602214
