Assets/Shaders/EldamarStudio/100 Sci-Fi LUTs Pack/LUTs/cube/Wimna LUT.cube
DOMAIN_MIN 0 0 0
DOMAIN_MAX 1 1 1
LUT_3D_SIZE 32
0.027450999 0.035294000 0.031373002
0.030487388 0.038330387 0.034408614
0.035674002 0.039216001 0.033143774
0.045541160 0.040480837 0.033902999
0.060721450 0.043136999 0.039974999
0.075901061 0.043136999 0.046046998
0.086021319 0.048197001 0.052118998
0.096773989 0.050980002 0.053257290
0.108918190 0.050980002 0.050980002
0.121062979 0.050980005 0.050980005
0.136116132 0.056799740 0.053889871
0.149272516 0.060847737 0.058949992
0.163693994 0.065021999 0.063883640
0.182163030 0.070841029 0.066919968
0.203415394 0.073877417 0.069955580
0.222264603 0.079316996 0.075394996
0.241999179 0.088424996 0.082985193
0.264516532 0.098671578 0.089563586
0.291840971 0.101707980 0.086527981
0.321947992 0.104743645 0.094623655
0.356103450 0.109676994 0.099936739
0.390512228 0.116761126 0.104996867
0.421631962 0.125869498 0.114231013
0.470208824 0.134977907 0.126375809
0.511954248 0.146362990 0.129411995
0.555597246 0.154332682 0.133586302
0.604174256 0.158380941 0.142694071
0.652751803 0.167488530 0.151802450
0.703984737 0.181909800 0.160910830
0.752055526 0.195319414 0.175331950
0.797596514 0.208349362 0.193548203
0.843137026 0.223528996 0.211765006
0.030487388 0.038330387 0.028336613
0.027450999 0.041366000 0.043517001
0.036938615 0.042251613 0.037950613
0.048576772 0.040986776 0.035673775
0.062618606 0.041619387 0.040354453
0.069829062 0.052245386 0.049082614
0.090069324 0.052245386 0.047564939
0.099556990 0.057305381 0.048829999
0.108918190 0.060088385 0.048703291
0.121062987 0.060088385 0.050980005
0.139025986 0.060088385 0.056799740
0.152308390 0.063883863 0.061986379
0.164452910 0.068058386 0.066919737
0.179127410 0.074130386 0.069955640
0.200379774 0.079949416 0.072991967
0.224035367 0.082985803 0.078431383
0.245034799 0.091461383 0.082985580
0.267552137 0.101707809 0.087792806
0.294876605 0.104743592 0.089563593
0.330550343 0.113345973 0.097659975
0.359519094 0.118785374 0.104870379
0.390512228 0.124857381 0.108033001
0.421505451 0.131941497 0.111195371
0.467172414 0.141049907 0.123339422
0.515749216 0.152434990 0.133206889
0.558886230 0.161795989 0.136875317
0.604680181 0.167488679 0.142188132
0.655787408 0.176596925 0.148766831
0.696394384 0.185705215 0.160531357
0.750031114 0.200126573 0.173561186
0.798861444 0.214421585 0.192283347
0.840101361 0.229601771 0.214800611
0.033523228 0.047817998 0.029601775
0.032637611 0.048703387 0.038330387
0.046805769 0.045287773 0.044908226
0.057684932 0.046552613 0.042125002
0.069196776 0.046426322 0.046046775
0.071726769 0.055028770 0.051612839
0.086148091 0.059202999 0.052751325
0.100822054 0.059202999 0.048071004
0.109677091 0.063504092 0.047059000
0.123213202 0.064895779 0.048703294
0.139026001 0.069196776 0.056799740
0.153193995 0.071220517 0.062871993
0.166476637 0.074256867 0.066666998
0.180139288 0.079317003 0.068943769
0.199494392 0.085388996 0.073877417
0.223149985 0.091208033 0.079316996
0.245920181 0.094244413 0.083871193
0.268437535 0.103858411 0.086907417
0.295761973 0.109930038 0.089943036
0.322833747 0.116382137 0.096394591
0.355470985 0.125490025 0.101707965
0.387096614 0.131814986 0.109550998
0.421505451 0.138013497 0.114484504
0.467045903 0.147121906 0.124604769
0.508412302 0.154205993 0.128020287
0.559772074 0.166350335 0.135736987
0.605818927 0.173940539 0.140543848
0.654143035 0.181404218 0.148260891
0.699430525 0.194813594 0.159645975
0.745983243 0.207463503 0.177103162
0.802023947 0.221758440 0.193042591
0.847818017 0.235673994 0.213535771
0.039089162 0.058697160 0.035167839
0.037823997 0.057431996 0.039974999
0.046552613 0.058190998 0.045161389
0.064010158 0.054648999 0.045667000
0.073118448 0.057684708 0.051359549
0.075774841 0.062871873 0.054395933
0.087160319 0.065148838 0.056167159
0.101581283 0.067805000 0.055408165
0.112207092 0.067805000 0.052372161
0.127387494 0.070335329 0.053384162
0.140037864 0.076281160 0.058317866
0.153193995 0.079064064 0.061606832
0.167615294 0.082099676 0.068817481
0.183681160 0.085642040 0.069956027
0.203921661 0.092726156 0.077040158
0.223149985 0.097532995 0.080582157
0.245920181 0.102087192 0.082606032
0.268437535 0.106388576 0.087539822
0.295762002 0.115496360 0.092473038
0.321568578 0.124351710 0.099557169
0.349652171 0.129791245 0.102466740
0.383048296 0.137887254 0.106514998
0.422517329 0.144085795 0.117899992
0.465781063 0.153193906 0.125869736
0.506767631 0.161290169 0.129411995
0.550664127 0.170145169 0.130929813
0.605313122 0.181277826 0.139025956
0.653131306 0.187349826 0.150411442
0.698671758 0.201391637 0.159645975
0.745224535 0.216571897 0.174573168
0.795066535 0.231751755 0.194939986
0.848576844 0.244276002 0.210499838
0.048576999 0.068184994 0.044655096
0.046679158 0.065148607 0.047311932
0.049335547 0.067805000 0.051739547
0.056799319 0.071346998 0.053257387
0.068564542 0.072106093 0.051359549
0.077672161 0.075142480 0.054395933
0.088551641 0.076407544 0.057811771
0.101960830 0.077292837 0.059582997
0.116761096 0.079569548 0.059962451
0.131941497 0.079569556 0.066034451
0.142441422 0.085389189 0.067425996
0.153952986 0.087792993 0.065781288
0.167615294 0.088931344 0.066540092
0.185831994 0.091967024 0.075142480
0.209866971 0.100822411 0.083997861
0.228083342 0.105882280 0.086654447
0.247058734 0.109297730 0.086274803
0.268058091 0.113219567 0.084882990
0.295382559 0.122327976 0.097027019
0.323465914 0.133839563 0.106388360
0.353067458 0.140290812 0.109803997
0.386464208 0.144718260 0.112207547
0.425932556 0.150917500 0.118279539
0.465401739 0.160025209 0.124351546
0.505249858 0.169512823 0.130044281
0.548513293 0.178873986 0.131182864
0.596963704 0.191144541 0.136748582
0.651613235 0.197216541 0.154965341
0.698292196 0.210878909 0.162934989
0.744212568 0.225300178 0.173940644
0.789374113 0.241239592 0.190385967
0.834914565 0.256420016 0.208602011
0.060720995 0.080329001 0.056799866
0.066793002 0.077292614 0.056799866
0.067045934 0.076407000 0.057305932
0.069323093 0.077418998 0.054522771
0.074636549 0.078178093 0.048323933
0.083744928 0.084250867 0.054395933
0.090322867 0.089816935 0.059961997
0.100695990 0.089943223 0.063883767
0.113345936 0.088677935 0.064895906
0.125869498 0.088677943 0.062998071
0.143959731 0.094496936 0.071979940
0.158633679 0.098545320 0.073497996
0.172169283 0.101075351 0.074130289
0.185831994 0.104111023 0.078178093
0.204047978 0.107147411 0.081214480
0.228083596 0.116002798 0.087666065
0.252372116 0.122580864 0.092726059
0.276154488 0.128146932 0.096014999
0.292346925 0.134471983 0.097027019
0.325237304 0.143580362 0.106388360
0.357621640 0.149399191 0.109803997
0.392536372 0.154459059 0.112840123
0.432005346 0.163061500 0.121315926
0.471473813 0.172169894 0.127387941
0.513219535 0.183554858 0.142567933
0.556609511 0.191018254 0.144339025
0.602656186 0.197596073 0.139784932
0.648576796 0.212396920 0.158000946
0.695255756 0.223782584 0.168247879
0.742567778 0.234661624 0.178620964
0.788868189 0.248323590 0.193927646
0.831878901 0.268564016 0.214673996
0.067805000 0.092473000 0.063883997
0.066287316 0.089437254 0.061353676
0.070208549 0.090701871 0.063504450
0.075648323 0.091081321 0.062618837
0.082859315 0.091081321 0.057558544
0.089816935 0.092852540 0.061480317
0.096395001 0.096395001 0.065021999
0.107400700 0.100822285 0.067805000
0.121189222 0.100315996 0.070714675
0.135104001 0.100316003 0.072991520
0.145477414 0.106134996 0.074003547
0.159645677 0.110183254 0.079063937
0.176596642 0.113219641 0.082985647
0.193421736 0.116508640 0.088804610
0.211638287 0.121821731 0.091840416
0.234661296 0.127261311 0.097279996
0.257431865 0.137760982 0.101834185
0.282099813 0.144592002 0.104996741
0.302973002 0.146869019 0.103099011
0.334851384 0.155724362 0.111448362
0.368247718 0.164832741 0.114863999
0.402656227 0.170145631 0.115876131
0.440607160 0.177862301 0.121695481
0.480076224 0.189373910 0.125363678
0.524098575 0.198482290 0.133712962
0.571030974 0.208981633 0.145603985
0.619354725 0.216318384 0.144845068
0.666919589 0.231498763 0.161037311
0.707400024 0.238962322 0.173813820
0.751169622 0.251107097 0.186464176
0.799114466 0.264516205 0.202023908
0.846553028 0.285768628 0.223276317
0.070588000 0.106261700 0.071600288
0.077419378 0.103225671 0.068564318
0.070461936 0.102846220 0.066540062
0.076027870 0.105882153 0.067046449
0.087792993 0.105882153 0.065528154
0.096395001 0.104616992 0.071094222
0.104111284 0.110436313 0.074130386
0.108538993 0.108538993 0.077166408
0.123719387 0.113092795 0.075648218
0.138899237 0.115749411 0.078178003
0.153193876 0.118279405 0.081720419
0.164326414 0.123971954 0.083744250
0.177608758 0.127008051 0.085641995
0.198102072 0.130550325 0.092979290
0.219101816 0.138013989 0.097406581
0.240480691 0.140796989 0.101201713
0.266286880 0.148387194 0.105755515
0.287792265 0.159139693 0.108791865
0.311068982 0.161163718 0.107779749
0.343706369 0.167868346 0.114231363
0.375458419 0.176976740 0.122580700
0.409866929 0.187096983 0.123592570
0.446426153 0.194560498 0.126755282
0.485895008 0.205186710 0.131309092
0.533206999 0.215053990 0.137254983
0.577355981 0.224162012 0.144971684
0.628210187 0.233775824 0.152561769
0.677925587 0.247817844 0.167742148
0.720176756 0.258317381 0.181909978
0.764705718 0.269576102 0.189247176
0.806324959 0.283491671 0.209740564
0.854902029 0.303985000 0.234028995
0.073624194 0.119924098 0.077672102
0.086527482 0.119164802 0.075395390
0.084629998 0.118279189 0.076154321
0.079064071 0.119544156 0.070841163
0.089310899 0.122200996 0.068564452
0.102213897 0.119544163 0.076913066
0.108791776 0.123592414 0.079443328
0.118405707 0.126754999 0.084756613
0.122200996 0.122200996 0.087792993
0.137381405 0.131309390 0.081720233
0.155471101 0.133207098 0.087286741
0.170398504 0.136495993 0.090575837
0.184440434 0.142188460 0.093231998
0.199873149 0.145477101 0.093485028
0.223149911 0.154079407 0.099051088
0.244275793 0.158254102 0.102719702
0.268564194 0.161290288 0.105755903
0.295888543 0.170398504 0.108791672
0.317394018 0.176597014 0.111828074
0.349019468 0.182669207 0.118406005
0.380518556 0.190638736 0.123339735
0.413662255 0.200000077 0.131941855
0.450474441 0.212017596 0.134850994
0.491207927 0.221126005 0.139658004
0.537507713 0.230993286 0.147248566
0.585705280 0.240101501 0.154079884
0.628210127 0.249715209 0.161164030
0.679064214 0.261859894 0.176091433
0.723465919 0.275521964 0.189753130
0.770271659 0.287160069 0.202403203
0.813156486 0.306262046 0.209740564
0.852624953 0.324478090 0.243137002
0.085768968 0.129032493 0.074636489
0.091840968 0.135104492 0.074636489
0.091840714 0.136495978 0.083112001
0.089690007 0.137760818 0.084503487
0.092346527 0.140416995 0.074636459
0.110562518 0.140417010 0.077672072
0.110815845 0.137760818 0.075901337
0.119797476 0.138519779 0.081341006
0.134344995 0.140417010 0.090828620
0.140417024 0.140417010 0.093865007
0.158507258 0.146616265 0.099430971
0.174699739 0.150411248 0.101455003
0.190891981 0.154712021 0.102719836
0.208981544 0.160657495 0.105629027
0.227198303 0.166729480 0.108665414
0.245667472 0.175331816 0.111827672
0.268564194 0.181024686 0.114863709
0.295888543 0.185578912 0.117900059
0.323212981 0.194686562 0.120936461
0.353067756 0.200885728 0.129538134
0.383554965 0.208855227 0.130929738
0.416951597 0.217963129 0.132447869
0.456546456 0.227198005 0.140922993
0.502086878 0.236306414 0.140922993
0.545097589 0.247691482 0.150284573
0.589373469 0.258317679 0.160784304
0.634282112 0.267931998 0.170271635
0.676786840 0.280075997 0.182416394
0.722327292 0.297532976 0.192030132
0.771283567 0.308411986 0.208475158
0.815686107 0.321947694 0.227197587
0.843516529 0.351802498 0.243137002
0.097912997 0.146869004 0.083238870
0.098165996 0.152941003 0.083238870
0.104237996 0.150411010 0.083238870
0.108539030 0.148892999 0.089816868
0.113093190 0.150663882 0.089057870
0.113598868 0.155723870 0.089563802
0.124225184 0.158254191 0.092599422
0.127640858 0.157621875 0.093611710
0.140037969 0.159392655 0.098924875
0.152561754 0.161542863 0.099810481
0.164452732 0.161542863 0.097027130
0.182668999 0.167615637 0.101075388
0.198734760 0.172675744 0.104237996
0.215180069 0.178494707 0.109044835
0.233396828 0.181909859 0.112080544
0.251612991 0.187981859 0.115116931
0.275901377 0.195066378 0.116634868
0.304617405 0.200759277 0.120176978
0.331941843 0.209866911 0.130044088
0.359266222 0.221758589 0.133080482
0.391397744 0.229981124 0.136242867
0.424794376 0.238076866 0.136242867
0.462365478 0.245287493 0.141555503
0.502339900 0.254395902 0.149904877
0.547880828 0.265780985 0.152182162
0.592409790 0.276533633 0.165211976
0.638456941 0.287159979 0.177861929
0.685768723 0.304111004 0.182795882
0.722959816 0.316255689 0.197596803
0.765970349 0.333965689 0.212523684
0.813282549 0.346362710 0.231751829
0.854775727 0.364579022 0.248955995
0.103984736 0.167109251 0.090322994
0.112081252 0.169133246 0.096394733
0.108285740 0.170651257 0.096394733
0.113092899 0.169639245 0.095129892
0.121442288 0.170777783 0.098545447
0.128273308 0.171916515 0.100189731
0.135357574 0.173434570 0.098671935
0.142821252 0.176470533 0.101707540
0.150411248 0.176091090 0.103225835
0.164326489 0.176597029 0.101961002
0.174573243 0.180771500 0.103099123
0.188741505 0.182795241 0.102086991
0.206957504 0.188868016 0.105123378
0.223276243 0.194687217 0.110563032
0.241492555 0.197722837 0.117141090
0.263757259 0.207210243 0.124224797
0.283491433 0.213282630 0.125742987
0.310436547 0.219987661 0.125742987
0.334977984 0.229095295 0.132321015
0.366350353 0.240986958 0.140164346
0.397469729 0.247438505 0.137508005
0.431878239 0.258317381 0.138266861
0.468437493 0.267552018 0.141429022
0.507906437 0.276660383 0.148640171
0.551928818 0.290069252 0.161290020
0.597469926 0.300821900 0.167109400
0.642505109 0.310436249 0.183428124
0.688045859 0.325616241 0.194054708
0.730044484 0.338519901 0.203668535
0.771789670 0.352435440 0.220620140
0.813662112 0.368627489 0.237950832
0.858824015 0.380771518 0.255028516
0.112713277 0.191777274 0.098671995
0.120303765 0.191777274 0.104364254
0.125237092 0.191777274 0.108158998
0.124098442 0.192030266 0.109171152
0.127514273 0.197343275 0.106514998
0.140417576 0.195066571 0.108791709
0.148260668 0.193421990 0.106767677
0.155724347 0.195066556 0.104743928
0.164832547 0.198861271 0.109297737
0.177735642 0.196964115 0.107780121
0.186970517 0.200379640 0.110562764
0.198988244 0.204427660 0.111574635
0.214168638 0.207463279 0.111574635
0.232890636 0.213535994 0.114611022
0.252877623 0.217457220 0.121948406
0.277039587 0.225426629 0.129917830
0.298671842 0.236812010 0.134471640
0.322454154 0.243517041 0.135736629
0.345730633 0.252624691 0.136748657
0.375838012 0.263377726 0.142820999
0.410373002 0.273244888 0.149272650
0.444781512 0.277292639 0.145224631
0.481214255 0.292093486 0.148260280
0.519671321 0.303225905 0.154332802
0.561416924 0.314610958 0.163820341
0.604680300 0.327007920 0.176217303
0.650221527 0.337634265 0.185831636
0.693358839 0.351043254 0.202783242
0.735863626 0.364326298 0.218722433
0.779000759 0.378241807 0.233143389
0.821884871 0.392536610 0.252245575
0.861100972 0.404680640 0.267931998
0.130423993 0.221125990 0.111069031
0.130677029 0.221379027 0.110563032
0.136875287 0.221631989 0.112207256
0.145224318 0.221379027 0.115749188
0.150537968 0.221631989 0.118406028
0.156609967 0.221631989 0.118406028
0.160151720 0.219354704 0.115116678
0.165844023 0.219607741 0.113598704
0.173687190 0.223150060 0.113093093
0.191903964 0.229222059 0.122201480
0.202150837 0.229475066 0.125743151
0.213029981 0.231499255 0.125995994
0.226312637 0.234788388 0.126501992
0.241999030 0.237571031 0.125995994
0.266287029 0.243643031 0.129032373
0.292978823 0.250221103 0.134724990
0.316255420 0.258823425 0.138014033
0.336875558 0.270335436 0.138773024
0.370272011 0.279443055 0.144845039
0.398861378 0.288804412 0.148134321
0.431372494 0.299304068 0.156609997
0.467805207 0.309930056 0.164958969
0.504364431 0.316508025 0.165211990
0.540923834 0.331814945 0.171284035
0.579886317 0.342694342 0.177608997
0.619354665 0.351802647 0.185325697
0.659329176 0.362176031 0.195446029
0.704870284 0.380392015 0.207590029
0.747501552 0.395951837 0.229854584
0.790006280 0.410626203 0.250853956
0.830487132 0.425680041 0.269702613
0.866919935 0.437824070 0.290955037
0.142567992 0.239341974 0.126249403
0.145604387 0.242378384 0.120177403
0.150158405 0.244781613 0.117520638
0.159392834 0.244655132 0.120809577
0.168374434 0.243010849 0.127514407
0.165717572 0.245919973 0.127514407
0.169259891 0.245919973 0.117393769
0.180518404 0.246932089 0.121947698
0.192409486 0.249968484 0.130297080
0.197975978 0.253510803 0.134345472
0.216191992 0.253763795 0.140543982
0.226438820 0.255787551 0.135863155
0.238456637 0.259961963 0.134344995
0.254143029 0.264895409 0.138139993
0.275395393 0.264895409 0.132067993
0.302087188 0.275774986 0.139911383
0.327893794 0.283618212 0.145351186
0.350917369 0.291587800 0.147122413
0.376343995 0.300695449 0.147881418
0.412523717 0.312587112 0.151170060
0.443263888 0.320303798 0.158001319
0.476913363 0.329664826 0.165717870
0.513472021 0.340796769 0.168247595
0.552941263 0.359012812 0.174320385
0.594054520 0.372042984 0.182669118
0.634535074 0.382163107 0.192536324
0.674003601 0.392283022 0.205060408
0.713978708 0.407716393 0.222770393
0.754206181 0.423276216 0.240227357
0.796078324 0.434914589 0.261479735
0.835926592 0.448829979 0.281214178
0.869955599 0.468184829 0.300063401
0.161922783 0.259961784 0.139025986
0.157748386 0.267805189 0.130550176
0.165085763 0.266539991 0.124478184
0.170145631 0.271599919 0.124983996
0.178114995 0.273118317 0.131815195
0.181150854 0.272106469 0.131815195
0.185578302 0.275015593 0.140923753
0.191903681 0.275015593 0.130423695
0.207083896 0.276533782 0.137254804
0.216698289 0.277925462 0.141935483
0.227071598 0.282858968 0.143074006
0.243263841 0.284883231 0.145098001
0.255407929 0.285641938 0.139405161
0.270588011 0.287918806 0.141682059
0.287539363 0.292219788 0.144212604
0.311195582 0.299430579 0.147754610
0.337001771 0.308538973 0.155344799
0.361922741 0.315875947 0.158633992
0.387982011 0.326754838 0.158633992
0.420999527 0.336242706 0.161416635
0.457432270 0.348386973 0.164452732
0.489816904 0.357495248 0.171536982
0.524984062 0.369513065 0.176217303
0.564452708 0.380897790 0.184566796
0.599367321 0.396837085 0.192916274
0.640101135 0.410499632 0.203415573
0.679063916 0.422137588 0.215559989
0.716635287 0.435420215 0.229980975
0.751296759 0.445793599 0.248197556
0.801391482 0.460973948 0.277039498
0.841745734 0.474889368 0.299683362
0.870588005 0.496141791 0.316381991
0.177103192 0.290322572 0.152688190
0.175585002 0.293358594 0.135989606
0.178747579 0.298418611 0.138140380
0.180265963 0.299177378 0.129538059
0.184187189 0.306514740 0.135610089
0.194813192 0.303479105 0.142441377
0.203921184 0.303985059 0.144971445
0.210120082 0.306894183 0.148640499
0.219987392 0.306894183 0.141809195
0.234408677 0.306894183 0.146363184
0.246806055 0.309677184 0.149652198
0.258444250 0.316761434 0.151170000
0.275901616 0.318659186 0.151170000
0.291587383 0.316508383 0.148766190
0.305502594 0.321315557 0.152308643
0.323339581 0.326754987 0.158380792
0.350664377 0.334345192 0.162934989
0.374952346 0.340417176 0.167741999
0.401391178 0.350790203 0.167741999
0.432764053 0.363187551 0.170525029
0.468058437 0.374193549 0.175078928
0.504491210 0.387349427 0.181151196
0.538267136 0.399873495 0.188108698
0.573560953 0.408981472 0.194434106
0.609993517 0.422643661 0.206578091
0.644781530 0.433649391 0.214295149
0.684630156 0.448450267 0.228210181
0.723086834 0.461606383 0.244402170
0.758380949 0.474130213 0.257305622
0.796837330 0.483744144 0.284630060
0.848324001 0.501581192 0.316634774
0.875142217 0.523466170 0.333080173
0.188741550 0.329158962 0.164073437
0.192409754 0.327387720 0.144212365
0.196331128 0.329538107 0.144465521
0.199873284 0.333712548 0.147754803
0.191524565 0.340164065 0.137887135
0.207969561 0.338140458 0.155091867
0.219860569 0.338267118 0.155597672
0.229980811 0.338646412 0.153826699
0.238203987 0.341555685 0.151549980
0.250348002 0.341555685 0.151549980
0.265401840 0.342188090 0.157368988
0.278557956 0.346362770 0.160151735
0.294117600 0.352688104 0.163314149
0.315369993 0.353447139 0.163820148
0.328652531 0.357242525 0.164579138
0.342567921 0.358380735 0.165591002
0.363440931 0.362302125 0.170777768
0.392536521 0.369006693 0.173181579
0.416824609 0.375078738 0.173181579
0.447944283 0.388234913 0.177862346
0.481467426 0.401518017 0.183428556
0.517267644 0.414041996 0.191524565
0.553320885 0.429095119 0.203289047
0.583175182 0.438709438 0.206325307
0.617457151 0.451739401 0.218469262
0.654522300 0.464010119 0.230107322
0.690955102 0.470588058 0.238203973
0.733206809 0.485515386 0.262238950
0.770398557 0.501328349 0.276407361
0.807337105 0.514231443 0.297153682
0.845287621 0.525869310 0.328273147
0.881720424 0.550158143 0.349525541
0.209994018 0.365591079 0.161037073
0.216066003 0.368627459 0.158001453
0.217583954 0.369006991 0.159645960
0.221885115 0.368247807 0.161164030
0.227957413 0.367488563 0.156103954
0.224921033 0.376596928 0.162175953
0.231246009 0.379633337 0.161669716
0.241112992 0.379127294 0.161922738
0.253510147 0.378115058 0.163694024
0.268564045 0.381024957 0.163694024
0.283617914 0.383934081 0.169513017
0.296774030 0.384692997 0.169512749
0.312333643 0.386590660 0.170398295
0.333586037 0.389880002 0.175964952
0.354838401 0.398988366 0.182036951
0.368121624 0.395572364 0.173181355
0.385073155 0.394813210 0.171663404
0.407716990 0.399367571 0.176217988
0.432005048 0.408475965 0.176218003
0.467425764 0.417330623 0.187350005
0.501454711 0.428842485 0.196837768
0.535104096 0.440986991 0.206704989
0.568500519 0.453383982 0.218469456
0.595825732 0.465528011 0.221505091
0.627957225 0.477419585 0.233649328
0.664389610 0.489816964 0.246046662
0.703099132 0.500948906 0.256420016
0.739531875 0.510056555 0.274636000
0.776470602 0.527640700 0.298671663
0.811132133 0.543833196 0.319924176
0.845034599 0.558507502 0.343959600
0.878684044 0.574446976 0.370778024
0.239595026 0.421505094 0.177482724
0.237318382 0.418975472 0.174446404
0.241239592 0.424162090 0.171410799
0.244402334 0.424161941 0.173055366
0.251613379 0.421505094 0.171157822
0.255787790 0.423402667 0.174826011
0.262871414 0.424920738 0.178368330
0.272485793 0.427704096 0.177482724
0.285388976 0.428463012 0.178621367
0.300568849 0.431498885 0.178621367
0.318532616 0.431751877 0.181657016
0.329665005 0.434788018 0.181657270
0.343327075 0.435547084 0.182036713
0.362681746 0.436685741 0.187603012
0.381403744 0.438203782 0.188614994
0.400252968 0.444908381 0.197090805
0.416192353 0.446426094 0.195192888
0.436812133 0.450094759 0.200000003
0.461100787 0.452751338 0.204301015
0.485388786 0.456293762 0.207084373
0.519924223 0.471094102 0.217331097
0.551296830 0.481973499 0.225427359
0.581277728 0.488804728 0.233902842
0.616572082 0.500948787 0.242251456
0.646173358 0.513092756 0.252118945
0.680455327 0.525237381 0.265401721
0.717520416 0.537381709 0.278937459
0.751675844 0.548766673 0.303984731
0.782795668 0.560531080 0.322200716
0.822517335 0.576723576 0.346236408
0.857178926 0.593675017 0.373813927
0.886780381 0.612650394 0.408728391
0.260467738 0.467805207 0.180519000
0.263124377 0.464769095 0.188867599
0.262491971 0.468184710 0.195319504
0.264262736 0.469196707 0.188488409
0.270588338 0.467045993 0.185578793
0.282732725 0.471600175 0.185578793
0.287539423 0.473497450 0.192410052
0.303225428 0.470208436 0.192157015
0.316888064 0.472485811 0.191903993
0.332067966 0.475521713 0.191903993
0.346362740 0.475648195 0.194813594
0.362302244 0.479569733 0.199493989
0.372549266 0.480328828 0.198735073
0.389500499 0.479822755 0.204301015
0.409361184 0.481467456 0.209234729
0.423782349 0.482479453 0.208855048
0.446552932 0.490069658 0.217963442
0.466540009 0.495888621 0.221125737
0.489563704 0.497153461 0.224667743
0.510056794 0.501834095 0.233649328
0.536242485 0.504870474 0.236685723
0.568627536 0.518026352 0.243770123
0.597090423 0.521442056 0.249209717
0.631752074 0.533586442 0.260088563
0.667425692 0.543832719 0.275268525
