Assets/Shaders/EldamarStudio/100 Sci-Fi LUTs Pack/LUTs/cube/Wimna LUT.cube
LUT_3D_SIZE 5
DOMAIN_MIN 0.000000 0.000000 0.000000
DOMAIN_MAX 0.903226 0.903226 0.903226
0.027450999 0.035294000 0.031373002
0.096773989 0.050980002 0.053257290
0.203415394 0.073877417 0.069955580
0.390512228 0.116761126 0.104996867
0.703984737 0.181909800 0.160910830
0.070588000 0.106261700 0.071600288
0.108538993 0.108538993 0.077166408
0.219101816 0.138013989 0.097406581
0.409866929 0.187096983 0.123592570
0.720176756 0.258317381 0.181909978
0.142567992 0.239341974 0.126249403
0.180518404 0.246932089 0.121947698
0.275395393 0.264895409 0.132067993
0.476913363 0.329664826 0.165717870
0.754206181 0.423276216 0.240227357
0.277672142 0.508286238 0.185579121
0.323465943 0.518785298 0.209361404
0.435041368 0.524351537 0.231625408
0.585831404 0.550411165 0.264010131
0.804806888 0.624035180 0.369512945
0.541808724 0.807083726 0.489563584
0.576470435 0.814547837 0.502719522
0.648956418 0.822770596 0.516381979
0.760277927 0.830613434 0.555977225
0.889436781 0.848956585 0.613788426
0.037571292 0.044781707 0.070967704
0.092852987 0.054269418 0.075521708
0.190006107 0.088931412 0.103984565
0.378114849 0.133712709 0.138013840
0.696394444 0.184187084 0.199240670
0.080075711 0.106261700 0.088930994
0.109550692 0.112460412 0.099051282
0.214547828 0.142567977 0.126249403
0.398735106 0.185705408 0.152940989
0.710056901 0.259708941 0.221125960
0.145856991 0.238077387 0.143832996
0.187349707 0.247564673 0.149399117
0.276027769 0.264895409 0.164832413
0.469070256 0.328399807 0.196204990
0.750664175 0.417710513 0.274256766
0.279949427 0.503352106 0.233522817
0.327134818 0.508286297 0.235547230
0.428462803 0.520050287 0.255787402
0.583807349 0.545856953 0.291840434
0.797596455 0.619734347 0.397976041
0.550916553 0.805692732 0.498544902
0.574825704 0.811258852 0.510309696
0.646932185 0.816192389 0.531056285
0.757748365 0.824667990 0.564199388
0.885135770 0.847311854 0.625679553
0.062112574 0.054269414 0.139910996
0.102340281 0.067299418 0.138646409
0.194939807 0.093485415 0.156356409
0.379126966 0.125237122 0.215179980
0.689563572 0.159645811 0.283365190
0.100442693 0.118026279 0.152688116
0.124857575 0.124224991 0.154332817
0.217457101 0.146489412 0.184060693
0.402656376 0.178494409 0.219101816
0.704491019 0.245034933 0.304237813
0.153700411 0.245919973 0.194180578
0.191271275 0.257052809 0.205313414
0.287792802 0.273370981 0.226312816
0.474636495 0.325742990 0.261986107
0.746995568 0.410120219 0.358633608
0.277419448 0.497786403 0.302972972
0.325490087 0.503352523 0.317267388
0.427830219 0.522327542 0.329411536
0.582163274 0.547501266 0.362175524
0.805818975 0.623023510 0.468817353
0.528020203 0.805818737 0.548260629
0.556483328 0.808349192 0.549398899
0.639089108 0.815559983 0.578494608
0.750537932 0.824414909 0.604933739
0.888804138 0.844402194 0.657685041
0.077546127 0.083365127 0.253257245
0.137634695 0.088931419 0.260088384
0.230360389 0.107906409 0.268311381
0.391651124 0.130423859 0.310183257
0.700695753 0.169892505 0.421632111
0.110056698 0.139278829 0.259076834
0.154965416 0.147121996 0.268564522
0.246679246 0.159898698 0.280075967
0.419101954 0.184440255 0.332701117
0.713725448 0.250347763 0.437065065
0.160784423 0.269196540 0.307147115
0.206704393 0.277672082 0.324477971
0.325489908 0.297659814 0.347754508
0.506388247 0.338519543 0.393548518
0.753194034 0.420999497 0.487413049
0.274889231 0.517014384 0.433902502
0.330676734 0.520050704 0.439594835
0.442504913 0.536749125 0.459203273
0.593548357 0.563188255 0.489690125
0.809108138 0.627577424 0.569512963
0.547627568 0.801264763 0.644908190
0.572928548 0.809361100 0.649209499
0.626059115 0.817204237 0.650980651
0.742061734 0.829980612 0.669069886
0.882479310 0.852498412 0.726628542
0.101961002 0.088931151 0.574572682
0.199873522 0.092473291 0.573687434
0.367868572 0.088805012 0.578621209
0.557242036 0.104237713 0.593295097
0.777356386 0.187349617 0.623023391
0.072612494 0.169386566 0.574572682
0.194054499 0.168753982 0.580265522
0.367742211 0.176850125 0.583175182
0.556989014 0.197469980 0.595698714
0.782669187 0.271726578 0.633017182
0.013915394 0.337002218 0.600126147
0.172169566 0.332321376 0.593927622
0.383427769 0.344845027 0.605945587
0.582036495 0.371030778 0.619354665
0.802023768 0.448324025 0.666792989
0.262112558 0.583554685 0.645793557
0.313978434 0.584946156 0.653004587
0.443137109 0.584566772 0.659456015
0.625933290 0.597596586 0.682605743
0.828336298 0.655408204 0.720176935
0.552435398 0.822896600 0.739025772
0.573687613 0.820999622 0.747374654
0.650980175 0.826691806 0.764073372
0.762049258 0.847817898 0.796078622
0.889310598 0.868690372 0.838709414
