Assets/Shaders/EldamarStudio/100 Sci-Fi LUTs Pack/LUTs/cube/Wimna LUT.cube
LUT_3D_SIZE 8
DOMAIN_MIN 0.000000 0.000000 0.000000
DOMAIN_MAX 0.903226 0.903226 0.903226
0.027450999 0.035294000 0.031373002
0.060721450 0.043136999 0.039974999
0.108918190 0.050980002 0.050980002
0.163693994 0.065021999 0.063883640
0.241999179 0.088424996 0.082985193
0.356103450 0.109676994 0.099936739
0.511954248 0.146362990 0.129411995
0.703984737 0.181909800 0.160910830
0.048576999 0.068184994 0.044655096
0.068564542 0.072106093 0.051359549
0.116761096 0.079569548 0.059962451
0.167615294 0.088931344 0.066540092
0.247058734 0.109297730 0.086274803
0.353067458 0.140290812 0.109803997
0.505249858 0.169512823 0.130044281
0.698292196 0.210878909 0.162934989
0.073624194 0.119924098 0.077672102
0.089310899 0.122200996 0.068564452
0.122200996 0.122200996 0.087792993
0.184440434 0.142188460 0.093231998
0.268564194 0.161290288 0.105755903
0.380518556 0.190638736 0.123339735
0.537507713 0.230993286 0.147248566
0.723465919 0.275521964 0.189753130
0.112713277 0.191777274 0.098671995
0.127514273 0.197343275 0.106514998
0.164832547 0.198861271 0.109297737
0.214168638 0.207463279 0.111574635
0.298671842 0.236812010 0.134471640
0.410373002 0.273244888 0.149272650
0.561416924 0.314610958 0.163820341
0.735863626 0.364326298 0.218722433
0.177103192 0.290322572 0.152688190
0.184187189 0.306514740 0.135610089
0.219987392 0.306894183 0.141809195
0.275901616 0.318659186 0.151170000
0.350664377 0.334345192 0.162934989
0.468058437 0.374193549 0.175078928
0.609993517 0.422643661 0.206578091
0.758380949 0.474130213 0.257305622
0.260467738 0.467805207 0.180519000
0.270588338 0.467045993 0.185578793
0.316888064 0.472485811 0.191903993
0.372549266 0.480328828 0.198735073
0.446552932 0.490069658 0.217963442
0.536242485 0.504870474 0.236685723
0.667425692 0.543832719 0.275268525
0.794939637 0.596204698 0.344971448
0.367235988 0.642631292 0.278304547
0.390891790 0.642757833 0.301075459
0.423402727 0.647564530 0.297786295
0.476660550 0.651486516 0.312586844
0.551929414 0.656799614 0.329032540
0.635041237 0.660720825 0.347754747
0.722707570 0.675648570 0.377609134
0.826312304 0.705629230 0.447438329
0.541808724 0.807083726 0.489563584
0.562681556 0.814547837 0.487033427
0.586590707 0.812270582 0.500695527
0.621884942 0.817457438 0.510183394
0.678810656 0.823908806 0.523339391
0.744591713 0.827830613 0.550411105
0.810373068 0.835420489 0.577229559
0.889436781 0.848956585 0.613788426
0.035673548 0.039595451 0.055281546
0.059203450 0.039595451 0.055281546
0.108159095 0.059962451 0.068943992
0.156230539 0.079569645 0.080328643
0.233649731 0.097533450 0.101454541
0.342821181 0.125236988 0.123213001
0.498925000 0.151676252 0.142947555
0.695129275 0.184819683 0.180898279
0.059203450 0.068184994 0.051613092
0.075648546 0.068943992 0.070588000
0.113219544 0.081087641 0.072865099
0.160531297 0.097533450 0.085389093
0.235673368 0.119038187 0.104996897
0.348766536 0.140670359 0.122580536
0.501201808 0.171031028 0.149652004
0.682099998 0.213409245 0.180392116
0.085009545 0.116761193 0.075142190
0.105502546 0.121442094 0.092093542
0.123339549 0.125363901 0.092093542
0.184060991 0.141809002 0.104237899
0.263503850 0.162555441 0.119923994
0.367109448 0.189879835 0.133080184
0.523845971 0.229348570 0.157495290
0.713598728 0.279822916 0.198608354
0.123466350 0.187476635 0.114737637
0.132321194 0.193421990 0.114358090
0.165212080 0.194560543 0.124225445
0.211005643 0.207463279 0.130423546
0.290322393 0.236052915 0.142188460
0.406072259 0.265528381 0.153067544
0.557621717 0.311827898 0.176850080
0.727513909 0.360278189 0.220113903
0.175964534 0.296267927 0.157622010
0.186717540 0.292726368 0.150537997
0.219607741 0.302593529 0.154712364
0.271220714 0.316002637 0.164199546
0.340038031 0.329158723 0.167235851
0.460721016 0.368627459 0.189879835
0.607463717 0.415686250 0.216698185
0.756862760 0.470208824 0.274256706
0.248197466 0.456799716 0.195699185
0.273118258 0.464136660 0.197596729
0.310183525 0.468058258 0.203542084
0.369006991 0.471094340 0.210879028
0.444655389 0.483744353 0.225300282
0.532700956 0.499430627 0.241745651
0.660088718 0.540290713 0.280328929
0.794054389 0.594560087 0.362049550
0.365085095 0.630613387 0.293232262
0.385325998 0.640101075 0.299304545
0.419481546 0.641998768 0.308791757
0.474762797 0.646299839 0.320935816
0.550031781 0.653383851 0.330423713
0.629854441 0.661986291 0.356988996
0.720809817 0.671473980 0.387096554
0.823402822 0.703099191 0.454395950
0.539532065 0.809740543 0.484250575
0.557748258 0.812270582 0.499051392
0.575205386 0.814800620 0.504743755
0.618342698 0.815433502 0.515116811
0.676660419 0.819734156 0.525869608
0.740417063 0.825932741 0.551549554
0.811385512 0.832258046 0.579759419
0.888171554 0.845034599 0.618595541
0.037571095 0.047059000 0.084630094
0.053257097 0.047817901 0.074383192
0.104237907 0.060341999 0.086906999
0.157494992 0.080708288 0.104617357
0.233396277 0.098671801 0.123845898
0.340417475 0.122580640 0.140290990
0.497659564 0.149652004 0.176217556
0.695888579 0.181150898 0.211385071
0.054395646 0.068943992 0.074383095
0.080328546 0.074383087 0.086148001
0.113219544 0.087792993 0.103478998
0.167235643 0.101074994 0.106894553
0.239595369 0.118658736 0.126881987
0.342821181 0.146868736 0.152055815
0.501581430 0.173940569 0.176597014
0.690702081 0.207337260 0.213282526
0.084630102 0.121442094 0.101075001
0.117267452 0.124605000 0.105756097
0.130044192 0.127640992 0.111195087
0.184061080 0.145730197 0.124984443
0.260847300 0.166097090 0.141049892
0.371410728 0.195825085 0.168121442
0.521189332 0.231751978 0.184061006
0.707273841 0.275142282 0.229474783
0.121821545 0.190259188 0.136243090
0.141429648 0.187476546 0.138266638
0.172295988 0.197722629 0.140164182
0.214548096 0.207083821 0.150031641
0.295129389 0.230486825 0.159392640
0.403795272 0.265781015 0.176596731
0.550537288 0.310056984 0.203415468
0.725616395 0.361922801 0.261353642
0.171410188 0.293738067 0.163820192
0.192156836 0.297533214 0.176596731
0.223150104 0.302214086 0.181024984
0.274003983 0.310815960 0.180518627
0.342947274 0.325616360 0.188741088
0.458697140 0.367109269 0.211005628
0.602023959 0.414927185 0.245793894
0.758760273 0.469576240 0.308538973
0.257178843 0.459076792 0.220619977
0.271600246 0.462492257 0.220366925
0.311448365 0.466540366 0.230486721
0.369006991 0.471220464 0.237444818
0.443137288 0.481087923 0.248070970
0.535483599 0.499051183 0.268311381
0.657684863 0.538646340 0.312966436
0.790259361 0.591903687 0.384819716
0.361543357 0.636432528 0.320556372
0.382922202 0.637824297 0.319291830
0.422011465 0.639721572 0.329285175
0.476407200 0.643263996 0.341808647
0.542567730 0.650600553 0.359645635
0.625806510 0.660468280 0.385072947
0.716508269 0.675015569 0.412776828
0.822517514 0.707653046 0.478810638
0.547627687 0.803921282 0.503858030
0.551296055 0.812144518 0.511069059
0.580644667 0.808475614 0.521188915
0.622011483 0.811764836 0.524351299
0.679443538 0.817457438 0.538899481
0.735230684 0.823149741 0.561163664
0.812903345 0.832890153 0.592662692
0.890195847 0.844275713 0.626438558
0.056040641 0.045413997 0.122200996
0.072106093 0.056420092 0.116761193
0.107400000 0.068184905 0.114357993
0.154712349 0.084629998 0.124984346
0.237697631 0.104996994 0.160910845
0.340417475 0.117647000 0.184819996
0.495256543 0.128905639 0.210246637
0.689689815 0.166730165 0.252118975
0.066919640 0.080708191 0.116381735
0.083871000 0.083364740 0.106894448
0.113219544 0.092093542 0.122960091
0.166097298 0.102593184 0.141809091
0.239595279 0.125363991 0.161416993
0.343200535 0.140290812 0.178114906
0.504743516 0.162555352 0.212144285
0.692346513 0.198355421 0.255407810
0.088172451 0.121442094 0.133586437
0.109677084 0.127261460 0.141302645
0.149272636 0.140291095 0.153573900
0.188361734 0.151170090 0.156230539
0.263883471 0.170778006 0.177862182
0.373687595 0.191904098 0.199620277
0.531435609 0.224414736 0.228715882
0.710815847 0.270461828 0.281340986
0.128905639 0.200126633 0.167615280
0.140923291 0.201644540 0.170778096
0.174952745 0.211891636 0.177735284
0.227071285 0.216445640 0.183301985
0.304111630 0.234029263 0.200379267
0.403289109 0.272106528 0.216445535
0.555217922 0.308412284 0.248956293
0.730676711 0.358886808 0.305882454
0.176976383 0.299810410 0.201391384
0.195445836 0.303352654 0.211511999
0.230739832 0.310057163 0.209867179
0.283491373 0.317900181 0.220493644
0.354332715 0.332320899 0.228336543
0.467804909 0.370651752 0.253636986
0.604807138 0.416571736 0.290448993
0.753699958 0.469196975 0.352941155
0.255660832 0.458064467 0.264263093
0.274004072 0.462745458 0.269323289
0.314737171 0.466160715 0.272865623
0.374699742 0.474762827 0.282606006
0.447817445 0.483871162 0.290449172
0.540164471 0.504996419 0.315875739
0.659582257 0.541429281 0.351296395
0.790512323 0.593801379 0.426691681
0.361796170 0.635167539 0.366350174
0.383934081 0.637318432 0.368121117
0.414800644 0.637697816 0.368880212
0.474383265 0.643643558 0.380265564
0.549146056 0.651107013 0.400632530
0.627071679 0.661733329 0.418469340
0.722074509 0.676154196 0.448703200
0.823023260 0.708791733 0.512080848
0.542061806 0.807083726 0.532194614
0.545856833 0.805439115 0.531056285
0.574825943 0.809993625 0.541429281
0.615686238 0.813409209 0.550411165
0.670841098 0.816192567 0.567109585
0.739531875 0.822390676 0.587349772
0.809993565 0.833775759 0.615180194
0.888298392 0.847817957 0.646299779
0.060341805 0.061859995 0.162049383
0.077166349 0.068564348 0.158254191
0.114357993 0.073624186 0.167741999
0.164452985 0.091714188 0.169512838
0.236558989 0.104996994 0.194940194
0.350158215 0.122960180 0.229854539
0.505502701 0.132447809 0.271600187
0.696267903 0.163820311 0.323592812
0.080202639 0.091967344 0.156862736
0.097406536 0.097533450 0.173308000
0.123719186 0.103478901 0.168374196
0.167615190 0.114484094 0.174699292
0.238456741 0.124225348 0.191018194
0.349146068 0.142947644 0.230993181
0.507653236 0.153826833 0.274383515
0.694750011 0.187729344 0.321062684
0.108918190 0.137761086 0.179506987
0.115749277 0.140543744 0.181277633
0.150411084 0.149652198 0.188867807
0.195825189 0.153573796 0.196710989
0.264642358 0.173181191 0.215307087
0.377988577 0.189500287 0.246173441
0.535230637 0.214674294 0.288931072
0.714863658 0.265148640 0.339405209
0.135989740 0.200379267 0.209108278
0.155597642 0.203542084 0.206324920
0.190006554 0.219607636 0.219228283
0.242631167 0.234914273 0.233143464
0.315117031 0.240227371 0.247311980
0.420493186 0.270461857 0.268058121
0.565844536 0.305755824 0.308665544
0.731182456 0.355597883 0.365844190
0.178620994 0.309930176 0.253763199
0.196458176 0.316761553 0.268058181
0.236559182 0.322580576 0.270209044
0.292093366 0.329158723 0.272106588
0.373561174 0.346742362 0.286653996
0.473624289 0.375458807 0.311575174
0.610752583 0.416571468 0.351549566
0.763187945 0.468564212 0.412523746
0.258443981 0.465527982 0.322580457
0.277545929 0.468943566 0.322074831
0.317014277 0.469702452 0.328399718
0.371031255 0.477925003 0.334597915
0.447437912 0.489310473 0.346362919
0.542188168 0.507400274 0.364326209
0.665654540 0.546109974 0.410499901
0.795192957 0.595066547 0.475268781
0.369513273 0.636559486 0.420240462
0.384313554 0.640480638 0.421125919
0.418848753 0.642125368 0.426438719
0.468184561 0.647311866 0.432005465
0.542567730 0.656293333 0.448323637
0.627577245 0.660847723 0.462745219
0.718658984 0.681214273 0.496900648
0.831625760 0.714104831 0.554079413
0.519417763 0.807336748 0.565844357
0.537254989 0.808728755 0.569639266
0.562049448 0.811258614 0.574319661
0.605819046 0.814547837 0.584946156
0.662997782 0.817710400 0.598608375
0.733965635 0.824035585 0.615180373
0.806704462 0.836812079 0.641998410
0.882858574 0.847438395 0.667805433
0.078558005 0.078304999 0.230992988
0.099051446 0.080708288 0.229348272
0.145224646 0.087665990 0.236811727
0.188614994 0.095256351 0.233902365
0.249462441 0.112080805 0.245035172
0.350158215 0.127387732 0.275774717
0.510563016 0.133332998 0.332574278
0.697406590 0.166856691 0.399873435
0.100316189 0.105502740 0.223276526
0.105376348 0.105755799 0.231878728
0.144971207 0.110815540 0.234029278
0.192156628 0.120683186 0.242757991
0.248323813 0.130803183 0.250980526
0.354838729 0.149652004 0.290322483
0.515243292 0.159013107 0.340037733
0.699051261 0.192662790 0.400505543
0.115369730 0.152435362 0.245667458
0.131941631 0.157115549 0.246426359
0.164073348 0.156989351 0.248070970
0.214168534 0.163314462 0.258317381
0.274763167 0.175078928 0.262618631
0.386970222 0.191018194 0.302846462
0.538013816 0.216571733 0.353700250
0.719544411 0.267805010 0.419607878
0.146109834 0.216065899 0.274256706
0.157874539 0.219987184 0.270334929
0.194181085 0.223782375 0.278051734
0.248576730 0.233649626 0.290828705
0.325110644 0.245793983 0.302719384
0.432764381 0.276786625 0.339658439
0.573307991 0.304870635 0.377862364
0.731941521 0.363693833 0.436812103
0.190385997 0.313472450 0.320682734
0.196963936 0.321189016 0.323972285
0.242757991 0.332194746 0.328272998
0.316002607 0.355091840 0.353447020
0.399241179 0.365591168 0.361543357
0.495762020 0.386590451 0.385705441
0.623655796 0.421884745 0.427324682
0.765970767 0.473118097 0.485009730
0.254648983 0.475521743 0.393421710
0.279063910 0.474383444 0.395192474
0.321821481 0.486148059 0.408222824
0.386843443 0.493232459 0.413156450
0.463124901 0.500695884 0.422137916
0.550031722 0.518659174 0.444149196
0.669322968 0.549272895 0.475015551
0.795698702 0.594180644 0.533586502
0.382163286 0.633523226 0.489943266
0.388614744 0.641619265 0.483997375
0.426438838 0.644023001 0.493738353
0.474256665 0.648703218 0.504870355
0.540543973 0.656672835 0.510309577
0.623402774 0.668311357 0.524351597
0.720050752 0.678937554 0.550790727
0.828842342 0.719670951 0.607336879
0.537001848 0.804553926 0.626185596
0.551170170 0.804174781 0.619607866
0.566097319 0.808348954 0.626691937
0.597849488 0.811764896 0.629475057
0.649336040 0.819608033 0.633143783
0.721062481 0.825932860 0.650600851
0.805818915 0.839215994 0.676786602
0.884250641 0.849462330 0.716508448
0.094749995 0.086906999 0.361290544
0.120177023 0.090575546 0.359645844
0.169766098 0.095003001 0.362049460
0.239468560 0.101960711 0.366350174
0.318279684 0.112966090 0.370651335
0.396331280 0.121441990 0.378747374
0.537381232 0.131056294 0.427956551
0.701328576 0.170525253 0.478304923
0.100189701 0.115749568 0.347880840
0.123339541 0.118785545 0.353447556
0.170651093 0.122707449 0.359013259
0.241239816 0.126628548 0.362808347
0.313219428 0.135989740 0.371536553
0.398228586 0.145857006 0.378874272
0.543327093 0.155091986 0.427071333
0.709551036 0.196331352 0.482605815
0.111321807 0.164452806 0.360278249
0.135863453 0.169892281 0.372675061
0.189500198 0.169006795 0.365085244
0.252751261 0.176217571 0.376597017
0.335610360 0.185705289 0.387223363
0.419354647 0.193422005 0.399493992
0.567235708 0.222390994 0.449209273
0.725363791 0.270588368 0.497027159
0.122074649 0.244528636 0.383048892
0.148134008 0.240606919 0.386337638
0.198988006 0.248956278 0.393042386
0.274762958 0.252371907 0.398228854
0.358254164 0.263377815 0.409867346
0.458443731 0.276786804 0.428715914
0.596204817 0.309045255 0.470082253
0.735989749 0.364199817 0.520176888
0.164705798 0.355218172 0.421505451
0.187476099 0.351296574 0.430360466
0.238203704 0.357621551 0.434914529
0.307906151 0.363187671 0.442125440
0.404048383 0.374193549 0.461100727
0.512333930 0.389879674 0.472232968
0.639721751 0.429601640 0.511068642
0.764832377 0.487919211 0.563061059
0.243769705 0.490702480 0.485262543
0.263883561 0.495509267 0.490955174
0.309298068 0.500948608 0.496774435
0.382542759 0.510436356 0.507906377
0.482732654 0.533206701 0.532574236
0.573561192 0.545603752 0.545224249
0.682858825 0.571536779 0.569892287
0.797343314 0.609740853 0.623023331
0.385199279 0.644908547 0.560657561
0.394307286 0.647564590 0.558001578
0.429728180 0.651486576 0.564326346
0.487792552 0.657052219 0.583175242
0.556609452 0.671853542 0.594939768
0.629601538 0.676660299 0.604680598
0.725996554 0.695256591 0.630866826
0.833396316 0.721062422 0.668058395
0.548639834 0.800885141 0.682352901
0.562428892 0.805565774 0.677925587
0.583301425 0.807210624 0.685262203
0.620367050 0.811005771 0.695635557
0.666033804 0.820746601 0.706894517
0.721948266 0.825300574 0.710689187
0.791524053 0.839975059 0.731436074
0.886906743 0.856040597 0.765844285
0.101961002 0.088931151 0.574572682
0.150031835 0.090195999 0.573307514
0.223149985 0.094244011 0.577988625
0.318279624 0.091461167 0.575711310
0.421884954 0.095635802 0.582922399
0.526375353 0.101707853 0.590006411
0.636559069 0.125363901 0.592915535
0.777356386 0.187349617 0.623023391
0.092979319 0.122201279 0.569639325
0.139025822 0.124731295 0.569766045
0.220240533 0.123086900 0.568880439
0.317899883 0.125869751 0.571536601
0.417710334 0.129791349 0.577229559
0.521442235 0.138393447 0.580139160
0.634408593 0.154206380 0.594054282
0.767109334 0.215939164 0.620240450
0.059203207 0.187097088 0.572042704
0.128779009 0.183934078 0.575458586
0.215306997 0.185199350 0.586337388
0.315496355 0.192409843 0.580265820
0.423529208 0.200506091 0.583428144
0.533206701 0.214168444 0.598481715
0.647564828 0.232890725 0.600379109
0.784946382 0.293232054 0.637318432
0.010120373 0.273877263 0.583428264
0.083111860 0.279063731 0.584566593
0.200252935 0.279822618 0.586211205
0.314864099 0.287160069 0.592409670
0.427197754 0.294244289 0.593548238
0.541429400 0.305629611 0.599999845
0.658823669 0.327008367 0.611638069
0.784819543 0.387096405 0.644908369
0.063757531 0.398608387 0.607336760
0.120556787 0.404807091 0.604174435
0.203668684 0.397217005 0.605186403
0.316761613 0.398355365 0.608222425
0.438710004 0.405059993 0.613915265
0.556989312 0.426059395 0.625173688
0.676787019 0.444907993 0.632384539
0.802529812 0.500442803 0.672232807
0.221378803 0.546616137 0.637444377
0.249335825 0.545224130 0.643643141
0.304111630 0.549019396 0.639595151
0.380645186 0.546362996 0.646805882
0.469829082 0.548007667 0.648956299
0.582922280 0.560657561 0.664895296
0.704111218 0.580139160 0.679569900
0.818722486 0.625047386 0.710056603
0.367109388 0.688424766 0.678810596
0.381783545 0.688424766 0.678052068
0.415053904 0.690195739 0.679696441
0.483364880 0.691840410 0.694243908
0.555597901 0.696141601 0.698671937
0.644149065 0.705376029 0.715243340
0.743200481 0.718153000 0.739405334
0.843264103 0.748513520 0.762176037
0.552435398 0.822896600 0.739025772
0.567235708 0.822137594 0.750031650
0.584060431 0.822770476 0.749145627
0.626059592 0.825679958 0.758633733
0.675901473 0.829095244 0.771663249
0.742567718 0.843516588 0.789247453
0.806957483 0.849841833 0.808222592
0.889310598 0.868690372 0.838709414
